/* XPM */
static char * wall2_xpm[] = {
"384 198 11674 3",
"   	c #A98150",
".  	c #AA8455",
"+  	c #AC8659",
"@  	c #A98356",
"#  	c #A67F54",
"$  	c #A37C51",
"%  	c #A47A50",
"&  	c #A37A4E",
"*  	c #A57C4E",
"=  	c #A67D4F",
"-  	c #A98052",
";  	c #AB8254",
">  	c #9C7649",
",  	c #A17B4E",
"'  	c #A47E4F",
")  	c #A77F4E",
"!  	c #A67E4D",
"~  	c #A47B4D",
"{  	c #AB7F52",
"]  	c #AD8154",
"^  	c #AF8356",
"/  	c #B08558",
"(  	c #AB8053",
"_  	c #A57A4F",
":  	c #A0754B",
"<  	c #9C7049",
"[  	c #9D7551",
"}  	c #9A6F4C",
"|  	c #966B48",
"1  	c #976C4A",
"2  	c #976C4C",
"3  	c #9A7151",
"4  	c #A07759",
"5  	c #A07E62",
"6  	c #957357",
"7  	c #977456",
"8  	c #977454",
"9  	c #947050",
"0  	c #906C4A",
"a  	c #936F4D",
"b  	c #9B7755",
"c  	c #A37858",
"d  	c #A67B5B",
"e  	c #A27959",
"f  	c #A2795B",
"g  	c #A57C5E",
"h  	c #A27B5C",
"i  	c #A37C5D",
"j  	c #A47D5E",
"k  	c #A68262",
"l  	c #9B7757",
"m  	c #957151",
"n  	c #997555",
"o  	c #9B7956",
"p  	c #9C7A57",
"q  	c #9F7954",
"r  	c #9F7D5A",
"s  	c #967353",
"t  	c #9E7B5B",
"u  	c #A27E5A",
"v  	c #9D7750",
"w  	c #97714A",
"x  	c #97744C",
"y  	c #9D734B",
"z  	c #997249",
"A  	c #987347",
"B  	c #9D774A",
"C  	c #9E7849",
"D  	c #99764E",
"E  	c #84623D",
"F  	c #99724B",
"G  	c #9C754E",
"H  	c #9C724A",
"I  	c #9F754D",
"J  	c #9E744C",
"K  	c #9A734A",
"L  	c #977049",
"M  	c #9D7049",
"N  	c #A47750",
"O  	c #A4794F",
"P  	c #AA7E57",
"Q  	c #A77D57",
"R  	c #AD825F",
"S  	c #AF8461",
"T  	c #B18761",
"U  	c #AA7E59",
"V  	c #AE8360",
"W  	c #AF8462",
"X  	c #AC8363",
"Y  	c #AB8262",
"Z  	c #A87F61",
"`  	c #AB7F62",
" . 	c #B18666",
".. 	c #AF855F",
"+. 	c #B28860",
"@. 	c #B88D63",
"#. 	c #B5885E",
"$. 	c #B98A5C",
"%. 	c #B7885A",
"&. 	c #B58658",
"*. 	c #B58756",
"=. 	c #B88A59",
"-. 	c #BA8C5A",
";. 	c #B58A57",
">. 	c #B68A59",
",. 	c #B38758",
"'. 	c #B28452",
"). 	c #AD8756",
"!. 	c #AE8857",
"~. 	c #AC8655",
"{. 	c #AA8453",
"]. 	c #AB8659",
"^. 	c #A98458",
"/. 	c #A98257",
"(. 	c #AA8358",
"_. 	c #A78152",
":. 	c #A98354",
"<. 	c #A78154",
"[. 	c #A68053",
"}. 	c #A68051",
"|. 	c #A37D50",
"1. 	c #A47D52",
"2. 	c #977047",
"3. 	c #A78057",
"4. 	c #A97D4E",
"5. 	c #AD8152",
"6. 	c #B18556",
"7. 	c #B18757",
"8. 	c #B38959",
"9. 	c #B58A5D",
"0. 	c #B68B60",
"a. 	c #B88B62",
"b. 	c #B68C64",
"c. 	c #B58E67",
"d. 	c #B28862",
"e. 	c #B98E64",
"f. 	c #BB8E64",
"g. 	c #BB8F62",
"h. 	c #BD9265",
"i. 	c #BC8F65",
"j. 	c #BE9167",
"k. 	c #BA8D64",
"l. 	c #BD9067",
"m. 	c #BE916A",
"n. 	c #C2966F",
"o. 	c #BA8E69",
"p. 	c #9F7A4E",
"q. 	c #A37E52",
"r. 	c #9F784D",
"s. 	c #9C754A",
"t. 	c #9D764D",
"u. 	c #9B744B",
"v. 	c #9D764F",
"w. 	c #9B754E",
"x. 	c #9D7752",
"y. 	c #A17B56",
"z. 	c #A37C55",
"A. 	c #9F784F",
"B. 	c #A17A53",
"C. 	c #A07952",
"D. 	c #9E7750",
"E. 	c #9F7851",
"F. 	c #9C7554",
"G. 	c #8F6847",
"H. 	c #997251",
"I. 	c #9B7252",
"J. 	c #9C7353",
"K. 	c #997050",
"L. 	c #9C7451",
"M. 	c #A07855",
"N. 	c #9F7955",
"O. 	c #9C7652",
"P. 	c #9D7753",
"Q. 	c #97714D",
"R. 	c #98724E",
"S. 	c #9A7652",
"T. 	c #98754F",
"U. 	c #99734E",
"V. 	c #99734C",
"W. 	c #98724B",
"X. 	c #94714B",
"Y. 	c #987450",
"Z. 	c #9B7954",
"`. 	c #977552",
" + 	c #92704D",
".+ 	c #957350",
"++ 	c #95714D",
"@+ 	c #96734D",
"#+ 	c #9B7548",
"$+ 	c #9F794C",
"%+ 	c #956E43",
"&+ 	c #90693E",
"*+ 	c #936E44",
"=+ 	c #9A7751",
"-+ 	c #95734D",
";+ 	c #9C7953",
">+ 	c #997650",
",+ 	c #9F7656",
"'+ 	c #9F7754",
")+ 	c #9B7550",
"!+ 	c #A27C57",
"~+ 	c #A47E59",
"{+ 	c #A67F58",
"]+ 	c #A47D56",
"^+ 	c #A47C58",
"/+ 	c #A67E5A",
"(+ 	c #A57D59",
"_+ 	c #A37B57",
":+ 	c #A27A56",
"<+ 	c #A37D58",
"[+ 	c #A57F58",
"}+ 	c #A37D56",
"|+ 	c #9E7853",
"1+ 	c #96724E",
"2+ 	c #96704B",
"3+ 	c #9A744F",
"4+ 	c #98724D",
"5+ 	c #997551",
"6+ 	c #97744E",
"7+ 	c #A27B52",
"8+ 	c #A67D51",
"9+ 	c #AB7C50",
"0+ 	c #AC7D4F",
"a+ 	c #AD7E50",
"b+ 	c #B08153",
"c+ 	c #B28355",
"d+ 	c #B48557",
"e+ 	c #B28752",
"f+ 	c #AB804D",
"g+ 	c #BB905D",
"h+ 	c #C09664",
"i+ 	c #BE9462",
"j+ 	c #BE9360",
"k+ 	c #B58A55",
"l+ 	c #B98A60",
"m+ 	c #B7885E",
"n+ 	c #B5885F",
"o+ 	c #B2855C",
"p+ 	c #A37752",
"q+ 	c #A27653",
"r+ 	c #9E7351",
"s+ 	c #9C7151",
"t+ 	c #97704F",
"u+ 	c #987150",
"v+ 	c #9A7450",
"w+ 	c #99734F",
"x+ 	c #9B7551",
"y+ 	c #9D7655",
"z+ 	c #9D7657",
"A+ 	c #9B7254",
"B+ 	c #966D4F",
"C+ 	c #986F51",
"D+ 	c #9C7355",
"E+ 	c #9E7557",
"F+ 	c #9A7656",
"G+ 	c #987454",
"H+ 	c #977353",
"I+ 	c #967252",
"J+ 	c #9B7659",
"K+ 	c #916C4F",
"L+ 	c #926C47",
"M+ 	c #97714C",
"N+ 	c #956F48",
"O+ 	c #967049",
"P+ 	c #977248",
"Q+ 	c #957046",
"R+ 	c #967147",
"S+ 	c #936D48",
"T+ 	c #93704A",
"U+ 	c #926F49",
"V+ 	c #9B744D",
"W+ 	c #966F48",
"X+ 	c #956E47",
"Y+ 	c #936C43",
"Z+ 	c #956E45",
"`+ 	c #996E4B",
" @ 	c #AC8157",
".@ 	c #A77A51",
"+@ 	c #A97C55",
"@@ 	c #A57954",
"#@ 	c #AA7F5C",
"$@ 	c #A97F59",
"%@ 	c #AA845D",
"&@ 	c #A8825B",
"*@ 	c #A7815C",
"=@ 	c #9C774D",
"-@ 	c #A07B51",
";@ 	c #A17C52",
">@ 	c #A47F55",
",@ 	c #9F7A50",
"'@ 	c #9E794F",
")@ 	c #9C754C",
"!@ 	c #9E774E",
"~@ 	c #A07A4D",
"{@ 	c #A57F50",
"]@ 	c #A27C4D",
"^@ 	c #A17B4C",
"/@ 	c #A47E51",
"(@ 	c #9F7648",
"_@ 	c #A0774B",
":@ 	c #E3B57A",
"<@ 	c #E3B579",
"[@ 	c #E4B67A",
"}@ 	c #E4B87B",
"|@ 	c #E6B97E",
"1@ 	c #CEA16A",
"2@ 	c #C2935B",
"3@ 	c #C0935C",
"4@ 	c #C29460",
"5@ 	c #B18351",
"6@ 	c #AE804E",
"7@ 	c #BB8D5B",
"8@ 	c #BC8C5B",
"9@ 	c #C2905F",
"0@ 	c #C0915B",
"a@ 	c #C2935D",
"b@ 	c #C4955F",
"c@ 	c #C59660",
"d@ 	c #C69761",
"e@ 	c #C89963",
"f@ 	c #CA9B65",
"g@ 	c #D1A26E",
"h@ 	c #C89965",
"i@ 	c #C4925D",
"j@ 	c #C3915C",
"k@ 	c #C89661",
"l@ 	c #CA9863",
"m@ 	c #C8975F",
"n@ 	c #CC9A65",
"o@ 	c #C69B64",
"p@ 	c #CCA16A",
"q@ 	c #CFA56B",
"r@ 	c #CDA26B",
"s@ 	c #C39861",
"t@ 	c #BB905B",
"u@ 	c #BF9461",
"v@ 	c #BB9161",
"w@ 	c #B78D5D",
"x@ 	c #B58B5B",
"y@ 	c #B88D60",
"z@ 	c #B98E61",
"A@ 	c #B88D62",
"B@ 	c #BB9266",
"C@ 	c #C0966C",
"D@ 	c #C29870",
"E@ 	c #C69C74",
"F@ 	c #BB9169",
"G@ 	c #BA8F65",
"H@ 	c #B3885D",
"I@ 	c #B98C62",
"J@ 	c #C1946A",
"K@ 	c #BF9469",
"L@ 	c #C59A6F",
"M@ 	c #C39A6E",
"N@ 	c #BD9468",
"O@ 	c #BF986D",
"P@ 	c #B99267",
"Q@ 	c #AD865B",
"R@ 	c #BB966C",
"S@ 	c #C4976D",
"T@ 	c #C3966C",
"U@ 	c #BA8E61",
"V@ 	c #C09467",
"W@ 	c #C69A6D",
"X@ 	c #C79B6E",
"Y@ 	c #CD9E70",
"Z@ 	c #CDA172",
"`@ 	c #D4A97C",
" # 	c #D7AB7E",
".# 	c #CD9F6E",
"+# 	c #C99968",
"@# 	c #C0925E",
"## 	c #C49662",
"$# 	c #C69763",
"%# 	c #C79965",
"&# 	c #C59763",
"*# 	c #C69962",
"=# 	c #C1945D",
"-# 	c #C29462",
";# 	c #C0956A",
"># 	c #916A43",
",# 	c #BE905C",
"'# 	c #C79862",
")# 	c #C99A64",
"!# 	c #CB9C66",
"~# 	c #CB9E67",
"{# 	c #CA9D64",
"]# 	c #C89E64",
"^# 	c #D8AF77",
"/# 	c #D8AF79",
"(# 	c #D7AC75",
"_# 	c #D1A76D",
":# 	c #CEA472",
"<# 	c #CBA16F",
"[# 	c #C49B6D",
"}# 	c #C29B70",
"|# 	c #C1976D",
"1# 	c #BF956B",
"2# 	c #BF9668",
"3# 	c #C99F6F",
"4# 	c #D5A978",
"5# 	c #D2A772",
"6# 	c #D9AC73",
"7# 	c #D8AB70",
"8# 	c #D6A86D",
"9# 	c #D3A569",
"0# 	c #D2A56A",
"a# 	c #D9AC71",
"b# 	c #DBAE75",
"c# 	c #E2B57C",
"d# 	c #DEB178",
"e# 	c #D5A66E",
"f# 	c #D6A76F",
"g# 	c #D3A46C",
"h# 	c #CE9F67",
"i# 	c #CD9E66",
"j# 	c #CC9D65",
"k# 	c #CA9B63",
"l# 	c #C99B67",
"m# 	c #C09260",
"n# 	c #C0905F",
"o# 	c #CB9C68",
"p# 	c #CB9C64",
"q# 	c #CC9D67",
"r# 	c #CFA06A",
"s# 	c #CD9E68",
"t# 	c #CD9E6A",
"u# 	c #C79766",
"v# 	c #C69960",
"w# 	c #C79A61",
"x# 	c #C79D61",
"y# 	c #C99F65",
"z# 	c #D0A76F",
"A# 	c #D2A973",
"B# 	c #CD9F6D",
"C# 	c #C49A68",
"D# 	c #C09867",
"E# 	c #BA9060",
"F# 	c #D0A572",
"G# 	c #D4A672",
"H# 	c #D5A871",
"I# 	c #D2A770",
"J# 	c #D3A66B",
"K# 	c #D5A86D",
"L# 	c #D6A970",
"M# 	c #D8AB72",
"N# 	c #DDB27B",
"O# 	c #E1B681",
"P# 	c #DCB17C",
"Q# 	c #D9AE79",
"R# 	c #D7A975",
"S# 	c #D3A571",
"T# 	c #CE9F6B",
"U# 	c #C89867",
"V# 	c #C59565",
"W# 	c #BE8F61",
"X# 	c #BE905F",
"Y# 	c #BB8D5C",
"Z# 	c #BA8E5F",
"`# 	c #AE8255",
" $ 	c #B7885C",
".$ 	c #BB8C5E",
"+$ 	c #BE905E",
"@$ 	c #BD8F5E",
"#$ 	c #BF9160",
"$$ 	c #C09261",
"%$ 	c #C6976B",
"&$ 	c #C29367",
"*$ 	c #BE8F63",
"=$ 	c #BD8E62",
"-$ 	c #BA8B5F",
";$ 	c #C09165",
">$ 	c #B78B5E",
",$ 	c #A87C4F",
"'$ 	c #B28659",
")$ 	c #BD9164",
"!$ 	c #BD8E60",
"~$ 	c #BC9061",
"{$ 	c #BF9364",
"]$ 	c #C19568",
"^$ 	c #C09568",
"/$ 	c #C29868",
"($ 	c #C59B6B",
"_$ 	c #CEA376",
":$ 	c #C89D70",
"<$ 	c #C3986B",
"[$ 	c #C29665",
"}$ 	c #C39766",
"|$ 	c #CE9F69",
"1$ 	c #C49561",
"2$ 	c #BB8C58",
"3$ 	c #BE9263",
"4$ 	c #B68A5D",
"5$ 	c #AF8459",
"6$ 	c #B5895C",
"7$ 	c #B68A5B",
"8$ 	c #B78B5C",
"9$ 	c #BA8B5D",
"0$ 	c #BF9062",
"a$ 	c #C99A66",
"b$ 	c #C59662",
"c$ 	c #D0A169",
"d$ 	c #D2A56C",
"e$ 	c #D0A16B",
"f$ 	c #CFA068",
"g$ 	c #B68856",
"h$ 	c #C79967",
"i$ 	c #CC9E6A",
"j$ 	c #CC9F68",
"k$ 	c #CA9D66",
"l$ 	c #CD9F6B",
"m$ 	c #D9AA72",
"n$ 	c #D1A065",
"o$ 	c #D3A164",
"p$ 	c #C9985E",
"q$ 	c #CD9C62",
"r$ 	c #CF9E63",
"s$ 	c #D09F64",
"t$ 	c #D2A166",
"u$ 	c #D4A368",
"v$ 	c #D5A469",
"w$ 	c #D7A66B",
"x$ 	c #C99C65",
"y$ 	c #D8AB74",
"z$ 	c #DAAF7A",
"A$ 	c #DCAF78",
"B$ 	c #D9AB70",
"C$ 	c #DBAE73",
"D$ 	c #D7AD71",
"E$ 	c #D1A76B",
"F$ 	c #D5AD70",
"G$ 	c #D7AF74",
"H$ 	c #CFA76C",
"I$ 	c #C99B69",
"J$ 	c #CA9C68",
"K$ 	c #C89A66",
"L$ 	c #CB9D69",
"M$ 	c #C79F6C",
"N$ 	c #BC9461",
"O$ 	c #B68C5A",
"P$ 	c #BF9563",
"Q$ 	c #C29866",
"R$ 	c #C19765",
"S$ 	c #C69A69",
"T$ 	c #C49867",
"U$ 	c #C49966",
"V$ 	c #C89D6A",
"W$ 	c #CCA06F",
"X$ 	c #CEA271",
"Y$ 	c #C69769",
"Z$ 	c #C8996B",
"`$ 	c #C49665",
" % 	c #C29463",
".% 	c #C19362",
"+% 	c #BA8E5D",
"@% 	c #B88C5D",
"#% 	c #A0754A",
"$% 	c #BD9162",
"%% 	c #BC8E5D",
"&% 	c #BB8B5D",
"*% 	c #BD8D5F",
"=% 	c #BE8E60",
"-% 	c #C09060",
";% 	c #C29262",
">% 	c #C19161",
",% 	c #C69666",
"'% 	c #CFA46F",
")% 	c #D2A86E",
"!% 	c #CBA165",
"~% 	c #C89E62",
"{% 	c #CA9F68",
"]% 	c #C9A068",
"^% 	c #C69D65",
"/% 	c #CA9C6A",
"(% 	c #C89A69",
"_% 	c #C39564",
":% 	c #C49567",
"<% 	c #C39466",
"[% 	c #C69866",
"}% 	c #C89A68",
"|% 	c #CA9A69",
"1% 	c #CFA06C",
"2% 	c #D2A469",
"3% 	c #D0A267",
"4% 	c #CEA065",
"5% 	c #CE9D65",
"6% 	c #B48C5B",
"7% 	c #B58D5A",
"8% 	c #B69061",
"9% 	c #CEA166",
"0% 	c #CFA267",
"a% 	c #D5AB71",
"b% 	c #C29760",
"c% 	c #C0955E",
"d% 	c #D2A56E",
"e% 	c #D1A368",
"f% 	c #D0A368",
"g% 	c #DCAE73",
"h% 	c #D4A66B",
"i% 	c #CF9E64",
"j% 	c #D1A066",
"k% 	c #CD9F63",
"l% 	c #D2A468",
"m% 	c #D6A56A",
"n% 	c #D3A268",
"o% 	c #D4A369",
"p% 	c #C89A5F",
"q% 	c #C8975D",
"r% 	c #C7965E",
"s% 	c #C5965E",
"t% 	c #C3945E",
"u% 	c #C3965F",
"v% 	c #C49760",
"w% 	c #C59C66",
"x% 	c #D6AD77",
"y% 	c #CAA16D",
"z% 	c #C59C68",
"A% 	c #C69D69",
"B% 	c #C39A64",
"C% 	c #C79E68",
"D% 	c #C9A06A",
"E% 	c #CDA069",
"F% 	c #CBA06B",
"G% 	c #C39865",
"H% 	c #B38855",
"I% 	c #CFA372",
"J% 	c #C59A63",
"K% 	c #CBA069",
"L% 	c #C49962",
"M% 	c #BE935C",
"N% 	c #C3995F",
"O% 	c #CAA066",
"P% 	c #CCA16C",
"Q% 	c #CA9F6A",
"R% 	c #CB9D62",
"S% 	c #C89B60",
"T% 	c #C69B66",
"U% 	c #C59B71",
"V% 	c #976F4C",
"W% 	c #CC9D69",
"X% 	c #D2A470",
"Y% 	c #D6A270",
"Z% 	c #D7A570",
"`% 	c #D6A46F",
" & 	c #D1A26C",
".& 	c #D6A773",
"+& 	c #DBAB7A",
"@& 	c #DFB07C",
"#& 	c #DBAC76",
"$& 	c #D8AF7B",
"%& 	c #D3A977",
"&& 	c #CDA574",
"*& 	c #CCA377",
"=& 	c #CBA479",
"-& 	c #C8A176",
";& 	c #C99F75",
">& 	c #CAA076",
",& 	c #C79C71",
"'& 	c #D3A87B",
")& 	c #DDB182",
"!& 	c #DAAF7C",
"~& 	c #DDB079",
"{& 	c #DCAF76",
"]& 	c #DCAF74",
"^& 	c #E0B37A",
"/& 	c #DEB17A",
"(& 	c #DCB17A",
"_& 	c #E3B881",
":& 	c #DEB07C",
"<& 	c #D9AB77",
"[& 	c #DAAB75",
"}& 	c #D6A771",
"|& 	c #D2A36D",
"1& 	c #C2955E",
"2& 	c #D3A66D",
"3& 	c #D6A86C",
"4& 	c #D7A96E",
"5& 	c #D9AB6F",
"6& 	c #D3A56A",
"7& 	c #DAAC71",
"8& 	c #CFA166",
"9& 	c #D09F67",
"0& 	c #CF9E66",
"a& 	c #D2A36B",
"b& 	c #D7A872",
"c& 	c #D7A874",
"d& 	c #D5A775",
"e& 	c #CDA170",
"f& 	c #C8A06F",
"g& 	c #DCAE7A",
"h& 	c #D9AC75",
"i& 	c #DAAD76",
"j& 	c #D8AD76",
"k& 	c #E2B983",
"l& 	c #E1B97E",
"m& 	c #DDB377",
"n& 	c #D9AF73",
"o& 	c #CB9E65",
"p& 	c #C79C65",
"q& 	c #C59A65",
"r& 	c #AF8451",
"s& 	c #C89B64",
"t& 	c #C99C63",
"u& 	c #CC9F66",
"v& 	c #C79A5F",
"w& 	c #C89B62",
"x& 	c #C1975D",
"y& 	c #B0854E",
"z& 	c #B99058",
"A& 	c #C39A62",
"B& 	c #C39561",
"C& 	c #C29764",
"D& 	c #C69C6A",
"E& 	c #C79D6B",
"F& 	c #C9A166",
"G& 	c #D3AB70",
"H& 	c #CAA267",
"I& 	c #CCA469",
"J& 	c #CBA368",
"K& 	c #CEA168",
"L& 	c #C09562",
"M& 	c #B48A58",
"N& 	c #B38957",
"O& 	c #CA9F6C",
"P& 	c #C79C67",
"Q& 	c #C89D68",
"R& 	c #CEA06C",
"S& 	c #CA9C61",
"T& 	c #D1A367",
"U& 	c #CFA165",
"V& 	c #CEA064",
"W& 	c #B98B57",
"X& 	c #CDA067",
"Y& 	c #D0A467",
"Z& 	c #D3A76A",
"`& 	c #D1A568",
" * 	c #CDA065",
".* 	c #CD9F64",
"+* 	c #D09F65",
"@* 	c #D4A869",
"#* 	c #CD9F61",
"$* 	c #D0A062",
"%* 	c #D0A266",
"&* 	c #D5A76C",
"** 	c #CFA269",
"=* 	c #DEB37C",
"-* 	c #E2B780",
";* 	c #DFB27B",
">* 	c #D7AA71",
",* 	c #DBAC74",
"'* 	c #E2B37B",
")* 	c #D8AE74",
"!* 	c #CEA46A",
"~* 	c #D3A96F",
"{* 	c #DAB076",
"]* 	c #D0A66C",
"^* 	c #CEA06E",
"/* 	c #CC9E6C",
"(* 	c #CB9D6B",
"_* 	c #CDA26F",
":* 	c #D0A16D",
"<* 	c #C2935F",
"[* 	c #CD9B66",
"}* 	c #C99762",
"|* 	c #D1A46B",
"1* 	c #DBAE77",
"2* 	c #C69864",
"3* 	c #C69D67",
"4* 	c #BC9262",
"5* 	c #9B7141",
"6* 	c #C49B65",
"7* 	c #C59861",
"8* 	c #D0A36C",
"9* 	c #D8A76F",
"0* 	c #DAA96F",
"a* 	c #D7A66C",
"b* 	c #D2A667",
"c* 	c #CFA366",
"d* 	c #D1A469",
"e* 	c #C2955C",
"f* 	c #D0A36A",
"g* 	c #D6A96E",
"h* 	c #D8AC6F",
"i* 	c #D0A465",
"j* 	c #D1A566",
"k* 	c #CDA164",
"l* 	c #D0A264",
"m* 	c #B88E5C",
"n* 	c #B9905C",
"o* 	c #BB925E",
"p* 	c #C39B68",
"q* 	c #BE9665",
"r* 	c #E2B176",
"s* 	c #DBAD72",
"t* 	c #DDAE76",
"u* 	c #DBAA70",
"v* 	c #DFAE73",
"w* 	c #DDAC72",
"x* 	c #DCAB71",
"y* 	c #DDAF74",
"z* 	c #E1B378",
"A* 	c #E1B377",
"B* 	c #E1B075",
"C* 	c #DDAC71",
"D* 	c #DEAE70",
"E* 	c #E1B173",
"F* 	c #DDAF71",
"G* 	c #DFB173",
"H* 	c #E2B476",
"I* 	c #DCAE70",
"J* 	c #DBAD71",
"K* 	c #D4A66A",
"L* 	c #D1A36F",
"M* 	c #D0A26E",
"N* 	c #CFA46D",
"O* 	c #C19661",
"P* 	c #C5985F",
"Q* 	c #C4975E",
"R* 	c #D1A66F",
"S* 	c #CE9C69",
"T* 	c #C79767",
"U* 	c #C39362",
"V* 	c #8F653F",
"W* 	c #B8885A",
"X* 	c #C59567",
"Y* 	c #D09D6E",
"Z* 	c #CB9968",
"`* 	c #C59362",
" = 	c #C89665",
".= 	c #CE9C6B",
"+= 	c #C99969",
"@= 	c #DCAE7C",
"#= 	c #DDAF7E",
"$= 	c #DEAF81",
"%= 	c #DBAD7C",
"&= 	c #D5AC78",
"*= 	c #D5AD7A",
"== 	c #D4AE7D",
"-= 	c #D1AB7C",
";= 	c #CFA97A",
">= 	c #D1AB7E",
",= 	c #D6AD81",
"'= 	c #CEA577",
")= 	c #DAB281",
"!= 	c #E1B785",
"~= 	c #E3BA86",
"{= 	c #E3BA84",
"]= 	c #DFB47F",
"^= 	c #E3B883",
"/= 	c #E1B882",
"(= 	c #E3B67D",
"_= 	c #E1B67F",
":= 	c #E0B57E",
"<= 	c #E1B880",
"[= 	c #E3BA82",
"}= 	c #E7BE88",
"|= 	c #E2B886",
"1= 	c #E4B67B",
"2= 	c #E0B277",
"3= 	c #DEB075",
"4= 	c #DFAE74",
"5= 	c #E0B17B",
"6= 	c #E1B27C",
"7= 	c #DFB175",
"8= 	c #E0B276",
"9= 	c #E4B379",
"0= 	c #E6B87C",
"a= 	c #E7B97D",
"b= 	c #DFB176",
"c= 	c #DCAD75",
"d= 	c #DDB075",
"e= 	c #E1B479",
"f= 	c #E3B67F",
"g= 	c #E2B57E",
"h= 	c #DDB47E",
"i= 	c #D8B07C",
"j= 	c #D0A874",
"k= 	c #DFB680",
"l= 	c #E4BA80",
"m= 	c #E2B87E",
"n= 	c #E1B77D",
"o= 	c #E5BC86",
"p= 	c #E9C28B",
"q= 	c #F0C894",
"r= 	c #EFC287",
"s= 	c #ECBF84",
"t= 	c #E9BD80",
"u= 	c #DEB074",
"v= 	c #DAA971",
"w= 	c #D9A870",
"x= 	c #D1A46D",
"y= 	c #BB8E57",
"z= 	c #D9A86E",
"A= 	c #D3A267",
"B= 	c #D9A86D",
"C= 	c #D8A76C",
"D= 	c #DFAF71",
"E= 	c #DCAC6E",
"F= 	c #D6A56B",
"G= 	c #D4A36B",
"H= 	c #D3A26A",
"I= 	c #D7A66E",
"J= 	c #B78A53",
"K= 	c #BF925B",
"L= 	c #C59765",
"M= 	c #C79B6A",
"N= 	c #D6AB74",
"O= 	c #D0A56E",
"P= 	c #D3A873",
"Q= 	c #D4A976",
"R= 	c #C19564",
"S= 	c #B48857",
"T= 	c #D3A66F",
"U= 	c #D1A26A",
"V= 	c #D8A973",
"W= 	c #DFAD78",
"X= 	c #DDAB76",
"Y= 	c #D9A671",
"Z= 	c #D7A46D",
"`= 	c #D8A671",
" - 	c #DAA873",
".- 	c #DBA974",
"+- 	c #D9A772",
"@- 	c #D5A370",
"#- 	c #D6A471",
"$- 	c #D3A470",
"%- 	c #D3A16E",
"&- 	c #D4A26F",
"*- 	c #D4A770",
"=- 	c #CEA36C",
"-- 	c #CCA266",
";- 	c #CEA468",
">- 	c #D0A66A",
",- 	c #D3A96D",
"'- 	c #D4A974",
")- 	c #D8AD7A",
"!- 	c #DBB07B",
"~- 	c #D5A773",
"{- 	c #D8AA76",
"]- 	c #D4AB77",
"^- 	c #CAA26F",
"/- 	c #CDA572",
"(- 	c #D4AA78",
"_- 	c #CCA270",
":- 	c #C39B6A",
"<- 	c #BF9766",
"[- 	c #BE9867",
"}- 	c #BD9766",
"|- 	c #BF9968",
"1- 	c #CA9B67",
"2- 	c #D2A36F",
"3- 	c #DAAB77",
"4- 	c #D2A169",
"5- 	c #CFA26B",
"6- 	c #C19566",
"7- 	c #A67A4B",
"8- 	c #CF9D68",
"9- 	c #E3B480",
"0- 	c #E0B179",
"a- 	c #DEAF77",
"b- 	c #D7AA73",
"c- 	c #DAAD74",
"d- 	c #D8AA6E",
"e- 	c #D8AA6F",
"f- 	c #D8A971",
"g- 	c #D4A56D",
"h- 	c #D7A870",
"i- 	c #DAAB73",
"j- 	c #DFB279",
"k- 	c #DDB077",
"l- 	c #D3A365",
"m- 	c #D6AA6D",
"n- 	c #D2A86C",
"o- 	c #DCB276",
"p- 	c #DEB478",
"q- 	c #AF865A",
"r- 	c #AE875E",
"s- 	c #A88158",
"t- 	c #AA835A",
"u- 	c #B38C61",
"v- 	c #B1885C",
"w- 	c #B38A5C",
"x- 	c #B38A5E",
"y- 	c #B58C60",
"z- 	c #B68D61",
"A- 	c #B2895D",
"B- 	c #B48B5F",
"C- 	c #B18D5D",
"D- 	c #AC8858",
"E- 	c #AB8556",
"F- 	c #AD8758",
"G- 	c #AC8657",
"H- 	c #B08656",
"I- 	c #AF8555",
"J- 	c #AE8454",
"K- 	c #B28858",
"L- 	c #A47A4A",
"M- 	c #AC8154",
"N- 	c #A4794C",
"O- 	c #A2774D",
"P- 	c #9F744A",
"Q- 	c #9D7248",
"R- 	c #9C7248",
"S- 	c #9A7046",
"T- 	c #9D724F",
"U- 	c #9E7350",
"V- 	c #A17956",
"W- 	c #A37A5A",
"X- 	c #A17A5B",
"Y- 	c #A37C5B",
"Z- 	c #997052",
"`- 	c #90674B",
" ; 	c #9E7559",
".; 	c #A17D5D",
"+; 	c #9F7B5B",
"@; 	c #A07C5C",
"#; 	c #9B7453",
"$; 	c #9F7857",
"%; 	c #946E49",
"&; 	c #9E7653",
"*; 	c #996E4C",
"=; 	c #99714D",
"-; 	c #997247",
";; 	c #9B734F",
">; 	c #98714A",
",; 	c #9F764A",
"'; 	c #987245",
"); 	c #9A774F",
"!; 	c #977653",
"~; 	c #A0794E",
"{; 	c #A98054",
"]; 	c #A1784C",
"^; 	c #A07749",
"/; 	c #A2794B",
"(; 	c #A1764B",
"_; 	c #A77E50",
":; 	c #A57E53",
"<; 	c #AB8056",
"[; 	c #AB8159",
"}; 	c #AA835C",
"|; 	c #A8805C",
"1; 	c #A9815D",
"2; 	c #A78059",
"3; 	c #AE8760",
"4; 	c #AD865D",
"5; 	c #B48A62",
"6; 	c #AE845C",
"7; 	c #B38963",
"8; 	c #B98D60",
"9; 	c #B78C61",
"0; 	c #B58A60",
"a; 	c #B48A60",
"b; 	c #B0895E",
"c; 	c #AE875C",
"d; 	c #A8815A",
"e; 	c #A7815D",
"f; 	c #A8825E",
"g; 	c #A6805C",
"h; 	c #A47E5A",
"i; 	c #A37D59",
"j; 	c #A47C59",
"k; 	c #AC865F",
"l; 	c #AE8861",
"m; 	c #A47F53",
"n; 	c #A88255",
"o; 	c #AC855A",
"p; 	c #A88156",
"q; 	c #A78055",
"r; 	c #AA8153",
"s; 	c #AA8251",
"t; 	c #A88251",
"u; 	c #B08A5D",
"v; 	c #B2875A",
"w; 	c #B58F62",
"x; 	c #B38E62",
"y; 	c #AF885D",
"z; 	c #B58C5E",
"A; 	c #B88E5E",
"B; 	c #B28856",
"C; 	c #B18755",
"D; 	c #B18956",
"E; 	c #B38D5C",
"F; 	c #B58F5E",
"G; 	c #B49265",
"H; 	c #B69164",
"I; 	c #B48F62",
"J; 	c #A87F53",
"K; 	c #A77D53",
"L; 	c #A57F52",
"M; 	c #A78256",
"N; 	c #926D43",
"O; 	c #A77E52",
"P; 	c #A57B4B",
"Q; 	c #A8804F",
"R; 	c #AB8352",
"S; 	c #AF8756",
"T; 	c #A57B51",
"U; 	c #A47A52",
"V; 	c #A67C56",
"W; 	c #A67B58",
"X; 	c #A37855",
"Y; 	c #A17751",
"Z; 	c #A47855",
"`; 	c #A17653",
" > 	c #A57A58",
".> 	c #A37B58",
"+> 	c #946C49",
"@> 	c #A07A55",
"#> 	c #936F4B",
"$> 	c #94724F",
"%> 	c #9D7B58",
"&> 	c #A58262",
"*> 	c #A17E5E",
"=> 	c #9D7A5A",
"-> 	c #957252",
";> 	c #987555",
">> 	c #A07D5F",
",> 	c #AB8B65",
"'> 	c #A68660",
")> 	c #9E7C56",
"!> 	c #987650",
"~> 	c #97754F",
"{> 	c #9A7853",
"]> 	c #96734B",
"^> 	c #916E46",
"/> 	c #926F45",
"(> 	c #98754B",
"_> 	c #99744A",
":> 	c #967144",
"<> 	c #996F47",
"[> 	c #AC8156",
"}> 	c #A67B4E",
"|> 	c #A57C50",
"1> 	c #A97F55",
"2> 	c #AA8056",
"3> 	c #AB8157",
"4> 	c #A67C52",
"5> 	c #B0865C",
"6> 	c #A98259",
"7> 	c #9E7D52",
"8> 	c #9D7A52",
"9> 	c #937249",
"0> 	c #A47B4F",
"a> 	c #A97E4B",
"b> 	c #AC834F",
"c> 	c #B38B5A",
"d> 	c #B68E5D",
"e> 	c #AF8553",
"f> 	c #A97D4C",
"g> 	c #AC8051",
"h> 	c #AD8255",
"i> 	c #996F45",
"j> 	c #A47853",
"k> 	c #A0744F",
"l> 	c #9F734E",
"m> 	c #A27651",
"n> 	c #A27852",
"o> 	c #A47A54",
"p> 	c #A57B55",
"q> 	c #A57F5A",
"r> 	c #A07854",
"s> 	c #A0764E",
"t> 	c #9E774C",
"u> 	c #9A7348",
"v> 	c #A17A4F",
"w> 	c #A37C53",
"x> 	c #A47D54",
"y> 	c #956F4A",
"z> 	c #9C764F",
"A> 	c #987349",
"B> 	c #9B764C",
"C> 	c #9A754B",
"D> 	c #9F754B",
"E> 	c #9B7546",
"F> 	c #9E794D",
"G> 	c #987452",
"H> 	c #8B6747",
"I> 	c #9B7149",
"J> 	c #A87E54",
"K> 	c #AD8458",
"L> 	c #AE8559",
"M> 	c #AD8359",
"N> 	c #A77F5B",
"O> 	c #A27A57",
"P> 	c #A07A56",
"Q> 	c #A17A59",
"R> 	c #AA8460",
"S> 	c #A68059",
"T> 	c #A47E57",
"U> 	c #A7815A",
"V> 	c #A5825C",
"W> 	c #A7845E",
"X> 	c #A07D57",
"Y> 	c #9A744D",
"Z> 	c #DCAE72",
"`> 	c #DDAF73",
" , 	c #DBAF72",
"., 	c #E0B477",
"+, 	c #E9BC81",
"@, 	c #DCB37F",
"#, 	c #DEB581",
"$, 	c #D5AA75",
"%, 	c #D5A672",
"&, 	c #D4A571",
"*, 	c #BD945E",
"=, 	c #BF9660",
"-, 	c #C1965F",
";, 	c #D4A76E",
">, 	c #D5A86F",
",, 	c #C89961",
"', 	c #C99A62",
"), 	c #BE8F59",
"!, 	c #B9905A",
"~, 	c #A77C52",
"{, 	c #CB9B6A",
"], 	c #C89868",
"^, 	c #C99B6A",
"/, 	c #D0A271",
"(, 	c #A97A4E",
"_, 	c #CE9C67",
":, 	c #D1A068",
"<, 	c #CB9964",
"[, 	c #CD9A65",
"}, 	c #CC9964",
"|, 	c #CA9762",
"1, 	c #CB9A62",
"2, 	c #C19160",
"3, 	c #AD7F4D",
"4, 	c #D3A46E",
"5, 	c #D4A56F",
"6, 	c #CFA16D",
"7, 	c #C5996A",
"8, 	c #C2976A",
"9, 	c #C19669",
"0, 	c #C1966B",
"a, 	c #CC9D71",
"b, 	c #CB9C6E",
"c, 	c #C89C6D",
"d, 	c #C99D6E",
"e, 	c #CEA06F",
"f, 	c #CE9E6D",
"g, 	c #D3A375",
"h, 	c #D2A272",
"i, 	c #CD9D6D",
"j, 	c #CA9A6C",
"k, 	c #CC9B70",
"l, 	c #BD8C63",
"m, 	c #B7865B",
"n, 	c #B9895B",
"o, 	c #B68759",
"p, 	c #B48655",
"q, 	c #BA8C5B",
"r, 	c #BD9160",
"s, 	c #BF9362",
"t, 	c #CBA06D",
"u, 	c #C49664",
"v, 	c #C39563",
"w, 	c #C69867",
"x, 	c #C19663",
"y, 	c #C39863",
"z, 	c #C09560",
"A, 	c #B98B5A",
"B, 	c #BD8D5C",
"C, 	c #BF915F",
"D, 	c #C19361",
"E, 	c #C59766",
"F, 	c #CA9C6B",
"G, 	c #C79E6A",
"H, 	c #CAA06E",
"I, 	c #D6AD79",
"J, 	c #D1A872",
"K, 	c #CCA268",
"L, 	c #C79860",
"M, 	c #C79A63",
"N, 	c #BF915D",
"O, 	c #B38554",
"P, 	c #B88A58",
"Q, 	c #B18554",
"R, 	c #B28754",
"S, 	c #B38756",
"T, 	c #B08654",
"U, 	c #BA905E",
"V, 	c #BC9260",
"W, 	c #B58755",
"X, 	c #B98B59",
"Y, 	c #B6875B",
"Z, 	c #9F7042",
"`, 	c #BE8E5E",
" ' 	c #C99764",
".' 	c #C79560",
"+' 	c #C2905D",
"@' 	c #C59564",
"#' 	c #C99E69",
"$' 	c #BC8F56",
"%' 	c #C99A6C",
"&' 	c #C4996E",
"*' 	c #AB805D",
"=' 	c #A97D58",
"-' 	c #C19B6C",
";' 	c #C09A6D",
">' 	c #B58E65",
",' 	c #B68F66",
"'' 	c #B18A5F",
")' 	c #B99366",
"!' 	c #CBA276",
"~' 	c #C29667",
"{' 	c #B28453",
"]' 	c #BA8F5A",
"^' 	c #BC915E",
"/' 	c #AD8150",
"(' 	c #996D3C",
"_' 	c #D6AB76",
":' 	c #C89C6B",
"<' 	c #A77B4A",
"[' 	c #D5A76B",
"}' 	c #D7A96D",
"|' 	c #D2A264",
"1' 	c #B58958",
"2' 	c #A87C4B",
"3' 	c #D6A972",
"4' 	c #E4B982",
"5' 	c #D4AA70",
"6' 	c #D5A670",
"7' 	c #AF8052",
"8' 	c #C39460",
"9' 	c #C29261",
"0' 	c #BF8F5E",
"a' 	c #C39061",
"b' 	c #C49463",
"c' 	c #C1925E",
"d' 	c #BE8E5D",
"e' 	c #BC8D57",
"f' 	c #B68D59",
"g' 	c #BC935F",
"h' 	c #BA8F62",
"i' 	c #BB9063",
"j' 	c #BC9365",
"k' 	c #C0976B",
"l' 	c #C59F72",
"m' 	c #E0B378",
"n' 	c #DCB278",
"o' 	c #DFB67E",
"p' 	c #DEB57D",
"q' 	c #DFB57B",
"r' 	c #E3B67B",
"s' 	c #E0B67C",
"t' 	c #D5A46A",
"u' 	c #DAA96E",
"v' 	c #DCAB70",
"w' 	c #CE9D63",
"x' 	c #CC9B61",
"y' 	c #C99B60",
"z' 	c #CAA169",
"A' 	c #C99E67",
"B' 	c #CB9F60",
"C' 	c #C89C5F",
"D' 	c #C99D5E",
"E' 	c #CA9D62",
"F' 	c #C99C61",
"G' 	c #C99D60",
"H' 	c #BC915C",
"I' 	c #CC9F64",
"J' 	c #C79B5C",
"K' 	c #CB9E63",
"L' 	c #CEA263",
"M' 	c #D4A86B",
"N' 	c #CC9E62",
"O' 	c #CB9D5F",
"P' 	c #C6985C",
"Q' 	c #DAAC7A",
"R' 	c #D3A875",
"S' 	c #D1A574",
"T' 	c #CDA373",
"U' 	c #CCA174",
"V' 	c #CAA175",
"W' 	c #D5AB79",
"X' 	c #D7AC79",
"Y' 	c #DEB176",
"Z' 	c #C6975F",
"`' 	c #CB9D61",
" ) 	c #C99B5F",
".) 	c #CCA063",
"+) 	c #D4A76C",
"@) 	c #D5AA77",
"#) 	c #E0B582",
"$) 	c #D8A76D",
"%) 	c #D3A567",
"&) 	c #D2A466",
"*) 	c #D4A668",
"=) 	c #BF955B",
"-) 	c #C7995E",
";) 	c #C6985D",
">) 	c #C6995E",
",) 	c #C5985D",
"') 	c #C4975C",
")) 	c #C3965B",
"!) 	c #C2955A",
"~) 	c #CC9E63",
"{) 	c #C89C5D",
"]) 	c #C79B5E",
"^) 	c #C69A5D",
"/) 	c #C5995C",
"() 	c #C39A5C",
"_) 	c #C49B5D",
":) 	c #B78F5B",
"<) 	c #B8905D",
"[) 	c #C09763",
"}) 	c #B98E59",
"|) 	c #BD925D",
"1) 	c #CDA26D",
"2) 	c #D3A871",
"3) 	c #C99E6B",
"4) 	c #C49964",
"5) 	c #C29762",
"6) 	c #AA7F4C",
"7) 	c #D5AC76",
"8) 	c #D7AD73",
"9) 	c #AF844D",
"0) 	c #D4A466",
"a) 	c #D7A769",
"b) 	c #D5A769",
"c) 	c #D6A86A",
"d) 	c #D5A867",
"e) 	c #C59A67",
"f) 	c #B18653",
"g) 	c #D7AA6F",
"h) 	c #D2A669",
"i) 	c #DDB174",
"j) 	c #D3AA6C",
"k) 	c #D6A36A",
"l) 	c #D6A56D",
"m) 	c #C3945C",
"n) 	c #B48D62",
"o) 	c #E7BD81",
"p) 	c #E9BF83",
"q) 	c #EDC58A",
"r) 	c #EFC88F",
"s) 	c #F0C990",
"t) 	c #EAC287",
"u) 	c #E5BB7F",
"v) 	c #E6BE81",
"w) 	c #E5BD80",
"x) 	c #E6BC82",
"y) 	c #E7BD83",
"z) 	c #E7BF84",
"A) 	c #E9C186",
"B) 	c #E2B478",
"C) 	c #E6BA7D",
"D) 	c #E5B97C",
"E) 	c #E8BB80",
"F) 	c #E7BA7F",
"G) 	c #DAAE71",
"H) 	c #B38458",
"I) 	c #DDAE7A",
"J) 	c #DAA875",
"K) 	c #D8A675",
"L) 	c #DEAC7B",
"M) 	c #D7A776",
"N) 	c #D9A978",
"O) 	c #DAAA79",
"P) 	c #D6A675",
"Q) 	c #D09E6B",
"R) 	c #D19F6C",
"S) 	c #AE7F53",
"T) 	c #C79864",
"U) 	c #DEAE7D",
"V) 	c #DEAF7B",
"W) 	c #DBB079",
"X) 	c #DAAF78",
"Y) 	c #D6AE7D",
"Z) 	c #D7AE80",
"`) 	c #D6B081",
" ! 	c #DAB27F",
".! 	c #DBB37F",
"+! 	c #DDB480",
"@! 	c #DEB57F",
"#! 	c #DDB47C",
"$! 	c #DEB47A",
"%! 	c #E3B97D",
"&! 	c #D2A167",
"*! 	c #DCAB73",
"=! 	c #DBAA6F",
"-! 	c #DCB073",
";! 	c #D9A96B",
">! 	c #DAAA6C",
",! 	c #DAAC70",
"'! 	c #E4BB87",
")! 	c #E5BA83",
"!! 	c #DEAD72",
"~! 	c #B08552",
"{! 	c #D3A166",
"]! 	c #D3A067",
"^! 	c #D2A065",
"/! 	c #D7A56A",
"(! 	c #B48750",
"_! 	c #E8BB82",
":! 	c #E5B87F",
"<! 	c #D4A26D",
"[! 	c #DFB17D",
"}! 	c #D9AB79",
"|! 	c #E5B881",
"1! 	c #D2A774",
"2! 	c #D7AE78",
"3! 	c #D6AB78",
"4! 	c #D6A874",
"5! 	c #D19F6A",
"6! 	c #C2905B",
"7! 	c #DBA86F",
"8! 	c #B98A56",
"9! 	c #D8AE72",
"0! 	c #D8A86A",
"a! 	c #B88B54",
"b! 	c #D9AA74",
"c! 	c #E1B37F",
"d! 	c #E4B780",
"e! 	c #D5A36E",
"f! 	c #DEAF79",
"g! 	c #DCAD77",
"h! 	c #D6A668",
"i! 	c #BB8E53",
"j! 	c #B78A60",
"k! 	c #BB8E65",
"l! 	c #BC9069",
"m! 	c #BF936C",
"n! 	c #BF946A",
"o! 	c #BC8F66",
"p! 	c #BD9066",
"q! 	c #BC9166",
"r! 	c #BF9269",
"s! 	c #BE9168",
"t! 	c #BC9167",
"u! 	c #B58A5F",
"v! 	c #B88B61",
"w! 	c #B78C5F",
"x! 	c #B68B5E",
"y! 	c #BC9164",
"z! 	c #BB9264",
"A! 	c #B48B5D",
"B! 	c #AE8356",
"C! 	c #AA7F52",
"D! 	c #A87D52",
"E! 	c #A2774C",
"F! 	c #A07A4B",
"G! 	c #956D4A",
"H! 	c #966F46",
"I! 	c #A27B54",
"J! 	c #A9835F",
"K! 	c #AB8561",
"L! 	c #A9815E",
"M! 	c #A57F5B",
"N! 	c #9E7756",
"O! 	c #A57E55",
"P! 	c #A67F56",
"Q! 	c #A87E56",
"R! 	c #AA8058",
"S! 	c #A97F57",
"T! 	c #9E7851",
"U! 	c #A07950",
"V! 	c #A17A51",
"W! 	c #A27B50",
"X! 	c #A98352",
"Y! 	c #B28C5B",
"Z! 	c #B5895A",
"`! 	c #B48859",
" ~ 	c #B3875A",
".~ 	c #B2875C",
"+~ 	c #B1865C",
"@~ 	c #B1875F",
"#~ 	c #AC815F",
"$~ 	c #AF8360",
"%~ 	c #B0845F",
"&~ 	c #B48760",
"*~ 	c #B68962",
"=~ 	c #B68960",
"-~ 	c #B98C63",
";~ 	c #BA8D66",
">~ 	c #BD8F6B",
",~ 	c #AD7F5D",
"'~ 	c #B0825E",
")~ 	c #B1845D",
"!~ 	c #AC8357",
"~~ 	c #AC825A",
"{~ 	c #A57E57",
"]~ 	c #AB845B",
"^~ 	c #AE8359",
"/~ 	c #AA7F55",
"(~ 	c #AB7F58",
"_~ 	c #A77B56",
":~ 	c #AB8459",
"<~ 	c #AB8558",
"[~ 	c #AA8457",
"}~ 	c #B3895F",
"|~ 	c #B48D64",
"1~ 	c #B08864",
"2~ 	c #916D49",
"3~ 	c #A67C54",
"4~ 	c #A17E54",
"5~ 	c #A17E56",
"6~ 	c #A07D55",
"7~ 	c #A38056",
"8~ 	c #A27C4F",
"9~ 	c #A87F51",
"0~ 	c #A47C4B",
"a~ 	c #AA7D53",
"b~ 	c #AC8053",
"c~ 	c #A97E51",
"d~ 	c #A2764F",
"e~ 	c #A3784D",
"f~ 	c #A47956",
"g~ 	c #A07552",
"h~ 	c #9F7753",
"i~ 	c #9A724E",
"j~ 	c #9A724F",
"k~ 	c #98704D",
"l~ 	c #A88162",
"m~ 	c #997457",
"n~ 	c #AA8362",
"o~ 	c #AA825E",
"p~ 	c #B18B67",
"q~ 	c #B18E66",
"r~ 	c #B5926C",
"s~ 	c #A88462",
"t~ 	c #9E7C59",
"u~ 	c #A07F5C",
"v~ 	c #9D7E5F",
"w~ 	c #9E7F62",
"x~ 	c #A7845C",
"y~ 	c #A07D53",
"z~ 	c #9A7549",
"A~ 	c #9C774B",
"B~ 	c #A2794D",
"C~ 	c #A37D4E",
"D~ 	c #A88359",
"E~ 	c #A3794F",
"F~ 	c #A2784E",
"G~ 	c #A37951",
"H~ 	c #AC7F58",
"I~ 	c #AD8059",
"J~ 	c #AC8059",
"K~ 	c #AE825B",
"L~ 	c #AF835C",
"M~ 	c #B0845D",
"N~ 	c #B18558",
"O~ 	c #B08453",
"P~ 	c #A88253",
"Q~ 	c #9F794A",
"R~ 	c #977045",
"S~ 	c #987146",
"T~ 	c #997448",
"U~ 	c #A07B4F",
"V~ 	c #9D784E",
"W~ 	c #A17C50",
"X~ 	c #9F7B4B",
"Y~ 	c #A07C4C",
"Z~ 	c #A27E4E",
"`~ 	c #A27D50",
" { 	c #A27D51",
".{ 	c #96704C",
"+{ 	c #9F7952",
"@{ 	c #AF895C",
"#{ 	c #B28B60",
"${ 	c #B28B62",
"%{ 	c #B08960",
"&{ 	c #B08962",
"*{ 	c #AD8561",
"={ 	c #A38058",
"-{ 	c #A27F57",
";{ 	c #A48159",
">{ 	c #A3805A",
",{ 	c #AB8862",
"'{ 	c #AA8863",
"){ 	c #A98762",
"!{ 	c #B28F69",
"~{ 	c #AF8C66",
"{{ 	c #AA8862",
"]{ 	c #AA875D",
"^{ 	c #A9885D",
"/{ 	c #C59B61",
"({ 	c #B88C5B",
"_{ 	c #CCA16E",
":{ 	c #CFA471",
"<{ 	c #D4AB75",
"[{ 	c #CFA670",
"}{ 	c #CDA46C",
"|{ 	c #CEA56D",
"1{ 	c #CCA36B",
"2{ 	c #CDA66D",
"3{ 	c #D5AD72",
"4{ 	c #C59D62",
"5{ 	c #BD945C",
"6{ 	c #D8A77C",
"7{ 	c #D4A474",
"8{ 	c #C79C69",
"9{ 	c #B18254",
"0{ 	c #C1935F",
"a{ 	c #CC9962",
"b{ 	c #DAAC78",
"c{ 	c #D7A977",
"d{ 	c #CF9D6A",
"e{ 	c #CD9B68",
"f{ 	c #CC9A67",
"g{ 	c #CC9C6B",
"h{ 	c #CA9867",
"i{ 	c #CA9865",
"j{ 	c #C89663",
"k{ 	c #CB9966",
"l{ 	c #D5AA73",
"m{ 	c #D0A771",
"n{ 	c #CFA672",
"o{ 	c #D1A371",
"p{ 	c #CFA16F",
"q{ 	c #C19264",
"r{ 	c #C59668",
"s{ 	c #C69665",
"t{ 	c #C69B68",
"u{ 	c #C59968",
"v{ 	c #C59D69",
"w{ 	c #C19966",
"x{ 	c #B9915E",
"y{ 	c #CAA26E",
"z{ 	c #C59C64",
"A{ 	c #BD8D5D",
"B{ 	c #BC8C5C",
"C{ 	c #A77B4C",
"D{ 	c #B78B5A",
"E{ 	c #B68B58",
"F{ 	c #BC8E5C",
"G{ 	c #BD8F5D",
"H{ 	c #C49464",
"I{ 	c #CD9D6C",
"J{ 	c #C5935E",
"K{ 	c #C3925A",
"L{ 	c #C4935B",
"M{ 	c #C08F57",
"N{ 	c #BB8D59",
"O{ 	c #BD9359",
"P{ 	c #BA8F58",
"Q{ 	c #BE8C59",
"R{ 	c #BB8958",
"S{ 	c #BA8857",
"T{ 	c #BE8C5B",
"U{ 	c #C08E5D",
"V{ 	c #C7986A",
"W{ 	c #CCA073",
"X{ 	c #D4A271",
"Y{ 	c #CA9768",
"Z{ 	c #BF8F5F",
"`{ 	c #BA8A5A",
" ] 	c #AE8157",
".] 	c #A37748",
"+] 	c #D2A06B",
"@] 	c #CFA569",
"#] 	c #BE915A",
"$] 	c #D6AC70",
"%] 	c #D5AB6F",
"&] 	c #D5A96C",
"*] 	c #D4A675",
"=] 	c #BC8D5F",
"-] 	c #D09E69",
";] 	c #DBAC78",
">] 	c #E5B786",
",] 	c #DAAC7B",
"'] 	c #DBAD7B",
")] 	c #D2A06F",
"!] 	c #B78D63",
"~] 	c #B68C62",
"{] 	c #B48F63",
"]] 	c #E1B47D",
"^] 	c #CD9C64",
"/] 	c #CC9B63",
"(] 	c #E1B180",
"_] 	c #CDA369",
":] 	c #BE9261",
"<] 	c #D4A972",
"[] 	c #CEA160",
"}] 	c #D1A365",
"|] 	c #CF9F61",
"1] 	c #CE9D62",
"2] 	c #BF9259",
"3] 	c #D1A163",
"4] 	c #CC9E60",
"5] 	c #CEA370",
"6] 	c #E6B982",
"7] 	c #B78A4F",
"8] 	c #CDA466",
"9] 	c #CEA265",
"0] 	c #D3A768",
"a] 	c #D5A96A",
"b] 	c #D7AB6C",
"c] 	c #D6AA6B",
"d] 	c #DAAE6F",
"e] 	c #DAB074",
"f] 	c #CB9F62",
"g] 	c #C59B5F",
"h] 	c #B0814B",
"i] 	c #CA995E",
"j] 	c #CD9C61",
"k] 	c #CC9960",
"l] 	c #CB9A60",
"m] 	c #B5834E",
"n] 	c #C29159",
"o] 	c #C99860",
"p] 	c #C7965B",
"q] 	c #C59459",
"r] 	c #C49358",
"s] 	c #C6955A",
"t] 	c #C9985D",
"u] 	c #C89A5E",
"v] 	c #CA9E61",
"w] 	c #D0A86D",
"x] 	c #D7AB6E",
"y] 	c #B58C58",
"z] 	c #B18958",
"A] 	c #C89D66",
"B] 	c #D9AD70",
"C] 	c #C89F61",
"D] 	c #D9AD6E",
"E] 	c #BF9058",
"F] 	c #E4BB85",
"G] 	c #D6AD75",
"H] 	c #B18B5E",
"I] 	c #B68F64",
"J] 	c #E1B578",
"K] 	c #E2B57A",
"L] 	c #EABD82",
"M] 	c #EAC285",
"N] 	c #EEC689",
"O] 	c #F2C88C",
"P] 	c #EABE81",
"Q] 	c #E9BB7F",
"R] 	c #E8BA7F",
"S] 	c #E8BA7E",
"T] 	c #EBBD81",
"U] 	c #E9B988",
"V] 	c #E5B680",
"W] 	c #E0B274",
"X] 	c #D0A072",
"Y] 	c #D5A46C",
"Z] 	c #D5A26B",
"`] 	c #DAA770",
" ^ 	c #DCAD79",
".^ 	c #DFAF7E",
"+^ 	c #D9A66F",
"@^ 	c #D9A776",
"#^ 	c #D5A368",
"$^ 	c #C0915D",
"%^ 	c #E3B17C",
"&^ 	c #DFB47D",
"*^ 	c #DEB37E",
"=^ 	c #DBB07D",
"-^ 	c #DAB17D",
";^ 	c #DFB583",
">^ 	c #CEA56F",
",^ 	c #E2B679",
"'^ 	c #E3B97F",
")^ 	c #E1B77B",
"!^ 	c #E8BD86",
"~^ 	c #E5BB81",
"{^ 	c #E9B87E",
"]^ 	c #E5B47A",
"^^ 	c #E3B278",
"/^ 	c #E1B076",
"(^ 	c #DEAD73",
"_^ 	c #DAAC6E",
":^ 	c #E2B177",
"<^ 	c #E4B378",
"[^ 	c #E0AF74",
"}^ 	c #E1B375",
"|^ 	c #DFB376",
"1^ 	c #E0B072",
"2^ 	c #E3B375",
"3^ 	c #E3B277",
"4^ 	c #E1B47B",
"5^ 	c #DDAD6F",
"6^ 	c #DBAB6D",
"7^ 	c #D4A168",
"8^ 	c #BC8A55",
"9^ 	c #D8A56C",
"0^ 	c #E1B078",
"a^ 	c #BA8B53",
"b^ 	c #DCAA6F",
"c^ 	c #DAA86D",
"d^ 	c #D8A66B",
"e^ 	c #E4B57F",
"f^ 	c #DEAD75",
"g^ 	c #C39A66",
"h^ 	c #BC9463",
"i^ 	c #E1B27A",
"j^ 	c #DBAA72",
"k^ 	c #DBB177",
"l^ 	c #BA8B57",
"m^ 	c #BA8C58",
"n^ 	c #E3B47C",
"o^ 	c #DFB078",
"p^ 	c #DDAE78",
"q^ 	c #E0B580",
"r^ 	c #E4BA88",
"s^ 	c #E1B988",
"t^ 	c #E1B884",
"u^ 	c #E0B783",
"v^ 	c #DDB581",
"w^ 	c #E6B77F",
"x^ 	c #AB7E54",
"y^ 	c #A3764D",
"z^ 	c #B2855B",
"A^ 	c #B6895F",
"B^ 	c #BA9165",
"C^ 	c #B79065",
"D^ 	c #B4895E",
"E^ 	c #B78C62",
"F^ 	c #BC9268",
"G^ 	c #B1875D",
"H^ 	c #B2885E",
"I^ 	c #B0855B",
"J^ 	c #AD875A",
"K^ 	c #AC875B",
"L^ 	c #AF8A5E",
"M^ 	c #B28D61",
"N^ 	c #AE895D",
"O^ 	c #B18F5F",
"P^ 	c #A88460",
"Q^ 	c #B08C5C",
"R^ 	c #A57D4C",
"S^ 	c #B1885A",
"T^ 	c #B08A5B",
"U^ 	c #AC855E",
"V^ 	c #A07A53",
"W^ 	c #AE895C",
"X^ 	c #AE8557",
"Y^ 	c #A77C4F",
"Z^ 	c #A67C4C",
"`^ 	c #A87E4E",
" / 	c #AA8050",
"./ 	c #9D734D",
"+/ 	c #9B7449",
"@/ 	c #9C714F",
"#/ 	c #9C714E",
"$/ 	c #9B704E",
"%/ 	c #9A7354",
"&/ 	c #946D50",
"*/ 	c #95714F",
"=/ 	c #977351",
"-/ 	c #936D46",
";/ 	c #A17B54",
">/ 	c #AD815A",
",/ 	c #AF835E",
"'/ 	c #AB815B",
")/ 	c #A97E5B",
"!/ 	c #B2865F",
"~/ 	c #B3865D",
"{/ 	c #B98A5E",
"]/ 	c #BB8C60",
"^/ 	c #B78D5B",
"// 	c #B88F5B",
"(/ 	c #BB915F",
"_/ 	c #BA915D",
":/ 	c #BA925F",
"</ 	c #BB9360",
"[/ 	c #B78F5C",
"}/ 	c #B8905C",
"|/ 	c #B48C58",
"1/ 	c #AA805A",
"2/ 	c #AE845E",
"3/ 	c #B0865E",
"4/ 	c #B18560",
"5/ 	c #AD815C",
"6/ 	c #B58B65",
"7/ 	c #AC825C",
"8/ 	c #AC855C",
"9/ 	c #AD835B",
"0/ 	c #AC8258",
"a/ 	c #AE845A",
"b/ 	c #B0855A",
"c/ 	c #B88F63",
"d/ 	c #B08660",
"e/ 	c #AD835D",
"f/ 	c #AD865F",
"g/ 	c #AF855D",
"h/ 	c #A67A57",
"i/ 	c #916B47",
"j/ 	c #A77D55",
"k/ 	c #9E784B",
"l/ 	c #A27848",
"m/ 	c #966D41",
"n/ 	c #AC8252",
"o/ 	c #AF855B",
"p/ 	c #AB865C",
"q/ 	c #A6835B",
"r/ 	c #AF845A",
"s/ 	c #AC7F55",
"t/ 	c #A27C55",
"u/ 	c #A68157",
"v/ 	c #A78258",
"w/ 	c #A58054",
"x/ 	c #926E4C",
"y/ 	c #A1774D",
"z/ 	c #AC7F56",
"A/ 	c #AE8158",
"B/ 	c #B98E63",
"C/ 	c #A27D53",
"D/ 	c #9C7951",
"E/ 	c #8B6842",
"F/ 	c #9F7C54",
"G/ 	c #9E7B53",
"H/ 	c #936C4B",
"I/ 	c #997253",
"J/ 	c #A27C58",
"K/ 	c #9E7B55",
"L/ 	c #9F7C56",
"M/ 	c #9A7654",
"N/ 	c #9C7854",
"O/ 	c #9E7758",
"P/ 	c #8E6748",
"Q/ 	c #A68359",
"R/ 	c #A68457",
"S/ 	c #A78558",
"T/ 	c #A58356",
"U/ 	c #A58053",
"V/ 	c #A17D4B",
"W/ 	c #A17D4D",
"X/ 	c #A87D50",
"Y/ 	c #AF8457",
"Z/ 	c #AD8257",
"`/ 	c #AE8358",
" ( 	c #A9825B",
".( 	c #AE8863",
"+( 	c #B18A63",
"@( 	c #AF885F",
"#( 	c #B38C63",
"$( 	c #B18965",
"%( 	c #AF8763",
"&( 	c #D9B070",
"*( 	c #BF945F",
"=( 	c #A37B4A",
"-( 	c #BE935E",
";( 	c #BE9158",
">( 	c #BD8F5B",
",( 	c #D4A877",
"'( 	c #D1A673",
")( 	c #D0A570",
"!( 	c #CEA36E",
"~( 	c #B88D5A",
"{( 	c #CA9961",
"]( 	c #A87B51",
"^( 	c #C6955B",
"/( 	c #C89462",
"(( 	c #A57544",
"_( 	c #D3A573",
":( 	c #D2A675",
"<( 	c #B08550",
"[( 	c #BC8F58",
"}( 	c #C0935A",
"|( 	c #BF905A",
"1( 	c #B18352",
"2( 	c #B38456",
"3( 	c #BC8E5A",
"4( 	c #B78C59",
"5( 	c #B4895C",
"6( 	c #B5865A",
"7( 	c #BA8B61",
"8( 	c #B6875D",
"9( 	c #B8895F",
"0( 	c #BD8D67",
"a( 	c #B6865E",
"b( 	c #B28657",
"c( 	c #BB8F60",
"d( 	c #9F7449",
"e( 	c #B98E5B",
"f( 	c #BC8D59",
"g( 	c #C09159",
"h( 	c #C09257",
"i( 	c #C29459",
"j( 	c #BB9155",
"k( 	c #8F6441",
"l( 	c #BD9363",
"m( 	c #B38760",
"n( 	c #B58E57",
"o( 	c #B9926B",
"p( 	c #B78C57",
"q( 	c #C79B6C",
"r( 	c #A27345",
"s( 	c #C39967",
"t( 	c #91663B",
"u( 	c #BB8F5E",
"v( 	c #BE9464",
"w( 	c #BC9063",
"x( 	c #BF9064",
"y( 	c #B3865C",
"z( 	c #D1A671",
"A( 	c #C79F6E",
"B( 	c #C49B6F",
"C( 	c #DAAD72",
"D( 	c #DBB378",
"E( 	c #DEB67B",
"F( 	c #D1AA69",
"G( 	c #D8B075",
"H( 	c #D9B176",
"I( 	c #D4AC71",
"J( 	c #D2AA6F",
"K( 	c #D9AB6D",
"L( 	c #D7A96B",
"M( 	c #B88B52",
"N( 	c #D6AC72",
"O( 	c #DFB384",
"P( 	c #DDB180",
"Q( 	c #D9A76C",
"R( 	c #BD9059",
"S( 	c #CFA163",
"T( 	c #E3B47E",
"U( 	c #D7A46B",
"V( 	c #D5A366",
"W( 	c #D09E61",
"X( 	c #CF9D60",
"Y( 	c #C4965A",
"Z( 	c #B88A56",
"`( 	c #B98C53",
" _ 	c #CA9C5E",
"._ 	c #CDA05F",
"+_ 	c #CA9C60",
"@_ 	c #CEA062",
"#_ 	c #B08250",
"$_ 	c #A1734F",
"%_ 	c #CB9C70",
"&_ 	c #B88E54",
"*_ 	c #BA9056",
"=_ 	c #A77C49",
"-_ 	c #DEB275",
";_ 	c #AC7E4C",
">_ 	c #CCA061",
",_ 	c #B98E57",
"'_ 	c #D4AA6E",
")_ 	c #CFA668",
"!_ 	c #D3AA74",
"~_ 	c #DAB27E",
"{_ 	c #D5AD79",
"]_ 	c #9D714A",
"^_ 	c #A67A53",
"/_ 	c #906542",
"(_ 	c #D8AA6C",
"__ 	c #B88D56",
":_ 	c #E5B77C",
"<_ 	c #DEB072",
"[_ 	c #DFB277",
"}_ 	c #E8BE84",
"|_ 	c #E3BB80",
"1_ 	c #E8BF89",
"2_ 	c #E0B77F",
"3_ 	c #E1B97C",
"4_ 	c #DDB57A",
"5_ 	c #E5BD82",
"6_ 	c #E0B87D",
"7_ 	c #DBB175",
"8_ 	c #DFB579",
"9_ 	c #E6BE83",
"0_ 	c #D9AF75",
"a_ 	c #DCB37B",
"b_ 	c #D9B07A",
"c_ 	c #DCB37D",
"d_ 	c #E2B784",
"e_ 	c #E2B274",
"f_ 	c #DEB271",
"g_ 	c #DBAF70",
"h_ 	c #DBAE6D",
"i_ 	c #DBAD6F",
"j_ 	c #E0AF75",
"k_ 	c #DFAD70",
"l_ 	c #DEAC6F",
"m_ 	c #DCAA6D",
"n_ 	c #D9A76A",
"o_ 	c #DBAB6B",
"p_ 	c #C1975B",
"q_ 	c #D4A867",
"r_ 	c #DBAF6E",
"s_ 	c #D9AD6C",
"t_ 	c #DCB071",
"u_ 	c #E4B682",
"v_ 	c #D8AD69",
"w_ 	c #B48954",
"x_ 	c #E5B479",
"y_ 	c #E2B272",
"z_ 	c #D2A271",
"A_ 	c #DAA76E",
"B_ 	c #E6B781",
"C_ 	c #B68753",
"D_ 	c #DDAA71",
"E_ 	c #DEAB72",
"F_ 	c #DFAC73",
"G_ 	c #DEAB74",
"H_ 	c #E0AD76",
"I_ 	c #D9AE77",
"J_ 	c #AF8150",
"K_ 	c #D1A170",
"L_ 	c #DFAD7A",
"M_ 	c #D8AF71",
"N_ 	c #C29961",
"O_ 	c #DAB275",
"P_ 	c #DEB577",
"Q_ 	c #E0B779",
"R_ 	c #E4B77E",
"S_ 	c #E6B980",
"T_ 	c #E7BA83",
"U_ 	c #EABD86",
"V_ 	c #E7BA81",
"W_ 	c #DBB27A",
"X_ 	c #DAB37C",
"Y_ 	c #DBB47D",
"Z_ 	c #DFBA83",
"`_ 	c #DCB780",
" : 	c #AB7F50",
".: 	c #B08457",
"+: 	c #B08455",
"@: 	c #AF8354",
"#: 	c #B88C5F",
"$: 	c #B4885B",
"%: 	c #BF916D",
"&: 	c #BB8E67",
"*: 	c #BB8F6C",
"=: 	c #B68968",
"-: 	c #BB8F6A",
";: 	c #BB8F68",
">: 	c #B78A61",
",: 	c #C0956B",
"': 	c #BD9268",
"): 	c #B4895F",
"!: 	c #B2875D",
"~: 	c #B58E63",
"{: 	c #B89166",
"]: 	c #B98F65",
"^: 	c #BD9369",
"/: 	c #BA9066",
"(: 	c #AB8256",
"_: 	c #B0875B",
":: 	c #A37E54",
"<: 	c #A07B4E",
"[: 	c #A27C4B",
"}: 	c #A57D4A",
"|: 	c #AE8251",
"1: 	c #AA7F54",
"2: 	c #9F734C",
"3: 	c #A0764C",
"4: 	c #A27850",
"5: 	c #9A734C",
"6: 	c #A57851",
"7: 	c #B2855E",
"8: 	c #B3865F",
"9: 	c #B38561",
"0: 	c #B28460",
"a: 	c #B1835F",
"b: 	c #B28661",
"c: 	c #A77A53",
"d: 	c #B0835A",
"e: 	c #9E744A",
"f: 	c #AD8258",
"g: 	c #B28A59",
"h: 	c #B3885B",
"i: 	c #B48A5A",
"j: 	c #B18659",
"k: 	c #B98D5E",
"l: 	c #BC9258",
"m: 	c #B88D58",
"n: 	c #C29965",
"o: 	c #BE9561",
"p: 	c #BA915B",
"q: 	c #BA8D56",
"r: 	c #A87C55",
"s: 	c #A67B51",
"t: 	c #A57A50",
"u: 	c #A57952",
"v: 	c #A97E54",
"w: 	c #AE8265",
"x: 	c #AB7F5A",
"y: 	c #AC805B",
"z: 	c #956A47",
"A: 	c #A97D56",
"B: 	c #A67A55",
"C: 	c #A77B58",
"D: 	c #A97F4F",
"E: 	c #AB8151",
"F: 	c #A87C4D",
"G: 	c #986D4B",
"H: 	c #B0835C",
"I: 	c #BB9066",
"J: 	c #AB8055",
"K: 	c #A17955",
"L: 	c #A57D5A",
"M: 	c #937048",
"N: 	c #A27F55",
"O: 	c #A68154",
"P: 	c #A47F52",
"Q: 	c #9D7949",
"R: 	c #9A7548",
"S: 	c #9D784C",
"T: 	c #AA824F",
"U: 	c #A8804D",
"V: 	c #AC8451",
"W: 	c #B08855",
"X: 	c #B38B58",
"Y: 	c #B08359",
"Z: 	c #AF8258",
"`: 	c #AD8056",
" < 	c #B1845A",
".< 	c #AC875A",
"+< 	c #A88357",
"@< 	c #A58056",
"#< 	c #94704C",
"$< 	c #8A6843",
"%< 	c #906E49",
"&< 	c #AA845F",
"*< 	c #AC815E",
"=< 	c #A87D5A",
"-< 	c #AE8662",
";< 	c #AC8460",
">< 	c #AA8558",
",< 	c #A68155",
"'< 	c #B2895B",
")< 	c #AE8859",
"!< 	c #B99064",
"~< 	c #CDA46E",
"{< 	c #D5AE77",
"]< 	c #D6AF78",
"^< 	c #D2AB74",
"/< 	c #CBA46D",
"(< 	c #CDA66F",
"_< 	c #D3AC75",
":< 	c #D4AD76",
"<< 	c #B28953",
"[< 	c #D7AB7A",
"}< 	c #D5A97A",
"|< 	c #CB9A5F",
"1< 	c #AC804F",
"2< 	c #C19056",
"3< 	c #C39258",
"4< 	c #C5945A",
"5< 	c #C49359",
"6< 	c #C7965C",
"7< 	c #CBA167",
"8< 	c #C79D63",
"9< 	c #CBA26A",
"0< 	c #C8A16A",
"a< 	c #BF945D",
"b< 	c #BC935D",
"c< 	c #AD8353",
"d< 	c #BC915A",
"e< 	c #BD925B",
"f< 	c #C3965D",
"g< 	c #AD824F",
"h< 	c #B78C55",
"i< 	c #B68C5C",
"j< 	c #996C4B",
"k< 	c #B78E58",
"l< 	c #B88F59",
"m< 	c #C19767",
"n< 	c #C09666",
"o< 	c #B98D5C",
"p< 	c #C29365",
"q< 	c #AB7C4E",
"r< 	c #BB8E55",
"s< 	c #C1945B",
"t< 	c #CDA367",
"u< 	c #CEA571",
"v< 	c #C29963",
"w< 	c #C49B67",
"x< 	c #9B7043",
"y< 	c #CD9B6A",
"z< 	c #B98F5D",
"A< 	c #BE9662",
"B< 	c #B38352",
"C< 	c #AA7E51",
"D< 	c #DEAC77",
"E< 	c #DDAC74",
"F< 	c #DFAE76",
"G< 	c #DBA96E",
"H< 	c #DDB379",
"I< 	c #D7AC77",
"J< 	c #BE8D55",
"K< 	c #D6A968",
"L< 	c #D6A469",
"M< 	c #D3A16C",
"N< 	c #B48251",
"O< 	c #C8975C",
"P< 	c #CC9B60",
"Q< 	c #CE9E60",
"R< 	c #C7995D",
"S< 	c #B38353",
"T< 	c #B88858",
"U< 	c #D5A567",
"V< 	c #A67650",
"W< 	c #C99F63",
"X< 	c #B48A50",
"Y< 	c #D19F64",
"Z< 	c #D09D64",
"`< 	c #CF9C63",
" [ 	c #CB9B5D",
".[ 	c #B78852",
"+[ 	c #D0A769",
"@[ 	c #A17948",
"#[ 	c #CCA365",
"$[ 	c #D2A96B",
"%[ 	c #DCAF6E",
"&[ 	c #C49A5E",
"*[ 	c #A77945",
"=[ 	c #CA995F",
"-[ 	c #E3B77A",
";[ 	c #E5B77B",
">[ 	c #E6BB86",
",[ 	c #E0B67A",
"'[ 	c #E8C085",
")[ 	c #E8BF87",
"![ 	c #E7BE86",
"~[ 	c #E4BB83",
"{[ 	c #EBC089",
"][ 	c #E9BC83",
"^[ 	c #E8BB84",
"/[ 	c #E1AF7A",
"([ 	c #E4B37B",
"_[ 	c #B78955",
":[ 	c #D9A66D",
"<[ 	c #DDAA73",
"[[ 	c #E4B678",
"}[ 	c #E5B779",
"|[ 	c #DEAE6E",
"1[ 	c #E4B57D",
"2[ 	c #DAAD6C",
"3[ 	c #D3A662",
"4[ 	c #D6AB67",
"5[ 	c #B28359",
"6[ 	c #D7AB6A",
"7[ 	c #DCAC6C",
"8[ 	c #E5B877",
"9[ 	c #E6B978",
"0[ 	c #E6B37A",
"a[ 	c #E0AE71",
"b[ 	c #E1AF72",
"c[ 	c #E0B37C",
"d[ 	c #D5A372",
"e[ 	c #C49164",
"f[ 	c #B3864F",
"g[ 	c #D7AA69",
"h[ 	c #DDB172",
"i[ 	c #DEB273",
"j[ 	c #D9B078",
"k[ 	c #DAB17B",
"l[ 	c #D7AE76",
"m[ 	c #DFB07A",
"n[ 	c #BB9566",
"o[ 	c #B99364",
"p[ 	c #BB9568",
"q[ 	c #B68D5F",
"r[ 	c #B98F5F",
"s[ 	c #B88F61",
"t[ 	c #B68B61",
"u[ 	c #B88E64",
"v[ 	c #B98F67",
"w[ 	c #BA9068",
"x[ 	c #B48E69",
"y[ 	c #AF8962",
"z[ 	c #B18A61",
"A[ 	c #B28B64",
"B[ 	c #B78C69",
"C[ 	c #AF8861",
"D[ 	c #B58B63",
"E[ 	c #B78D65",
"F[ 	c #AA875F",
"G[ 	c #A27F59",
"H[ 	c #9D7446",
"I[ 	c #A37A4C",
"J[ 	c #B1865B",
"K[ 	c #B78E62",
"L[ 	c #B28D63",
"M[ 	c #B08857",
"N[ 	c #B08759",
"O[ 	c #B58B59",
"P[ 	c #B78E5A",
"Q[ 	c #B8905F",
"R[ 	c #B48C59",
"S[ 	c #B48B53",
"T[ 	c #B48956",
"U[ 	c #BA9261",
"V[ 	c #B68E5B",
"W[ 	c #AC8250",
"X[ 	c #AE8551",
"Y[ 	c #A67D49",
"Z[ 	c #A37E4A",
"`[ 	c #8F654C",
" } 	c #B28A57",
".} 	c #A37953",
"+} 	c #AB845D",
"@} 	c #AD805F",
"#} 	c #AD8260",
"$} 	c #AF8A60",
"%} 	c #AB865A",
"&} 	c #A68456",
"*} 	c #B48E5F",
"=} 	c #B28C5D",
"-} 	c #957055",
";} 	c #AC8662",
">} 	c #AE885B",
",} 	c #A78255",
"'} 	c #AD8554",
")} 	c #B78757",
"!} 	c #B58555",
"~} 	c #B48454",
"{} 	c #B68656",
"]} 	c #B98959",
"^} 	c #9E7349",
"/} 	c #9E744E",
"(} 	c #AA8155",
"_} 	c #AC8355",
":} 	c #A77D4D",
"<} 	c #AD8456",
"[} 	c #8E6642",
"}} 	c #AA855B",
"|} 	c #AA8559",
"1} 	c #9F7C52",
"2} 	c #AF8658",
"3} 	c #DBB274",
"4} 	c #CB9F6E",
"5} 	c #CA9E6D",
"6} 	c #C69A6B",
"7} 	c #C59B69",
"8} 	c #BF9662",
"9} 	c #C79E66",
"0} 	c #CAA16B",
"a} 	c #D0A773",
"b} 	c #D9AF7D",
"c} 	c #D2A975",
"d} 	c #C59A6D",
"e} 	c #C89E6E",
"f} 	c #C9A06C",
"g} 	c #CBA26E",
"h} 	c #D4AA7A",
"i} 	c #D2AA6D",
"j} 	c #B98C55",
"k} 	c #C09465",
"l} 	c #AE8253",
"m} 	c #B78958",
"n} 	c #C39768",
"o} 	c #C19266",
"p} 	c #9B7045",
"q} 	c #A37949",
"r} 	c #B38A54",
"s} 	c #B38553",
"t} 	c #B68854",
"u} 	c #B88955",
"v} 	c #BA8A59",
"w} 	c #A3784B",
"x} 	c #BD925F",
"y} 	c #CCA36F",
"z} 	c #885A4A",
"A} 	c #B28A56",
"B} 	c #BB925C",
"C} 	c #C5966C",
"D} 	c #A5794A",
"E} 	c #AF7F4E",
"F} 	c #D4A361",
"G} 	c #9A6D44",
"H} 	c #D8A975",
"I} 	c #CC9E6D",
"J} 	c #AD7F4E",
"K} 	c #BB9059",
"L} 	c #B68F58",
"M} 	c #BF9366",
"N} 	c #C3976A",
"O} 	c #C39969",
"P} 	c #C89F71",
"Q} 	c #C69E6D",
"R} 	c #D0A270",
"S} 	c #C89E6C",
"T} 	c #E7BC89",
"U} 	c #D6A877",
"V} 	c #E0B27E",
"W} 	c #B2854E",
"X} 	c #BE9156",
"Y} 	c #D0A362",
"Z} 	c #CFA261",
"`} 	c #D4A464",
" | 	c #B78957",
".| 	c #D4A267",
"+| 	c #8A5D40",
"@| 	c #C79F62",
"#| 	c #D0A767",
"$| 	c #BA8F5C",
"%| 	c #CEA567",
"&| 	c #CAA064",
"*| 	c #A07349",
"=| 	c #CFA364",
"-| 	c #CDA162",
";| 	c #CA9E5F",
">| 	c #B58B51",
",| 	c #D1AA73",
"'| 	c #B48F5A",
")| 	c #CFA871",
"!| 	c #A4774D",
"~| 	c #A07447",
"{| 	c #A27649",
"]| 	c #A67A4D",
"^| 	c #936740",
"/| 	c #DFB372",
"(| 	c #E0B475",
"_| 	c #DDB476",
":| 	c #DCB375",
"<| 	c #DCB373",
"[| 	c #DAB171",
"}| 	c #D7AE70",
"|| 	c #D5AC6E",
"1| 	c #EBC187",
"2| 	c #ECC18C",
"3| 	c #E2B87C",
"4| 	c #E4B77C",
"5| 	c #E1B576",
"6| 	c #E9BB87",
"7| 	c #F1C594",
"8| 	c #E9C082",
"9| 	c #E6BC80",
"0| 	c #E4BA7E",
"a| 	c #E6B87D",
"b| 	c #E2AF76",
"c| 	c #DFAD72",
"d| 	c #E5B67E",
"e| 	c #C1925A",
"f| 	c #E2B479",
"g| 	c #E5B87D",
"h| 	c #E2B677",
"i| 	c #C69C62",
"j| 	c #DFB374",
"k| 	c #DCB06F",
"l| 	c #D8AC6D",
"m| 	c #BB9254",
"n| 	c #E5B97A",
"o| 	c #E8BC7D",
"p| 	c #E8BC7F",
"q| 	c #E4B879",
"r| 	c #E0B473",
"s| 	c #C39758",
"t| 	c #9E724F",
"u| 	c #D7AF71",
"v| 	c #DFB678",
"w| 	c #E7BB7E",
"x| 	c #E6B57A",
"y| 	c #E4B476",
"z| 	c #C1925C",
"A| 	c #B48559",
"B| 	c #E7B882",
"C| 	c #DEB07E",
"D| 	c #DDAF7D",
"E| 	c #C4955D",
"F| 	c #AA7C4B",
"G| 	c #B88E66",
"H| 	c #9F7452",
"I| 	c #B1855E",
"J| 	c #BB9469",
"K| 	c #B89168",
"L| 	c #B48D66",
"M| 	c #B08563",
"N| 	c #B79164",
"O| 	c #B4855B",
"P| 	c #B4875D",
"Q| 	c #A37E51",
"R| 	c #A77A50",
"S| 	c #A5794C",
"T| 	c #A77B4E",
"U| 	c #AE8655",
"V| 	c #A97E53",
"W| 	c #BB9167",
"X| 	c #B4875E",
"Y| 	c #A77B54",
"Z| 	c #B3885E",
"`| 	c #AB7F5C",
" 1 	c #A97D5A",
".1 	c #AA7E5B",
"+1 	c #8E6350",
"@1 	c #AE895F",
"#1 	c #AD885E",
"$1 	c #AB8860",
"%1 	c #A9865E",
"&1 	c #A78150",
"*1 	c #A6804F",
"=1 	c #A4774E",
"-1 	c #A5784F",
";1 	c #A97C53",
">1 	c #AF895A",
",1 	c #AB8554",
"'1 	c #9D7748",
")1 	c #8C6641",
"!1 	c #946F45",
"~1 	c #A37F4F",
"{1 	c #A88454",
"]1 	c #967548",
"^1 	c #9B794C",
"/1 	c #9A784B",
"(1 	c #9C7A4D",
"_1 	c #9D7B4E",
":1 	c #A17F52",
"<1 	c #B08865",
"[1 	c #AB835F",
"}1 	c #A07C5A",
"|1 	c #A07E59",
"11 	c #9E7C57",
"21 	c #9C7A55",
"31 	c #9E7E58",
"41 	c #A48360",
"51 	c #AA8662",
"61 	c #A58360",
"71 	c #987756",
"81 	c #A17D59",
"91 	c #A6805B",
"01 	c #AA8A61",
"a1 	c #A9885F",
"b1 	c #C19864",
"c1 	c #BF9565",
"d1 	c #C69D71",
"e1 	c #C49C6B",
"f1 	c #BE9663",
"g1 	c #BD9562",
"h1 	c #BF9764",
"i1 	c #C79F6B",
"j1 	c #C8A06C",
"k1 	c #C8A06D",
"l1 	c #B78F5E",
"m1 	c #C89F6B",
"n1 	c #D1A874",
"o1 	c #DCB480",
"p1 	c #E2BA87",
"q1 	c #CCA272",
"r1 	c #BD9361",
"s1 	c #C99F6D",
"t1 	c #C49A60",
"u1 	c #C0965C",
"v1 	c #B48B57",
"w1 	c #BD9460",
"x1 	c #B99160",
"y1 	c #B48652",
"z1 	c #AB7F4E",
"A1 	c #BB906D",
"B1 	c #BE8F5B",
"C1 	c #BC905F",
"D1 	c #8C6635",
"E1 	c #C2985E",
"F1 	c #D2A06D",
"G1 	c #C3955A",
"H1 	c #A47549",
"I1 	c #B58D59",
"J1 	c #AF8A56",
"K1 	c #B18C58",
"L1 	c #B28D59",
"M1 	c #CDA371",
"N1 	c #D1A978",
"O1 	c #C29A67",
"P1 	c #D5A269",
"Q1 	c #E2B179",
"R1 	c #E5B47C",
"S1 	c #B58557",
"T1 	c #CB9E5D",
"U1 	c #CC9F5E",
"V1 	c #AB7E45",
"W1 	c #D1A463",
"X1 	c #CD9A61",
"Y1 	c #CD9A63",
"Z1 	c #BD8E5A",
"`1 	c #C69C60",
" 2 	c #AF8652",
".2 	c #D0A86B",
"+2 	c #D2A971",
"@2 	c #D7AA66",
"#2 	c #A7784A",
"$2 	c #9F6F41",
"%2 	c #C39363",
"&2 	c #CCA470",
"*2 	c #D1A870",
"=2 	c #A1784A",
"-2 	c #E4BC81",
";2 	c #DFB77C",
">2 	c #E4BB7B",
",2 	c #E7BB7C",
"'2 	c #EDC389",
")2 	c #F0C88D",
"!2 	c #EFC78C",
"~2 	c #EABB85",
"{2 	c #E7B880",
"]2 	c #E7B580",
"^2 	c #E9B880",
"/2 	c #E3B577",
"(2 	c #B38551",
"_2 	c #E1B473",
":2 	c #DFB271",
"<2 	c #DFAE6C",
"[2 	c #E0AF77",
"}2 	c #D0A473",
"|2 	c #E1B26E",
"12 	c #A67847",
"22 	c #D2A472",
"32 	c #DBAD79",
"42 	c #DDB27D",
"52 	c #E2B281",
"62 	c #E2B483",
"72 	c #E2B687",
"82 	c #D9AB7A",
"92 	c #BD936B",
"02 	c #C0966E",
"a2 	c #C59A77",
"b2 	c #C29872",
"c2 	c #C0946D",
"d2 	c #BA8E67",
"e2 	c #B98D68",
"f2 	c #B98F69",
"g2 	c #BB956E",
"h2 	c #BD986E",
"i2 	c #BA9569",
"j2 	c #B08B5F",
"k2 	c #B28D60",
"l2 	c #B89367",
"m2 	c #B99468",
"n2 	c #B79266",
"o2 	c #BA9467",
"p2 	c #B79162",
"q2 	c #B38D60",
"r2 	c #A97C52",
"s2 	c #936B47",
"t2 	c #B08A59",
"u2 	c #A58258",
"v2 	c #AD8760",
"w2 	c #A87E58",
"x2 	c #A57B53",
"y2 	c #B48861",
"z2 	c #BC926C",
"A2 	c #A77E5E",
"B2 	c #B38961",
"C2 	c #B18663",
"D2 	c #C2996D",
"E2 	c #BF996C",
"F2 	c #B69063",
"G2 	c #B18854",
"H2 	c #B58D5C",
"I2 	c #B3835B",
"J2 	c #B48654",
"K2 	c #956C4E",
"L2 	c #916E48",
"M2 	c #A27754",
"N2 	c #A98450",
"O2 	c #9C7651",
"P2 	c #97744A",
"Q2 	c #987649",
"R2 	c #94704E",
"S2 	c #A17B57",
"T2 	c #835F3F",
"U2 	c #A27E5C",
"V2 	c #A9835C",
"W2 	c #AF8754",
"X2 	c #BC9669",
"Y2 	c #BC906B",
"Z2 	c #BB946D",
"`2 	c #B38D68",
" 3 	c #B18B64",
".3 	c #AF8964",
"+3 	c #D29F66",
"@3 	c #D19F62",
"#3 	c #C99D6C",
"$3 	c #D1A775",
"%3 	c #D0A877",
"&3 	c #C69E6A",
"*3 	c #C89F69",
"=3 	c #C69C6C",
"-3 	c #BA935A",
";3 	c #C69B56",
">3 	c #B1824C",
",3 	c #BD8E58",
"'3 	c #C6945F",
")3 	c #C79562",
"!3 	c #D3A776",
"~3 	c #D8AC7D",
"{3 	c #D0A06F",
"]3 	c #BE9366",
"^3 	c #BD9267",
"/3 	c #BF905C",
"(3 	c #9B6F40",
"_3 	c #BB8D52",
":3 	c #B98A52",
"<3 	c #C09163",
"[3 	c #BB8C62",
"}3 	c #9F7249",
"|3 	c #C19163",
"13 	c #C79A70",
"23 	c #B4845C",
"33 	c #C5986F",
"43 	c #A87D53",
"53 	c #C5975C",
"63 	c #CDA470",
"73 	c #C79E70",
"83 	c #C19860",
"93 	c #C49B63",
"03 	c #C49C68",
"a3 	c #D8AD78",
"b3 	c #E1B381",
"c3 	c #9D6F4B",
"d3 	c #D8A965",
"e3 	c #D7AE6E",
"f3 	c #D4AB6B",
"g3 	c #D3AA6A",
"h3 	c #D2A969",
"i3 	c #D1A868",
"j3 	c #D6AD6F",
"k3 	c #DCB574",
"l3 	c #E2B981",
"m3 	c #D6AD6D",
"n3 	c #B4874E",
"o3 	c #D3A363",
"p3 	c #D3A665",
"q3 	c #B98958",
"r3 	c #D3A06B",
"s3 	c #B58851",
"t3 	c #CCA05F",
"u3 	c #AF8650",
"v3 	c #D9AD7C",
"w3 	c #876444",
"x3 	c #E0B781",
"y3 	c #E5BC84",
"z3 	c #E5BA85",
"A3 	c #E9BF85",
"B3 	c #DFB470",
"C3 	c #DCB479",
"D3 	c #CB9D6C",
"E3 	c #E7B779",
"F3 	c #E8B77C",
"G3 	c #E4BB7D",
"H3 	c #E5BC7E",
"I3 	c #E7BE80",
"J3 	c #EAC486",
"K3 	c #F6CD97",
"L3 	c #F1C892",
"M3 	c #E6BD7F",
"N3 	c #E6BA7B",
"O3 	c #EBBE85",
"P3 	c #E9BE87",
"Q3 	c #DDB170",
"R3 	c #DEB170",
"S3 	c #E0B17D",
"T3 	c #E7B97E",
"U3 	c #E1B584",
"V3 	c #E5BD89",
"W3 	c #E1B985",
"X3 	c #B38762",
"Y3 	c #C59972",
"Z3 	c #C2926C",
"`3 	c #C49770",
" 4 	c #C39571",
".4 	c #C19570",
"+4 	c #BF956F",
"@4 	c #BB916B",
"#4 	c #B89265",
"$4 	c #C29B74",
"%4 	c #BF986F",
"&4 	c #BD966D",
"*4 	c #BF956D",
"=4 	c #B28764",
"-4 	c #B48966",
";4 	c #9A6E51",
">4 	c #A2774A",
",4 	c #A57A4D",
"'4 	c #9D7552",
")4 	c #AB7E57",
"!4 	c #A07958",
"~4 	c #B68660",
"{4 	c #B88862",
"]4 	c #BB8B63",
"^4 	c #BD8E64",
"/4 	c #BC8D63",
"(4 	c #C09167",
"_4 	c #C3986D",
":4 	c #BB9065",
"<4 	c #B58962",
"[4 	c #BA936A",
"}4 	c #BE976E",
"|4 	c #B99062",
"14 	c #BA8F64",
"24 	c #9B7147",
"34 	c #B78E60",
"44 	c #A47851",
"54 	c #906D47",
"64 	c #A17654",
"74 	c #AA7D56",
"84 	c #9D7349",
"94 	c #976F4B",
"04 	c #966E4A",
"a4 	c #A8825D",
"b4 	c #A77C59",
"c4 	c #A87C59",
"d4 	c #A57956",
"e4 	c #A47957",
"f4 	c #A87D5B",
"g4 	c #9E7353",
"h4 	c #9F7451",
"i4 	c #A87C57",
"j4 	c #A67D5F",
"k4 	c #9B7850",
"l4 	c #B18664",
"m4 	c #B48967",
"n4 	c #AD8562",
"o4 	c #AB8360",
"p4 	c #D09D66",
"q4 	c #B68453",
"r4 	c #C49869",
"s4 	c #D5A678",
"t4 	c #D4A879",
"u4 	c #D2A677",
"v4 	c #CFA575",
"w4 	c #CFA776",
"x4 	c #CCA473",
"y4 	c #CAA271",
"z4 	c #D0A77B",
"A4 	c #CFA67A",
"B4 	c #CCA375",
"C4 	c #C99E71",
"D4 	c #C79C6F",
"E4 	c #C29669",
"F4 	c #C9A16E",
"G4 	c #D4AC79",
"H4 	c #D2AC7B",
"I4 	c #C09A6B",
"J4 	c #C8A271",
"K4 	c #C4996C",
"L4 	c #BF9467",
"M4 	c #BE955F",
"N4 	c #D2A473",
"O4 	c #CFA170",
"P4 	c #AF8056",
"Q4 	c #C09761",
"R4 	c #A77C51",
"S4 	c #A1774F",
"T4 	c #986E44",
"U4 	c #BE9659",
"V4 	c #BC8C5E",
"W4 	c #BA8A5C",
"X4 	c #B48456",
"Y4 	c #AD8057",
"Z4 	c #8D6146",
"`4 	c #C69B6E",
" 5 	c #CA9F72",
".5 	c #C59C6E",
"+5 	c #D0A875",
"@5 	c #CBA574",
"#5 	c #CCA471",
"$5 	c #CBA370",
"%5 	c #D9B27B",
"&5 	c #E2BB84",
"*5 	c #D39F66",
"=5 	c #D29F68",
"-5 	c #D2A063",
";5 	c #A6774D",
">5 	c #DDB06F",
",5 	c #D6A467",
"'5 	c #DAA86B",
")5 	c #D7A568",
"!5 	c #D8A669",
"~5 	c #D4A265",
"{5 	c #BB8C56",
"]5 	c #BD8E56",
"^5 	c #A7784E",
"/5 	c #CC9C5E",
"(5 	c #9A6D46",
"_5 	c #AF8764",
":5 	c #DFB77A",
"<5 	c #E0B87B",
"[5 	c #D8B073",
"}5 	c #E4BC7F",
"|5 	c #E2BA7D",
"15 	c #DEB87A",
"25 	c #E3BB7E",
"35 	c #ECC487",
"45 	c #E2B574",
"55 	c #E7B786",
"65 	c #E4B474",
"75 	c #E0B070",
"85 	c #DDAB6E",
"95 	c #DAAA6A",
"05 	c #D4A766",
"a5 	c #9F714D",
"b5 	c #C49C69",
"c5 	c #DBB27E",
"d5 	c #DAB179",
"e5 	c #DEB77C",
"f5 	c #C39C71",
"g5 	c #BE976C",
"h5 	c #BE9869",
"i5 	c #BD9768",
"j5 	c #C1986A",
"k5 	c #B58B61",
"l5 	c #9E7847",
"m5 	c #997553",
"n5 	c #AD8351",
"o5 	c #AE8452",
"p5 	c #A98551",
"q5 	c #A88452",
"r5 	c #A68250",
"s5 	c #A7824E",
"t5 	c #BE9569",
"u5 	c #C09463",
"v5 	c #BE9368",
"w5 	c #BF966A",
"x5 	c #BE9567",
"y5 	c #BC9667",
"z5 	c #BB9564",
"A5 	c #B18B5C",
"B5 	c #AC8453",
"C5 	c #AB805E",
"D5 	c #936950",
"E5 	c #AE825D",
"F5 	c #AD8853",
"G5 	c #A6814D",
"H5 	c #9D7448",
"I5 	c #9C7347",
"J5 	c #A2754B",
"K5 	c #A1764C",
"L5 	c #B1845B",
"M5 	c #AD844E",
"N5 	c #845B45",
"O5 	c #AD8551",
"P5 	c #A67E5B",
"Q5 	c #9E7D5A",
"R5 	c #A2805D",
"S5 	c #A37F5B",
"T5 	c #9D7957",
"U5 	c #A4805E",
"V5 	c #AC8864",
"W5 	c #AE8C67",
"X5 	c #AC8A65",
"Y5 	c #B38D66",
"Z5 	c #B08A63",
"`5 	c #D9B072",
" 6 	c #E2BA7F",
".6 	c #BC9460",
"+6 	c #BD9564",
"@6 	c #C19968",
"#6 	c #C09865",
"$6 	c #C39C65",
"%6 	c #C59E67",
"&6 	c #C79968",
"*6 	c #A5784E",
"=6 	c #CA9A5C",
"-6 	c #BE945A",
";6 	c #8A5B3F",
">6 	c #C5945C",
",6 	c #BE9265",
"'6 	c #A3784E",
")6 	c #A67B50",
"!6 	c #A37A46",
"~6 	c #A6794F",
"{6 	c #A97D50",
"]6 	c #AD8450",
"^6 	c #AA7E4F",
"/6 	c #926440",
"(6 	c #CBA26C",
"_6 	c #AA804E",
":6 	c #A9814E",
"<6 	c #B28955",
"[6 	c #9E7148",
"}6 	c #C79D73",
"|6 	c #C99F77",
"16 	c #BB9669",
"26 	c #C69F74",
"36 	c #DDB27F",
"46 	c #CBA366",
"56 	c #9B6E4D",
"66 	c #D6A666",
"76 	c #D9A969",
"86 	c #CD9D5F",
"96 	c #DDAD6D",
"06 	c #B08251",
"a6 	c #D5A968",
"b6 	c #CF9C65",
"c6 	c #D19E67",
"d6 	c #D7AD7B",
"e6 	c #CFA66E",
"f6 	c #DBB27C",
"g6 	c #CBA264",
"h6 	c #8D6947",
"i6 	c #E1B87A",
"j6 	c #D8AB6A",
"k6 	c #DFB674",
"l6 	c #AF8352",
"m6 	c #E2B37D",
"n6 	c #EABC81",
"o6 	c #EBBE87",
"p6 	c #F1C596",
"q6 	c #E6B57B",
"r6 	c #DAB173",
"s6 	c #DFB682",
"t6 	c #D7B077",
"u6 	c #CBA075",
"v6 	c #C99E73",
"w6 	c #CA9F74",
"x6 	c #C29A69",
"y6 	c #C09769",
"z6 	c #C2996B",
"A6 	c #C7A174",
"B6 	c #C9A376",
"C6 	c #C6A073",
"D6 	c #C49E6F",
"E6 	c #BE986B",
"F6 	c #BD976A",
"G6 	c #B99467",
"H6 	c #9B764A",
"I6 	c #9E794C",
"J6 	c #967444",
"K6 	c #8E6A4A",
"L6 	c #A17C4F",
"M6 	c #A57F4E",
"N6 	c #B58964",
"O6 	c #B68E5A",
"P6 	c #BF9472",
"Q6 	c #926B4C",
"R6 	c #976D43",
"S6 	c #9B6F4A",
"T6 	c #8F6944",
"U6 	c #B58A67",
"V6 	c #B08767",
"W6 	c #B38A6A",
"X6 	c #B48D6C",
"Y6 	c #BA9470",
"Z6 	c #B79069",
"`6 	c #CB9F70",
" 7 	c #CEA275",
".7 	c #C5996C",
"+7 	c #C69D6F",
"@7 	c #C7A172",
"#7 	c #CAA475",
"$7 	c #C6A272",
"%7 	c #CEAA7A",
"&7 	c #D3AE82",
"*7 	c #CBA578",
"=7 	c #C9A374",
"-7 	c #CAA477",
";7 	c #C39A6C",
">7 	c #C19B6E",
",7 	c #BE955D",
"'7 	c #BA9159",
")7 	c #B78E56",
"!7 	c #BC935B",
"~7 	c #D9AA80",
"{7 	c #976B48",
"]7 	c #C3986E",
"^7 	c #B38B57",
"/7 	c #8F6241",
"(7 	c #C29B72",
"_7 	c #A17747",
":7 	c #A67A49",
"<7 	c #B08B61",
"[7 	c #B18C62",
"}7 	c #A9845A",
"|7 	c #AC805D",
"17 	c #A27755",
"27 	c #C1986C",
"37 	c #BB946B",
"47 	c #B79067",
"57 	c #BA9368",
"67 	c #BC956A",
"77 	c #B8916A",
"87 	c #E8BF8B",
"97 	c #B58554",
"07 	c #B08751",
"a7 	c #C4965B",
"b7 	c #AE8350",
"c7 	c #9D6D45",
"d7 	c #E6B886",
"e7 	c #D19E69",
"f7 	c #D5A26D",
"g7 	c #B48551",
"h7 	c #D1A86A",
"i7 	c #AD844C",
"j7 	c #D3A476",
"k7 	c #CA9B6D",
"l7 	c #DDAF7B",
"m7 	c #CCA36D",
"n7 	c #C19058",
"o7 	c #A97B49",
"p7 	c #BD9466",
"q7 	c #CCA071",
"r7 	c #C79D6D",
"s7 	c #CDA275",
"t7 	c #C99D70",
"u7 	c #9B714B",
"v7 	c #B38866",
"w7 	c #AE8766",
"x7 	c #AC8566",
"y7 	c #AB8767",
"z7 	c #AF8B6B",
"A7 	c #B79373",
"B7 	c #BC9876",
"C7 	c #B48E6A",
"D7 	c #BC916E",
"E7 	c #D09E63",
"F7 	c #B88857",
"G7 	c #A57746",
"H7 	c #CA9E71",
"I7 	c #CDA277",
"J7 	c #D7AD83",
"K7 	c #D4AA80",
"L7 	c #D0A475",
"M7 	c #976C41",
"N7 	c #B78756",
"O7 	c #D5A97C",
"P7 	c #DDAD7C",
"Q7 	c #D8A877",
"R7 	c #C2956C",
"S7 	c #CFA374",
"T7 	c #D1A777",
"U7 	c #BA9163",
"V7 	c #CBA274",
"W7 	c #CB9B6B",
"X7 	c #CA9D74",
"Y7 	c #C79A71",
"Z7 	c #BF9773",
"`7 	c #BB9571",
" 8 	c #B7916D",
".8 	c #B5916F",
"+8 	c #BB9775",
"@8 	c #C29C78",
"#8 	c #BC9672",
"$8 	c #B28A66",
"%8 	c #B99269",
"&8 	c #D6A876",
"*8 	c #D3A574",
"=8 	c #CBA171",
"-8 	c #CFA678",
";8 	c #D5AF82",
">8 	c #D3AD80",
",8 	c #AD8552",
"'8 	c #AB824E",
")8 	c #D9AE7B",
"!8 	c #D9B07C",
"~8 	c #CA9E6F",
"{8 	c #D0A674",
"]8 	c #D7AE7A",
"^8 	c #CC9C6C",
"/8 	c #C69463",
"(8 	c #CC9F75",
"_8 	c #CDA478",
":8 	c #CEA77C",
"<8 	c #CFA87D",
"[8 	c #CCA77D",
"}8 	c #CDA87E",
"|8 	c #CFA87F",
"18 	c #D2A880",
"28 	c #D3AB7A",
"38 	c #D3AB77",
"48 	c #DEB683",
"58 	c #E2BC8B",
"68 	c #E0BA89",
"78 	c #D4A473",
"88 	c #CF9F6E",
"98 	c #D8AA78",
"08 	c #DEAE7E",
"a8 	c #E1B382",
"b8 	c #D5A574",
"c8 	c #D6AA79",
"d8 	c #D0A676",
"e8 	c #B68F68",
"f8 	c #C49A6A",
"g8 	c #CAA070",
"h8 	c #C4986B",
"i8 	c #C09369",
"j8 	c #977246",
"k8 	c #967349",
"l8 	c #906E48",
"m8 	c #8F6D48",
"n8 	c #9D764B",
"o8 	c #9F7B59",
"p8 	c #DFB481",
"q8 	c #A58459",
"r8 	c #A38257",
"s8 	c #A6865D",
"t8 	c #A88861",
"u8 	c #A2855D",
"v8 	c #9D7F59",
"w8 	c #CE9F71",
"x8 	c #BF9268",
"y8 	c #B08A66",
"z8 	c #D9B17D",
"A8 	c #D8B07D",
"B8 	c #D1A976",
"C8 	c #D5B07C",
"D8 	c #DFBA85",
"E8 	c #E1BC87",
"F8 	c #E0BB86",
"G8 	c #DCB782",
"H8 	c #DDB985",
"I8 	c #D1A372",
"J8 	c #D5AC74",
"K8 	c #DCB57E",
"L8 	c #E2B782",
"M8 	c #AC8B62",
"N8 	c #B08F64",
"O8 	c #AC8B60",
"P8 	c #A5845B",
"Q8 	c #A28259",
"R8 	c #9E7E55",
"S8 	c #C39B67",
"T8 	c #B28C67",
"U8 	c #B18B66",
"V8 	c #AE8864",
"W8 	c #A4805C",
"X8 	c #967451",
"Y8 	c #D6AC7A",
"Z8 	c #E6BD85",
"`8 	c #E9C08A",
" 9 	c #ECC38D",
".9 	c #EFC794",
"+9 	c #EDC490",
"@9 	c #E4B986",
"#9 	c #DBB17F",
"$9 	c #E2B675",
"%9 	c #E0B372",
"&9 	c #DFAF6F",
"*9 	c #E1B171",
"=9 	c #E3B373",
"-9 	c #D9AA76",
";9 	c #E8B586",
">9 	c #E1B16F",
",9 	c #E6B87A",
"'9 	c #E8BD88",
")9 	c #EBBF82",
"!9 	c #E3B581",
"~9 	c #AF815D",
"{9 	c #DDB26E",
"]9 	c #E1B878",
"^9 	c #E1B470",
"/9 	c #E0AE73",
"(9 	c #CDA87C",
"_9 	c #CCA77B",
":9 	c #CAA47F",
"<9 	c #C7A17A",
"[9 	c #BF9A70",
"}9 	c #BD966B",
"|9 	c #BC956C",
"19 	c #C2986E",
"29 	c #C59D6A",
"39 	c #C8A275",
"49 	c #C39D76",
"59 	c #B6915D",
"69 	c #BA925E",
"79 	c #B68A63",
"89 	c #AF8259",
"99 	c #AC8461",
"09 	c #9F7658",
"a9 	c #9F7859",
"b9 	c #B18966",
"c9 	c #A07757",
"d9 	c #A57857",
"e9 	c #BC9367",
"f9 	c #C59A70",
"g9 	c #C69B70",
"h9 	c #C6A071",
"i9 	c #C39E6A",
"j9 	c #B28D56",
"k9 	c #91674E",
"l9 	c #B89263",
"m9 	c #9E7652",
"n9 	c #966F52",
"o9 	c #A0785E",
"p9 	c #A57E61",
"q9 	c #A57E5D",
"r9 	c #A8805D",
"s9 	c #AD8763",
"t9 	c #AF8965",
"u9 	c #B68C66",
"v9 	c #9B7050",
"w9 	c #996E4E",
"x9 	c #B18E68",
"y9 	c #B2906B",
"z9 	c #B08E69",
"A9 	c #B48E67",
"B9 	c #B69069",
"C9 	c #B78D67",
"D9 	c #AC8661",
"E9 	c #B08562",
"F9 	c #B88E68",
"G9 	c #B88C65",
"H9 	c #DCB282",
"I9 	c #B8875C",
"J9 	c #8C6047",
"K9 	c #D3A478",
"L9 	c #C29659",
"M9 	c #C0965A",
"N9 	c #D1A87A",
"O9 	c #C8986A",
"P9 	c #C69668",
"Q9 	c #C49466",
"R9 	c #C4946C",
"S9 	c #BB8A61",
"T9 	c #AA7E4D",
"U9 	c #B88951",
"V9 	c #B0834C",
"W9 	c #C69E6B",
"X9 	c #9D7544",
"Y9 	c #9F7346",
"Z9 	c #93693F",
"`9 	c #C09970",
" 0 	c #89664A",
".0 	c #A57A57",
"+0 	c #A27B5A",
"@0 	c #AC8866",
"#0 	c #A38261",
"$0 	c #7F5E3B",
"%0 	c #A4825D",
"&0 	c #DBB375",
"*0 	c #EAC28E",
"=0 	c #D5AE6D",
"-0 	c #DCB57C",
";0 	c #D6AE70",
">0 	c #E8C18A",
",0 	c #E0B980",
"'0 	c #DAB277",
")0 	c #E7C089",
"!0 	c #E6B57D",
"~0 	c #ECC489",
"{0 	c #DBB272",
"]0 	c #DCAF6C",
"^0 	c #DAAF6B",
"/0 	c #B28450",
"(0 	c #ECBF86",
"_0 	c #E6B884",
":0 	c #B68655",
"<0 	c #A57948",
"[0 	c #9C774A",
"}0 	c #C09864",
"|0 	c #C9A072",
"10 	c #EABD84",
"20 	c #F2C792",
"30 	c #F0C791",
"40 	c #E8C08C",
"50 	c #EEC58F",
"60 	c #E7B985",
"70 	c #ECC38F",
"80 	c #EBC390",
"90 	c #EBC692",
"00 	c #EDC48E",
"a0 	c #E9C184",
"b0 	c #DEB678",
"c0 	c #E2BA7C",
"d0 	c #E5BD7F",
"e0 	c #EFC186",
"f0 	c #E9BB80",
"g0 	c #E9B87D",
"h0 	c #E3BA7C",
"i0 	c #EABC7E",
"j0 	c #EEC08C",
"k0 	c #F2CA97",
"l0 	c #ECC385",
"m0 	c #ECBE83",
"n0 	c #EBBA7F",
"o0 	c #E3BA7A",
"p0 	c #ECBF88",
"q0 	c #EDC891",
"r0 	c #EDC68D",
"s0 	c #EBC489",
"t0 	c #E8BE82",
"u0 	c #EBBF80",
"v0 	c #EDBF84",
"w0 	c #EABE7D",
"x0 	c #EBC284",
"y0 	c #E9BC7B",
"z0 	c #E7B67B",
"A0 	c #EFC88D",
"B0 	c #E2B97B",
"C0 	c #ECC38B",
"D0 	c #EEC695",
"E0 	c #E3BB88",
"F0 	c #DFB17F",
"G0 	c #E7BC87",
"H0 	c #F1C691",
"I0 	c #F7CC97",
"J0 	c #E6BB84",
"K0 	c #EAC18B",
"L0 	c #EFC692",
"M0 	c #E5B783",
"N0 	c #DEAC79",
"O0 	c #E4B984",
"P0 	c #C29C6B",
"Q0 	c #BF9A6D",
"R0 	c #BD986B",
"S0 	c #BD986C",
"T0 	c #BE996D",
"U0 	c #B08A65",
"V0 	c #BC9671",
"W0 	c #BC956E",
"X0 	c #C19C70",
"Y0 	c #C39E74",
"Z0 	c #CBA076",
"`0 	c #C4996F",
" a 	c #C2976C",
".a 	c #B48F65",
"+a 	c #AE8B61",
"@a 	c #AB8A5D",
"#a 	c #B4906C",
"$a 	c #AA8C6A",
"%a 	c #B9986D",
"&a 	c #B89261",
"*a 	c #B99362",
"=a 	c #B79160",
"-a 	c #B6905F",
";a 	c #BE926B",
">a 	c #B38C65",
",a 	c #B48A64",
"'a 	c #92684F",
")a 	c #AD815E",
"!a 	c #B78B64",
"~a 	c #BD916A",
"{a 	c #C9A074",
"]a 	c #D2A274",
"^a 	c #CA9A6A",
"/a 	c #CFA072",
"(a 	c #D5A785",
"_a 	c #D0A37C",
":a 	c #C29C6F",
"<a 	c #BF9A6E",
"[a 	c #C19C72",
"}a 	c #BC996F",
"|a 	c #BA9463",
"1a 	c #BB9362",
"2a 	c #BA8D63",
"3a 	c #936A4A",
"4a 	c #B48E61",
"5a 	c #B28C65",
"6a 	c #BA956B",
"7a 	c #C29D73",
"8a 	c #C79E72",
"9a 	c #C0996E",
"0a 	c #BB986E",
"aa 	c #B6936B",
"ba 	c #9F754F",
"ca 	c #A67E4B",
"da 	c #C19268",
"ea 	c #BA895E",
"fa 	c #BD8C61",
"ga 	c #BC8B60",
"ha 	c #BB8A5F",
"ia 	c #B5845B",
"ja 	c #AC7C54",
"ka 	c #AB7B55",
"la 	c #B68356",
"ma 	c #86603C",
"na 	c #A7845A",
"oa 	c #A8855B",
"pa 	c #AC875D",
"qa 	c #AE8653",
"ra 	c #937143",
"sa 	c #987444",
"ta 	c #A17B4A",
"ua 	c #A47E4D",
"va 	c #B58753",
"wa 	c #D3A979",
"xa 	c #BB8B5B",
"ya 	c #9B7046",
"za 	c #B28357",
"Aa 	c #B18256",
"Ba 	c #835B38",
"Ca 	c #A17D5B",
"Da 	c #A9835E",
"Ea 	c #B28655",
"Fa 	c #C18E5F",
"Ga 	c #8A6741",
"Ha 	c #DBAB69",
"Ia 	c #D3AA72",
"Ja 	c #EAB981",
"Ka 	c #B18150",
"La 	c #C89F67",
"Ma 	c #C39B5E",
"Na 	c #C08E5B",
"Oa 	c #9D6E42",
"Pa 	c #C6955D",
"Qa 	c #C19A63",
"Ra 	c #CC9A69",
"Sa 	c #A8794D",
"Ta 	c #DEB679",
"Ua 	c #BC976B",
"Va 	c #8E6841",
"Wa 	c #9E7547",
"Xa 	c #C79F64",
"Ya 	c #C39B5D",
"Za 	c #CAA360",
"`a 	c #C8A063",
" b 	c #E9BD7E",
".b 	c #EABE7F",
"+b 	c #E6BD7D",
"@b 	c #E9BB7D",
"#b 	c #EAC181",
"$b 	c #C9A26B",
"%b 	c #CBA36F",
"&b 	c #D4A16C",
"*b 	c #D29E6C",
"=b 	c #CE9A68",
"-b 	c #DEB982",
";b 	c #DEB682",
">b 	c #EDC085",
",b 	c #EEC186",
"'b 	c #CD9862",
")b 	c #C7925E",
"!b 	c #C79260",
"~b 	c #C99364",
"{b 	c #D09A6B",
"]b 	c #D09B69",
"^b 	c #D39E68",
"/b 	c #CB975E",
"(b 	c #9A6F44",
"_b 	c #C89566",
":b 	c #C59263",
"<b 	c #C28F60",
"[b 	c #D0A972",
"}b 	c #B79265",
"|b 	c #B59063",
"1b 	c #AD885C",
"2b 	c #E0C39B",
"3b 	c #F6DCB9",
"4b 	c #EFD6B7",
"5b 	c #ECD3B5",
"6b 	c #ECD2AD",
"7b 	c #EDD1AC",
"8b 	c #EBCFA8",
"9b 	c #EACCA6",
"0b 	c #E9CBA5",
"ab 	c #EDCDA6",
"bb 	c #E8C8A1",
"cb 	c #E5C39D",
"db 	c #E6C49E",
"eb 	c #E7C59F",
"fb 	c #E7C5A0",
"gb 	c #E5C39E",
"hb 	c #E1C49C",
"ib 	c #E3C098",
"jb 	c #E0C099",
"kb 	c #D9BD95",
"lb 	c #DEBD94",
"mb 	c #DBBC9D",
"nb 	c #CCB196",
"ob 	c #E3C59F",
"pb 	c #E0C29C",
"qb 	c #DEC09A",
"rb 	c #E2C49E",
"sb 	c #E1C39D",
"tb 	c #E2C59D",
"ub 	c #DDBD96",
"vb 	c #DFBF96",
"wb 	c #E1C198",
"xb 	c #DDBF99",
"yb 	c #DCC098",
"zb 	c #E1C19A",
"Ab 	c #DEBE98",
"Bb 	c #DCBC95",
"Cb 	c #D9BB97",
"Db 	c #D1B794",
"Eb 	c #DEBE95",
"Fb 	c #E7C79E",
"Gb 	c #E1C296",
"Hb 	c #E5C499",
"Ib 	c #E6C59A",
"Jb 	c #E7C69B",
"Kb 	c #E4C599",
"Lb 	c #E6C79B",
"Mb 	c #E9C7A4",
"Nb 	c #E5C49B",
"Ob 	c #EBCA9F",
"Pb 	c #ECC9A9",
"Qb 	c #E9C998",
"Rb 	c #EAC8A5",
"Sb 	c #ECCAA7",
"Tb 	c #E9C89D",
"Ub 	c #EAC8A3",
"Vb 	c #E8C6A0",
"Wb 	c #EECBA3",
"Xb 	c #ECC99F",
"Yb 	c #B28C5F",
"Zb 	c #C29C6D",
"`b 	c #C8996D",
" c 	c #DAB791",
".c 	c #EFCEAB",
"+c 	c #E9CBA7",
"@c 	c #EED0AC",
"#c 	c #EDCFAB",
"$c 	c #EBCDAB",
"%c 	c #EDCFA9",
"&c 	c #EED0AA",
"*c 	c #EFD1AB",
"=c 	c #EFD2AA",
"-c 	c #F0D3AB",
";c 	c #ECD3AB",
">c 	c #EDD4AC",
",c 	c #EDD4AB",
"'c 	c #EBD2A9",
")c 	c #EED5AD",
"!c 	c #E8CFA7",
"~c 	c #EBD1AC",
"{c 	c #EDCEAF",
"]c 	c #EBCDA7",
"^c 	c #EDD1AA",
"/c 	c #E9D0B2",
"(c 	c #EAD1B3",
"_c 	c #F0D6B1",
":c 	c #F1D4B2",
"<c 	c #F0D4AF",
"[c 	c #EFD3AE",
"}c 	c #F1D5B0",
"|c 	c #F3D7B2",
"1c 	c #F4D8B3",
"2c 	c #EBCFAA",
"3c 	c #EED1AF",
"4c 	c #EACEA6",
"5c 	c #EBCFA7",
"6c 	c #EACCA8",
"7c 	c #ECCEA8",
"8c 	c #EACEA7",
"9c 	c #EACDAB",
"0c 	c #ECCFAD",
"ac 	c #EBD2AA",
"bc 	c #EAD0AB",
"cc 	c #F1D5AE",
"dc 	c #ECD3AA",
"ec 	c #F0D4AD",
"fc 	c #F0D2AE",
"gc 	c #EED2AD",
"hc 	c #F0D4AC",
"ic 	c #F4D7AD",
"jc 	c #CAA97C",
"kc 	c #B28E5E",
"lc 	c #B99460",
"mc 	c #BD9561",
"nc 	c #C29A66",
"oc 	c #B18E64",
"pc 	c #E8C59D",
"qc 	c #ECC8A4",
"rc 	c #EBC9A4",
"sc 	c #EAC8A2",
"tc 	c #EECDA4",
"uc 	c #EDCCA1",
"vc 	c #E9C89F",
"wc 	c #E5CA9D",
"xc 	c #E8CDA0",
"yc 	c #EBD0A3",
"zc 	c #E4C99C",
"Ac 	c #E8CDA2",
"Bc 	c #E6CAA2",
"Cc 	c #E8CCA5",
"Dc 	c #E6C69D",
"Ec 	c #E6C69F",
"Fc 	c #E4C49D",
"Gc 	c #E2C29B",
"Hc 	c #E1C19B",
"Ic 	c #DFBF99",
"Jc 	c #DEBD9A",
"Kc 	c #DFBD98",
"Lc 	c #D7B899",
"Mc 	c #E9C8A7",
"Nc 	c #ECC9A3",
"Oc 	c #E9C7A1",
"Pc 	c #E3C19C",
"Qc 	c #E4C09C",
"Rc 	c #E7C39F",
"Sc 	c #E2BE9A",
"Tc 	c #E1BF9A",
"Uc 	c #E6C49F",
"Vc 	c #E3C69E",
"Wc 	c #E4C49E",
"Xc 	c #E3C29F",
"Yc 	c #E4C3A0",
"Zc 	c #E3C5A1",
"`c 	c #DFC39C",
" d 	c #E5C4A1",
".d 	c #E3C39D",
"+d 	c #E2C29C",
"@d 	c #E1C09D",
"#d 	c #E2C19E",
"$d 	c #E5C7A1",
"%d 	c #E8CBA3",
"&d 	c #E2C59B",
"*d 	c #E5C89E",
"=d 	c #E6C99F",
"-d 	c #E5CA9F",
";d 	c #E4C8A0",
">d 	c #E1C59D",
",d 	c #E1C7A2",
"'d 	c #ECD0AB",
")d 	c #ECCEAA",
"!d 	c #E8CCA7",
"~d 	c #EED2AB",
"{d 	c #E8C4A2",
"]d 	c #B18C60",
"^d 	c #946E47",
"/d 	c #AB855E",
"(d 	c #C3A98E",
"_d 	c #F6DCBB",
":d 	c #F7DDBC",
"<d 	c #F5DBBA",
"[d 	c #F8E1C1",
"}d 	c #F9E2C2",
"|d 	c #FBE4C4",
"1d 	c #FCE5C5",
"2d 	c #FEE7C7",
"3d 	c #FFE8C9",
"4d 	c #FFE6C8",
"5d 	c #FEE7C8",
"6d 	c #FDE8CB",
"7d 	c #FBE8CA",
"8d 	c #FCE7C8",
"9d 	c #FCE9C9",
"0d 	c #FAE7C7",
"ad 	c #FBE8C8",
"bd 	c #FBE6C9",
"cd 	c #F9E6C8",
"dd 	c #FAE7C9",
"ed 	c #FCE9CB",
"fd 	c #FAE5C8",
"gd 	c #F9E4C7",
"hd 	c #FAE2C6",
"id 	c #FBE1C6",
"jd 	c #F9E0C2",
"kd 	c #F8DFC1",
"ld 	c #F9DEC1",
"md 	c #F5DFBA",
"nd 	c #F1DAB8",
"od 	c #EEDAB7",
"pd 	c #EDDABA",
"qd 	c #C8AC94",
"rd 	c #F3D9B8",
"sd 	c #ECD1B3",
"td 	c #F3DDB6",
"ud 	c #F8DBB9",
"vd 	c #F6DFC0",
"wd 	c #F8E0BE",
"xd 	c #F7E0BE",
"yd 	c #F8E1BF",
"zd 	c #FAE3C3",
"Ad 	c #FDE6C6",
"Bd 	c #FAE7C6",
"Cd 	c #F9E6C5",
"Dd 	c #F9E6C6",
"Ed 	c #FDE8C9",
"Fd 	c #FBE6C7",
"Gd 	c #FAE5C6",
"Hd 	c #FDE6C7",
"Id 	c #FCE5C6",
"Jd 	c #FBE7C4",
"Kd 	c #FAE6C3",
"Ld 	c #FDE6C4",
"Md 	c #FAE3C1",
"Nd 	c #FBE3C1",
"Od 	c #F8E0BC",
"Pd 	c #FBE1BE",
"Qd 	c #F8DEBB",
"Rd 	c #F2DCB5",
"Sd 	c #EBD3AF",
"Td 	c #CCA57C",
"Ud 	c #BF9066",
"Vd 	c #BC8D61",
"Wd 	c #E4CFB4",
"Xd 	c #F3D7BF",
"Yd 	c #F2D8BD",
"Zd 	c #F7DCBF",
"`d 	c #F5DEBE",
" e 	c #F7DFC3",
".e 	c #F4E1C3",
"+e 	c #F5E2C4",
"@e 	c #F6E3C5",
"#e 	c #F7E4C6",
"$e 	c #F8E3C6",
"%e 	c #FCE7CA",
"&e 	c #FCE7CC",
"*e 	c #FBE7CC",
"=e 	c #FAE6CB",
"-e 	c #F8E5C7",
";e 	c #F9E5CA",
">e 	c #F8E4C9",
",e 	c #F7E3C8",
"'e 	c #F9E4C9",
")e 	c #FDE8CD",
"!e 	c #F6E1C6",
"~e 	c #FCE8CD",
"{e 	c #F8E4CB",
"]e 	c #F7E2C7",
"^e 	c #F5E0C5",
"/e 	c #F4DFC2",
"(e 	c #F3DEC1",
"_e 	c #F0DBBE",
":e 	c #F5E0C1",
"<e 	c #F7E3C2",
"[e 	c #F9E4C5",
"}e 	c #F4E0BF",
"|e 	c #F1DDBA",
"1e 	c #E3CCAC",
"2e 	c #C1995E",
"3e 	c #C9B091",
"4e 	c #EED4B3",
"5e 	c #B59A7C",
"6e 	c #C4A98B",
"7e 	c #C4AB8C",
"8e 	c #C6AD8E",
"9e 	c #CAB192",
"0e 	c #CCB394",
"ae 	c #CEB597",
"be 	c #CFB698",
"ce 	c #D0B799",
"de 	c #D2BA98",
"ee 	c #D3BB99",
"fe 	c #D3BC9A",
"ge 	c #D5BE9C",
"he 	c #D7C09E",
"ie 	c #D7C3A0",
"je 	c #D8C4A1",
"ke 	c #D9C5A2",
"le 	c #DBC6A9",
"me 	c #DDC8AB",
"ne 	c #DEC9AC",
"oe 	c #DECBAD",
"pe 	c #DFCCAE",
"qe 	c #E2CDB0",
"re 	c #E3CEB1",
"se 	c #E3CEB3",
"te 	c #E5D0B5",
"ue 	c #E7D2B7",
"ve 	c #E9D4B9",
"we 	c #EAD5BA",
"xe 	c #E9D5BA",
"ye 	c #E7D3B8",
"ze 	c #E9D3BB",
"Ae 	c #E7D1B9",
"Be 	c #E6D0B8",
"Ce 	c #E8D2BA",
"De 	c #E7D4B3",
"Ee 	c #E6D3B2",
"Fe 	c #E5D2B1",
"Ge 	c #E4D1B0",
"He 	c #E3D0AF",
"Ie 	c #E4D1A9",
"Je 	c #E3D0A8",
"Ke 	c #E2CFA7",
"Le 	c #E0CDA5",
"Me 	c #DFCCA2",
"Ne 	c #E0CAA1",
"Oe 	c #DEC89F",
"Pe 	c #DDC79E",
"Qe 	c #DABFA2",
"Re 	c #DDC2A5",
"Se 	c #E4CBAC",
"Te 	c #EAD3B3",
"Ue 	c #D6A965",
"Ve 	c #B38C55",
"We 	c #CAB08F",
"Xe 	c #E9D0A8",
"Ye 	c #C8B28B",
"Ze 	c #D0B290",
"`e 	c #CCB498",
" f 	c #D2B897",
".f 	c #D3B998",
"+f 	c #D4B99B",
"@f 	c #D3BA9B",
"#f 	c #D3BA9C",
"$f 	c #D4BD9D",
"%f 	c #D4BD9E",
"&f 	c #D5BE9F",
"*f 	c #D6BFA0",
"=f 	c #DAC3A4",
"-f 	c #DBC4A5",
";f 	c #D9C2A3",
">f 	c #DCC5A6",
",f 	c #DBC3A7",
"'f 	c #D9C1A5",
")f 	c #D6BEA2",
"!f 	c #D4BCA0",
"~f 	c #D5BDA1",
"{f 	c #D3BEA1",
"]f 	c #D3BEA3",
"^f 	c #D2BDA2",
"/f 	c #D1BCA1",
"(f 	c #D0BBA0",
"_f 	c #CFBA9F",
":f 	c #CEB99E",
"<f 	c #CDB89D",
"[f 	c #CAB59A",
"}f 	c #CAB598",
"|f 	c #C9B497",
"1f 	c #C8B396",
"2f 	c #C8B398",
"3f 	c #C5B091",
"4f 	c #C3AE8F",
"5f 	c #C5AE8F",
"6f 	c #C1AA8B",
"7f 	c #C0A989",
"8f 	c #BEA586",
"9f 	c #BDA485",
"0f 	c #B69D7E",
"af 	c #C8AD8F",
"bf 	c #F3D5B3",
"cf 	c #DDB383",
"df 	c #D4AB6D",
"ef 	c #D2A665",
"ff 	c #DCAC7B",
"gf 	c #CDB89B",
"hf 	c #E9CFAA",
"if 	c #D3B89D",
"jf 	c #D6BCA1",
"kf 	c #D9BEA1",
"lf 	c #D3BC9C",
"mf 	c #D8BEA3",
"nf 	c #D7C0A1",
"of 	c #D8C1A2",
"pf 	c #DCC4A8",
"qf 	c #DEC6AA",
"rf 	c #DFC7AB",
"sf 	c #E0C8AC",
"tf 	c #E3CBB1",
"uf 	c #E1CCB1",
"vf 	c #E2CDB2",
"wf 	c #E6D1B6",
"xf 	c #EAD4BC",
"yf 	c #E5CFB7",
"zf 	c #E4CEB6",
"Af 	c #E3CFB6",
"Bf 	c #E4D0B8",
"Cf 	c #E4D0B7",
"Df 	c #E4D0B5",
"Ef 	c #E0CDAF",
"Ff 	c #E0CDAD",
"Gf 	c #DFCCAC",
"Hf 	c #DECBAB",
"If 	c #DCC9A9",
"Jf 	c #DBC8A8",
"Kf 	c #DAC7A7",
"Lf 	c #D9C6A6",
"Mf 	c #D7C3AA",
"Nf 	c #DBC7AC",
"Of 	c #DCC7AA",
"Pf 	c #D9C4A9",
"Qf 	c #DDC8AD",
"Rf 	c #D8C3A6",
"Sf 	c #E8CBAB",
"Tf 	c #D4BC9A",
"Uf 	c #EBD1B0",
"Vf 	c #604728",
"Wf 	c #644B2D",
"Xf 	c #6B5032",
"Yf 	c #6D5235",
"Zf 	c #6E5336",
"`f 	c #6D5436",
" g 	c #6D5338",
".g 	c #6C5438",
"+g 	c #6D5539",
"@g 	c #6B5639",
"#g 	c #69533B",
"$g 	c #6A543C",
"%g 	c #6B553D",
"&g 	c #6C563E",
"*g 	c #6D573F",
"=g 	c #6B553E",
"-g 	c #6C563F",
";g 	c #6C573C",
">g 	c #6D583D",
",g 	c #6F5A3F",
"'g 	c #715C41",
")g 	c #725C44",
"!g 	c #715B43",
"~g 	c #705A42",
"{g 	c #6F5941",
"]g 	c #68523D",
"^g 	c #654F3A",
"/g 	c #644E39",
"(g 	c #634D38",
"_g 	c #614B36",
":g 	c #5D4A39",
"<g 	c #5C4938",
"[g 	c #5B4837",
"}g 	c #5A4736",
"|g 	c #594635",
"1g 	c #584534",
"2g 	c #574433",
"3g 	c #564332",
"4g 	c #56412C",
"5g 	c #56422A",
"6g 	c #554129",
"7g 	c #533F27",
"8g 	c #523E26",
"9g 	c #513D24",
"0g 	c #4F3B22",
"ag 	c #583E25",
"bg 	c #422A10",
"cg 	c #9E8469",
"dg 	c #DBAE6A",
"eg 	c #DAAD6A",
"fg 	c #BD9057",
"gg 	c #DBC39D",
"hg 	c #63482A",
"ig 	c #6F5934",
"jg 	c #7A5B3C",
"kg 	c #72583D",
"lg 	c #785B3D",
"mg 	c #765B3D",
"ng 	c #755A3D",
"og 	c #74593C",
"pg 	c #73583B",
"qg 	c #71583A",
"rg 	c #705739",
"sg 	c #775C3F",
"tg 	c #72573A",
"ug 	c #785D40",
"vg 	c #7B6043",
"wg 	c #7A5F42",
"xg 	c #775D42",
"yg 	c #765C41",
"zg 	c #73593E",
"Ag 	c #6F553A",
"Bg 	c #6D533A",
"Cg 	c #6A523A",
"Dg 	c #695139",
"Eg 	c #685038",
"Fg 	c #674F37",
"Gg 	c #664E36",
"Hg 	c #664D37",
"Ig 	c #654C36",
"Jg 	c #604A33",
"Kg 	c #5F4932",
"Lg 	c #5E4831",
"Mg 	c #5D4730",
"Ng 	c #5C462F",
"Og 	c #5B452E",
"Pg 	c #5B472F",
"Qg 	c #5A462D",
"Rg 	c #59452C",
"Sg 	c #58442B",
"Tg 	c #57432A",
"Ug 	c #57432B",
"Vg 	c #564028",
"Wg 	c #554025",
"Xg 	c #533E23",
"Yg 	c #523A20",
"Zg 	c #533B21",
"`g 	c #50381C",
" h 	c #4F371B",
".h 	c #422A0E",
"+h 	c #866C51",
"@h 	c #FEE1C1",
"#h 	c #E3BB8A",
"$h 	c #ECC08F",
"%h 	c #DFB676",
"&h 	c #D8C09A",
"*h 	c #694E33",
"=h 	c #6F573B",
"-h 	c #6F5437",
";h 	c #755E3C",
">h 	c #735A3C",
",h 	c #71573C",
"'h 	c #71593F",
")h 	c #70583E",
"!h 	c #705840",
"~h 	c #715941",
"{h 	c #6F573F",
"]h 	c #6E5840",
"^h 	c #715B44",
"/h 	c #725C45",
"(h 	c #6F5B43",
"_h 	c #755F48",
":h 	c #745E47",
"<h 	c #68523B",
"[h 	c #665039",
"}h 	c #67513A",
"|h 	c #5F4D37",
"1h 	c #5E4C36",
"2h 	c #5D4B33",
"3h 	c #5C4A32",
"4h 	c #58462E",
"5h 	c #57452D",
"6h 	c #56442E",
"7h 	c #54422C",
"8h 	c #52402A",
"9h 	c #513F29",
"0h 	c #503E28",
"ah 	c #503B26",
"bh 	c #503C24",
"ch 	c #5C4830",
"dh 	c #4C361E",
"eh 	c #9B8369",
"fh 	c #F6D9B9",
"gh 	c #CBA073",
"hh 	c #D2B99B",
"ih 	c #F2D7B9",
"jh 	c #61482A",
"kh 	c #6A5236",
"lh 	c #70563B",
"mh 	c #745A3F",
"nh 	c #755B40",
"oh 	c #725841",
"ph 	c #705741",
"qh 	c #6E5841",
"rh 	c #6A563E",
"sh 	c #69553D",
"th 	c #6A543D",
"uh 	c #69533C",
"vh 	c #66503B",
"wh 	c #634C3A",
"xh 	c #5F4836",
"yh 	c #5E4735",
"zh 	c #5C4533",
"Ah 	c #5A4331",
"Bh 	c #594230",
"Ch 	c #57402E",
"Dh 	c #554233",
"Eh 	c #544132",
"Fh 	c #534031",
"Gh 	c #523F30",
"Hh 	c #513E2F",
"Ih 	c #503D2E",
"Jh 	c #4F3C2D",
"Kh 	c #4E382B",
"Lh 	c #4E382A",
"Mh 	c #4B3829",
"Nh 	c #493627",
"Oh 	c #463322",
"Ph 	c #453221",
"Qh 	c #423018",
"Rh 	c #37250D",
"Sh 	c #97866C",
"Th 	c #FCEBD1",
"Uh 	c #DFC5AE",
"Vh 	c #E2C9AA",
"Wh 	c #60462D",
"Xh 	c #715A3B",
"Yh 	c #745C40",
"Zh 	c #795E41",
"`h 	c #7A5F44",
" i 	c #785E43",
".i 	c #775D44",
"+i 	c #765C43",
"@i 	c #785E45",
"#i 	c #775F47",
"$i 	c #765E46",
"%i 	c #755D45",
"&i 	c #745C44",
"*i 	c #735B43",
"=i 	c #725A42",
"-i 	c #6F5642",
";i 	c #6E5541",
">i 	c #6D5440",
",i 	c #6C533F",
"'i 	c #6B523E",
")i 	c #6A543F",
"!i 	c #69533E",
"~i 	c #67513C",
"{i 	c #614C37",
"]i 	c #604B36",
"^i 	c #5F4A35",
"/i 	c #5E4934",
"(i 	c #5D4833",
"_i 	c #5C4732",
":i 	c #5D4732",
"<i 	c #5A442D",
"[i 	c #58422B",
"}i 	c #58422A",
"|i 	c #574129",
"1i 	c #473119",
"2i 	c #8C795B",
"3i 	c #CEAB83",
"4i 	c #C09A75",
"5i 	c #BE946A",
"6i 	c #C59D6C",
"7i 	c #B7925D",
"8i 	c #916A41",
"9i 	c #E0CBAE",
"0i 	c #D9C19B",
"ai 	c #654B32",
"bi 	c #71593D",
"ci 	c #6E5737",
"di 	c #70563D",
"ei 	c #6F553C",
"fi 	c #6E563E",
"gi 	c #6D553D",
"hi 	c #6C543C",
"ii 	c #6D543E",
"ji 	c #67533B",
"ki 	c #644F3A",
"li 	c #624D38",
"mi 	c #65503B",
"ni 	c #5D4835",
"oi 	c #5A4834",
"pi 	c #594733",
"qi 	c #584632",
"ri 	c #574531",
"si 	c #564430",
"ti 	c #55432D",
"ui 	c #523F2E",
"vi 	c #513E2D",
"wi 	c #503D2C",
"xi 	c #4D3A2B",
"yi 	c #4C392A",
"zi 	c #4E3B2A",
"Ai 	c #44321E",
"Bi 	c #4C3A26",
"Ci 	c #52402C",
"Di 	c #513F2B",
"Ei 	c #56412E",
"Fi 	c #402A15",
"Gi 	c #9F8971",
"Hi 	c #F9E2C3",
"Ii 	c #A17546",
"Ji 	c #EDD4B6",
"Ki 	c #5D452B",
"Li 	c #5B452D",
"Mi 	c #5D472F",
"Ni 	c #604A32",
"Oi 	c #614B33",
"Pi 	c #634D35",
"Qi 	c #644E37",
"Ri 	c #634D36",
"Si 	c #624C34",
"Ti 	c #614D34",
"Ui 	c #614D35",
"Vi 	c #604E38",
"Wi 	c #604B38",
"Xi 	c #5F4A37",
"Yi 	c #5F4A39",
"Zi 	c #5E4C38",
"`i 	c #5C4A36",
" j 	c #5D4B37",
".j 	c #5A4534",
"+j 	c #594433",
"@j 	c #4E3B2C",
"#j 	c #4E3D29",
"$j 	c #4D3C28",
"%j 	c #4C3B27",
"&j 	c #4B3A26",
"*j 	c #4A3925",
"=j 	c #483524",
"-j 	c #41301E",
";j 	c #392816",
">j 	c #362511",
",j 	c #382713",
"'j 	c #3B2C19",
")j 	c #2A1B08",
"!j 	c #93836C",
"~j 	c #FEEED4",
"{j 	c #A37754",
"]j 	c #A1754E",
"^j 	c #AA814D",
"/j 	c #B08753",
"(j 	c #BE9369",
"_j 	c #D7BFA7",
":j 	c #5B422C",
"<j 	c #583C24",
"[j 	c #665038",
"}j 	c #675139",
"|j 	c #68523A",
"1j 	c #654F38",
"2j 	c #634F37",
"3j 	c #634E39",
"4j 	c #58432E",
"5j 	c #614C39",
"6j 	c #5E4936",
"7j 	c #584332",
"8j 	c #584330",
"9j 	c #57422F",
"0j 	c #55402D",
"aj 	c #543F2C",
"bj 	c #533E2B",
"cj 	c #523D2C",
"dj 	c #4E3C28",
"ej 	c #493723",
"fj 	c #46341E",
"gj 	c #44321C",
"hj 	c #43311B",
"ij 	c #44321A",
"jj 	c #322008",
"kj 	c #87765C",
"lj 	c #D2AF87",
"mj 	c #89633F",
"nj 	c #936943",
"oj 	c #E1CCAF",
"pj 	c #D6C09B",
"qj 	c #593F28",
"rj 	c #5F4931",
"sj 	c #60482E",
"tj 	c #614C2F",
"uj 	c #624E36",
"vj 	c #624C35",
"wj 	c #614B34",
"xj 	c #5F4B33",
"yj 	c #5A4935",
"zj 	c #54432F",
"Aj 	c #554430",
"Bj 	c #55432F",
"Cj 	c #4A3824",
"Dj 	c #493625",
"Ej 	c #4D3A29",
"Fj 	c #4C3928",
"Gj 	c #4B3827",
"Hj 	c #493824",
"Ij 	c #483723",
"Jj 	c #463521",
"Kj 	c #473622",
"Lj 	c #473624",
"Mj 	c #453422",
"Nj 	c #433220",
"Oj 	c #3B2B1B",
"Pj 	c #3E2E1E",
"Qj 	c #362714",
"Rj 	c #433222",
"Sj 	c #3E2914",
"Tj 	c #A08A73",
"Uj 	c #B68952",
"Vj 	c #D0B997",
"Wj 	c #EED7B8",
"Xj 	c #645140",
"Yj 	c #65533F",
"Zj 	c #675541",
"`j 	c #695743",
" k 	c #6A5844",
".k 	c #695844",
"+k 	c #685743",
"@k 	c #695645",
"#k 	c #675644",
"$k 	c #665545",
"%k 	c #655444",
"&k 	c #645343",
"*k 	c #635242",
"=k 	c #615040",
"-k 	c #615141",
";k 	c #625141",
">k 	c #5F4F40",
",k 	c #5E4E3F",
"'k 	c #5D4D3E",
")k 	c #5E4E41",
"!k 	c #5C4C3F",
"~k 	c #605043",
"{k 	c #5D4D40",
"]k 	c #57473A",
"^k 	c #554538",
"/k 	c #4C3C2F",
"(k 	c #4B3B2E",
"_k 	c #4E3E31",
":k 	c #524235",
"<k 	c #534336",
"[k 	c #564639",
"}k 	c #56453B",
"|k 	c #55443A",
"1k 	c #544339",
"2k 	c #534238",
"3k 	c #524137",
"4k 	c #534137",
"5k 	c #503E34",
"6k 	c #4E3D33",
"7k 	c #4D3D30",
"8k 	c #463629",
"9k 	c #3D2D20",
"0k 	c #38281B",
"ak 	c #362919",
"bk 	c #3F2D23",
"ck 	c #2C1A0C",
"dk 	c #97826D",
"ek 	c #FFEFD4",
"fk 	c #B08B56",
"gk 	c #DAC3A1",
"hk 	c #E1CDAA",
"ik 	c #5F4934",
"jk 	c #5C4231",
"kk 	c #604F3F",
"lk 	c #685544",
"mk 	c #685745",
"nk 	c #665543",
"ok 	c #645444",
"pk 	c #635343",
"qk 	c #625243",
"rk 	c #635344",
"sk 	c #59493A",
"tk 	c #524233",
"uk 	c #5C4C3D",
"vk 	c #5F4F42",
"wk 	c #5D4B3D",
"xk 	c #5C4A3C",
"yk 	c #5B493B",
"zk 	c #5B4A3A",
"Ak 	c #5A4939",
"Bk 	c #594739",
"Ck 	c #574537",
"Dk 	c #564436",
"Ek 	c #534334",
"Fk 	c #514132",
"Gk 	c #4C3C2C",
"Hk 	c #4A3929",
"Ik 	c #463523",
"Jk 	c #33220E",
"Kk 	c #8E7765",
"Lk 	c #FEE5C7",
"Mk 	c #DDB584",
"Nk 	c #D6C2A7",
"Ok 	c #DFC8A6",
"Pk 	c #5A442F",
"Qk 	c #65533D",
"Rk 	c #68563E",
"Sk 	c #644F3C",
"Tk 	c #66543E",
"Uk 	c #665440",
"Vk 	c #63523E",
"Wk 	c #62513F",
"Xk 	c #61503E",
"Yk 	c #604F3D",
"Zk 	c #5F4E3C",
"`k 	c #5E4D3B",
" l 	c #5D4C3A",
".l 	c #5C4C3C",
"+l 	c #5B4B3B",
"@l 	c #574737",
"#l 	c #4D4030",
"$l 	c #433626",
"%l 	c #483A2D",
"&l 	c #4E4033",
"*l 	c #514134",
"=l 	c #4F3F30",
"-l 	c #4D3D2E",
";l 	c #48382B",
">l 	c #413326",
",l 	c #3D3121",
"'l 	c #2D2111",
")l 	c #322616",
"!l 	c #423427",
"~l 	c #413122",
"{l 	c #382514",
"]l 	c #A9947F",
"^l 	c #FBE2C3",
"/l 	c #CFB896",
"(l 	c #F0D8BC",
"_l 	c #65503D",
":l 	c #604E42",
"<l 	c #6C5B4B",
"[l 	c #6E5D4D",
"}l 	c #705E50",
"|l 	c #715F51",
"1l 	c #706051",
"2l 	c #716152",
"3l 	c #6C5E55",
"4l 	c #6C5D56",
"5l 	c #6B5C55",
"6l 	c #6A5B54",
"7l 	c #695A53",
"8l 	c #675B4F",
"9l 	c #685C50",
"0l 	c #665A4E",
"al 	c #665950",
"bl 	c #665951",
"cl 	c #655850",
"dl 	c #64574F",
"el 	c #635950",
"fl 	c #63564E",
"gl 	c #61544B",
"hl 	c #62554C",
"il 	c #675A51",
"jl 	c #6A5D55",
"kl 	c #675A52",
"ll 	c #695C54",
"ml 	c #685B53",
"nl 	c #62584F",
"ol 	c #61574E",
"pl 	c #60564D",
"ql 	c #60534A",
"rl 	c #5F5249",
"sl 	c #5E5148",
"tl 	c #5C4F46",
"ul 	c #584C40",
"vl 	c #52463A",
"wl 	c #4D4135",
"xl 	c #483E32",
"yl 	c #493830",
"zl 	c #322215",
"Al 	c #917F6B",
"Bl 	c #E0CAA5",
"Cl 	c #665140",
"Dl 	c #69594A",
"El 	c #6E5B4D",
"Fl 	c #706257",
"Gl 	c #716154",
"Hl 	c #6F6154",
"Il 	c #6E6053",
"Jl 	c #6F5E54",
"Kl 	c #6C5E53",
"Ll 	c #6B5D52",
"Ml 	c #6B5D54",
"Nl 	c #6A5D54",
"Ol 	c #695C53",
"Pl 	c #6B5E55",
"Ql 	c #685B52",
"Rl 	c #65584F",
"Sl 	c #645A51",
"Tl 	c #62584E",
"Ul 	c #63594F",
"Vl 	c #60564C",
"Wl 	c #5F554B",
"Xl 	c #62544B",
"Yl 	c #61534A",
"Zl 	c #605249",
"`l 	c #605247",
" m 	c #5E5047",
".m 	c #5D4F46",
"+m 	c #5B4D44",
"@m 	c #594C43",
"#m 	c #574940",
"$m 	c #514338",
"%m 	c #504237",
"&m 	c #4B3B2C",
"*m 	c #504031",
"=m 	c #3D2D1E",
"-m 	c #927B69",
";m 	c #DFB784",
">m 	c #D9C5AC",
",m 	c #D9C5A4",
"'m 	c #695443",
")m 	c #6A5A4A",
"!m 	c #6D5A4B",
"~m 	c #6B5C49",
"{m 	c #6F5F4F",
"]m 	c #6E5E4F",
"^m 	c #6D5D4E",
"/m 	c #6B5D50",
"(m 	c #6A5C4F",
"_m 	c #6A5C51",
":m 	c #685A4F",
"<m 	c #65594D",
"[m 	c #64584C",
"}m 	c #63574B",
"|m 	c #64574E",
"1m 	c #63564D",
"2m 	c #5D5047",
"3m 	c #675D54",
"4m 	c #635A53",
"5m 	c #655C55",
"6m 	c #615652",
"7m 	c #605551",
"8m 	c #5F5450",
"9m 	c #5E534F",
"0m 	c #5E534D",
"am 	c #5D524C",
"bm 	c #5B504A",
"cm 	c #584D47",
"dm 	c #52483E",
"em 	c #4B4137",
"fm 	c #4E4639",
"gm 	c #463E33",
"hm 	c #443A30",
"im 	c #46382D",
"jm 	c #3F2F1F",
"km 	c #A1907C",
"lm 	c #FFE8C8",
"mm 	c #D2A97D",
"nm 	c #9E7645",
"om 	c #C9B195",
"pm 	c #F7E1C9",
"qm 	c #675443",
"rm 	c #766458",
"sm 	c #776559",
"tm 	c #79675B",
"um 	c #78685B",
"vm 	c #78675D",
"wm 	c #76685D",
"xm 	c #75675C",
"ym 	c #73675B",
"zm 	c #70665C",
"Am 	c #6F655B",
"Bm 	c #6E645A",
"Cm 	c #6C6258",
"Dm 	c #6B6157",
"Em 	c #6B605A",
"Fm 	c #6A615A",
"Gm 	c #696059",
"Hm 	c #6A5F59",
"Im 	c #69605B",
"Jm 	c #685F5A",
"Km 	c #675E59",
"Lm 	c #665D58",
"Mm 	c #665C5A",
"Nm 	c #645B56",
"Om 	c #5E554E",
"Pm 	c #625950",
"Qm 	c #6E645B",
"Rm 	c #6F655C",
"Sm 	c #3E3530",
"Tm 	c #39302B",
"Um 	c #382F2A",
"Vm 	c #3B322D",
"Wm 	c #3A312C",
"Xm 	c #3A322F",
"Ym 	c #39312E",
"Zm 	c #392F2D",
"`m 	c #3A302E",
" n 	c #382E2C",
".n 	c #342A28",
"+n 	c #332A25",
"@n 	c #322924",
"#n 	c #2D241F",
"$n 	c #271E19",
"%n 	c #392F25",
"&n 	c #382F20",
"*n 	c #918471",
"=n 	c #FBEDD3",
"-n 	c #C09A69",
";n 	c #C19965",
">n 	c #BD9967",
",n 	c #B89462",
"'n 	c #BC9665",
")n 	c #BE8F65",
"!n 	c #554234",
"~n 	c #77655B",
"{n 	c #71675D",
"]n 	c #75675E",
"^n 	c #74655E",
"/n 	c #73645D",
"(n 	c #72655F",
"_n 	c #6F645E",
":n 	c #6C6259",
"<n 	c #665C53",
"[n 	c #736960",
"}n 	c #776D64",
"|n 	c #675C56",
"1n 	c #685D57",
"2n 	c #6B605C",
"3n 	c #6A5F5B",
"4n 	c #6A605E",
"5n 	c #695F5D",
"6n 	c #675E57",
"7n 	c #665D56",
"8n 	c #655A54",
"9n 	c #645953",
"0n 	c #635852",
"an 	c #625751",
"bn 	c #615650",
"cn 	c #5F544E",
"dn 	c #5C514B",
"en 	c #594C46",
"fn 	c #53463E",
"gn 	c #51433A",
"hn 	c #4D3F36",
"in 	c #413026",
"jn 	c #8C7C65",
"kn 	c #FFECCF",
"ln 	c #C8A679",
"mn 	c #BE946C",
"nn 	c #906A46",
"on 	c #8E6740",
"pn 	c #DBC7AE",
"qn 	c #DDC8A9",
"rn 	c #685546",
"sn 	c #705E52",
"tn 	c #716454",
"un 	c #716056",
"vn 	c #706255",
"wn 	c #6F6156",
"xn 	c #6E6055",
"yn 	c #6D6057",
"zn 	c #6C5F56",
"An 	c #6C5F57",
"Bn 	c #695E58",
"Cn 	c #645B54",
"Dn 	c #5F564F",
"En 	c #5B524D",
"Fn 	c #665B55",
"Gn 	c #6C615D",
"Hn 	c #574E49",
"In 	c #372D2B",
"Jn 	c #352D2A",
"Kn 	c #3A3230",
"Ln 	c #36312E",
"Mn 	c #36312D",
"Nn 	c #37322E",
"On 	c #38332F",
"Pn 	c #39322C",
"Qn 	c #39322A",
"Rn 	c #383129",
"Sn 	c #373028",
"Tn 	c #352E24",
"Un 	c #332C22",
"Vn 	c #332A23",
"Wn 	c #2E251C",
"Xn 	c #282117",
"Yn 	c #2C251B",
"Zn 	c #443B32",
"`n 	c #4A3D34",
" o 	c #9E8D7D",
".o 	c #F6E5C7",
"+o 	c #B69369",
"@o 	c #A2754C",
"#o 	c #C7AE8F",
"$o 	c #826C61",
"%o 	c #837062",
"&o 	c #846F5E",
"*o 	c #7B695F",
"=o 	c #7B6C65",
"-o 	c #7E7264",
";o 	c #807362",
">o 	c #7D6F62",
",o 	c #806F67",
"'o 	c #7D6F64",
")o 	c #7B7165",
"!o 	c #7B7167",
"~o 	c #796F65",
"{o 	c #7B6E65",
"]o 	c #796C63",
"^o 	c #776C66",
"/o 	c #746963",
"(o 	c #786D67",
"_o 	c #766B65",
":o 	c #756A64",
"<o 	c #766D68",
"[o 	c #736A65",
"}o 	c #756C67",
"|o 	c #746B66",
"1o 	c #756A66",
"2o 	c #746965",
"3o 	c #726761",
"4o 	c #706B68",
"5o 	c #6E6462",
"6o 	c #796E68",
"7o 	c #73665E",
"8o 	c #817873",
"9o 	c #776E69",
"0o 	c #847B76",
"ao 	c #322D2A",
"bo 	c #2C2724",
"co 	c #2F2929",
"do 	c #302A2A",
"eo 	c #2C2827",
"fo 	c #2C2825",
"go 	c #2B2724",
"ho 	c #292826",
"io 	c #2A2927",
"jo 	c #2B2A28",
"ko 	c #282725",
"lo 	c #292522",
"mo 	c #282520",
"no 	c #27241F",
"oo 	c #24201D",
"po 	c #201A1A",
"qo 	c #211C19",
"ro 	c #1B1612",
"so 	c #1D1610",
"to 	c #392B28",
"uo 	c #433431",
"vo 	c #938270",
"wo 	c #FFF0CF",
"xo 	c #936855",
"yo 	c #D5BA9D",
"zo 	c #E4D5B4",
"Ao 	c #766551",
"Bo 	c #88746D",
"Co 	c #847A70",
"Do 	c #8A7A6B",
"Eo 	c #867667",
"Fo 	c #887869",
"Go 	c #867669",
"Ho 	c #87776A",
"Io 	c #8A7A6D",
"Jo 	c #86756B",
"Ko 	c #847669",
"Lo 	c #84766B",
"Mo 	c #83756A",
"No 	c #827469",
"Oo 	c #7F706B",
"Po 	c #7E6F6A",
"Qo 	c #847673",
"Ro 	c #736562",
"So 	c #726765",
"To 	c #837876",
"Uo 	c #857A78",
"Vo 	c #776D6B",
"Wo 	c #7D7270",
"Xo 	c #7B6D6C",
"Yo 	c #786A69",
"Zo 	c #7C6E6D",
"`o 	c #766B67",
" p 	c #7D726E",
".p 	c #786F68",
"+p 	c #79706B",
"@p 	c #776C68",
"#p 	c #796E6A",
"$p 	c #796E6C",
"%p 	c #756A68",
"&p 	c #726964",
"*p 	c #736A63",
"=p 	c #706760",
"-p 	c #726962",
";p 	c #6D645D",
">p 	c #6D625C",
",p 	c #615851",
"'p 	c #595049",
")p 	c #5B4E46",
"!p 	c #56483F",
"~p 	c #544741",
"{p 	c #453736",
"]p 	c #917E6F",
"^p 	c #FDEDC9",
"/p 	c #CFA97C",
"(p 	c #D3AA7C",
"_p 	c #C6A06F",
":p 	c #D4C3A9",
"<p 	c #E0CDBC",
"[p 	c #83695A",
"}p 	c #7D7463",
"|p 	c #837769",
"1p 	c #857263",
"2p 	c #867A6C",
"3p 	c #847767",
"4p 	c #85776A",
"5p 	c #837568",
"6p 	c #827467",
"7p 	c #807265",
"8p 	c #7F7269",
"9p 	c #7D7067",
"0p 	c #7F726A",
"ap 	c #7B6E66",
"bp 	c #7D706A",
"cp 	c #7F726C",
"dp 	c #7A6D67",
"ep 	c #7B706A",
"fp 	c #7A6F69",
"gp 	c #7A6F6B",
"hp 	c #786D69",
"ip 	c #766F69",
"jp 	c #79726C",
"kp 	c #736B68",
"lp 	c #756D6A",
"mp 	c #706B65",
"np 	c #7F7573",
"op 	c #615957",
"pp 	c #2A2A28",
"qp 	c #2E282A",
"rp 	c #2C2A2B",
"sp 	c #2B292A",
"tp 	c #292728",
"up 	c #292929",
"vp 	c #282828",
"wp 	c #272727",
"xp 	c #262523",
"yp 	c #272320",
"zp 	c #25211E",
"Ap 	c #231F1C",
"Bp 	c #1B191A",
"Cp 	c #1E1A17",
"Dp 	c #1D1812",
"Ep 	c #150F0F",
"Fp 	c #463F39",
"Gp 	c #4D4339",
"Hp 	c #3D2C24",
"Ip 	c #A08F75",
"Jp 	c #BA986B",
"Kp 	c #9B7852",
"Lp 	c #9D7A54",
"Mp 	c #95724A",
"Np 	c #956F4B",
"Op 	c #C9B290",
"Pp 	c #F7E2C3",
"Qp 	c #89786E",
"Rp 	c #877B6D",
"Sp 	c #7F746E",
"Tp 	c #60575A",
"Up 	c #656066",
"Vp 	c #646263",
"Wp 	c #62615D",
"Xp 	c #676364",
"Yp 	c #625D61",
"Zp 	c #615F60",
"`p 	c #656064",
" q 	c #635E62",
".q 	c #655F63",
"+q 	c #625B62",
"@q 	c #615C60",
"#q 	c #645F63",
"$q 	c #605B5F",
"%q 	c #5F5A5E",
"&q 	c #5C5A5D",
"*q 	c #5D5B5C",
"=q 	c #5F5B5C",
"-q 	c #5E5A5B",
";q 	c #5D595A",
">q 	c #5C5859",
",q 	c #5A585B",
"'q 	c #5B5555",
")q 	c #6E6663",
"!q 	c #7D746F",
"~q 	c #726A67",
"{q 	c #8D8583",
"]q 	c #857D7B",
"^q 	c #8C8482",
"/q 	c #413D3C",
"(q 	c #302C2B",
"_q 	c #262223",
":q 	c #252324",
"<q 	c #222023",
"[q 	c #262427",
"}q 	c #242223",
"|q 	c #282627",
"1q 	c #252326",
"2q 	c #272528",
"3q 	c #232122",
"4q 	c #222021",
"5q 	c #232220",
"6q 	c #1F1D20",
"7q 	c #242021",
"8q 	c #1F1B1A",
"9q 	c #1F1C17",
"0q 	c #463C3A",
"aq 	c #FCEFCC",
"bq 	c #CDA776",
"cq 	c #D3AA68",
"dq 	c #D6B999",
"eq 	c #E2D3B6",
"fq 	c #87796E",
"gq 	c #8D7C74",
"hq 	c #6D6362",
"iq 	c #63645F",
"jq 	c #636260",
"kq 	c #605E5F",
"lq 	c #636162",
"mq 	c #5F5D5E",
"nq 	c #5E5C5D",
"oq 	c #5E5C5F",
"pq 	c #605E61",
"qq 	c #635F60",
"rq 	c #615D5E",
"sq 	c #605C5D",
"tq 	c #645E60",
"uq 	c #605758",
"vq 	c #766C6A",
"wq 	c #817674",
"xq 	c #7A6F6D",
"yq 	c #928785",
"zq 	c #8C8280",
"Aq 	c #847C7A",
"Bq 	c #89817F",
"Cq 	c #6D6467",
"Dq 	c #595357",
"Eq 	c #5F595D",
"Fq 	c #5E595F",
"Gq 	c #5D585E",
"Hq 	c #5F5A60",
"Iq 	c #5B565C",
"Jq 	c #5C575D",
"Kq 	c #5A555B",
"Lq 	c #5D5B5E",
"Mq 	c #5E595D",
"Nq 	c #5D585C",
"Oq 	c #5C575B",
"Pq 	c #5A5559",
"Qq 	c #595458",
"Rq 	c #59575A",
"Sq 	c #575558",
"Tq 	c #545255",
"Uq 	c #555054",
"Vq 	c #575256",
"Wq 	c #534E52",
"Xq 	c #524D51",
"Yq 	c #575153",
"Zq 	c #514C50",
"`q 	c #4E4848",
" r 	c #534A43",
".r 	c #5D5048",
"+r 	c #564C43",
"@r 	c #463B37",
"#r 	c #998272",
"$r 	c #FCE9C1",
"%r 	c #E5BB89",
"&r 	c #ECC18A",
"*r 	c #D8C4A3",
"=r 	c #E6D1BC",
"-r 	c #8F786A",
";r 	c #6B645E",
">r 	c #5B5758",
",r 	c #615557",
"'r 	c #5D5759",
")r 	c #615859",
"!r 	c #62595A",
"~r 	c #635A5B",
"{r 	c #62595C",
"]r 	c #615C59",
"^r 	c #5E5956",
"/r 	c #605A5A",
"(r 	c #5F5959",
"_r 	c #5D5757",
":r 	c #5F595B",
"<r 	c #5A5456",
"[r 	c #585455",
"}r 	c #595556",
"|r 	c #5A5657",
"1r 	c #575354",
"2r 	c #565253",
"3r 	c #535152",
"4r 	c #545253",
"5r 	c #514B4B",
"6r 	c #79716F",
"7r 	c #706865",
"8r 	c #75706D",
"9r 	c #8A8280",
"0r 	c #897F80",
"ar 	c #6F6667",
"br 	c #2F2B2C",
"cr 	c #2C2C2C",
"dr 	c #282629",
"er 	c #262125",
"fr 	c #242225",
"gr 	c #272526",
"hr 	c #242424",
"ir 	c #252525",
"jr 	c #262425",
"kr 	c #272324",
"lr 	c #252120",
"mr 	c #1D1814",
"nr 	c #1E181A",
"or 	c #4B4340",
"pr 	c #3C2B24",
"qr 	c #A08E76",
"rr 	c #CAB391",
"sr 	c #8F7E76",
"tr 	c #92867A",
"ur 	c #888785",
"vr 	c #84848E",
"wr 	c #858899",
"xr 	c #808694",
"yr 	c #838A94",
"zr 	c #7E8492",
"Ar 	c #7F8690",
"Br 	c #858897",
"Cr 	c #868897",
"Dr 	c #838594",
"Er 	c #848695",
"Fr 	c #818392",
"Gr 	c #838592",
"Hr 	c #868895",
"Ir 	c #848693",
"Jr 	c #888A97",
"Kr 	c #80828F",
"Lr 	c #818390",
"Mr 	c #868894",
"Nr 	c #80848F",
"Or 	c #7E828D",
"Pr 	c #7F838E",
"Qr 	c #818590",
"Rr 	c #81838F",
"Sr 	c #828490",
"Tr 	c #878791",
"Ur 	c #79787E",
"Vr 	c #777374",
"Wr 	c #857F7F",
"Xr 	c #757170",
"Yr 	c #8F8B8C",
"Zr 	c #8A8687",
"`r 	c #938D8F",
" s 	c #474546",
".s 	c #383639",
"+s 	c #3F3F41",
"@s 	c #434247",
"#s 	c #434248",
"$s 	c #45444A",
"%s 	c #3F3E44",
"&s 	c #3E3D43",
"*s 	c #424147",
"=s 	c #444349",
"-s 	c #47464C",
";s 	c #403F44",
">s 	c #424146",
",s 	c #403F45",
"'s 	c #3C3B40",
")s 	c #2B292C",
"!s 	c #201F1D",
"~s 	c #3A3633",
"{s 	c #4A4240",
"]s 	c #908571",
"^s 	c #FDF0CD",
"/s 	c #D7B180",
"(s 	c #D6AD6B",
"_s 	c #A0734A",
":s 	c #C19459",
"<s 	c #BC9762",
"[s 	c #DABD9B",
"}s 	c #E2D2B8",
"|s 	c #8A7D75",
"1s 	c #988A87",
"2s 	c #8E878E",
"3s 	c #989DA3",
"4s 	c #9096A4",
"5s 	c #8E94A2",
"6s 	c #9197A5",
"7s 	c #8C92A0",
"8s 	c #898F9D",
"9s 	c #8B919F",
"0s 	c #9094A0",
"as 	c #8C909C",
"bs 	c #9195A1",
"cs 	c #8B8F9B",
"ds 	c #8F939F",
"es 	c #8F95A1",
"fs 	c #91949D",
"gs 	c #868489",
"hs 	c #7C7676",
"is 	c #887E7D",
"js 	c #978D8C",
"ks 	c #978F8D",
"ls 	c #888282",
"ms 	c #8E8A8B",
"ns 	c #87868B",
"os 	c #8C8C96",
"ps 	c #898B98",
"qs 	c #888A99",
"rs 	c #88899B",
"ss 	c #8A8B9D",
"ts 	c #878A99",
"us 	c #7F8291",
"vs 	c #808392",
"ws 	c #7E8190",
"xs 	c #868998",
"ys 	c #828594",
"zs 	c #858995",
"As 	c #848894",
"Bs 	c #7F838F",
"Cs 	c #7C808C",
"Ds 	c #7D818D",
"Es 	c #7B7F8B",
"Fs 	c #7A7E8A",
"Gs 	c #7E828E",
"Hs 	c #807F8D",
"Is 	c #7E7D8B",
"Js 	c #888894",
"Ks 	c #6E6B72",
"Ls 	c #5A5552",
"Ms 	c #4B423B",
"Ns 	c #FAE7BF",
"Os 	c #E7BD8B",
"Ps 	c #E1B27E",
"Qs 	c #E9BC85",
"Rs 	c #E9BE89",
"Ss 	c #F1C68F",
"Ts 	c #E9C088",
"Us 	c #D5BE9E",
"Vs 	c #EED8C1",
"Ws 	c #978378",
"Xs 	c #838287",
"Ys 	c #777A89",
"Zs 	c #82808E",
"`s 	c #858492",
" t 	c #7E7E8A",
".t 	c #838290",
"+t 	c #81808E",
"@t 	c #848790",
"#t 	c #80838C",
"$t 	c #81848D",
"%t 	c #7F828B",
"&t 	c #7A7D86",
"*t 	c #7D8089",
"=t 	c #83868F",
"-t 	c #82858E",
";t 	c #848692",
">t 	c #7D7F8B",
",t 	c #7E808C",
"'t 	c #80828E",
")t 	c #80808A",
"!t 	c #82828A",
"~t 	c #807F85",
"{t 	c #5F5D62",
"]t 	c #817D7E",
"^t 	c #787272",
"/t 	c #7E787A",
"(t 	c #8B8285",
"_t 	c #90878A",
":t 	c #736D6F",
"<t 	c #3A3539",
"[t 	c #3D3D3F",
"}t 	c #3D3B40",
"|t 	c #3C3A3D",
"1t 	c #3E3C3F",
"2t 	c #3F3D40",
"3t 	c #3D3B3E",
"4t 	c #403E43",
"5t 	c #3E3C41",
"6t 	c #413F44",
"7t 	c #444148",
"8t 	c #47444B",
"9t 	c #48474D",
"0t 	c #47464B",
"at 	c #47454A",
"bt 	c #48464B",
"ct 	c #49474C",
"dt 	c #403C3D",
"et 	c #221D21",
"ft 	c #47423F",
"gt 	c #50473E",
"ht 	c #3A2B24",
"it 	c #A29078",
"jt 	c #D0AA7B",
"kt 	c #C9A170",
"lt 	c #AD8B5E",
"mt 	c #C6AF90",
"nt 	c #F6DEC2",
"ot 	c #9C8782",
"pt 	c #9E8D85",
"qt 	c #95918E",
"rt 	c #7F7D88",
"st 	c #7F8293",
"tt 	c #7F8595",
"ut 	c #818795",
"vt 	c #7C8292",
"wt 	c #7B8191",
"xt 	c #7D8590",
"yt 	c #808895",
"zt 	c #7B8292",
"At 	c #7E8494",
"Bt 	c #818797",
"Ct 	c #7D8295",
"Dt 	c #808598",
"Et 	c #7F8497",
"Ft 	c #84899C",
"Gt 	c #7E8396",
"Ht 	c #797E91",
"It 	c #7C8194",
"Jt 	c #828898",
"Kt 	c #7D8393",
"Lt 	c #798090",
"Mt 	c #7E8595",
"Nt 	c #848796",
"Ot 	c #767680",
"Pt 	c #7D7B80",
"Qt 	c #8D888C",
"Rt 	c #787475",
"St 	c #8F8D90",
"Tt 	c #8B868A",
"Ut 	c #948F93",
"Vt 	c #4B4748",
"Wt 	c #46454A",
"Xt 	c #42424A",
"Yt 	c #414149",
"Zt 	c #43424A",
"`t 	c #424149",
" u 	c #44434B",
".u 	c #43414C",
"+u 	c #3D3D45",
"@u 	c #393A3F",
"#u 	c #3E3E46",
"$u 	c #403F47",
"%u 	c #3D3C42",
"&u 	c #2D2B30",
"*u 	c #211F20",
"=u 	c #413736",
"-u 	c #4F4141",
";u 	c #968676",
">u 	c #FFF2D3",
",u 	c #C29D71",
"'u 	c #94684B",
")u 	c #CEA47A",
"!u 	c #C19A6F",
"~u 	c #BB966A",
"{u 	c #D6BC9B",
"]u 	c #E4D5B8",
"^u 	c #918579",
"/u 	c #A59890",
"(u 	c #9F959D",
"_u 	c #91909E",
":u 	c #9396A5",
"<u 	c #9093A2",
"[u 	c #8F92A1",
"}u 	c #8A8D9C",
"|u 	c #8E91A0",
"1u 	c #9194A3",
"2u 	c #9498A4",
"3u 	c #8D919D",
"4u 	c #8D909F",
"5u 	c #9497A6",
"6u 	c #8C8F9E",
"7u 	c #8B8E9D",
"8u 	c #9295A4",
"9u 	c #8B94A5",
"0u 	c #8D93A1",
"au 	c #818189",
"bu 	c #7F7B7C",
"cu 	c #908886",
"du 	c #817977",
"eu 	c #958F8F",
"fu 	c #908C8D",
"gu 	c #8D8789",
"hu 	c #918C90",
"iu 	c #8A8991",
"ju 	c #838999",
"ku 	c #7F8698",
"lu 	c #82879B",
"mu 	c #858A9E",
"nu 	c #868D9F",
"ou 	c #7C8396",
"pu 	c #7E8598",
"qu 	c #7B8295",
"ru 	c #858C9F",
"su 	c #7F8699",
"tu 	c #858C9E",
"uu 	c #82899B",
"vu 	c #838A9C",
"wu 	c #7E8597",
"xu 	c #787F91",
"yu 	c #7D8496",
"zu 	c #878EA0",
"Au 	c #7B8294",
"Bu 	c #798092",
"Cu 	c #777E90",
"Du 	c #7C8395",
"Eu 	c #808396",
"Fu 	c #7A7F92",
"Gu 	c #898C9D",
"Hu 	c #6D6D77",
"Iu 	c #595355",
"Ju 	c #625954",
"Ku 	c #4C413D",
"Lu 	c #988777",
"Mu 	c #FEEECA",
"Nu 	c #CFAA7D",
"Ou 	c #DDC3A8",
"Pu 	c #E7D1BC",
"Qu 	c #9F8D83",
"Ru 	c #85858D",
"Su 	c #7B8495",
"Tu 	c #838793",
"Uu 	c #8B8E97",
"Vu 	c #838997",
"Wu 	c #888E9C",
"Xu 	c #828896",
"Yu 	c #898F9F",
"Zu 	c #858B9B",
"`u 	c #868C9C",
" v 	c #848A9A",
".v 	c #878D9B",
"+v 	c #7F8593",
"@v 	c #858B99",
"#v 	c #818493",
"$v 	c #868692",
"%v 	c #66656B",
"&v 	c #7D7B7E",
"*v 	c #807C7D",
"=v 	c #827C7E",
"-v 	c #8A8486",
";v 	c #928C8E",
">v 	c #726C6E",
",v 	c #3B363A",
"'v 	c #484649",
")v 	c #454449",
"!v 	c #414045",
"~v 	c #424045",
"{v 	c #434146",
"]v 	c #444247",
"^v 	c #434047",
"/v 	c #423F48",
"(v 	c #45444C",
"_v 	c #48474F",
":v 	c #46454B",
"<v 	c #48454C",
"[v 	c #49464D",
"}v 	c #4B484F",
"|v 	c #3F3D42",
"1v 	c #211D1C",
"2v 	c #231E24",
"3v 	c #4B4746",
"4v 	c #564D44",
"5v 	c #41322D",
"6v 	c #A7957D",
"7v 	c #A5825A",
"8v 	c #BB9570",
"9v 	c #9C7147",
"0v 	c #C0A88C",
"av 	c #FFF1D6",
"bv 	c #D2C0BC",
"cv 	c #ADA29C",
"dv 	c #9D9A95",
"ev 	c #8B8A90",
"fv 	c #828493",
"gv 	c #7E8192",
"hv 	c #7E858F",
"iv 	c #848A98",
"jv 	c #7C8290",
"kv 	c #828596",
"lv 	c #838697",
"mv 	c #7D8091",
"nv 	c #808394",
"ov 	c #848798",
"pv 	c #888E9E",
"qv 	c #808696",
"rv 	c #818495",
"sv 	c #777783",
"tv 	c #807D84",
"uv 	c #898586",
"vv 	c #959192",
"wv 	c #B7B5B6",
"xv 	c #B2ADB1",
"yv 	c #D2CECF",
"zv 	c #645E5E",
"Av 	c #474344",
"Bv 	c #4D4C52",
"Cv 	c #4B4A52",
"Dv 	c #49484E",
"Ev 	c #4A494F",
"Fv 	c #4C4B51",
"Gv 	c #4C4B53",
"Hv 	c #454249",
"Iv 	c #3C3940",
"Jv 	c #2D2B2E",
"Kv 	c #504242",
"Lv 	c #9B8B7B",
"Mv 	c #B59064",
"Nv 	c #A37856",
"Ov 	c #A97E5C",
"Pv 	c #AA7F5D",
"Qv 	c #A67F5E",
"Rv 	c #A98261",
"Sv 	c #D0B395",
"Tv 	c #F0E0C7",
"Uv 	c #B2A89F",
"Vv 	c #ACA299",
"Wv 	c #9D969D",
"Xv 	c #9998A8",
"Yv 	c #999BA8",
"Zv 	c #9496A3",
"`v 	c #989AA6",
" w 	c #9496A2",
".w 	c #8F919D",
"+w 	c #9395A1",
"@w 	c #9294A1",
"#w 	c #9193A0",
"$w 	c #989AA7",
"%w 	c #90929F",
"&w 	c #8F919E",
"*w 	c #9799A6",
"=w 	c #8D92A5",
"-w 	c #9296A2",
";w 	c #88878D",
">w 	c #928D8A",
",w 	c #A39E9B",
"'w 	c #C3C1C2",
")w 	c #C5C5C7",
"!w 	c #B8ADB1",
"~w 	c #9A939A",
"{w 	c #8C8992",
"]w 	c #858794",
"^w 	c #8D90A1",
"/w 	c #888F9F",
"(w 	c #818699",
"_w 	c #878C9F",
":w 	c #8990A0",
"<w 	c #878D9D",
"[w 	c #7A8090",
"}w 	c #7C8393",
"|w 	c #808797",
"1w 	c #797F8F",
"2w 	c #787E8E",
"3w 	c #6E6E78",
"4w 	c #5E585A",
"5w 	c #625755",
"6w 	c #4F4442",
"7w 	c #978577",
"8w 	c #FEF0CD",
"9w 	c #C7A275",
"0w 	c #C39D70",
"aw 	c #D3B99E",
"bw 	c #ECDAC4",
"cw 	c #A89A8F",
"dw 	c #8D8C94",
"ew 	c #8C8C94",
"fw 	c #828894",
"gw 	c #838995",
"hw 	c #898F9B",
"iw 	c #818793",
"jw 	c #8B8EA1",
"kw 	c #86899C",
"lw 	c #888B9C",
"mw 	c #898C9B",
"nw 	c #8A8D9E",
"ow 	c #86899A",
"pw 	c #83838F",
"qw 	c #626169",
"rw 	c #858386",
"sw 	c #848081",
"tw 	c #A4A0A1",
"uw 	c #B2AEAF",
"vw 	c #C5C1C0",
"ww 	c #A8A2A2",
"xw 	c #403A3A",
"yw 	c #504E51",
"zw 	c #49484D",
"Aw 	c #4A484D",
"Bw 	c #4B494E",
"Cw 	c #4C4950",
"Dw 	c #4A474E",
"Ew 	c #4F4C53",
"Fw 	c #515056",
"Gw 	c #504F55",
"Hw 	c #4E4D53",
"Iw 	c #4F4E54",
"Jw 	c #514E55",
"Kw 	c #4B4851",
"Lw 	c #221F26",
"Mw 	c #4F4B4A",
"Nw 	c #544D45",
"Ow 	c #3F302B",
"Pw 	c #A08E78",
"Qw 	c #FEEBCB",
"Rw 	c #A98457",
"Sw 	c #C2AE8D",
"Tw 	c #FAECD1",
"Uw 	c #FDF5F3",
"Vw 	c #F9FAF5",
"Ww 	c #E6E7E2",
"Xw 	c #878A93",
"Yw 	c #82879A",
"Zw 	c #878E9E",
"`w 	c #848B9B",
" x 	c #7F8794",
".x 	c #8B8E9F",
"+x 	c #8C8E9D",
"@x 	c #7E808F",
"#x 	c #8C8FA0",
"$x 	c #838695",
"%x 	c #808291",
"&x 	c #72727E",
"*x 	c #B5B3B8",
"=x 	c #DBD7D8",
"-x 	c #DAD9D7",
";x 	c #FFFDFE",
">x 	c #F5F3F4",
",x 	c #F9F5F6",
"'x 	c #B6AEAC",
")x 	c #807A7A",
"!x 	c #544F53",
"~x 	c #58565B",
"{x 	c #56535A",
"]x 	c #58555C",
"^x 	c #525055",
"/x 	c #555056",
"(x 	c #535257",
"_x 	c #545358",
":x 	c #56555A",
"<x 	c #545158",
"[x 	c #555259",
"}x 	c #555358",
"|x 	c #413C42",
"1x 	c #302B2F",
"2x 	c #24201F",
"3x 	c #3E3D3B",
"4x 	c #4D4445",
"5x 	c #998C7B",
"6x 	c #FFF1CE",
"7x 	c #CBA372",
"8x 	c #D5B397",
"9x 	c #F3E1D3",
"0x 	c #F4EBEE",
"ax 	c #F5F2ED",
"bx 	c #BAB9BF",
"cx 	c #9D9FAC",
"dx 	c #9B9DAA",
"ex 	c #9698A5",
"fx 	c #9597A4",
"gx 	c #969CAA",
"hx 	c #8F95A3",
"ix 	c #959BA9",
"jx 	c #949AAA",
"kx 	c #9597A6",
"lx 	c #9595A1",
"mx 	c #838087",
"nx 	c #C7C3C4",
"ox 	c #EAE6E3",
"px 	c #DEDDDB",
"qx 	c #FFFFFF",
"rx 	c #FBFCFE",
"sx 	c #F8EFF0",
"tx 	c #F3EDF1",
"ux 	c #C6C3CA",
"vx 	c #84828F",
"wx 	c #898D99",
"xx 	c #7C7F8E",
"yx 	c #7A7D8C",
"zx 	c #7D808F",
"Ax 	c #72727C",
"Bx 	c #615755",
"Cx 	c #615654",
"Dx 	c #514545",
"Ex 	c #9D8779",
"Fx 	c #FFEEC8",
"Gx 	c #DCB280",
"Hx 	c #C19862",
"Ix 	c #E6BD87",
"Jx 	c #D4A674",
"Kx 	c #D8C09E",
"Lx 	c #F6EAD2",
"Mx 	c #F2EADD",
"Nx 	c #B1ACB3",
"Ox 	c #7D7E90",
"Px 	c #9192A4",
"Qx 	c #8B8C9E",
"Rx 	c #8E909F",
"Sx 	c #898B9A",
"Tx 	c #848490",
"Ux 	c #6D6C74",
"Vx 	c #CBC9CC",
"Wx 	c #C9C5C4",
"Xx 	c #EAE6E7",
"Yx 	c #FDFCFA",
"Zx 	c #F1F0EC",
"`x 	c #DEDAD7",
" y 	c #999491",
".y 	c #746E6E",
"+y 	c #555557",
"@y 	c #59575C",
"#y 	c #5A585D",
"$y 	c #5B595E",
"%y 	c #5C5A5F",
"&y 	c #5C5B60",
"*y 	c #5B5A5F",
"=y 	c #4E4B54",
"-y 	c #22211F",
";y 	c #1F1C23",
">y 	c #4E4D4B",
",y 	c #564F47",
"'y 	c #A5937D",
")y 	c #FEE5C6",
"!y 	c #CDA77A",
"~y 	c #C8B595",
"{y 	c #FAEED4",
"]y 	c #FCF8F7",
"^y 	c #FBFFFE",
"/y 	c #EFEFEF",
"(y 	c #9294A0",
"_y 	c #858A9D",
":y 	c #8A929F",
"<y 	c #828999",
"[y 	c #8D93A3",
"}y 	c #878A9B",
"|y 	c #8D90A3",
"1y 	c #8E91A4",
"2y 	c #8F92A5",
"3y 	c #828598",
"4y 	c #888B9A",
"5y 	c #8E91A2",
"6y 	c #73737F",
"7y 	c #D2D0D5",
"8y 	c #FDFBFC",
"9y 	c #E3E2E0",
"0y 	c #FAFAFA",
"ay 	c #F1F1F1",
"by 	c #EDEDED",
"cy 	c #DAD2D0",
"dy 	c #9C9696",
"ey 	c #57565C",
"fy 	c #535154",
"gy 	c #545257",
"hy 	c #535156",
"iy 	c #57555A",
"jy 	c #565459",
"ky 	c #4F4D50",
"ly 	c #514F54",
"my 	c #312C30",
"ny 	c #403F3D",
"oy 	c #4F4647",
"py 	c #978A79",
"qy 	c #D2AA79",
"ry 	c #D8AC6B",
"sy 	c #D7B89B",
"ty 	c #EDE1D5",
"uy 	c #F8F6FB",
"vy 	c #FDFEF9",
"wy 	c #BFC0C5",
"xy 	c #999CAB",
"yy 	c #A0A3B2",
"zy 	c #989BAA",
"Ay 	c #9C9FAE",
"By 	c #989BAC",
"Cy 	c #9699AA",
"Dy 	c #999FAD",
"Ey 	c #949AA8",
"Fy 	c #999FAF",
"Gy 	c #9399A9",
"Hy 	c #9298A8",
"Iy 	c #979DAD",
"Jy 	c #9697A9",
"Ky 	c #9796A4",
"Ly 	c #898890",
"My 	c #D8D8DA",
"Ny 	c #F9F7F8",
"Oy 	c #E2E1DF",
"Py 	c #F8F8F8",
"Qy 	c #F6F6F6",
"Ry 	c #F7F6F4",
"Sy 	c #FEFCFD",
"Ty 	c #D9D6DD",
"Uy 	c #8A8895",
"Vy 	c #908F9F",
"Wy 	c #9298A6",
"Xy 	c #8A909E",
"Yy 	c #7B7E8F",
"Zy 	c #655D5A",
"`y 	c #605654",
" z 	c #4F4544",
".z 	c #9C897A",
"+z 	c #FFEDC7",
"@z 	c #E0B885",
"#z 	c #CEB798",
"$z 	c #F7F0DD",
"%z 	c #FFFFF4",
"&z 	c #CAC3CB",
"*z 	c #817E8F",
"=z 	c #9295A6",
"-z 	c #9194A5",
";z 	c #9799A8",
">z 	c #9092A1",
",z 	c #8B8D9C",
"'z 	c #8F91A0",
")z 	c #878998",
"!z 	c #9395A4",
"~z 	c #9294A3",
"{z 	c #878B97",
"]z 	c #75747C",
"^z 	c #F4F2F5",
"/z 	c #F2EEEF",
"(z 	c #E5E3E4",
"_z 	c #EDECEA",
":z 	c #E8E4E1",
"<z 	c #CFC7C5",
"[z 	c #877E7F",
"}z 	c #5B5559",
"|z 	c #575759",
"1z 	c #585659",
"2z 	c #585359",
"3z 	c #575258",
"4z 	c #565157",
"5z 	c #5E5C61",
"6z 	c #3B393C",
"7z 	c #211F24",
"8z 	c #504F4D",
"9z 	c #3E2F2C",
"0z 	c #A2907C",
"az 	c #FFE8C6",
"bz 	c #D4AB7D",
"cz 	c #D6A36C",
"dz 	c #C89D72",
"ez 	c #C3996F",
"fz 	c #C1966C",
"gz 	c #B5855D",
"hz 	c #C0AB90",
"iz 	c #FDEDD6",
"jz 	c #FDF4F7",
"kz 	c #FEFEFF",
"lz 	c #F0EEEF",
"mz 	c #9898A4",
"nz 	c #9397A3",
"oz 	c #848599",
"pz 	c #8F97A4",
"qz 	c #8F95A5",
"rz 	c #9096A6",
"sz 	c #898EA1",
"tz 	c #868B9E",
"uz 	c #9095A8",
"vz 	c #888DA0",
"wz 	c #8F94A7",
"xz 	c #838A9A",
"yz 	c #70727E",
"zz 	c #CBCACF",
"Az 	c #F9F9F9",
"Bz 	c #E0E0DE",
"Cz 	c #F7F9F8",
"Dz 	c #F0F1F3",
"Ez 	c #EEEFF1",
"Fz 	c #D1C9C7",
"Gz 	c #9D9797",
"Hz 	c #514F52",
"Iz 	c #5A595F",
"Jz 	c #5A5A5C",
"Kz 	c #57565B",
"Lz 	c #535355",
"Mz 	c #3F3C43",
"Nz 	c #2F2D30",
"Oz 	c #433A3B",
"Pz 	c #544646",
"Qz 	c #9A8979",
"Rz 	c #FFF0D2",
"Sz 	c #B78F6B",
"Tz 	c #B9936F",
"Uz 	c #B8926D",
"Vz 	c #C29F75",
"Wz 	c #B39362",
"Xz 	c #D0B999",
"Yz 	c #EDE6D4",
"Zz 	c #EEF0EF",
"`z 	c #FCFDF5",
" A 	c #C7C5CA",
".A 	c #9B98AB",
"+A 	c #A3A5B2",
"@A 	c #A0A2AF",
"#A 	c #9D9FAE",
"$A 	c #9C9EAD",
"%A 	c #9D9EB0",
"&A 	c #9B9CAE",
"*A 	c #9FA1AE",
"=A 	c #9EA0AD",
"-A 	c #989AA9",
";A 	c #9A9CAB",
">A 	c #9699AC",
",A 	c #9B9DAC",
"'A 	c #898C95",
")A 	c #D6D7DC",
"!A 	c #F8F8FA",
"~A 	c #E2E2E0",
"{A 	c #F9F8F6",
"]A 	c #F7F9F4",
"^A 	c #FBFDFC",
"/A 	c #8D8C9A",
"(A 	c #9394A6",
"_A 	c #888B9E",
":A 	c #8C91A4",
"<A 	c #9299AB",
"[A 	c #969CAC",
"}A 	c #84879A",
"|A 	c #9396A9",
"1A 	c #9097A9",
"2A 	c #8E93A6",
"3A 	c #939AAC",
"4A 	c #808799",
"5A 	c #70737C",
"6A 	c #65605C",
"7A 	c #5E5653",
"8A 	c #4F4A46",
"9A 	c #97897C",
"0A 	c #FCEFCD",
"aA 	c #CEA97C",
"bA 	c #BA9465",
"cA 	c #D4B9A4",
"dA 	c #F5F1E5",
"eA 	c #FDFCF7",
"fA 	c #CAC2CD",
"gA 	c #83818F",
"hA 	c #878F9A",
"iA 	c #919AA9",
"jA 	c #8A8E9A",
"kA 	c #9497A8",
"lA 	c #888C98",
"mA 	c #75757F",
"nA 	c #EBEAEF",
"oA 	c #EBE9EA",
"pA 	c #E7E5E8",
"qA 	c #ECECEA",
"rA 	c #E1DDDC",
"sA 	c #CDC3C4",
"tA 	c #8B8084",
"uA 	c #5A5458",
"vA 	c #595758",
"wA 	c #5B595C",
"xA 	c #625D63",
"yA 	c #3A383B",
"zA 	c #232126",
"AA 	c #52514F",
"BA 	c #59524A",
"CA 	c #3F302D",
"DA 	c #A79581",
"EA 	c #FEE9CA",
"FA 	c #C2A073",
"GA 	c #956E4D",
"HA 	c #C09B6F",
"IA 	c #BC976A",
"JA 	c #BC926A",
"KA 	c #956A48",
"LA 	c #A97951",
"MA 	c #C5A991",
"NA 	c #F9EDD7",
"OA 	c #F8F8F6",
"PA 	c #FEFDFB",
"QA 	c #F2F1EF",
"RA 	c #9A9AA6",
"SA 	c #898C9F",
"TA 	c #8A90A0",
"UA 	c #8B90A3",
"VA 	c #878F9C",
"WA 	c #9399A7",
"XA 	c #8C8FA2",
"YA 	c #6D6C7A",
"ZA 	c #CCCBD1",
"`A 	c #FBF9FA",
" B 	c #E1E1E1",
".B 	c #F9FBFA",
"+B 	c #F0F2F1",
"@B 	c #F0F0F0",
"#B 	c #D4CFCC",
"$B 	c #A19B9B",
"%B 	c #555152",
"&B 	c #5F5D60",
"*B 	c #5D5B60",
"=B 	c #525157",
"-B 	c #413E45",
";B 	c #423C3E",
">B 	c #4D4749",
",B 	c #9B8973",
"'B 	c #FFF3D6",
")B 	c #A67F48",
"!B 	c #AB814F",
"~B 	c #A67B59",
"{B 	c #B18A69",
"]B 	c #AD8665",
"^B 	c #A67D61",
"/B 	c #D0B59A",
"(B 	c #F3EAD9",
"_B 	c #EEEEEC",
":B 	c #FBFBFB",
"<B 	c #C7C7C9",
"[B 	c #9C9BAB",
"}B 	c #A3A6B5",
"|B 	c #9EA1B0",
"1B 	c #9DA0AF",
"2B 	c #9FA2B1",
"3B 	c #A1A4B3",
"4B 	c #9A9DAC",
"5B 	c #9B9FAB",
"6B 	c #A0A4B0",
"7B 	c #9FA3AF",
"8B 	c #9A9EAA",
"9B 	c #999BA7",
"0B 	c #9FA1AD",
"aB 	c #9A9CA9",
"bB 	c #9D9CAA",
"cB 	c #908E99",
"dB 	c #D8D5DC",
"eB 	c #F8F6F7",
"fB 	c #F5F6F8",
"gB 	c #FFFFFD",
"hB 	c #D5D5D7",
"iB 	c #8E94A0",
"jB 	c #979AA9",
"kB 	c #9396A7",
"lB 	c #8E94A4",
"mB 	c #959BAB",
"nB 	c #868C98",
"oB 	c #7E8798",
"pB 	c #524A48",
"qB 	c #958877",
"rB 	c #CAA37A",
"sB 	c #C89E74",
"tB 	c #966D4D",
"uB 	c #F7F0DE",
"vB 	c #FDFDFF",
"wB 	c #CDC7CB",
"xB 	c #8C8E9A",
"yB 	c #989EAC",
"zB 	c #9CA0AC",
"AB 	c #9599A5",
"BB 	c #969AA6",
"CB 	c #8D8F9E",
"DB 	c #888797",
"EB 	c #787580",
"FB 	c #ECEAEF",
"GB 	c #ECEBE9",
"HB 	c #E8E6E7",
"IB 	c #F7F7F7",
"JB 	c #E6E2E1",
"KB 	c #C8C2C2",
"LB 	c #565457",
"MB 	c #59545A",
"NB 	c #59545B",
"OB 	c #626065",
"PB 	c #4E4E50",
"QB 	c #3C3942",
"RB 	c #252122",
"SB 	c #56514E",
"TB 	c #41322F",
"UB 	c #A4927A",
"VB 	c #FEEDD1",
"WB 	c #BB9872",
"XB 	c #C4A98C",
"YB 	c #FBEFD7",
"ZB 	c #FFFEFF",
"`B 	c #F1EFF0",
" C 	c #9E9EAA",
".C 	c #878A9D",
"+C 	c #8B91A1",
"@C 	c #83889B",
"#C 	c #8C92A2",
"$C 	c #F1F3F2",
"%C 	c #F0F0F2",
"&C 	c #D8D3D0",
"*C 	c #A59F9F",
"=C 	c #615F62",
"-C 	c #504E53",
";C 	c #55545A",
">C 	c #4F4D4E",
",C 	c #9C8D76",
"'C 	c #D7A572",
")C 	c #C7A069",
"!C 	c #F4EBDA",
"~C 	c #F9F9FB",
"{C 	c #C9C9CB",
"]C 	c #A1A1AD",
"^C 	c #ACAEBD",
"/C 	c #AAACBB",
"(C 	c #AEB0BF",
"_C 	c #A9ABBA",
":C 	c #A2A4B3",
"<C 	c #A5A7B6",
"[C 	c #A1A3B2",
"}C 	c #A4A8B4",
"|C 	c #A2A6B2",
"1C 	c #A3A7B3",
"2C 	c #989CA8",
"3C 	c #9C9EAB",
"4C 	c #9E9DAB",
"5C 	c #918F9A",
"6C 	c #E4E3E1",
"7C 	c #F6F6F8",
"8C 	c #8E8D9B",
"9C 	c #9497AA",
"0C 	c #9096A2",
"aC 	c #7F8899",
"bC 	c #76757D",
"cC 	c #666165",
"dC 	c #9B877C",
"eC 	c #FEEBCA",
"fC 	c #B78B66",
"gC 	c #D1BC9F",
"hC 	c #F8EFDE",
"iC 	c #CBC5C9",
"jC 	c #90929E",
"kC 	c #9699A8",
"lC 	c #9598A7",
"mC 	c #9B9EAD",
"nC 	c #898898",
"oC 	c #7A7782",
"pC 	c #EDEBF0",
"qC 	c #EBEBE9",
"rC 	c #E9E7E8",
"sC 	c #CAC4C4",
"tC 	c #898383",
"uC 	c #605E63",
"vC 	c #4E4D52",
"wC 	c #57524F",
"xC 	c #42332E",
"yC 	c #A5937B",
"zC 	c #FFEBC4",
"AC 	c #D6AF76",
"BC 	c #C6AB8E",
"CC 	c #F5F5F5",
"DC 	c #F3F1F2",
"EC 	c #8A8DA0",
"FC 	c #89919E",
"GC 	c #989EAE",
"HC 	c #6E6D7B",
"IC 	c #FCFAFB",
"JC 	c #E2E2E2",
"KC 	c #FAFCFB",
"LC 	c #F2F2F4",
"MC 	c #F1F1F3",
"NC 	c #A49E9E",
"OC 	c #626063",
"PC 	c #4F4D52",
"QC 	c #545359",
"RC 	c #403D44",
"SC 	c #3F3E43",
"TC 	c #4C4A4D",
"UC 	c #978871",
"VC 	c #FEEFCE",
"WC 	c #E0B887",
"XC 	c #D4BA99",
"YC 	c #F5ECDB",
"ZC 	c #FCFCFC",
"`C 	c #FAFAFC",
" D 	c #CACACC",
".D 	c #A2A2AE",
"+D 	c #AAACB9",
"@D 	c #A9ABB8",
"#D 	c #AEB0BD",
"$D 	c #ACAEBB",
"%D 	c #ABAFBB",
"&D 	c #A8ACB8",
"*D 	c #A7ABB7",
"=D 	c #999DA9",
"-D 	c #A1A3B0",
";D 	c #A09FAD",
">D 	c #92909B",
",D 	c #DAD7DE",
"'D 	c #FAF8F9",
")D 	c #E5E4E2",
"!D 	c #D4D4D6",
"~D 	c #9C9FB0",
"{D 	c #999CAD",
"]D 	c #9398AB",
"^D 	c #80899A",
"/D 	c #77767E",
"(D 	c #666064",
"_D 	c #676266",
":D 	c #9B877E",
"<D 	c #FFECCB",
"[D 	c #E2B888",
"}D 	c #CCB798",
"|D 	c #F5EDDA",
"1D 	c #CEC7CE",
"2D 	c #9BA1AF",
"3D 	c #979DAB",
"4D 	c #8B8A9A",
"5D 	c #7C7984",
"6D 	c #EEECF1",
"7D 	c #E5E1E0",
"8D 	c #CBC5C5",
"9D 	c #8A8484",
"0D 	c #4F4E53",
"aD 	c #3D3A45",
"bD 	c #525053",
"cD 	c #585350",
"dD 	c #42352F",
"eD 	c #A6947C",
"fD 	c #FFE9C0",
"gD 	c #D6AE7B",
"hD 	c #CCA56E",
"iD 	c #CFA573",
"jD 	c #C4A890",
"kD 	c #FAEED8",
"lD 	c #F2F0F1",
"mD 	c #A3A3AF",
"nD 	c #9BA1B1",
"oD 	c #9AA0B0",
"pD 	c #9093A6",
"qD 	c #6C6E7B",
"rD 	c #E3E3E3",
"sD 	c #D9D4D1",
"tD 	c #A6A0A0",
"uD 	c #636164",
"vD 	c #646267",
"wD 	c #535258",
"xD 	c #453F43",
"yD 	c #4F494B",
"zD 	c #9C8A76",
"AD 	c #FFF5D8",
"BD 	c #CCA57A",
"CD 	c #BF9B6B",
"DD 	c #BF9861",
"ED 	c #BF965E",
"FD 	c #CFA773",
"GD 	c #C19673",
"HD 	c #B48B6D",
"ID 	c #D4B69C",
"JD 	c #F7EEDD",
"KD 	c #FEFEFE",
"LD 	c #CBCBCD",
"MD 	c #A3A2B2",
"ND 	c #ADAFBB",
"OD 	c #AEB0BC",
"PD 	c #B5B7C3",
"QD 	c #B2B4C0",
"RD 	c #A9ABB7",
"SD 	c #AAACB8",
"TD 	c #B1B3C0",
"UD 	c #A5A9B5",
"VD 	c #92929C",
"WD 	c #E6E5E3",
"XD 	c #D6D6D8",
"YD 	c #9798AC",
"ZD 	c #9FA2B3",
"`D 	c #9197A7",
" E 	c #9196A9",
".E 	c #8A91A1",
"+E 	c #78777F",
"@E 	c #676165",
"#E 	c #988B7B",
"$E 	c #C69F78",
"%E 	c #BA926E",
"&E 	c #A87B52",
"*E 	c #CCB596",
"=E 	c #FBF0DE",
"-E 	c #D2C8D0",
";E 	c #9B9EAF",
">E 	c #9DA5B2",
",E 	c #8D8C9C",
"'E 	c #7D7B88",
")E 	c #EFEDEE",
"!E 	c #E7E3E4",
"~E 	c #CEC8C8",
"{E 	c #8B8585",
"]E 	c #625C60",
"^E 	c #544F55",
"/E 	c #515055",
"(E 	c #403A46",
"_E 	c #272226",
":E 	c #FFECCE",
"<E 	c #C09B71",
"[E 	c #BCA088",
"}E 	c #F8ECD6",
"|E 	c #A8A8B4",
"1E 	c #9DA3AF",
"2E 	c #8B93A0",
"3E 	c #9AA0AE",
"4E 	c #9194A7",
"5E 	c #6D6F7C",
"6E 	c #E0DBD8",
"7E 	c #AEA8A8",
"8E 	c #646265",
"9E 	c #3E3B42",
"0E 	c #413B3F",
"aE 	c #51484B",
"bE 	c #9E8C78",
"cE 	c #FFF1D7",
"dE 	c #916848",
"eE 	c #A77C5A",
"fE 	c #A27659",
"gE 	c #D2B498",
"hE 	c #FCF1DF",
"iE 	c #F6F6F4",
"jE 	c #CDCCD1",
"kE 	c #A8A7B7",
"lE 	c #B1B3BF",
"mE 	c #AFB1BD",
"nE 	c #B4B6C2",
"oE 	c #B0B2BE",
"pE 	c #B3B5C1",
"qE 	c #A9ADB9",
"rE 	c #A1A5B1",
"sE 	c #A3A5B4",
"tE 	c #93939D",
"uE 	c #DAD9DF",
"vE 	c #F5F5F7",
"wE 	c #D8D6D9",
"xE 	c #92919F",
"yE 	c #999AAE",
"zE 	c #8F92A3",
"AE 	c #9DA0B1",
"BE 	c #9CA2B0",
"CE 	c #8A8FA2",
"DE 	c #82899C",
"EE 	c #797880",
"FE 	c #686266",
"GE 	c #686367",
"HE 	c #988A7D",
"IE 	c #FFF2D1",
"JE 	c #CBA47D",
"KE 	c #A87B54",
"LE 	c #8F6744",
"ME 	c #9A704A",
"NE 	c #B98E6B",
"OE 	c #CDB696",
"PE 	c #FDF2E0",
"QE 	c #FFFDFF",
"RE 	c #D1C7CF",
"SE 	c #A0A3B4",
"TE 	c #9FA7B4",
"UE 	c #9093A4",
"VE 	c #7E7C89",
"WE 	c #EFEDF0",
"XE 	c #E9E5E6",
"YE 	c #D0CACA",
"ZE 	c #8C8686",
"`E 	c #615F64",
" F 	c #534E54",
".F 	c #282224",
"+F 	c #FFEBD0",
"@F 	c #BD9770",
"#F 	c #916B44",
"$F 	c #BE9760",
"%F 	c #D0A96E",
"&F 	c #FDF1D9",
"*F 	c #FEFCFF",
"=F 	c #F7F5F6",
"-F 	c #979DA9",
";F 	c #8D95A2",
">F 	c #999FAB",
",F 	c #9EA4B2",
"'F 	c #959BA7",
")F 	c #9DA3B1",
"!F 	c #FCFAFD",
"~F 	c #E4E4E4",
"{F 	c #FCFCFE",
"]F 	c #F2F0F3",
"^F 	c #E2DDDA",
"/F 	c #B2ACAC",
"(F 	c #4B4A50",
"_F 	c #4E4C4F",
":F 	c #9C8D78",
"<F 	c #FFF3D3",
"[F 	c #C39D6E",
"}F 	c #C9A16D",
"|F 	c #C89C6F",
"1F 	c #C0975F",
"2F 	c #D4B795",
"3F 	c #CFCFD1",
"4F 	c #ACACB8",
"5F 	c #ACAEBA",
"6F 	c #ABADB9",
"7F 	c #A6AAB6",
"8F 	c #95959F",
"9F 	c #F7F7F9",
"0F 	c #D7D5DA",
"aF 	c #92909E",
"bF 	c #9A9BAF",
"cF 	c #979BA7",
"dF 	c #A0A6B4",
"eF 	c #9FA5B3",
"fF 	c #9CA2B2",
"gF 	c #838A9D",
"hF 	c #7A7981",
"iF 	c #696468",
"jF 	c #534B49",
"kF 	c #9C8982",
"lF 	c #E0B686",
"mF 	c #E3B885",
"nF 	c #F9EEDC",
"oF 	c #D3C9D1",
"pF 	c #878996",
"qF 	c #9597A3",
"rF 	c #A2A8B4",
"sF 	c #E8E4E5",
"tF 	c #CDC7C7",
"uF 	c #5E5B62",
"vF 	c #3E3844",
"wF 	c #272123",
"xF 	c #595353",
"yF 	c #433532",
"zF 	c #A6947E",
"AF 	c #FFEAC5",
"BF 	c #D4AD74",
"CF 	c #C1A689",
"DF 	c #FAEED6",
"EF 	c #B0B0BC",
"FF 	c #8D94A4",
"GF 	c #A3A9B5",
"HF 	c #ACB2C0",
"IF 	c #A7ADB9",
"JF 	c #A6ACB8",
"KF 	c #ABB1BD",
"LF 	c #A6ACBA",
"MF 	c #B4BAC8",
"NF 	c #868C9A",
"OF 	c #FDFBFE",
"PF 	c #F3F3F5",
"QF 	c #6C6A6D",
"RF 	c #6C6A6F",
"SF 	c #727075",
"TF 	c #6D6B70",
"UF 	c #6C6B70",
"VF 	c #636267",
"WF 	c #69686D",
"XF 	c #525156",
"YF 	c #5D5C61",
"ZF 	c #5A595E",
"`F 	c #4B494C",
" G 	c #988974",
".G 	c #FEF1D1",
"+G 	c #D2B593",
"@G 	c #F7ECDA",
"#G 	c #D2D2D4",
"$G 	c #AFAFBB",
"%G 	c #B8BAC6",
"&G 	c #C1C3CF",
"*G 	c #C8CAD6",
"=G 	c #BBBDC9",
"-G 	c #BEBECA",
";G 	c #B5B7C4",
">G 	c #B2B6C2",
",G 	c #A6A8B7",
"'G 	c #A5A7B4",
")G 	c #9797A1",
"!G 	c #DBDAE0",
"~G 	c #DCDADF",
"{G 	c #A4A2B0",
"]G 	c #AAABBF",
"^G 	c #9DA1AC",
"/G 	c #B3B7C3",
"(G 	c #B0B4C0",
"_G 	c #A8AEBE",
":G 	c #B1B7C5",
"<G 	c #AFB3BF",
"[G 	c #9EA2AE",
"}G 	c #A4A7B6",
"|G 	c #ABAEBD",
"1G 	c #8C8D9F",
"2G 	c #696367",
"3G 	c #544C4A",
"4G 	c #A08D86",
"5G 	c #ECC292",
"6G 	c #DBB47B",
"7G 	c #DEB281",
"8G 	c #D8B072",
"9G 	c #CFB898",
"0G 	c #D5CED5",
"aG 	c #B2B6C1",
"bG 	c #A2A5B4",
"cG 	c #9399A5",
"dG 	c #A8AEBA",
"eG 	c #9FA5B1",
"fG 	c #A5ABB7",
"gG 	c #8E8D9D",
"hG 	c #7F7D8A",
"iG 	c #FBFBFD",
"jG 	c #918B8B",
"kG 	c #706A6E",
"lG 	c #605D64",
"mG 	c #666469",
"nG 	c #69676C",
"oG 	c #3E3842",
"pG 	c #423433",
"qG 	c #A69480",
"rG 	c #FFEBC6",
"sG 	c #D7AF7E",
"tG 	c #D1A679",
"uG 	c #BD8D65",
"vG 	c #BEA28A",
"wG 	c #FBEFD9",
"xG 	c #FBFBF9",
"yG 	c #C7C7D3",
"zG 	c #A0A6B2",
"AG 	c #BDC3CF",
"BG 	c #A3A9B9",
"CG 	c #9097A7",
"DG 	c #BDC1CC",
"EG 	c #C4C8D4",
"FG 	c #C2C6D2",
"GG 	c #CBCFDA",
"HG 	c #CBCFDB",
"IG 	c #BBC1CF",
"JG 	c #C5CBD7",
"KG 	c #ACB2BE",
"LG 	c #9297AA",
"MG 	c #6E707D",
"NG 	c #E5E5E5",
"OG 	c #F3F1F4",
"PG 	c #E3DEDB",
"QG 	c #B6B0B0",
"RG 	c #79777A",
"SG 	c #828085",
"TG 	c #79777C",
"UG 	c #7E7D82",
"VG 	c #78777C",
"WG 	c #7B7A7F",
"XG 	c #504F54",
"YG 	c #616065",
"ZG 	c #626166",
"`G 	c #52494C",
" H 	c #9F8D79",
".H 	c #FFF0D6",
"+H 	c #BA936C",
"@H 	c #BB9662",
"#H 	c #C19C68",
"$H 	c #B88C67",
"%H 	c #AD8262",
"&H 	c #CAAC90",
"*H 	c #F4E9D7",
"=H 	c #F6F7F2",
"-H 	c #D3D2D7",
";H 	c #B3B2C4",
">H 	c #CDD1DC",
",H 	c #D4D8E3",
"'H 	c #D5D9E4",
")H 	c #C3C7D2",
"!H 	c #B7BBC6",
"~H 	c #BFC3CE",
"{H 	c #C0C4CF",
"]H 	c #B5B9C4",
"^H 	c #DADAE6",
"/H 	c #C4C6D2",
"(H 	c #C8CAD7",
"_H 	c #C5C9D5",
":H 	c #9898A2",
"<H 	c #DCDBE1",
"[H 	c #F7F6FB",
"}H 	c #E7E5EA",
"|H 	c #C2C0CE",
"1H 	c #C4C5D7",
"2H 	c #9DA1AD",
"3H 	c #A6AAB5",
"4H 	c #CDCFDC",
"5H 	c #CACEDA",
"6H 	c #C6C9DA",
"7H 	c #C0C6D2",
"8H 	c #BFC3CF",
"9H 	c #AEB2BE",
"0H 	c #B6B9C8",
"aH 	c #BDC0CF",
"bH 	c #CACDDC",
"cH 	c #7A7883",
"dH 	c #6A6569",
"eH 	c #625E5F",
"fH 	c #998D7F",
"gH 	c #FFF2D0",
"hH 	c #D0AB81",
"iH 	c #C49A70",
"jH 	c #CCA480",
"kH 	c #CDB697",
"lH 	c #D7D0D7",
"mH 	c #8B8D9A",
"nH 	c #A4A7B0",
"oH 	c #C8CEDA",
"pH 	c #BDC1CD",
"qH 	c #C7CBD6",
"rH 	c #C3C7D3",
"sH 	c #A9ACBB",
"tH 	c #B6B9CA",
"uH 	c #9CA2AE",
"vH 	c #C2C8D4",
"wH 	c #BFC5D1",
"xH 	c #C3C9D5",
"yH 	c #979AAB",
"zH 	c #9598A9",
"AH 	c #8F8E9E",
"BH 	c #817F8C",
"CH 	c #ECEBF0",
"DH 	c #EEEEEE",
"EH 	c #E7E5E6",
"FH 	c #F0EEF1",
"GH 	c #9D9799",
"HH 	c #7F797D",
"IH 	c #69666D",
"JH 	c #5D5A61",
"KH 	c #807E83",
"LH 	c #838186",
"MH 	c #605B61",
"NH 	c #282327",
"OH 	c #585254",
"PH 	c #A5937F",
"QH 	c #FEEBCD",
"RH 	c #C9A47A",
"SH 	c #C3A58B",
"TH 	c #FAEFD9",
"UH 	c #FBFDFA",
"VH 	c #F8F9FB",
"WH 	c #CACAD2",
"XH 	c #ADB0BF",
"YH 	c #CFD3DF",
"ZH 	c #B4B8C3",
"`H 	c #ABADBC",
" I 	c #BEC2CD",
".I 	c #CED2DB",
"+I 	c #BFC5D3",
"@I 	c #C8CCD5",
"#I 	c #C9CDD9",
"$I 	c #B9BDC9",
"%I 	c #B3B6C5",
"&I 	c #9EA1B2",
"*I 	c #C2C6D1",
"=I 	c #BCC0CB",
"-I 	c #B4BACA",
";I 	c #9DA3B3",
">I 	c #9299A9",
",I 	c #6D7081",
"'I 	c #CBCAD0",
")I 	c #E6E6E8",
"!I 	c #F2F2F0",
"~I 	c #F1F0F5",
"{I 	c #E1DCD9",
"]I 	c #5D575B",
"^I 	c #7F7D82",
"/I 	c #828187",
"(I 	c #87888D",
"_I 	c #7A797E",
":I 	c #7F7E84",
"<I 	c #838288",
"[I 	c #7E7D83",
"}I 	c #5E5D63",
"|I 	c #656269",
"1I 	c #645F66",
"2I 	c #5B585F",
"3I 	c #3C3B41",
"4I 	c #302F34",
"5I 	c #46423F",
"6I 	c #9C8D7A",
"7I 	c #FFF2D8",
"8I 	c #B58F6A",
"9I 	c #A38259",
"0I 	c #A6825E",
"aI 	c #937050",
"bI 	c #A88160",
"cI 	c #A7805F",
"dI 	c #A1755A",
"eI 	c #8F6646",
"fI 	c #C2A48C",
"gI 	c #F3E8D6",
"hI 	c #F3F2F0",
"iI 	c #FFFFFB",
"jI 	c #D2D1D7",
"kI 	c #B7B7C1",
"lI 	c #CBCED7",
"mI 	c #D7DAE3",
"nI 	c #DCDFE8",
"oI 	c #CFD2DB",
"pI 	c #C3C6CF",
"qI 	c #D4D7E0",
"rI 	c #D5D8E1",
"sI 	c #BEC1CA",
"tI 	c #D7DAE1",
"uI 	c #D8DBE2",
"vI 	c #CCCFD8",
"wI 	c #CFD1DD",
"xI 	c #AAADBC",
"yI 	c #A4AAB6",
"zI 	c #A6A9BA",
"AI 	c #9C9BA9",
"BI 	c #DBDADF",
"CI 	c #E4E2E3",
"DI 	c #FAF8FB",
"EI 	c #FCFCFA",
"FI 	c #E3E2E8",
"GI 	c #C3C3CF",
"HI 	c #C8CBD2",
"II 	c #CFD3DC",
"JI 	c #B3B7C2",
"KI 	c #B5B9C5",
"LI 	c #C7CAD9",
"MI 	c #D2D6DF",
"NI 	c #C9CDD6",
"OI 	c #C9CDD8",
"PI 	c #B6BAC5",
"QI 	c #AAAEB9",
"RI 	c #CCD0DB",
"SI 	c #A7ABB6",
"TI 	c #8C8EA3",
"UI 	c #898BA0",
"VI 	c #787A87",
"WI 	c #67646B",
"XI 	c #64605F",
"YI 	c #504C4B",
"ZI 	c #998E7C",
"`I 	c #F9EFCC",
" J 	c #906948",
".J 	c #9C7858",
"+J 	c #9F7B57",
"@J 	c #967250",
"#J 	c #9C7856",
"$J 	c #8B6840",
"%J 	c #CFB49F",
"&J 	c #F9F0E1",
"*J 	c #DADADA",
"=J 	c #9492A0",
"-J 	c #ABABB7",
";J 	c #CDCFDB",
">J 	c #C3C5D1",
",J 	c #CED0DC",
"'J 	c #C6CAD3",
")J 	c #A0A4AF",
"!J 	c #C7CBD7",
"~J 	c #C6CAD5",
"{J 	c #BCC0CC",
"]J 	c #81818B",
"^J 	c #EEEDF2",
"/J 	c #E7E7E7",
"(J 	c #ECE8E9",
"_J 	c #A49EA0",
":J 	c #878286",
"<J 	c #6C6B71",
"[J 	c #645F65",
"}J 	c #69646A",
"|J 	c #817F84",
"1J 	c #86838A",
"2J 	c #848188",
"3J 	c #6F6D72",
"4J 	c #615C62",
"5J 	c #3D383F",
"6J 	c #292323",
"7J 	c #262127",
"8J 	c #5D5553",
"9J 	c #453631",
"0J 	c #A49180",
"aJ 	c #FCEED1",
"bJ 	c #8E6545",
"cJ 	c #9A755B",
"dJ 	c #9B7455",
"eJ 	c #997751",
"fJ 	c #A17E58",
"gJ 	c #C9A688",
"hJ 	c #FCECD5",
"iJ 	c #FCF6F8",
"jJ 	c #FFFEFD",
"kJ 	c #F4F5F7",
"lJ 	c #DADAE2",
"mJ 	c #BABCC9",
"nJ 	c #B1B4C3",
"oJ 	c #C1C5D0",
"pJ 	c #D7DBE4",
"qJ 	c #B8BCC7",
"rJ 	c #9FA5B5",
"sJ 	c #BEC4D2",
"tJ 	c #D1D5DE",
"uJ 	c #A5A8B7",
"vJ 	c #CDD1DD",
"wJ 	c #BBBFCA",
"xJ 	c #BABDCC",
"yJ 	c #A2A5B6",
"zJ 	c #B5BBCB",
"AJ 	c #939AAA",
"BJ 	c #6E7182",
"CJ 	c #E5E5E7",
"DJ 	c #848389",
"EJ 	c #898A8F",
"FJ 	c #818086",
"GJ 	c #86858B",
"HJ 	c #85848A",
"IJ 	c #737278",
"JJ 	c #656067",
"KJ 	c #5C5960",
"LJ 	c #424041",
"MJ 	c #9E8D79",
"NJ 	c #FFEED2",
"OJ 	c #C8AB89",
"PJ 	c #F0E5D1",
"QJ 	c #FAFAF8",
"RJ 	c #DEDDE3",
"SJ 	c #BEBFC4",
"TJ 	c #D0D3DC",
"UJ 	c #DADDE6",
"VJ 	c #DFE2EB",
"WJ 	c #D6D9E0",
"XJ 	c #C9CCD3",
"YJ 	c #C7CAD3",
"ZJ 	c #DBDEE5",
"`J 	c #DDE0E7",
" K 	c #D2D5DE",
".K 	c #D2D4E0",
"+K 	c #AAAEBA",
"@K 	c #ACAFBE",
"#K 	c #A7AABB",
"$K 	c #FAF9F7",
"%K 	c #F9F9F7",
"&K 	c #E1E0E6",
"*K 	c #C2C2CE",
"=K 	c #CCCFD6",
"-K 	c #D0D4DD",
";K 	c #C6CAD6",
">K 	c #B2B5C4",
",K 	c #D5D9E2",
"'K 	c #CDD1DA",
")K 	c #D1D5E0",
"!K 	c #B6BCCA",
"~K 	c #888DA1",
"{K 	c #655F5F",
"]K 	c #514D4C",
"^K 	c #A18E87",
"/K 	c #FEEDD3",
"(K 	c #DEAF85",
"_K 	c #C49569",
":K 	c #C59469",
"<K 	c #CFB59E",
"[K 	c #F8ECDE",
"}K 	c #DEDEDE",
"|K 	c #9997A5",
"1K 	c #CED2DD",
"2K 	c #D0D4DF",
"3K 	c #B4B8C4",
"4K 	c #A3A7B2",
"5K 	c #C4C8D3",
"6K 	c #C8CCD7",
"7K 	c #AEB1C0",
"8K 	c #C0C4D0",
"9K 	c #EAEAEA",
"0K 	c #EFEFF1",
"aK 	c #C7C1C1",
"bK 	c #8C878B",
"cK 	c #75747A",
"dK 	c #6D686E",
"eK 	c #676268",
"fK 	c #89868D",
"gK 	c #757378",
"hK 	c #737176",
"iK 	c #443731",
"jK 	c #FFEBC8",
"kK 	c #C0985D",
"lK 	c #B58C54",
"mK 	c #CAA787",
"nK 	c #FAEAD1",
"oK 	c #FBF5F5",
"pK 	c #FFFEFB",
"qK 	c #F5F7F6",
"rK 	c #E1E2E7",
"sK 	c #C1C3D0",
"tK 	c #B6BAC6",
"uK 	c #CCD0DC",
"vK 	c #DADEE7",
"wK 	c #AFB2C1",
"xK 	c #B0B4BF",
"yK 	c #BEC1D0",
"zK 	c #B3B9C9",
"AK 	c #959CAC",
"BK 	c #CAC9CF",
"CK 	c #DDD8D5",
"DK 	c #B4AEAE",
"EK 	c #5E585C",
"FK 	c #817C82",
"GK 	c #89888E",
"HK 	c #625F66",
"IK 	c #676269",
"JK 	c #302E33",
"KK 	c #413F42",
"LK 	c #9E8D7B",
"MK 	c #D7AD7D",
"NK 	c #C29B64",
"OK 	c #C9AD88",
"PK 	c #F1E6D0",
"QK 	c #DFDEE4",
"RK 	c #BEBEC6",
"SK 	c #D9DCE5",
"TK 	c #E0E3EC",
"UK 	c #DADDE4",
"VK 	c #CED1D8",
"WK 	c #CED1DA",
"XK 	c #DCDFE6",
"YK 	c #E0E3EA",
"ZK 	c #D8D8E2",
"`K 	c #A9ACBD",
" L 	c #DCDBE0",
".L 	c #FBFAF8",
"+L 	c #E6E4E5",
"@L 	c #FDFDFB",
"#L 	c #E2E1E7",
"$L 	c #B8BBCA",
"%L 	c #D4D8E1",
"&L 	c #D2D6E1",
"*L 	c #CFD3DE",
"=L 	c #B1B7C3",
"-L 	c #797B88",
";L 	c #68656C",
">L 	c #666062",
",L 	c #514D4E",
"'L 	c #A08C81",
")L 	c #FFEED0",
"!L 	c #E5B587",
"~L 	c #D3A373",
"{L 	c #A17745",
"]L 	c #D3B79F",
"^L 	c #F7EBDD",
"/L 	c #9F9EAE",
"(L 	c #CBD2DC",
"_L 	c #D0D2DE",
":L 	c #D3D7E3",
"<L 	c #D3D7E0",
"[L 	c #CBCFD8",
"}L 	c #83838D",
"|L 	c #E8E8E8",
"1L 	c #A59FA1",
"2L 	c #8E898D",
"3L 	c #7C7980",
"4L 	c #706B71",
"5L 	c #8B888F",
"6L 	c #77757A",
"7L 	c #635E64",
"8L 	c #3E3940",
"9L 	c #2A2424",
"0L 	c #5B5653",
"aL 	c #A3907F",
"bL 	c #FFEEC9",
"cL 	c #C59E77",
"dL 	c #D3AA7E",
"eL 	c #C9AC8E",
"fL 	c #F9EFD6",
"gL 	c #FCFEF9",
"hL 	c #E0E1E6",
"iL 	c #B7BBC7",
"jL 	c #C5C9D4",
"kL 	c #D8DDE3",
"lL 	c #A1A7B5",
"mL 	c #BCC2D0",
"nL 	c #CDD2D8",
"oL 	c #D6DAE3",
"pL 	c #B9BDC8",
"qL 	c #A1A7B7",
"rL 	c #969DAD",
"sL 	c #6F7283",
"tL 	c #C9C8CE",
"uL 	c #B5AFAF",
"vL 	c #615B5F",
"wL 	c #827D83",
"xL 	c #8A898F",
"yL 	c #87868C",
"zL 	c #5F5C63",
"AL 	c #66636A",
"BL 	c #6C676E",
"CL 	c #5A575E",
"DL 	c #4D4A51",
"EL 	c #3B383F",
"FL 	c #413D3E",
"GL 	c #9B8C79",
"HL 	c #FEF2D8",
"IL 	c #CEAB81",
"JL 	c #B69665",
"KL 	c #D1A96E",
"LL 	c #CFA774",
"ML 	c #D1AA71",
"NL 	c #D7B079",
"OL 	c #C39774",
"PL 	c #C5A78B",
"QL 	c #F2E7D3",
"RL 	c #F4F3F1",
"SL 	c #DAD9E1",
"TL 	c #DFE2E9",
"UL 	c #CFD2D9",
"VL 	c #DDE0E9",
"WL 	c #E1E4EB",
"XL 	c #DCDCE4",
"YL 	c #D9D9E3",
"ZL 	c #ADAFBC",
"`L 	c #ACADBF",
" M 	c #DDDCE1",
".M 	c #F9F7FA",
"+M 	c #FEFEFC",
"@M 	c #E5E4EA",
"#M 	c #C8CCD8",
"$M 	c #A6A9B8",
"%M 	c #B0B6C2",
"&M 	c #B3B9C7",
"*M 	c #85889B",
"=M 	c #9C8F7E",
"-M 	c #FDF3D0",
";M 	c #BA9561",
">M 	c #BF9763",
",M 	c #C49E6D",
"'M 	c #B7925E",
")M 	c #B8935F",
"!M 	c #986F43",
"~M 	c #D2B79C",
"{M 	c #F9EDDD",
"]M 	c #E4E6E5",
"^M 	c #CDD3DF",
"/M 	c #D1D4DD",
"(M 	c #C8CBD4",
"_M 	c #D4D6E2",
":M 	c #ACB0BC",
"<M 	c #ACB0BB",
"[M 	c #E6E6E6",
"}M 	c #EAE8E9",
"|M 	c #A6A0A2",
"1M 	c #7E7B82",
"2M 	c #858289",
"3M 	c #8D8A91",
"4M 	c #747277",
"5M 	c #7B797E",
"6M 	c #3F3A41",
"7M 	c #433630",
"8M 	c #A1907E",
"9M 	c #FDEAC9",
"0M 	c #C5A076",
"aM 	c #C1A285",
"bM 	c #F6ECD3",
"cM 	c #C7C9D5",
"dM 	c #BBBFCB",
"eM 	c #C4CBD5",
"fM 	c #C7CBD4",
"gM 	c #D9DEE4",
"hM 	c #A2A8B6",
"iM 	c #B9BFCB",
"jM 	c #CBD0D6",
"kM 	c #D5DAE0",
"lM 	c #ABAFBA",
"mM 	c #B8BCC8",
"nM 	c #BEC2CE",
"oM 	c #B2B8C8",
"pM 	c #979EAE",
"qM 	c #C8C7CC",
"rM 	c #F2F3EE",
"sM 	c #6A676E",
"tM 	c #6D686F",
"uM 	c #3A373E",
"vM 	c #2F2D32",
"wM 	c #464042",
"xM 	c #998979",
"yM 	c #FCF0D6",
"zM 	c #BB9870",
"AM 	c #9C7B50",
"BM 	c #9D7454",
"CM 	c #A47758",
"DM 	c #BC9E86",
"EM 	c #F7EBDB",
"FM 	c #DDDCE4",
"GM 	c #BBBEC7",
"HM 	c #D6D9E2",
"IM 	c #D2D5DC",
"JM 	c #DEE1E8",
"KM 	c #AFB1BE",
"LM 	c #B3B5C2",
"MM 	c #AEAFC1",
"NM 	c #A1A0AE",
"OM 	c #F8F6F9",
"PM 	c #E4E3E9",
"QM 	c #C5C5D1",
"RM 	c #D1D4DB",
"SM 	c #B9BCCB",
"TM 	c #BFC3CC",
"UM 	c #A7AAB9",
"VM 	c #B1B5C1",
"WM 	c #D8DCE5",
"XM 	c #D3D7E2",
"YM 	c #B2B8C4",
"ZM 	c #959AAD",
"`M 	c #9499AC",
" N 	c #7A7C89",
".N 	c #6B6569",
"+N 	c #524C4E",
"@N 	c #9A8E82",
"#N 	c #F7EED1",
"$N 	c #946A42",
"%N 	c #9B704D",
"&N 	c #886140",
"*N 	c #7B563C",
"=N 	c #977053",
"-N 	c #9B7350",
";N 	c #9A7352",
">N 	c #A07553",
",N 	c #9E7152",
"'N 	c #A07555",
")N 	c #A3775A",
"!N 	c #A3775C",
"~N 	c #A4785B",
"{N 	c #CEB096",
"]N 	c #FCF0E0",
"^N 	c #CFD5E1",
"/N 	c #BFC1CD",
"(N 	c #D2D7DD",
"_N 	c #CACED9",
":N 	c #BABEC9",
"<N 	c #9698A7",
"[N 	c #868690",
"}N 	c #EDECF1",
"|N 	c #8F8A8E",
"1N 	c #827F86",
"2N 	c #736E74",
"3N 	c #686369",
"4N 	c #88858C",
"5N 	c #918E95",
"6N 	c #767479",
"7N 	c #7A787D",
"8N 	c #666167",
"9N 	c #636166",
"0N 	c #615E65",
"aN 	c #403B42",
"bN 	c #2B2525",
"cN 	c #FDECCE",
"dN 	c #BE9B73",
"eN 	c #9D714C",
"fN 	c #A17858",
"gN 	c #9C7450",
"hN 	c #A07650",
"iN 	c #C9A686",
"jN 	c #FDF7FB",
"kN 	c #BABECA",
"lN 	c #CCD3DD",
"mN 	c #A3A9B7",
"nN 	c #CACFD5",
"oN 	c #ADB1BD",
"pN 	c #B1B7C7",
"qN 	c #A2A8B8",
"rN 	c #989FAF",
"sN 	c #707382",
"tN 	c #C7C6CB",
"uN 	c #FFFEFC",
"vN 	c #FDFDFD",
"wN 	c #F1F2ED",
"xN 	c #D8D4D1",
"yN 	c #B1ABAB",
"zN 	c #7E797F",
"AN 	c #7C7B81",
"BN 	c #636067",
"CN 	c #6B686F",
"DN 	c #6B666D",
"EN 	c #39363D",
"FN 	c #302B31",
"GN 	c #282425",
"HN 	c #423D41",
"IN 	c #9C8B79",
"JN 	c #FFF3D9",
"KN 	c #C89568",
"LN 	c #C9AA8E",
"MN 	c #E6E5EA",
"NN 	c #C1C5C8",
"ON 	c #D3D6DD",
"PN 	c #E2E5EC",
"QN 	c #D8DBE4",
"RN 	c #B6B8C4",
"SN 	c #B0B2BF",
"TN 	c #AFB0C2",
"UN 	c #A3A2B0",
"VN 	c #DEDDE2",
"WN 	c #F8FAF7",
"XN 	c #C0C4CD",
"YN 	c #AFB3BE",
"ZN 	c #D9DDE6",
"`N 	c #B4BAC6",
" O 	c #676163",
".O 	c #534D4F",
"+O 	c #9E8D83",
"@O 	c #D8AC7F",
"#O 	c #8D6740",
"$O 	c #D1B397",
"%O 	c #E2E3E5",
"&O 	c #A2A1B1",
"*O 	c #C2C4D0",
"=O 	c #D1D3DF",
"-O 	c #CCD1D7",
";O 	c #CACED7",
">O 	c #AFB3BC",
",O 	c #A8ACB7",
"'O 	c #CAC6C5",
")O 	c #726D73",
"!O 	c #6B666C",
"~O 	c #8A878E",
"{O 	c #8F8C93",
"]O 	c #7C7A7F",
"^O 	c #656368",
"/O 	c #646168",
"(O 	c #252026",
"_O 	c #5C5754",
":O 	c #433832",
"<O 	c #A2917F",
"[O 	c #CAA885",
"}O 	c #FBEBD2",
"|O 	c #FBF5F7",
"1O 	c #F5F5F3",
"2O 	c #E2E3E7",
"3O 	c #C8CFD9",
"4O 	c #C9D0DA",
"5O 	c #A4AAB8",
"6O 	c #BBC1CD",
"7O 	c #D6DBE1",
"8O 	c #A6ACBC",
"9O 	c #9AA1B1",
"0O 	c #C6C5CA",
"aO 	c #FEFDF9",
"bO 	c #E4E4E6",
"cO 	c #D6D2CF",
"dO 	c #AEAAA9",
"eO 	c #38353C",
"fO 	c #B38A56",
"gO 	c #D1B293",
"hO 	c #E6E5EB",
"iO 	c #C0C3C8",
"jO 	c #D4D7DE",
"kO 	c #D8DAE6",
"lO 	c #B7B9C5",
"mO 	c #B0B1C3",
"nO 	c #A4A3B1",
"oO 	c #FBF9FC",
"pO 	c #C4C4D0",
"qO 	c #C2C6CF",
"rO 	c #7B7D8A",
"sO 	c #6C666A",
"tO 	c #9A887A",
"uO 	c #FFEFCE",
"vO 	c #E3B583",
"wO 	c #957248",
"xO 	c #A1A0B0",
"yO 	c #B7BBC4",
"zO 	c #B9BDC6",
"AO 	c #B1B5BE",
"BO 	c #A9ADB8",
"CO 	c #999BAA",
"DO 	c #888892",
"EO 	c #CDC9C8",
"FO 	c #817E85",
"GO 	c #6F6A70",
"HO 	c #6A656B",
"IO 	c #848287",
"JO 	c #8C8990",
"KO 	c #716F74",
"LO 	c #A1927F",
"MO 	c #FFECCC",
"NO 	c #D9B082",
"OO 	c #CCA770",
"PO 	c #C7A26D",
"QO 	c #C49F6A",
"RO 	c #BF9A66",
"SO 	c #BF996A",
"TO 	c #C8AA88",
"UO 	c #F7F7F5",
"VO 	c #FDFFFA",
"WO 	c #E3E4E8",
"XO 	c #CAD1DB",
"YO 	c #DADFE5",
"ZO 	c #A7ADBB",
"`O 	c #C9CED4",
" P 	c #B5B8C7",
".P 	c #ADB3C3",
"+P 	c #9BA2B2",
"@P 	c #717483",
"#P 	c #C5C4C9",
"$P 	c #E3E3E5",
"%P 	c #D4D0CD",
"&P 	c #ACA8A7",
"*P 	c #5B565A",
"=P 	c #666168",
"-P 	c #433C43",
";P 	c #554E55",
">P 	c #988878",
",P 	c #D4B386",
"'P 	c #C29D69",
")P 	c #BE9D6A",
"!P 	c #C2976D",
"~P 	c #D0B194",
"{P 	c #F8EDD9",
"]P 	c #E0DFE7",
"^P 	c #D0D3DA",
"/P 	c #D5D8DF",
"(P 	c #DEE1EA",
"_P 	c #DADCE8",
":P 	c #B9BBC8",
"<P 	c #B4B7C6",
"[P 	c #B1B2C4",
"}P 	c #A5A4B2",
"|P 	c #BBBECD",
"1P 	c #D7DCE2",
"2P 	c #AEB2BD",
"3P 	c #DBDFE8",
"4P 	c #B5BBC7",
"5P 	c #969BAE",
"6P 	c #686264",
"7P 	c #544E50",
"8P 	c #A08F85",
"9P 	c #FDEFD2",
"0P 	c #D6AC7C",
"aP 	c #BD965F",
"bP 	c #8B6A47",
"cP 	c #BF8D58",
"dP 	c #CAA173",
"eP 	c #CDB297",
"fP 	c #E5E6E8",
"gP 	c #A09FAF",
"hP 	c #B4B4C0",
"iP 	c #BEC0CC",
"jP 	c #D3D8DE",
"kP 	c #BABEC7",
"lP 	c #A4A8B3",
"mP 	c #CCC8C7",
"nP 	c #837E85",
"oP 	c #716C72",
"pP 	c #413C43",
"qP 	c #5A5653",
"rP 	c #423731",
"sP 	c #9F907D",
"tP 	c #FBE8C7",
"uP 	c #D2AD81",
"vP 	c #A07C58",
"wP 	c #9E7A56",
"xP 	c #8F6B47",
"yP 	c #B9A081",
"zP 	c #F9EDD3",
"AP 	c #FDFFFC",
"BP 	c #A0A5B8",
"CP 	c #A9AFBD",
"DP 	c #BEC4D0",
"EP 	c #B9BBC7",
"FP 	c #AFB5C3",
"GP 	c #A4AABA",
"HP 	c #9CA1B4",
"IP 	c #737582",
"JP 	c #C7C6CC",
"KP 	c #F2F2F2",
"LP 	c #D7D2CE",
"MP 	c #ABA5A5",
"NP 	c #7B767C",
"OP 	c #807F84",
"PP 	c #828186",
"QP 	c #2E292F",
"RP 	c #988B78",
"SP 	c #FEF2DA",
"TP 	c #A5835E",
"UP 	c #A6845E",
"VP 	c #A5815F",
"WP 	c #A78061",
"XP 	c #9F7E5D",
"YP 	c #947354",
"ZP 	c #9E7854",
"`P 	c #A27F5F",
" Q 	c #C6AC95",
".Q 	c #FBF2E1",
"+Q 	c #FCFDF8",
"@Q 	c #E3E2E7",
"#Q 	c #C5C6CB",
"$Q 	c #E3E6ED",
"%Q 	c #BABCC8",
"&Q 	c #B1B3C2",
"*Q 	c #A6A6B2",
"=Q 	c #E1E1E3",
"-Q 	c #F8F7F5",
";Q 	c #C5C8CF",
">Q 	c #D3D6DF",
",Q 	c #BEC2CB",
"'Q 	c #AEB4C0",
")Q 	c #8A93A2",
"!Q 	c #9198A8",
"~Q 	c #7B7A88",
"{Q 	c #6C6670",
"]Q 	c #69676A",
"^Q 	c #666263",
"/Q 	c #574E51",
"(Q 	c #9B8F81",
"_Q 	c #FEF4D1",
":Q 	c #927148",
"<Q 	c #8C6943",
"[Q 	c #926A47",
"}Q 	c #A47D5C",
"|Q 	c #8F6A3E",
"1Q 	c #C7AD92",
"2Q 	c #A2A1B3",
"3Q 	c #CBD2DA",
"4Q 	c #CCD0D9",
"5Q 	c #C1C7D3",
"6Q 	c #AAB0BC",
"7Q 	c #898993",
"8Q 	c #EEEDEB",
"9Q 	c #E9E9E9",
"0Q 	c #EBE9EC",
"aQ 	c #CDC7C9",
"bQ 	c #88868B",
"cQ 	c #8D8B90",
"dQ 	c #78767B",
"eQ 	c #423C48",
"fQ 	c #282329",
"gQ 	c #423735",
"hQ 	c #A1917A",
"iQ 	c #B4946E",
"jQ 	c #957254",
"kQ 	c #9C7556",
"lQ 	c #946E4A",
"mQ 	c #C1A37F",
"nQ 	c #FBEAD0",
"oQ 	c #FAF6F7",
"pQ 	c #FFFCFF",
"qQ 	c #A1A6B9",
"rQ 	c #AAB0BE",
"sQ 	c #BCC2CE",
"tQ 	c #949BAB",
"uQ 	c #9DA2B5",
"vQ 	c #757784",
"wQ 	c #D4D1CC",
"xQ 	c #87868E",
"yQ 	c #84838B",
"zQ 	c #68676F",
"AQ 	c #353239",
"BQ 	c #322D33",
"CQ 	c #2A2529",
"DQ 	c #423D43",
"EQ 	c #585357",
"FQ 	c #9F8E7A",
"GQ 	c #FEEFD2",
"HQ 	c #CB9869",
"IQ 	c #B68751",
"JQ 	c #CEB395",
"KQ 	c #F4ECD7",
"LQ 	c #E1DFEA",
"MQ 	c #CAC9D7",
"NQ 	c #E4E5E9",
"OQ 	c #656162",
"PQ 	c #FFEDCF",
"QQ 	c #D5AA80",
"RQ 	c #CAB095",
"SQ 	c #F9F0DF",
"TQ 	c #E0E1E3",
"UQ 	c #A3A2B4",
"VQ 	c #D0CACC",
"WQ 	c #6F6A6E",
"XQ 	c #908E93",
"YQ 	c #67656A",
"ZQ 	c #292428",
"`Q 	c #241F23",
" R 	c #423733",
".R 	c #FFEFC7",
"+R 	c #CBA672",
"@R 	c #B1834F",
"#R 	c #C7A683",
"$R 	c #FFECD3",
"%R 	c #FBF5F9",
"&R 	c #FFFBFF",
"*R 	c #A8ABBA",
"=R 	c #A3A8BB",
"-R 	c #DBE0E6",
";R 	c #D2D9E3",
">R 	c #B6BCC8",
",R 	c #B0B6C4",
"'R 	c #AEB4C2",
")R 	c #8B92A2",
"!R 	c #9EA3B6",
"~R 	c #777986",
"{R 	c #B0ACAB",
"]R 	c #605A5C",
"^R 	c #787379",
"/R 	c #83828A",
"(R 	c #4E4C51",
"_R 	c #332E34",
":R 	c #413A42",
"<R 	c #575057",
"[R 	c #9D8B77",
"}R 	c #D4A16A",
"|R 	c #CEA672",
"1R 	c #CDA571",
"2R 	c #CEA975",
"3R 	c #BE9A6A",
"4R 	c #CCB291",
"5R 	c #F2EAD5",
"6R 	c #E2E0EB",
"7R 	c #C9C8D6",
"8R 	c #D9DCE3",
"9R 	c #E4E7EE",
"0R 	c #DBDEE7",
"aR 	c #B2B4C3",
"bR 	c #A7A7B3",
"cR 	c #C3C7D0",
"dR 	c #ADB3BF",
"eR 	c #7C7B89",
"fR 	c #6D6771",
"gR 	c #584F52",
"hR 	c #A18D86",
"iR 	c #FFEFD1",
"jR 	c #D9AE84",
"kR 	c #C79769",
"lR 	c #CDB398",
"mR 	c #E1E2E4",
"nR 	c #ECECEC",
"oR 	c #EEEEF0",
"pR 	c #A8A2A4",
"qR 	c #928D91",
"rR 	c #716C70",
"sR 	c #8A888D",
"tR 	c #8C8A8F",
"uR 	c #7E7C81",
"vR 	c #2A2627",
"wR 	c #595554",
"xR 	c #403531",
"yR 	c #9E8E77",
"zR 	c #FFE9C7",
"AR 	c #D0A779",
"BR 	c #B0884D",
"CR 	c #CEA66B",
"DR 	c #C8A273",
"ER 	c #C2A887",
"FR 	c #F9EBD1",
"GR 	c #A4A9BC",
"HR 	c #B7BAC9",
"IR 	c #BAC1CB",
"JR 	c #B5BCC6",
"KR 	c #B9C0CA",
"LR 	c #CDD4DE",
"MR 	c #D6D5D1",
"NR 	c #A9A5A4",
"OR 	c #817C80",
"PR 	c #837E84",
"QR 	c #8C8B91",
"RR 	c #6D6A71",
"SR 	c #6B696E",
"TR 	c #6E6C71",
"UR 	c #3D383E",
"VR 	c #2B262A",
"WR 	c #463C44",
"XR 	c #60575C",
"YR 	c #9B8A78",
"ZR 	c #BC976D",
"`R 	c #B69262",
" S 	c #CEA673",
".S 	c #CBA671",
"+S 	c #CAA473",
"@S 	c #C39F6F",
"#S 	c #BA9666",
"$S 	c #B79363",
"%S 	c #C6AB90",
"&S 	c #F3F3F1",
"*S 	c #FAFBF6",
"=S 	c #E8E7EC",
"-S 	c #CDCED3",
";S 	c #BCBECA",
">S 	c #B3B5C4",
",S 	c #E2E2E4",
"'S 	c #C5C9D2",
")S 	c #C6C9D2",
"!S 	c #8B94A3",
"~S 	c #6A686B",
"{S 	c #9A8C7F",
"]S 	c #BC9763",
"^S 	c #BF9A65",
"/S 	c #C09B67",
"(S 	c #C5A06C",
"_S 	c #C6A16C",
":S 	c #CDA874",
"<S 	c #C7A26E",
"[S 	c #C29D68",
"}S 	c #C19C67",
"|S 	c #CFB499",
"1S 	c #F6EDDC",
"2S 	c #858388",
"3S 	c #6E696D",
"4S 	c #413B47",
"5S 	c #443935",
"6S 	c #9F8F78",
"7S 	c #FFEDCD",
"8S 	c #CAA578",
"9S 	c #C59F70",
"0S 	c #9A7153",
"aS 	c #B49C7A",
"bS 	c #F8ECD2",
"cS 	c #F7F9F6",
"dS 	c #FCFEFB",
"eS 	c #B6BDC7",
"fS 	c #BBC2CC",
"gS 	c #D1D8E2",
"hS 	c #B7BEC8",
"iS 	c #ABB1BF",
"jS 	c #7C7E8B",
"kS 	c #C6C5CB",
"lS 	c #CDCCC8",
"mS 	c #A8A4A3",
"nS 	c #736E72",
"oS 	c #767175",
"pS 	c #575155",
"qS 	c #757376",
"rS 	c #7F7E83",
"sS 	c #686669",
"tS 	c #4D494A",
"uS 	c #484445",
"vS 	c #474248",
"wS 	c #373238",
"xS 	c #2C272D",
"yS 	c #1E191D",
"zS 	c #3A3438",
"AS 	c #585256",
"BS 	c #A29380",
"CS 	c #FDF2D6",
"DS 	c #AD8A62",
"ES 	c #A38154",
"FS 	c #957044",
"GS 	c #95724C",
"HS 	c #A47D60",
"IS 	c #A17A5D",
"JS 	c #A0795C",
"KS 	c #9B7457",
"LS 	c #987154",
"MS 	c #987356",
"NS 	c #9F7454",
"OS 	c #BFA08B",
"PS 	c #F6EADA",
"QS 	c #F6F4F5",
"RS 	c #E8E8EA",
"SS 	c #CCCDD1",
"TS 	c #BDBFCB",
"US 	c #B4B6C5",
"VS 	c #E5E6EA",
"WS 	c #C1C5CE",
"XS 	c #CED5DF",
"YS 	c #9C9080",
"ZS 	c #BA9568",
"`S 	c #816148",
" T 	c #88694D",
".T 	c #8E6C50",
"+T 	c #8E6D4E",
"@T 	c #8F6C4C",
"#T 	c #916F4C",
"$T 	c #906E4B",
"%T 	c #8C6B48",
"&T 	c #916A49",
"*T 	c #CEB398",
"=T 	c #E4E5E7",
"-T 	c #A5A9B4",
";T 	c #8A8A94",
">T 	c #C8C2C4",
",T 	c #ABA5A7",
"'T 	c #6E696F",
")T 	c #8E8C91",
"!T 	c #8F8D92",
"~T 	c #46404C",
"{T 	c #565251",
"]T 	c #433834",
"^T 	c #9C8C75",
"/T 	c #FCEAD2",
"(T 	c #B5916D",
"_T 	c #996F49",
":T 	c #8F6B4B",
"<T 	c #916D4D",
"[T 	c #926B4E",
"}T 	c #936F4F",
"|T 	c #926E4E",
"1T 	c #B68B56",
"2T 	c #B89B79",
"3T 	c #FBEBD1",
"4T 	c #A5AABD",
"5T 	c #D0D7E1",
"6T 	c #7E808D",
"7T 	c #F3F3F3",
"8T 	c #F9F5F2",
"9T 	c #EEE8E8",
"0T 	c #D7D1D3",
"aT 	c #D9D5D6",
"bT 	c #DBD9DC",
"cT 	c #D9D4D8",
"dT 	c #D5CFD3",
"eT 	c #D7D5D8",
"fT 	c #DEDCDF",
"gT 	c #DCDADD",
"hT 	c #D6D2D3",
"iT 	c #D5D1D2",
"jT 	c #D3CFCE",
"kT 	c #D1CCD0",
"lT 	c #D1CDCE",
"mT 	c #CFC9CB",
"nT 	c #BBB6BA",
"oT 	c #A0917C",
"pT 	c #FDEED1",
"qT 	c #D7A87A",
"rT 	c #BD916C",
"sT 	c #C8AA90",
"tT 	c #E3E2EA",
"uT 	c #CECED8",
"vT 	c #A9AFBB",
"wT 	c #C5C8D1",
"xT 	c #595051",
"yT 	c #9F8F82",
"zT 	c #FAEAC8",
"AT 	c #DFE3E4",
"BT 	c #A5A4B6",
"CT 	c #BBBFC8",
"DT 	c #8B8B95",
"ET 	c #E3E1E2",
"FT 	c #C5BFC1",
"GT 	c #A29C9E",
"HT 	c #8A858B",
"IT 	c #7B787F",
"JT 	c #726F76",
"KT 	c #76737A",
"LT 	c #59565D",
"MT 	c #57545B",
"NT 	c #454348",
"OT 	c #403A48",
"PT 	c #252024",
"QT 	c #1A151B",
"RT 	c #BC9E7A",
"ST 	c #A7ACBF",
"TT 	c #B8BFC9",
"UT 	c #F4F4F4",
"VT 	c #ACA7A4",
"WT 	c #908788",
"XT 	c #968D8E",
"YT 	c #A19B9D",
"ZT 	c #9F9DA0",
"`T 	c #A5A3A6",
" U 	c #A9A4A8",
".U 	c #938D91",
"+U 	c #A19CA0",
"@U 	c #A6A1A5",
"#U 	c #A49FA3",
"$U 	c #9B9798",
"%U 	c #989495",
"&U 	c #999395",
"*U 	c #949091",
"=U 	c #979394",
"-U 	c #908A8A",
";U 	c #948E90",
">U 	c #878185",
",U 	c #49444A",
"'U 	c #443F43",
")U 	c #3B393A",
"!U 	c #CBAC8F",
"~U 	c #F5EAD6",
"{U 	c #E2E1E9",
"]U 	c #CCCCD8",
"^U 	c #E4E7F0",
"/U 	c #C4C7D0",
"(U 	c #8C95A6",
"_U 	c #7D7C8A",
":U 	c #6E6970",
"<U 	c #6B696C",
"[U 	c #686463",
"}U 	c #5A5152",
"|U 	c #A09083",
"1U 	c #FCECCA",
"2U 	c #D3A170",
"3U 	c #D1B69B",
"4U 	c #E0E4E5",
"5U 	c #A2A3B5",
"6U 	c #F0EAEC",
"7U 	c #EDE7EB",
"8U 	c #DCD7DD",
"9U 	c #D9D6DF",
"0U 	c #D6D1D8",
"aU 	c #D5D2D9",
"bU 	c #D3D0D7",
"cU 	c #D6D3DA",
"dU 	c #CECBD2",
"eU 	c #D2CFD6",
"fU 	c #D0CDD4",
"gU 	c #ACA9B0",
"hU 	c #6B6573",
"iU 	c #473C38",
"jU 	c #FEEAC7",
"kU 	c #CEA675",
"lU 	c #CDA56A",
"mU 	c #BCA27F",
"nU 	c #F8EAD0",
"oU 	c #A9AEC1",
"pU 	c #DCE1E7",
"qU 	c #B5BBC9",
"rU 	c #C0B8B6",
"sU 	c #483F40",
"tU 	c #625C5E",
"uU 	c #6D696A",
"vU 	c #727073",
"wU 	c #656366",
"xU 	c #454044",
"yU 	c #6C676D",
"zU 	c #4E484C",
"AU 	c #464243",
"BU 	c #4A4444",
"CU 	c #3A3434",
"DU 	c #393335",
"EU 	c #342E32",
"FU 	c #221D23",
"GU 	c #201B1F",
"HU 	c #1A1819",
"IU 	c #383138",
"JU 	c #5C565A",
"KU 	c #998876",
"LU 	c #BC9A6A",
"MU 	c #D3AA76",
"NU 	c #CEA474",
"OU 	c #C9AA8B",
"PU 	c #F7EBD5",
"QU 	c #F8F7F3",
"RU 	c #E9E8ED",
"SU 	c #CECED6",
"TU 	c #B7BDC9",
"UU 	c #9B8D80",
"VU 	c #CDA476",
"WU 	c #C8A36E",
"XU 	c #CBA872",
"YU 	c #D5B17D",
"ZU 	c #D1AD79",
"`U 	c #C9A470",
" V 	c #E5E9EA",
".V 	c #9FA0B2",
"+V 	c #D0D5DB",
"@V 	c #AFB5C1",
"#V 	c #E1DFE2",
"$V 	c #948E92",
"%V 	c #A49EA2",
"&V 	c #B0ABB2",
"*V 	c #A5A2AB",
"=V 	c #9B969D",
"-V 	c #A09BA2",
";V 	c #A19EA5",
">V 	c #ADAAB1",
",V 	c #A09DA4",
"'V 	c #A29FA8",
")V 	c #A3A0A9",
"!V 	c #96939C",
"~V 	c #98959E",
"{V 	c #94939B",
"]V 	c #929199",
"^V 	c #919098",
"/V 	c #747178",
"(V 	c #47414F",
"_V 	c #464147",
":V 	c #3F3A40",
"<V 	c #A09079",
"[V 	c #CAA579",
"}V 	c #AB8757",
"|V 	c #AB8560",
"1V 	c #B79C7E",
"2V 	c #FBECD5",
"3V 	c #E5E6EB",
"4V 	c #A9AFBF",
"5V 	c #B8BECA",
"6V 	c #D6DAE5",
"7V 	c #BDC1CA",
"8V 	c #C1C5D1",
"9V 	c #D2D7DB",
"0V 	c #C3CAD2",
"aV 	c #AFB5C5",
"bV 	c #9BA3B0",
"cV 	c #A8AEBC",
"dV 	c #9DA4B4",
"eV 	c #C9CACF",
"fV 	c #E5E4E9",
"gV 	c #F2F1F6",
"hV 	c #DBD5D7",
"iV 	c #B7B2B6",
"jV 	c #7A797F",
"kV 	c #7F7C83",
"lV 	c #717076",
"mV 	c #63626A",
"nV 	c #5C575E",
"oV 	c #2D272B",
"pV 	c #434142",
"qV 	c #5A5154",
"rV 	c #9A8977",
"sV 	c #FEF4D9",
"tV 	c #9D7B56",
"uV 	c #A4815B",
"vV 	c #AF8867",
"wV 	c #B28C68",
"xV 	c #A6835D",
"yV 	c #9E7B51",
"zV 	c #92724B",
"AV 	c #997859",
"BV 	c #9C7B5C",
"CV 	c #93714E",
"DV 	c #9D7154",
"EV 	c #8B6340",
"FV 	c #FEFFFA",
"GV 	c #E9E9EB",
"HV 	c #CCD0D1",
"IV 	c #E5E8EF",
"JV 	c #E6E9F0",
"KV 	c #B0B7C1",
"LV 	c #A6A8B5",
"MV 	c #E1E2E6",
"NV 	c #E4E5EA",
"OV 	c #8D96A7",
"PV 	c #7F7E8C",
"QV 	c #686465",
"RV 	c #595053",
"SV 	c #FFF2CF",
"TV 	c #B99769",
"UV 	c #9F7447",
"VV 	c #946D4C",
"WV 	c #90663E",
"XV 	c #CBB391",
"YV 	c #FDF0DF",
"ZV 	c #FBFCFF",
"`V 	c #E9E9E7",
" W 	c #A0A4AD",
".W 	c #B2B2BE",
"+W 	c #B4B6C3",
"@W 	c #D4D9DF",
"#W 	c #CED3D9",
"$W 	c #B4B7C0",
"%W 	c #B0B3C2",
"&W 	c #B1B5C0",
"*W 	c #EFEEF3",
"=W 	c #EBEBEB",
"-W 	c #E2DEDF",
";W 	c #A39D9D",
">W 	c #868080",
",W 	c #757074",
"'W 	c #504950",
")W 	c #4D484E",
"!W 	c #4E494D",
"~W 	c #484347",
"{W 	c #4A4549",
"]W 	c #464145",
"^W 	c #474246",
"/W 	c #36353A",
"(W 	c #2A252C",
"_W 	c #1B1519",
":W 	c #1C1817",
"<W 	c #4E4A4B",
"[W 	c #473A34",
"}W 	c #9D8C78",
"|W 	c #926B44",
"1W 	c #916E4E",
"2W 	c #997752",
"3W 	c #93714B",
"4W 	c #916F49",
"5W 	c #95744B",
"6W 	c #96754C",
"7W 	c #987148",
"8W 	c #8B6540",
"9W 	c #C39C61",
"0W 	c #CBA76D",
"aW 	c #C1A880",
"bW 	c #F9EBD0",
"cW 	c #D7DBE6",
"dW 	c #C4CBD3",
"eW 	c #A0A6B6",
"fW 	c #9CA3B3",
"gW 	c #F3F2F7",
"hW 	c #D6D0D2",
"iW 	c #AFABAC",
"jW 	c #737077",
"kW 	c #6F6E74",
"lW 	c #5B5A62",
"mW 	c #2A2428",
"nW 	c #9A8874",
"oW 	c #FFF1D4",
"pW 	c #C5A888",
"qW 	c #F3E8D2",
"rW 	c #E7E6EE",
"sW 	c #E7EAF1",
"tW 	c #A7A9B6",
"uW 	c #A8ABBC",
"vW 	c #A08E84",
"wW 	c #C9996B",
"xW 	c #D0B896",
"yW 	c #F9ECDB",
"zW 	c #FCFDFF",
"AW 	c #E6E6E4",
"BW 	c #A1A5AE",
"CW 	c #B8B8C4",
"DW 	c #B3B6BF",
"EW 	c #B3ADAD",
"FW 	c #938E92",
"GW 	c #6F686F",
"HW 	c #929095",
"IW 	c #918F94",
"JW 	c #847F85",
"KW 	c #59585D",
"LW 	c #48434A",
"MW 	c #312B2F",
"NW 	c #534F50",
"OW 	c #463933",
"PW 	c #FFEBC2",
"QW 	c #C79564",
"RW 	c #D5AD6F",
"SW 	c #D4AB73",
"TW 	c #C9A269",
"UW 	c #CBA66F",
"VW 	c #C2A885",
"WW 	c #F7E8D3",
"XW 	c #FAF9FE",
"YW 	c #E6E7EC",
"ZW 	c #BDC4CE",
"`W 	c #C5CCD4",
" X 	c #CACBD0",
".X 	c #E4E3E8",
"+X 	c #D7D1D1",
"@X 	c #B3AFB0",
"#X 	c #77747B",
"$X 	c #7D7C81",
"%X 	c #7A777E",
"&X 	c #5D5C64",
"*X 	c #504D54",
"=X 	c #3D3A41",
"-X 	c #2B2529",
";X 	c #9B8975",
">X 	c #B18651",
",X 	c #CFA86F",
"'X 	c #CEA770",
")X 	c #C39D6C",
"!X 	c #BE9965",
"~X 	c #CBAF8A",
"{X 	c #E7E5F0",
"]X 	c #CACCD8",
"^X 	c #8E97A8",
"/X 	c #FBEBCA",
"(X 	c #CFB795",
"_X 	c #FBEEDD",
":X 	c #FEFFFF",
"<X 	c #E5E5E3",
"[X 	c #9EA2AD",
"}X 	c #A7A1A1",
"|X 	c #898488",
"1X 	c #7D7A81",
"2X 	c #7C777E",
"3X 	c #433E45",
"4X 	c #9D8C7A",
"5X 	c #FDEBC7",
"6X 	c #CCA878",
"7X 	c #A37B47",
"8X 	c #DCB083",
"9X 	c #DAB080",
"0X 	c #CCA773",
"aX 	c #C7AD88",
"bX 	c #FCEED3",
"cX 	c #FFFFFA",
"dX 	c #C7CED8",
"eX 	c #D1D6DA",
"fX 	c #C7CED6",
"gX 	c #9CA4B1",
"hX 	c #9EA4B4",
"iX 	c #9EA5B5",
"jX 	c #CBCCD1",
"kX 	c #D9D3D3",
"lX 	c #B1ADAE",
"mX 	c #757279",
"nX 	c #5D5C62",
"oX 	c #9A8776",
"pX 	c #B7976E",
"qX 	c #B49366",
"rX 	c #B9986B",
"sX 	c #D7AF7C",
"tX 	c #D9B17E",
"uX 	c #D4AC7B",
"vX 	c #CEA879",
"wX 	c #D2A77A",
"xX 	c #D0A578",
"yX 	c #D0A67C",
"zX 	c #C4A787",
"AX 	c #F8EDD7",
"BX 	c #FBFCF7",
"CX 	c #CFD3D6",
"DX 	c #A8AAB7",
"EX 	c #A5A8B9",
"FX 	c #9B8F79",
"GX 	c #FCF3C8",
"HX 	c #C9A873",
"IX 	c #B9915D",
"JX 	c #B99565",
"KX 	c #D1A274",
"LX 	c #C59C70",
"MX 	c #A1A5B0",
"NX 	c #B5B4C2",
"OX 	c #B6B8C5",
"PX 	c #CFD4DA",
"QX 	c #8D8D97",
"RX 	c #F7F8FA",
"SX 	c #C6C0C0",
"TX 	c #A9A3A3",
"UX 	c #8C8B90",
"VX 	c #79767F",
"WX 	c #FEE9CC",
"XX 	c #C1976F",
"YX 	c #9A6F4D",
"ZX 	c #A37F5F",
"`X 	c #9E7A5A",
" Y 	c #AA7D5C",
".Y 	c #A77A5B",
"+Y 	c #B0957A",
"@Y 	c #FBECD7",
"#Y 	c #AAB0C0",
"$Y 	c #BEC5CF",
"%Y 	c #D0D5D9",
"&Y 	c #C8CFD7",
"*Y 	c #DAD4D4",
"=Y 	c #B4B0B1",
"-Y 	c #6D6C72",
";Y 	c #5B5A60",
">Y 	c #342F35",
",Y 	c #2C262A",
"'Y 	c #484443",
")Y 	c #5B5253",
"!Y 	c #988672",
"~Y 	c #FBF1D6",
"{Y 	c #986F4F",
"]Y 	c #A47959",
"^Y 	c #A58063",
"/Y 	c #A27F61",
"(Y 	c #A38062",
"_Y 	c #A27E5E",
":Y 	c #A68365",
"<Y 	c #98765A",
"[Y 	c #997656",
"}Y 	c #9A7757",
"|Y 	c #BD9F83",
"1Y 	c #FAEFDB",
"2Y 	c #EAEAEC",
"3Y 	c #CDD1D2",
"4Y 	c #A3A6B7",
"5Y 	c #6F6A71",
"6Y 	c #696566",
"7Y 	c #9D8E87",
"8Y 	c #FBF0D4",
"9Y 	c #AE8A66",
"0Y 	c #996C4D",
"aY 	c #976E52",
"bY 	c #825E44",
"cY 	c #937052",
"dY 	c #906C4C",
"eY 	c #916D4B",
"fY 	c #9A774D",
"gY 	c #9E7555",
"hY 	c #986E46",
"iY 	c #C9B18F",
"jY 	c #FDFEFF",
"kY 	c #B2B1BF",
"lY 	c #B7B9C6",
"mY 	c #F0EFF4",
"nY 	c #D1CBCB",
"oY 	c #6A686D",
"pY 	c #8D8C91",
"qY 	c #727177",
"rY 	c #76737C",
"sY 	c #454047",
"tY 	c #2E292D",
"uY 	c #4F4F51",
"vY 	c #453832",
"wY 	c #FEEFDA",
"xY 	c #AE8D6C",
"yY 	c #8E6844",
"zY 	c #927150",
"AY 	c #96744F",
"BY 	c #95734E",
"CY 	c #8B6D4B",
"DY 	c #9F7E5B",
"EY 	c #A2805B",
"FY 	c #9E7A58",
"GY 	c #9B7753",
"HY 	c #CDA871",
"IY 	c #BB9F7A",
"JY 	c #FBEDD2",
"KY 	c #F8F9F4",
"LY 	c #FFFEFA",
"MY 	c #ABB1C1",
"NY 	c #C6CDD7",
"OY 	c #CFD4D8",
"PY 	c #CAD1D9",
"QY 	c #9EA6B3",
"RY 	c #F4F4F2",
"SY 	c #8E8D93",
"TY 	c #6E6D73",
"UY 	c #403E3F",
"VY 	c #5D5457",
"WY 	c #FFF6DB",
"XY 	c #CC996C",
"YY 	c #CDA174",
"ZY 	c #D1A576",
"`Y 	c #C7AA8A",
" Z 	c #F7ECD6",
".Z 	c #E8E7EF",
"+Z 	c #D0D4E0",
"@Z 	c #BCBFCE",
"#Z 	c #A1A4B5",
"$Z 	c #706B72",
"%Z 	c #9C8A7E",
"&Z 	c #D1B997",
"*Z 	c #F8EBDA",
"=Z 	c #B6B5C3",
"-Z 	c #C6CCD8",
";Z 	c #D3CDCD",
">Z 	c #8F8E93",
",Z 	c #747379",
"'Z 	c #2C272B",
")Z 	c #252422",
"!Z 	c #505050",
"~Z 	c #483B35",
"{Z 	c #FFEBC7",
"]Z 	c #D1A975",
"^Z 	c #BB9E7E",
"/Z 	c #F8E9D2",
"(Z 	c #F8F7FC",
"_Z 	c #C5CCD6",
":Z 	c #AEB4C4",
"<Z 	c #CECFD4",
"[Z 	c #87848B",
"}Z 	c #7D7C82",
"|Z 	c #312C32",
"1Z 	c #3E3E40",
"2Z 	c #978571",
"3Z 	c #D09E6D",
"4Z 	c #CFA376",
"5Z 	c #BB935F",
"6Z 	c #C6AA85",
"7Z 	c #E9E8F0",
"8Z 	c #B6B8C7",
"9Z 	c #AAA9B7",
"0Z 	c #C7CAD1",
"aZ 	c #B4B7C8",
"bZ 	c #9A9FB2",
"cZ 	c #9295A8",
"dZ 	c #6D6B6E",
"eZ 	c #6A6667",
"fZ 	c #5B5255",
"gZ 	c #9E8C80",
"hZ 	c #CC9D6F",
"iZ 	c #D0B894",
"jZ 	c #B8BAC7",
"kZ 	c #B2B5BE",
"lZ 	c #EBE7E8",
"mZ 	c #AFA9A9",
"nZ 	c #443F45",
"oZ 	c #262624",
"pZ 	c #515151",
"qZ 	c #453830",
"rZ 	c #FFECC9",
"sZ 	c #CBA576",
"tZ 	c #C0A381",
"uZ 	c #CCD3DB",
"vZ 	c #CFD0D5",
"wZ 	c #D7D2CF",
"xZ 	c #706E73",
"yZ 	c #706D74",
"zZ 	c #716E75",
"AZ 	c #565155",
"BZ 	c #424043",
"CZ 	c #5D5459",
"DZ 	c #FCF1D5",
"EZ 	c #CDAA80",
"FZ 	c #D8B17A",
"GZ 	c #DBB681",
"HZ 	c #D4B17B",
"IZ 	c #C7AB86",
"JZ 	c #F9EFD4",
"KZ 	c #FCFBF7",
"LZ 	c #CFD2D7",
"MZ 	c #C5C7D3",
"NZ 	c #B5B7C6",
"OZ 	c #A9A8B6",
"PZ 	c #B2B5C6",
"QZ 	c #999EB1",
"RZ 	c #9E9083",
"SZ 	c #F9ECCA",
"TZ 	c #B59268",
"UZ 	c #D2BA96",
"VZ 	c #B1B4BD",
"WZ 	c #EDE9EA",
"XZ 	c #757076",
"YZ 	c #666467",
"ZZ 	c #252523",
"`Z 	c #473A32",
" ` 	c #CEA97D",
".` 	c #9C7848",
"+` 	c #9D784B",
"@` 	c #947242",
"#` 	c #A18152",
"$` 	c #9B7649",
"%` 	c #9D7A50",
"&` 	c #A57859",
"*` 	c #B4947F",
"=` 	c #F9EDD5",
"-` 	c #F7F6F2",
";` 	c #D7DEE4",
">` 	c #D6DDE5",
",` 	c #E7E6EB",
"'` 	c #F4F3F8",
")` 	c #B5B0AD",
"!` 	c #655F61",
"~` 	c #767177",
"{` 	c #76757A",
"]` 	c #7B7A80",
"^` 	c #77767C",
"/` 	c #6F6C73",
"(` 	c #3C373D",
"_` 	c #322D31",
":` 	c #2B2728",
"<` 	c #938471",
"[` 	c #FFF4DD",
"}` 	c #9B6F4C",
"|` 	c #A8855D",
"1` 	c #A9865C",
"2` 	c #AE8B65",
"3` 	c #9B7A51",
"4` 	c #9F7E55",
"5` 	c #A8875C",
"6` 	c #AA885A",
"7` 	c #AA8858",
"8` 	c #C2A289",
"9` 	c #FAEDDC",
"0` 	c #E8EBF2",
"a` 	c #AAAAB4",
"b` 	c #E7E7E9",
"c` 	c #C6CBD1",
"d` 	c #DCE1E5",
"e` 	c #ADB2C5",
"f` 	c #DADEE9",
"g` 	c #C9CCD5",
"h` 	c #9BA0B3",
"i` 	c #8D92A6",
"j` 	c #84899D",
"k` 	c #8D95AA",
"l` 	c #9098AB",
"m` 	c #82828E",
"n` 	c #6B666A",
"o` 	c #5A5250",
"p` 	c #998D7D",
"q` 	c #FEF3D5",
"r` 	c #B08E68",
"s` 	c #97734F",
"t` 	c #9D7156",
"u` 	c #9A7356",
"v` 	c #8B634A",
"w` 	c #9F785B",
"x` 	c #9A7852",
"y` 	c #8E6E48",
"z` 	c #93734D",
"A` 	c #936D49",
"B` 	c #926C48",
"C` 	c #926B4A",
"D` 	c #8F653B",
"E` 	c #D1B59D",
"F` 	c #F6EFDF",
"G` 	c #E6E7E9",
"H` 	c #A4A1B2",
"I` 	c #C4C8D1",
"J` 	c #A8AAB6",
"K` 	c #B0B3BC",
"L` 	c #EAE8EB",
"M` 	c #D0CBC7",
"N` 	c #ACA6A6",
"O` 	c #89848A",
"P` 	c #868487",
"Q` 	c #524F56",
"R` 	c #2B2A26",
"S` 	c #262628",
"T` 	c #5C5753",
"U` 	c #9B8A76",
"V` 	c #AF8F66",
"W` 	c #916C40",
"X` 	c #92704A",
"Y` 	c #926F47",
"Z` 	c #936E51",
"`` 	c #946F52",
"  .	c #B8997D",
". .	c #F5E9CF",
"+ .	c #D7DEE6",
"@ .	c #BFC6D0",
"# .	c #D3DAE4",
"$ .	c #D8D3CF",
"% .	c #B9B4B1",
"& .	c #696365",
"* .	c #79747A",
"= .	c #555356",
"- .	c #332E32",
"; .	c #DCB184",
"> .	c #DFB585",
", .	c #C39468",
"' .	c #D2A876",
") .	c #C9AB89",
"! .	c #DBE0E4",
"~ .	c #C0C6D4",
"{ .	c #9097AA",
"] .	c #81818D",
"^ .	c #5B5351",
"/ .	c #9F8C7D",
"( .	c #FCEBCD",
"_ .	c #CFA57B",
": .	c #E2B37F",
"< .	c #F4EDDD",
"[ .	c #A3A0B1",
"} .	c #A7A9B5",
"| .	c #BBBDCA",
"1 .	c #ECECEE",
"2 .	c #CBC6C2",
"3 .	c #838184",
"4 .	c #535057",
"5 .	c #2C2B27",
"6 .	c #C7A067",
"7 .	c #BE9F82",
"8 .	c #B3B9C5",
"9 .	c #989DB0",
"0 .	c #D0D1D6",
"a .	c #DAD5D1",
"b .	c #BAB5B2",
"c .	c #777278",
"d .	c #77767B",
"e .	c #6A696F",
"f .	c #3C3A3F",
"g .	c #443F46",
"h .	c #958673",
"i .	c #FEF0D3",
"j .	c #C29D70",
"k .	c #C09B64",
"l .	c #DAAE7D",
"m .	c #E0B280",
"n .	c #CAAC88",
"o .	c #F7EBD3",
"p .	c #EBE9F4",
"q .	c #ABABB5",
"r .	c #C7CCD2",
"s .	c #D9DDE8",
"t .	c #8C94A9",
"u .	c #6C676B",
"v .	c #5C5452",
"w .	c #9E877F",
"x .	c #FCE8CF",
"y .	c #D3A782",
"z .	c #CF9F71",
"A .	c #A57B49",
"B .	c #D2B69E",
"C .	c #DFE0E2",
"D .	c #BCBECB",
"E .	c #F4F4F6",
"F .	c #E9E7EA",
"G .	c #8C878D",
"H .	c #252527",
"I .	c #9A8975",
"J .	c #FFEBCB",
"K .	c #D6AD7F",
"L .	c #D7AB7C",
"M .	c #BA9A81",
"N .	c #C0C7D1",
"O .	c #979CAF",
"P .	c #D2D3D8",
"Q .	c #DED9D5",
"R .	c #BCB7B4",
"S .	c #7A757B",
"T .	c #919096",
"U .	c #6C6970",
"V .	c #342F33",
"W .	c #2C2829",
"X .	c #C1946B",
"Y .	c #E5BD8A",
"Z .	c #C5A06B",
"` .	c #A9844F",
" ..	c #C8A36F",
"...	c #D2AA76",
"+..	c #CFB091",
"@..	c #FCFBF9",
"#..	c #EAE9EE",
"$..	c #D2D5DA",
"%..	c #C8CDD3",
"&..	c #C4CAD6",
"*..	c #C9CBD7",
"=..	c #83889C",
"-..	c #5D5552",
";..	c #968774",
">..	c #FFF3D0",
",..	c #C5A073",
"'..	c #B58F60",
")..	c #CEA76E",
"!..	c #C9A277",
"~..	c #C6A16D",
"{..	c #C49F68",
"]..	c #D6BBA0",
"^..	c #AAA7B8",
"/..	c #A6A8B4",
"(..	c #BEC0CD",
"_..	c #EDEBEE",
":..	c #D3CECA",
"<..	c #908B91",
"[..	c #817F82",
"}..	c #89878C",
"|..	c #2A2925",
"1..	c #242426",
"2..	c #5D5854",
"3..	c #FFEAC8",
"4..	c #DDB486",
"5..	c #D8AD80",
"6..	c #8C684E",
"7..	c #9F7C60",
"8..	c #B7977E",
"9..	c #F6F5F1",
"0..	c #D3D4D9",
"a..	c #D9D4D0",
"b..	c #6A6466",
"c..	c #7F7A80",
"d..	c #818085",
"e..	c #929197",
"f..	c #90816E",
"g..	c #FCEED4",
"h..	c #C69E7A",
"i..	c #AA7C58",
"j..	c #A1785A",
"k..	c #976E50",
"l..	c #A97E5E",
"m..	c #AC7F5E",
"n..	c #8F6B49",
"o..	c #926E4A",
"p..	c #8C674C",
"q..	c #906D4F",
"r..	c #967355",
"s..	c #966C44",
"t..	c #BD9D84",
"u..	c #FFF2E1",
"v..	c #CED2D5",
"w..	c #9A9DAE",
"x..	c #5E5452",
"y..	c #97897E",
"z..	c #FDEFD4",
"A..	c #A37655",
"B..	c #A37750",
"C..	c #8E6549",
"D..	c #AD8464",
"E..	c #8F6638",
"F..	c #C8AD92",
"G..	c #F6EFDD",
"H..	c #E8E9EB",
"I..	c #A7A4B5",
"J..	c #A5A7B3",
"K..	c #BFC1CE",
"L..	c #787679",
"M..	c #5E5955",
"N..	c #FAEFD1",
"O..	c #B79A72",
"P..	c #967650",
"Q..	c #9C704B",
"R..	c #B99A7E",
"S..	c #FFFBFA",
"T..	c #D4D5DA",
"U..	c #8D8C92",
"V..	c #605B62",
"W..	c #323033",
"X..	c #91826D",
"Y..	c #D6AF84",
"Z..	c #CB9F72",
"`..	c #C6A78A",
" +.	c #E7E8EA",
".+.	c #C7CDD9",
"++.	c #CBCDD9",
"@+.	c #83818C",
"#+.	c #726D71",
"$+.	c #6E6A6B",
"%+.	c #5F5553",
"&+.	c #9B897B",
"*+.	c #FDEECD",
"=+.	c #C7A075",
"-+.	c #A27450",
";+.	c #D6AE73",
">+.	c #D1B699",
",+.	c #F2EBD9",
"'+.	c #A4A6B2",
")+.	c #E5E3E6",
"!+.	c #CCC7C3",
"~+.	c #8B868C",
"{+.	c #737174",
"]+.	c #939196",
"^+.	c #7F7D80",
"/+.	c #6E6C6F",
"(+.	c #423F46",
"_+.	c #998874",
":+.	c #FFECC7",
"<+.	c #D6D1CD",
"[+.	c #BDB8B5",
"}+.	c #7D787E",
"|+.	c #7C7B80",
"1+.	c #312F32",
"2+.	c #93846F",
"3+.	c #C19C65",
"4+.	c #F5E8D5",
"5+.	c #ECEBF3",
"6+.	c #8D93A9",
"7+.	c #706A6A",
"8+.	c #9B897F",
"9+.	c #C8A17A",
"0+.	c #D7A777",
"a+.	c #DCB17E",
"b+.	c #AC7E5D",
"c+.	c #D0B598",
"d+.	c #BCBFC8",
"e+.	c #CAD1D7",
"f+.	c #C3C5D2",
"g+.	c #D4CFCB",
"h+.	c #8E898F",
"i+.	c #7C7A7D",
"j+.	c #232325",
"k+.	c #FFEDCC",
"l+.	c #D2AC7F",
"m+.	c #AE825F",
"n+.	c #C99D76",
"o+.	c #DBAF7E",
"p+.	c #D3A778",
"q+.	c #C1A188",
"r+.	c #F5F6F1",
"s+.	c #E2DDD9",
"t+.	c #C0BBB8",
"u+.	c #7C777D",
"v+.	c #3B393E",
"w+.	c #403B3F",
"x+.	c #91806C",
"y+.	c #FFF4D7",
"z+.	c #D3AC81",
"A+.	c #D9B279",
"B+.	c #D8B178",
"C+.	c #C4A586",
"D+.	c #CDD0D5",
"E+.	c #A9A9B3",
"F+.	c #DDE2E6",
"G+.	c #8E94AA",
"H+.	c #716B6B",
"I+.	c #615853",
"J+.	c #988879",
"K+.	c #FFF2D2",
"L+.	c #D2A878",
"M+.	c #D7AC7F",
"N+.	c #D8AE7C",
"O+.	c #D9B480",
"P+.	c #D1AA6F",
"Q+.	c #D8B16E",
"R+.	c #D3AB6D",
"S+.	c #D7AF7B",
"T+.	c #D6B17D",
"U+.	c #CCB194",
"V+.	c #F3ECDA",
"W+.	c #E9EAEC",
"X+.	c #ACA9BA",
"Y+.	c #B9BCC5",
"Z+.	c #CDD4DA",
"`+.	c #C4C6D3",
" @.	c #706E71",
".@.	c #6B696A",
"+@.	c #605B57",
"@@.	c #4A3D37",
"#@.	c #FFEBCA",
"$@.	c #DBB588",
"%@.	c #D5A575",
"&@.	c #A68252",
"*@.	c #A27359",
"=@.	c #A77A5D",
"-@.	c #9F7251",
";@.	c #B69582",
">@.	c #9EA4B0",
",@.	c #9CA3B5",
"'@.	c #D5D6DB",
")@.	c #DCD7D3",
"!@.	c #B7B2AF",
"~@.	c #7B797C",
"{@.	c #8B898E",
"]@.	c #8F8E94",
"^@.	c #706F75",
"/@.	c #2A2829",
"(@.	c #433E42",
"_@.	c #5F5659",
":@.	c #968372",
"<@.	c #FCF2D9",
"[@.	c #B3936D",
"}@.	c #98704C",
"|@.	c #947151",
"1@.	c #9B784E",
"2@.	c #9E7C4E",
"3@.	c #A17F51",
"4@.	c #A28052",
"5@.	c #A48252",
"6@.	c #A07E51",
"7@.	c #AC8963",
"8@.	c #9B7953",
"9@.	c #A88659",
"0@.	c #A6855A",
"a@.	c #9F7D50",
"b@.	c #9B7747",
"c@.	c #FEFFFB",
"d@.	c #EBECF0",
"e@.	c #CFD4D7",
"f@.	c #E5E8ED",
"g@.	c #DCDFE4",
"h@.	c #A9A9B5",
"i@.	c #E7E8EC",
"j@.	c #DDE1EA",
"k@.	c #9198AB",
"l@.	c #736F70",
"m@.	c #706E6F",
"n@.	c #6D686C",
"o@.	c #968978",
"p@.	c #B99774",
"q@.	c #986F53",
"r@.	c #977257",
"s@.	c #987358",
"t@.	c #A37C5F",
"u@.	c #987653",
"v@.	c #98754D",
"w@.	c #9C794F",
"x@.	c #946D4E",
"y@.	c #966F50",
"z@.	c #9A7558",
"A@.	c #9C775A",
"B@.	c #9E795C",
"C@.	c #9F7A5D",
"D@.	c #A47F62",
"E@.	c #C4AE96",
"F@.	c #F1EBDB",
"G@.	c #EAEAE8",
"H@.	c #A2A4B0",
"I@.	c #B0B4BD",
"J@.	c #8C8F98",
"K@.	c #E8E6E9",
"L@.	c #CEC9C5",
"M@.	c #B2AAA8",
"N@.	c #838383",
"O@.	c #676568",
"P@.	c #807E81",
"Q@.	c #58535A",
"R@.	c #4B3D34",
"S@.	c #998675",
"T@.	c #FCEBCF",
"U@.	c #BC9971",
"V@.	c #906C48",
"W@.	c #C19065",
"X@.	c #C6956A",
"Y@.	c #C5946B",
"Z@.	c #BD9E81",
"`@.	c #F7ECD0",
" #.	c #9BA2B4",
".#.	c #DBD6D2",
"+#.	c #6C6869",
"@#.	c #92816D",
"##.	c #FCF3D4",
"$#.	c #C5A477",
"%#.	c #B38F5F",
"&#.	c #DCB07F",
"*#.	c #C4925F",
"=#.	c #C5A687",
"-#.	c #FCEFDC",
";#.	c #D1D4D9",
">#.	c #DCE0E9",
",#.	c #747071",
"'#.	c #716F70",
")#.	c #9B8879",
"!#.	c #FFF2D4",
"~#.	c #D8B18A",
"{#.	c #CE9E6E",
"]#.	c #CFB9A1",
"^#.	c #F0EADA",
"/#.	c #CCCEDA",
"(#.	c #EFF0F2",
"_#.	c #CAC5C1",
":#.	c #AFA7A5",
"<#.	c #8F8A90",
"[#.	c #818181",
"}#.	c #949297",
"|#.	c #575259",
"1#.	c #413C40",
"2#.	c #FFE8C5",
"3#.	c #AF7F4F",
"4#.	c #CFA769",
"5#.	c #DFB881",
"6#.	c #BFA084",
"7#.	c #F5E9D1",
"8#.	c #FCFBFF",
"9#.	c #E3E4E9",
"0#.	c #ACB2C2",
"a#.	c #7A787B",
"b#.	c #605A5E",
"c#.	c #93826E",
"d#.	c #FAF1D2",
"e#.	c #CCAA7C",
"f#.	c #B28B52",
"g#.	c #CBAD89",
"h#.	c #EDECF2",
"i#.	c #757172",
"j#.	c #9E887D",
"k#.	c #FDE9D0",
"l#.	c #D9AE8C",
"m#.	c #D2BCA4",
"n#.	c #ADB1BA",
"o#.	c #C8C3BF",
"p#.	c #ADA5A3",
"q#.	c #7F7F7F",
"r#.	c #2C2B29",
"s#.	c #9B8877",
"t#.	c #FFE9C9",
"u#.	c #D5AC7E",
"v#.	c #D8AC7B",
"w#.	c #E0B684",
"x#.	c #D5AF7E",
"y#.	c #DFB783",
"z#.	c #C5A689",
"A#.	c #F9EED0",
"B#.	c #F8F7F2",
"C#.	c #E2E3E8",
"D#.	c #BAC0CC",
"E#.	c #9AA1B3",
"F#.	c #DDD8D4",
"G#.	c #87858A",
"H#.	c #3C3C3C",
"I#.	c #5C5658",
"J#.	c #948371",
"K#.	c #C9A680",
"L#.	c #BA8F6C",
"M#.	c #CBAA87",
"N#.	c #FEFAF9",
"O#.	c #EBEAF0",
"P#.	c #8C95A4",
"Q#.	c #9198AA",
"R#.	c #716B6F",
"S#.	c #9A8B76",
"T#.	c #FEF1CF",
"U#.	c #D6B389",
"V#.	c #D5A776",
"W#.	c #BB9767",
"X#.	c #C4A070",
"Y#.	c #C8A474",
"Z#.	c #DCC7AC",
"`#.	c #F8F2E2",
" $.	c #ADB1BC",
".$.	c #ECEAED",
"+$.	c #CBC3C0",
"@$.	c #AEA6A4",
"#$.	c #7E7E7E",
"$$.	c #716F72",
"%$.	c #5C555C",
"&$.	c #6B646B",
"*$.	c #676067",
"=$.	c #57515B",
"-$.	c #514F50",
";$.	c #625A58",
">$.	c #4D3F34",
",$.	c #DAB183",
"'$.	c #A98563",
")$.	c #AD8762",
"!$.	c #A47B5B",
"~$.	c #95754F",
"{$.	c #93724F",
"]$.	c #B08F7C",
"^$.	c #FBEEDB",
"/$.	c #9BA1AD",
"($.	c #C1BCB9",
"_$.	c #4D4B50",
":$.	c #42413F",
"<$.	c #94836F",
"[$.	c #B89671",
"}$.	c #A67D5D",
"|$.	c #AE8567",
"1$.	c #AC8365",
"2$.	c #A7835F",
"3$.	c #A17F5C",
"4$.	c #A07D5D",
"5$.	c #9C7A54",
"6$.	c #9D7955",
"7$.	c #926F4F",
"8$.	c #A07646",
"9$.	c #C3A283",
"0$.	c #FAF6F5",
"a$.	c #8D96A5",
"b$.	c #74706F",
"c$.	c #716B6D",
"d$.	c #978A7A",
"e$.	c #F6EBCF",
"f$.	c #B69270",
"g$.	c #9A7048",
"h$.	c #9D704F",
"i$.	c #856649",
"j$.	c #B9936C",
"k$.	c #D5BDA3",
"l$.	c #F9F2E2",
"m$.	c #DDE2E8",
"n$.	c #AEB2BB",
"o$.	c #F3F1F6",
"p$.	c #F0ECEB",
"q$.	c #7D7D7D",
"r$.	c #5D565D",
"s$.	c #6D666D",
"t$.	c #686168",
"u$.	c #55525B",
"v$.	c #403E41",
"w$.	c #504E4F",
"x$.	c #4C3E33",
"y$.	c #998773",
"z$.	c #FEF0D5",
"A$.	c #BC9C73",
"B$.	c #8A6946",
"C$.	c #A4784B",
"D$.	c #B5967A",
"E$.	c #F9EED2",
"F$.	c #FAF9F5",
"G$.	c #B0B6C6",
"H$.	c #9AA0AC",
"I$.	c #BEB9B6",
"J$.	c #6D6C71",
"K$.	c #39373A",
"L$.	c #413F40",
"M$.	c #5C5356",
"N$.	c #FFF6D9",
"O$.	c #C2A176",
"P$.	c #B69464",
"Q$.	c #D0A070",
"R$.	c #AB7E55",
"S$.	c #C29369",
"T$.	c #CDA076",
"U$.	c #CAA88C",
"V$.	c #FDF9FA",
"W$.	c #EAE9EF",
"X$.	c #E8E9ED",
"Y$.	c #C99A6E",
"Z$.	c #946C48",
"`$.	c #CAA36C",
" %.	c #DCC4AA",
".%.	c #FAF3E3",
"+%.	c #FFFDFC",
"@%.	c #635B59",
"#%.	c #9B8673",
"$%.	c #D9AF7F",
"%%.	c #9A6E47",
"&%.	c #B98961",
"*%.	c #D5AC6C",
"=%.	c #BB9B84",
"-%.	c #C3CAD4",
";%.	c #B4BBC5",
">%.	c #D7D8DD",
",%.	c #8E7C68",
"'%.	c #C19F72",
")%.	c #CEAD8E",
"!%.	c #777171",
"~%.	c #797375",
"{%.	c #756C6F",
"]%.	c #9B8577",
"^%.	c #FFECD1",
"/%.	c #C89E78",
"(%.	c #C7A170",
"_%.	c #F8F1DF",
":%.	c #ABAFB8",
"<%.	c #8E8C97",
"[%.	c #EDE8EC",
"}%.	c #CEC6C3",
"|%.	c #B1A7A6",
"1%.	c #54515A",
"2%.	c #545051",
"3%.	c #645C59",
"4%.	c #503F35",
"5%.	c #9C8774",
"6%.	c #D7B184",
"7%.	c #BD9069",
"8%.	c #B99980",
"9%.	c #F8EED3",
"0%.	c #FEFFFD",
"a%.	c #7E7C7F",
"b%.	c #848388",
"c%.	c #2D2B2C",
"d%.	c #3D3D3D",
"e%.	c #8F7C6B",
"f%.	c #C69F76",
"g%.	c #C7966B",
"h%.	c #DEB482",
"i%.	c #F8ECD4",
"j%.	c #8F96A8",
"k%.	c #7B7577",
"l%.	c #766D70",
"m%.	c #C8A178",
"n%.	c #8B6743",
"o%.	c #CDA778",
"p%.	c #CCA677",
"q%.	c #FBF4E2",
"r%.	c #D1D6DC",
"s%.	c #AAAEB7",
"t%.	c #8F8D98",
"u%.	c #EFEAEE",
"v%.	c #D3CBC8",
"w%.	c #B5ABAA",
"x%.	c #908990",
"y%.	c #959398",
"z%.	c #68666B",
"A%.	c #524F58",
"B%.	c #2D2C2A",
"C%.	c #272624",
"D%.	c #9D8875",
"E%.	c #FFEACD",
"F%.	c #A88356",
"G%.	c #A98263",
"H%.	c #A37F5D",
"I%.	c #B0947E",
"J%.	c #FBF1D8",
"K%.	c #FCF8F5",
"L%.	c #FFFCF9",
"M%.	c #DDDDE7",
"N%.	c #D1D5E1",
"O%.	c #C0C2CE",
"P%.	c #D6D8E4",
"Q%.	c #8C93A3",
"R%.	c #8E95A5",
"S%.	c #9EA1B4",
"T%.	c #8D8F9B",
"U%.	c #D7D8DC",
"V%.	c #E4E3DF",
"W%.	c #FFFCFB",
"X%.	c #F9F5F4",
"Y%.	c #DED6D3",
"Z%.	c #C2BAB8",
"`%.	c #858489",
" &.	c #8A898E",
".&.	c #5B5C5E",
"+&.	c #5B5B5D",
"@&.	c #352F33",
"#&.	c #352C31",
"$&.	c #484244",
"%&.	c #8D7C6A",
"&&.	c #977748",
"*&.	c #B08D67",
"=&.	c #AA8A5B",
"-&.	c #A98958",
";&.	c #A78557",
">&.	c #AF8A5D",
",&.	c #B08B5E",
"'&.	c #A98555",
")&.	c #A98553",
"!&.	c #AF815F",
"~&.	c #C1A286",
"{&.	c #FBEFE1",
"]&.	c #FDFFF7",
"^&.	c #D2D2DA",
"/&.	c #DBDCE1",
"(&.	c #E8E9EE",
"_&.	c #DFE0E4",
":&.	c #E6E7EB",
"<&.	c #D8D9DE",
"[&.	c #DEDFE4",
"}&.	c #E3E3EB",
"|&.	c #DDDDE5",
"1&.	c #DFDFE7",
"2&.	c #E0E0E8",
"3&.	c #B0B3C4",
"4&.	c #B2B4C1",
"5&.	c #AAA9B1",
"6&.	c #ECE7ED",
"7&.	c #F9F3F5",
"8&.	c #EFE9E9",
"9&.	c #FFFCFD",
"0&.	c #FEFAFB",
"a&.	c #CFCFD9",
"b&.	c #CACDD6",
"c&.	c #C6C8D4",
"d&.	c #DBDDE9",
"e&.	c #CFD1DE",
"f&.	c #9C9FB2",
"g&.	c #979AAD",
"h&.	c #8F96A6",
"i&.	c #7C808B",
"j&.	c #7F7574",
"k&.	c #776C6A",
"l&.	c #665B59",
"m&.	c #958973",
"n&.	c #C1A07F",
"o&.	c #977655",
"p&.	c #947654",
"q&.	c #9D7959",
"r&.	c #9D785B",
"s&.	c #866846",
"t&.	c #D4C1A3",
"u&.	c #FBF3E0",
"v&.	c #FFFDF9",
"w&.	c #EBE6ED",
"x&.	c #AEAAB8",
"y&.	c #C9D2D9",
"z&.	c #C5CAD0",
"A&.	c #B6B9C2",
"B&.	c #A5A8B1",
"C&.	c #939AA4",
"D&.	c #969CA8",
"E&.	c #9A9EA9",
"F&.	c #8E8F94",
"G&.	c #EFEEEA",
"H&.	c #ECEAEB",
"I&.	c #F6F1F5",
"J&.	c #F3EAED",
"K&.	c #D4CACB",
"L&.	c #B7ADAE",
"M&.	c #92898E",
"N&.	c #949496",
"O&.	c #8A8A8C",
"P&.	c #2F2E2C",
"Q&.	c #545351",
"R&.	c #635C56",
"S&.	c #4B3D30",
"T&.	c #FDE9CE",
"U&.	c #BF9D70",
"V&.	c #956A4A",
"W&.	c #9D7659",
"X&.	c #D8A673",
"Y&.	c #E2B480",
"Z&.	c #BB9C80",
"`&.	c #F7EBD1",
" *.	c #F3F7F8",
".*.	c #DCE3EB",
"+*.	c #C2CBD4",
"@*.	c #C0CAD3",
"#*.	c #CBD5DE",
"$*.	c #A0A8B3",
"%*.	c #B4BCC9",
"&*.	c #D0D7DF",
"**.	c #B9C1CC",
"=*.	c #B7C0C9",
"-*.	c #B8C1CA",
";*.	c #B7C0C7",
">*.	c #BDC6CF",
",*.	c #CFD8E1",
"'*.	c #B5BDC8",
")*.	c #A3ABB8",
"!*.	c #99A0B0",
"~*.	c #979CB2",
"{*.	c #FEFDFF",
"]*.	c #F6F5FA",
"^*.	c #F5F6FA",
"/*.	c #E1D9D6",
"(*.	c #BFBAB7",
"_*.	c #716D6E",
":*.	c #4A4B4D",
"<*.	c #3A3B3D",
"[*.	c #2E3231",
"}*.	c #2A2E2D",
"|*.	c #414139",
"1*.	c #605D56",
"2*.	c #8C7D68",
"3*.	c #C29C77",
"4*.	c #D2A178",
"5*.	c #D2A57B",
"6*.	c #E0B487",
"7*.	c #C7A889",
"8*.	c #FAEADA",
"9*.	c #FFFFF6",
"0*.	c #CECCD7",
"a*.	c #D0D2DF",
"b*.	c #D7D9E6",
"c*.	c #E3E5F1",
"d*.	c #E4E6F2",
"e*.	c #D5D7E3",
"f*.	c #DEE0EC",
"g*.	c #E0E7ED",
"h*.	c #D9E0E6",
"i*.	c #D5DCE4",
"j*.	c #B1B8C2",
"k*.	c #AFB7C4",
"l*.	c #B2B9C3",
"m*.	c #A2A7AD",
"n*.	c #EBEDEA",
"o*.	c #F4F8F7",
"p*.	c #F9FBF8",
"q*.	c #FCFFFF",
"r*.	c #E6EBEE",
"s*.	c #C5CED5",
"t*.	c #C3CCD3",
"u*.	c #CBD4DB",
"v*.	c #C9D0D8",
"w*.	c #A5ADB8",
"x*.	c #B9C1CE",
"y*.	c #C0C8D3",
"z*.	c #C8D1DA",
"A*.	c #CAD4DD",
"B*.	c #B5BFC9",
"C*.	c #D9E2EB",
"D*.	c #D3DCE5",
"E*.	c #BAC3CC",
"F*.	c #C7D0D9",
"G*.	c #CAD3DC",
"H*.	c #CBD4DD",
"I*.	c #D0D9E2",
"J*.	c #ABB5BE",
"K*.	c #909AA6",
"L*.	c #99A3AF",
"M*.	c #939CAB",
"N*.	c #8E97A6",
"O*.	c #89939F",
"P*.	c #818B97",
"Q*.	c #8C91A5",
"R*.	c #7F787F",
"S*.	c #807474",
"T*.	c #796B68",
"U*.	c #695E5A",
"V*.	c #968772",
"W*.	c #FFE8CC",
"X*.	c #D1AE88",
"Y*.	c #D5BBA2",
"Z*.	c #F5ECDD",
"`*.	c #EAEAF2",
" =.	c #AAA8B5",
".=.	c #C2C0CD",
"+=.	c #D1CFDC",
"@=.	c #D1D8E0",
"#=.	c #CBD1DD",
"$=.	c #8B8B93",
"%=.	c #F0EFED",
"&=.	c #E7ECE8",
"*=.	c #FBFFFC",
"==.	c #F3F5F2",
"-=.	c #B2ADA9",
";=.	c #898886",
">=.	c #7D7F7E",
",=.	c #757374",
"'=.	c #7C7C7C",
")=.	c #949494",
"!=.	c #8B8B8B",
"~=.	c #737373",
"{=.	c #7F7D7E",
"]=.	c #686765",
"^=.	c #706B6F",
"/=.	c #433C44",
"(=.	c #2A252B",
"_=.	c #544D54",
":=.	c #665C5D",
"<=.	c #4F3E36",
"[=.	c #9F897B",
"}=.	c #D7AF72",
"|=.	c #C4A088",
"1=.	c #FEEFD8",
"2=.	c #FBF6FA",
"3=.	c #C1C4CD",
"4=.	c #BFC2CB",
"5=.	c #CDD0D9",
"6=.	c #CAD0DC",
"7=.	c #8D919C",
"8=.	c #D2D6D9",
"9=.	c #FDFFFE",
"0=.	c #F3F7F6",
"a=.	c #E6DEDC",
"b=.	c #C6C1BE",
"c=.	c #807B7F",
"d=.	c #625D64",
"e=.	c #4C474B",
"f=.	c #3A3637",
"g=.	c #363233",
"h=.	c #2F2B2A",
"i=.	c #444245",
"j=.	c #8C7C6F",
"k=.	c #FFEAD3",
"l=.	c #D1A986",
"m=.	c #D6A374",
"n=.	c #D4AC78",
"o=.	c #C7A983",
"p=.	c #FAF0D7",
"q=.	c #FCFFF6",
"r=.	c #D1D1DB",
"s=.	c #D7D7DF",
"t=.	c #E6E6EE",
"u=.	c #E7E7EF",
"v=.	c #D5D5DD",
"w=.	c #DEDEE6",
"x=.	c #E1E1E9",
"y=.	c #B5B8C1",
"z=.	c #B4B4BE",
"A=.	c #A5A4AA",
"B=.	c #E9E8E6",
"C=.	c #CBCED5",
"D=.	c #7B7E85",
"E=.	c #797778",
"F=.	c #7C7771",
"G=.	c #746D63",
"H=.	c #635D51",
"I=.	c #948276",
"J=.	c #FFE9D4",
"K=.	c #DBB591",
"L=.	c #D19F6E",
"M=.	c #D4A87B",
"N=.	c #D7BA98",
"O=.	c #EFE6D5",
"P=.	c #F5FAF4",
"Q=.	c #E5EDEF",
"R=.	c #A9AEB4",
"S=.	c #CBD1DF",
"T=.	c #A1A3AF",
"U=.	c #D4D4E0",
"V=.	c #D5D5E1",
"W=.	c #D0D0DC",
"X=.	c #D7D7E3",
"Y=.	c #C1C1CD",
"Z=.	c #C8C8D4",
"`=.	c #CBCDDA",
" -.	c #C9CBD8",
".-.	c #D1D3E0",
"+-.	c #A4A6B3",
"@-.	c #ABADBA",
"#-.	c #9998A6",
"$-.	c #9E9DAD",
"%-.	c #A19FAC",
"&-.	c #908D96",
"*-.	c #F6F1F7",
"=-.	c #F2ECEE",
"--.	c #EBEBED",
";-.	c #EEE8EA",
">-.	c #D5CBCC",
",-.	c #B3A9AA",
"'-.	c #8D878B",
")-.	c #858086",
"!-.	c #79767D",
"~-.	c #939298",
"{-.	c #757479",
"]-.	c #424244",
"^-.	c #2B2B2B",
"/-.	c #575654",
"(-.	c #69625C",
"_-.	c #4D3F32",
":-.	c #968470",
"<-.	c #FFEACB",
"[-.	c #BF9C7C",
"}-.	c #F9EACB",
"|-.	c #FBF6F0",
"1-.	c #CCCCD4",
"2-.	c #AEAEB8",
"3-.	c #D7D7E1",
"4-.	c #C8C8D2",
"5-.	c #C6C6D0",
"6-.	c #CBCBD5",
"7-.	c #C3C3CD",
"8-.	c #C1C1CB",
"9-.	c #C9C9D3",
"0-.	c #D4D4DE",
"a-.	c #C0C0CC",
"b-.	c #BFBDC8",
"c-.	c #CCCAD7",
"d-.	c #D2D0DD",
"e-.	c #ABA7B6",
"f-.	c #A7A3B2",
"g-.	c #A19DAC",
"h-.	c #A7A3B1",
"i-.	c #9E9BA4",
"j-.	c #DAD5DB",
"k-.	c #FFFBFC",
"l-.	c #FCF8F9",
"m-.	c #F4F2F3",
"n-.	c #E7E3E2",
"o-.	c #C3BFBE",
"p-.	c #686667",
"q-.	c #777578",
"r-.	c #848285",
"s-.	c #858084",
"t-.	c #5F5E63",
"u-.	c #333134",
"v-.	c #302E31",
"w-.	c #474141",
"x-.	c #635B58",
"y-.	c #8C7B67",
"z-.	c #D5B288",
"A-.	c #CBA870",
"B-.	c #D7B27B",
"C-.	c #D8B37C",
"D-.	c #DBB479",
"E-.	c #D7B075",
"F-.	c #E4BC88",
"G-.	c #DAB37A",
"H-.	c #D5AA7F",
"I-.	c #C9A990",
"J-.	c #F8EADD",
"K-.	c #CCCBD9",
"L-.	c #D5DADE",
"M-.	c #E0E5E8",
"N-.	c #E2E7EA",
"O-.	c #DCE1E4",
"P-.	c #E1E6E9",
"Q-.	c #D3D8DC",
"R-.	c #D8DDE1",
"S-.	c #E1E0E8",
"T-.	c #DEDDE5",
"U-.	c #DFDEE6",
"V-.	c #D8D8E0",
"W-.	c #CACAD4",
"X-.	c #BABAC4",
"Y-.	c #B9B9C3",
"Z-.	c #B5B5C1",
"`-.	c #B5B5BF",
" ;.	c #ABAAB2",
".;.	c #EAE8ED",
"+;.	c #F6F4F7",
"@;.	c #FAFBFD",
"#;.	c #FDFCFF",
"$;.	c #E9E8EE",
"%;.	c #CDCDD5",
"&;.	c #CDCDD9",
"*;.	c #B1B0BE",
"=;.	c #C1C0CE",
"-;.	c #C9CBDA",
";;.	c #B0B2C1",
">;.	c #9899AB",
",;.	c #9A9BAD",
"';.	c #9394A8",
");.	c #8E8FA3",
"!;.	c #88899D",
"~;.	c #8B8CA0",
"{;.	c #9091A3",
"];.	c #7D7777",
"^;.	c #776F6C",
"/;.	c #625B55",
"(;.	c #958470",
"_;.	c #DCB98F",
":;.	c #BD9864",
"<;.	c #D5BC9E",
"[;.	c #F3E6DE",
"};.	c #E0DFE5",
"|;.	c #A6A7AC",
"1;.	c #9599A4",
"2;.	c #9CA0AB",
"3;.	c #92929A",
"4;.	c #F5F4F2",
"5;.	c #F2EDEA",
"6;.	c #B3A9A7",
"7;.	c #898481",
"8;.	c #787878",
"9;.	c #8C8C8C",
"0;.	c #888888",
"a;.	c #767674",
"b;.	c #62615F",
"c;.	c #464447",
"d;.	c #504033",
"e;.	c #DDB285",
"f;.	c #AC8973",
"g;.	c #FDFAF3",
"h;.	c #FFFDF8",
"i;.	c #F9F8F4",
"j;.	c #F6F5F3",
"k;.	c #F3F5F0",
"l;.	c #F6F8F5",
"m;.	c #F0F2EF",
"n;.	c #F1F1EF",
"o;.	c #F3F2F8",
"p;.	c #F8FAF5",
"q;.	c #E1D6D0",
"r;.	c #D0C5BF",
"s;.	c #C5BAB6",
"t;.	c #C3BAB5",
"u;.	c #C7BCB8",
"v;.	c #C6BBB7",
"w;.	c #C0B5B1",
"x;.	c #BFB4AE",
"y;.	c #C0B5AF",
"z;.	c #BFB4B0",
"A;.	c #C2B7B1",
"B;.	c #BDB0AA",
"C;.	c #B9ACA4",
"D;.	c #BAADA5",
"E;.	c #B4AAA1",
"F;.	c #B8AEA5",
"G;.	c #B1A89F",
"H;.	c #B4ABA4",
"I;.	c #6F6A64",
"J;.	c #37342F",
"K;.	c #2E2F2A",
"L;.	c #292A25",
"M;.	c #403A3E",
"N;.	c #F8E7C9",
"O;.	c #BD9B78",
"P;.	c #AB8264",
"Q;.	c #92744E",
"R;.	c #8C6E4A",
"S;.	c #967854",
"T;.	c #A3825F",
"U;.	c #A78663",
"V;.	c #AB8966",
"W;.	c #AE8663",
"X;.	c #AA885B",
"Y;.	c #B99984",
"Z;.	c #FFEFE0",
"`;.	c #FFF8F6",
" >.	c #FFFDF5",
".>.	c #FDF3F2",
"+>.	c #F7EFED",
"@>.	c #F8F4F3",
"#>.	c #EEEAE9",
"$>.	c #FDF9F6",
"%>.	c #F7F3F0",
"&>.	c #EFECE7",
"*>.	c #FEFDF8",
"=>.	c #FAF9F4",
"->.	c #FEFAF7",
";>.	c #EDEDEB",
">>.	c #E4E2E5",
",>.	c #E5E0E4",
"'>.	c #E3DEE2",
")>.	c #E7E4ED",
"!>.	c #CFCAD1",
"~>.	c #938C93",
"{>.	c #887F82",
"]>.	c #817879",
"^>.	c #7A706F",
"/>.	c #736866",
"(>.	c #655754",
"_>.	c #908070",
":>.	c #FCE4CC",
"<>.	c #C8A882",
"[>.	c #8B6443",
"}>.	c #B38764",
"|>.	c #B08C6A",
"1>.	c #B59066",
"2>.	c #96764D",
"3>.	c #F5EBE2",
"4>.	c #F7F1F1",
"5>.	c #F0EBE8",
"6>.	c #E4DBD6",
"7>.	c #F0E8E5",
"8>.	c #ECE6E6",
"9>.	c #E9EAE5",
"0>.	c #EDEEE9",
"a>.	c #E7E8E3",
"b>.	c #E3E4DF",
"c>.	c #DDDDDB",
"d>.	c #E8E8E6",
"e>.	c #EAECE9",
"f>.	c #ECEEEB",
"g>.	c #EDEFEC",
"h>.	c #E7E9E6",
"i>.	c #E8EAE7",
"j>.	c #E1E3E0",
"k>.	c #E4E4E2",
"l>.	c #E7E7E5",
"m>.	c #E3E5E2",
"n>.	c #E5E7E4",
"o>.	c #E3E3E1",
"p>.	c #DDDED9",
"q>.	c #FFFEF9",
"r>.	c #EFEFE7",
"s>.	c #F3EBE9",
"t>.	c #CDC3C1",
"u>.	c #C4B9B7",
"v>.	c #BCB2B1",
"w>.	c #B9B3B3",
"x>.	c #B6AAAA",
"y>.	c #B7ABAB",
"z>.	c #B9ADAD",
"A>.	c #ADA2A0",
"B>.	c #AFA4A2",
"C>.	c #A69B99",
"D>.	c #A79A94",
"E>.	c #AC9F99",
"F>.	c #A59892",
"G>.	c #A49791",
"H>.	c #A29491",
"I>.	c #9D8F8C",
"J>.	c #504A4C",
"K>.	c #3D3435",
"L>.	c #322A28",
"M>.	c #29211F",
"N>.	c #5B5150",
"O>.	c #695C56",
"P>.	c #513E30",
"Q>.	c #9C8671",
"R>.	c #F8E8CE",
"S>.	c #C19F79",
"T>.	c #8C6844",
"U>.	c #B39478",
"V>.	c #F5ECCF",
"W>.	c #F3F4EE",
"X>.	c #EAEFE9",
"Y>.	c #FCFEFD",
"Z>.	c #F9FAFC",
"`>.	c #FDFBFF",
" ,.	c #FCFAFF",
".,.	c #F7F5F8",
"+,.	c #E6E2DF",
"@,.	c #DCD8D5",
"#,.	c #E3DFDC",
"$,.	c #E2DEDB",
"%,.	c #E1DDDA",
"&,.	c #E0DDD8",
"*,.	c #DFDAD6",
"=,.	c #D8D1CB",
"-,.	c #DAD3CD",
";,.	c #DCD5CD",
">,.	c #DAD1CA",
",,.	c #D5CCC5",
"',.	c #DFD6D1",
"),.	c #A59B99",
"!,.	c #504846",
"~,.	c #423C40",
"{,.	c #4F4B4C",
"],.	c #8B7C65",
"^,.	c #F4E4C2",
"/,.	c #D8B78C",
"(,.	c #D4B481",
"_,.	c #CFA57D",
":,.	c #C2956B",
"<,.	c #E6C091",
"[,.	c #C6A88C",
"},.	c #F3F4EC",
"|,.	c #FBFEF3",
"1,.	c #FBFFFA",
"2,.	c #F8FAF9",
"3,.	c #938E8A",
"4,.	c #847C79",
"5,.	c #7F7774",
"6,.	c #68605D",
"7,.	c #6A615C",
"8,.	c #8B7D63",
"9,.	c #FFEBC9",
"0,.	c #D7B689",
"a,.	c #DBB382",
"b,.	c #E5BF90",
"c,.	c #E2BC8F",
"d,.	c #D8B37F",
"e,.	c #CFB697",
"f,.	c #F1EAD8",
"g,.	c #F7FAF1",
"h,.	c #F5FAF3",
"i,.	c #F4F5EF",
"j,.	c #FDF9F8",
"k,.	c #F2F1ED",
"l,.	c #D8D5CE",
"m,.	c #DBD6D0",
"n,.	c #E7E2DE",
"o,.	c #E5E0DC",
"p,.	c #E6E1DD",
"q,.	c #E3DEDA",
"r,.	c #E2DDD7",
"s,.	c #DDD8D2",
"t,.	c #DAD6CD",
"u,.	c #D4D0C7",
"v,.	c #D7D0CA",
"w,.	c #D5CEC8",
"x,.	c #D4CDC7",
"y,.	c #D3CCC6",
"z,.	c #D2CBC5",
"A,.	c #CFC8C2",
"B,.	c #6F6969",
"C,.	c #48403E",
"D,.	c #463E3C",
"E,.	c #342B2C",
"F,.	c #584F50",
"G,.	c #4E4035",
"H,.	c #968573",
"I,.	c #FDE7C0",
"J,.	c #C5986E",
"K,.	c #CF9D6C",
"L,.	c #A58169",
"M,.	c #E2D1B5",
"N,.	c #FBF0EA",
"O,.	c #FFF9F0",
"P,.	c #F9F8FD",
"Q,.	c #F7F8FC",
"R,.	c #F5F9FA",
"S,.	c #F8FCFD",
"T,.	c #F6FAFB",
"U,.	c #F8FCFB",
"V,.	c #F3F7FA",
"W,.	c #F6FAFD",
"X,.	c #EFF1F0",
"Y,.	c #F1F3F0",
"Z,.	c #EFF1EE",
"`,.	c #EBF0EC",
" '.	c #EEF0ED",
".'.	c #EFEFED",
"+'.	c #E8EBE4",
"@'.	c #EFF0EA",
"#'.	c #EDEAE3",
"$'.	c #F3ECE6",
"%'.	c #EBE1DF",
"&'.	c #998D8D",
"*'.	c #85797B",
"='.	c #796D71",
"-'.	c #736564",
";'.	c #524441",
">'.	c #877060",
",'.	c #E9D1B7",
"''.	c #DAB392",
")'.	c #D7B585",
"!'.	c #DEB48C",
"~'.	c #D5B083",
"{'.	c #D4AF82",
"]'.	c #D6AE7A",
"^'.	c #E4BB8F",
"/'.	c #AE8E77",
"('.	c #E8DBC8",
"_'.	c #FFFBF8",
":'.	c #F6F7FB",
"<'.	c #F8F9FD",
"['.	c #F6F8F7",
"}'.	c #F5F7F4",
"|'.	c #FBF7F6",
"1'.	c #FEF4F2",
"2'.	c #B2A59F",
"3'.	c #897C74",
"4'.	c #80736D",
"5'.	c #6F6059",
"6'.	c #5B4841",
"7'.	c #857159",
"8'.	c #D8BB9D",
"9'.	c #D2AB82",
"0'.	c #DBB380",
"a'.	c #DEB889",
"b'.	c #DDB786",
"c'.	c #D5AD7C",
"d'.	c #DEB685",
"e'.	c #C69B79",
"f'.	c #F4E7D4",
"g'.	c #FDFBEF",
"h'.	c #F9F8F3",
"i'.	c #FAF8FD",
"j'.	c #FBF9FE",
"k'.	c #F9F7FC",
"l'.	c #FBFAFF",
"m'.	c #FAF9FF",
"n'.	c #F9FAFF",
"o'.	c #F5F6FB",
"p'.	c #F8F9FE",
"q'.	c #EDEEF2",
"r'.	c #F3EFEE",
"s'.	c #F6F2F1",
"t'.	c #F5F1F2",
"u'.	c #F0F1E9",
"v'.	c #F1F1E9",
"w'.	c #F0F0E8",
"x'.	c #EEEEE6",
"y'.	c #ECECE4",
"z'.	c #DECFC8",
"A'.	c #93847D",
"B'.	c #83746D",
"C'.	c #7A6C69",
"D'.	c #6E6361",
"E'.	c #52453F",
"F'.	c #47372A",
"G'.	c #F2DCB3",
"H'.	c #D4AE7F",
"I'.	c #906749",
"J'.	c #AB8F6A",
"K'.	c #BEA390",
"L'.	c #BFA38D",
"M'.	c #C6AC91",
"N'.	c #CCB098",
"O'.	c #CDB295",
"P'.	c #CFB497",
"Q'.	c #D1B79E",
"R'.	c #D5BBA0",
"S'.	c #D7BDA2",
"T'.	c #D8BDA2",
"U'.	c #D9BFA6",
"V'.	c #D8BEA5",
"W'.	c #D8BEA7",
"X'.	c #D6BCA3",
"Y'.	c #DAC0A7",
"Z'.	c #DBC1A8",
"`'.	c #DBC1AA",
" ).	c #D9BFA8",
".).	c #D9C1A9",
"+).	c #D7BFA5",
"@).	c #D9C1A7",
"#).	c #DBC0AB",
"$).	c #DAC2AA",
"%).	c #DBC2AC",
"&).	c #D9C0AC",
"*).	c #DAC0AF",
"=).	c #D9BEAD",
"-).	c #D9BEA9",
";).	c #D2B8A1",
">).	c #D7B99F",
",).	c #CFB197",
"').	c #D1B399",
")).	c #D8BDA0",
"!).	c #D8BFA1",
"~).	c #D4BB9D",
"{).	c #D4BA9F",
"]).	c #D4B99E",
"^).	c #D4B99C",
"/).	c #D2B79A",
"().	c #D2BD9E",
"_).	c #CEB797",
":).	c #CEB694",
"<).	c #CEB491",
"[).	c #C8AE8B",
"}).	c #B09673",
"|).	c #A48C6A",
"1).	c #A7906E",
"2).	c #A58C6D",
"3).	c #9E866C",
"4).	c #A6876A",
"5).	c #A18266",
"6).	c #BA9173",
"7).	c #DEB894",
"8).	c #DCBB90",
"9).	c #DEB78C",
"0).	c #DDB67D",
"a).	c #E5BE87",
"b).	c #E1BA83",
"c).	c #E0B982",
"d).	c #E8BE8E",
"e).	c #E6BD91",
"f).	c #DEB984",
"g).	c #D3AE7A",
"h).	c #8D684D",
"i).	c #B29A7E",
"j).	c #D3BEAD",
"k).	c #D1B29E",
"l).	c #D6B89C",
"m).	c #DAC4AD",
"n).	c #D9C3AC",
"o).	c #D6C0A9",
"p).	c #D5BFA8",
"q).	c #D7C1AC",
"r).	c #D6C0AB",
"s).	c #DAC4AF",
"t).	c #DBC3AB",
"u).	c #DCC4AC",
"v).	c #DDC5AB",
"w).	c #DBC3A9",
"x).	c #D8C0A6",
"y).	c #DCC5A5",
"z).	c #DAC0A5",
"A).	c #D9BFA4",
"B).	c #DAC1A3",
"C).	c #DCC2A7",
"D).	c #DEC5A7",
"E).	c #DDC4A6",
"F).	c #DEC7A8",
"G).	c #DFC6A8",
"H).	c #DFC6A7",
"I).	c #DDC6A7",
"J).	c #E1C9AD",
"K).	c #E0C9AA",
"L).	c #DDC6A6",
"M).	c #E1C8A9",
"N).	c #DFC5AA",
"O).	c #E0C6AD",
"P).	c #E1C7AE",
"Q).	c #DDC3AA",
"R).	c #DCC2A9",
"S).	c #DEC4AB",
"T).	c #DAC1AB",
"U).	c #D8BFA9",
"V).	c #D6BDA7",
"W).	c #D4BBA7",
"X).	c #D5BAA7",
"Y).	c #D0BBA8",
"Z).	c #D2BAA2",
"`).	c #C8AA8E",
" !.	c #BCA184",
".!.	c #B4997C",
"+!.	c #B29374",
"@!.	c #AD8A6A",
"#!.	c #A2876A",
"$!.	c #9A7855",
"%!.	c #D3AD7C",
"&!.	c #E5BC88",
"*!.	c #E2B985",
"=!.	c #E3BB87",
"-!.	c #DCB783",
";!.	c #D9B585",
">!.	c #E6C195",
",!.	c #E6C399",
"'!.	c #E2C093",
")!.	c #E1BF92",
"!!.	c #E0BB8F",
"~!.	c #DEB98D",
"{!.	c #D9B488",
"]!.	c #D5B084",
"^!.	c #D0AB7E",
"/!.	c #D9B487",
"(!.	c #B3916C",
"_!.	c #987C57",
":!.	c #C5B190",
"<!.	c #D7BBA5",
"[!.	c #DABCA4",
"}!.	c #CDBB97",
"|!.	c #D4BFA4",
"1!.	c #D7C2A7",
"2!.	c #D5C0A5",
"3!.	c #DAC6AB",
"4!.	c #D6C2A9",
"5!.	c #DCC6AE",
"6!.	c #DBC5AD",
"7!.	c #DAC4AC",
"8!.	c #DEC8B0",
"9!.	c #DFC9B1",
"0!.	c #DCC6AF",
"a!.	c #DCC8B0",
"b!.	c #DECAB2",
"c!.	c #DAC6AE",
"d!.	c #DDC9B1",
"e!.	c #D8C4AC",
"f!.	c #DBC7AF",
"g!.	c #D9C5AD",
"h!.	c #D7C3AB",
"i!.	c #DCC7B2",
"j!.	c #D7C5AF",
"k!.	c #DAC8B2",
"l!.	c #DFC7AD",
"m!.	c #DEC9AE",
"n!.	c #D2BDA0",
"o!.	c #D7BD9C",
"p!.	c #D3B696",
"q!.	c #D3B89A",
"r!.	c #D9BEA0",
"s!.	c #D7BC9E",
"t!.	c #DBBEA0",
"u!.	c #D7BA9A",
"v!.	c #D9BC9A",
"w!.	c #D6B997",
"x!.	c #D8BC97",
"y!.	c #D9BD98",
"z!.	c #D6BA95",
"A!.	c #D5B793",
"B!.	c #D1B38F",
"C!.	c #CCAE88",
"D!.	c #BC9E78",
"E!.	c #BB9F78",
"F!.	c #B49A77",
"G!.	c #AB9273",
"H!.	c #B19977",
"I!.	c #AF936B",
"J!.	c #B39466",
"K!.	c #AE9169",
"L!.	c #D4A579",
"M!.	c #D8AA79",
"N!.	c #C5966A",
"O!.	c #997658",
"P!.	c #513118",
"Q!.	c #4B2F1A",
"R!.	c #422819",
"S!.	c #3F281A",
"T!.	c #42281B",
"U!.	c #442A1D",
"V!.	c #462C1F",
"W!.	c #472D20",
"X!.	c #452B1E",
"Y!.	c #492F22",
"Z!.	c #4D3326",
"`!.	c #503522",
" ~.	c #4B3120",
".~.	c #4A3023",
"+~.	c #4F3528",
"@~.	c #4D3324",
"#~.	c #503625",
"$~.	c #4F3524",
"%~.	c #4F3423",
"&~.	c #503A25",
"*~.	c #4E3823",
"=~.	c #533A26",
"-~.	c #543B27",
";~.	c #533825",
">~.	c #533823",
",~.	c #553A25",
"'~.	c #583D28",
")~.	c #573C27",
"!~.	c #573D26",
"~~.	c #583E27",
"{~.	c #543B25",
"]~.	c #573E2A",
"^~.	c #573D2C",
"/~.	c #573E28",
"(~.	c #563D29",
"_~.	c #533C2A",
":~.	c #543D2B",
"<~.	c #583F2B",
"[~.	c #563F2D",
"}~.	c #553E2C",
"|~.	c #56402B",
"1~.	c #553F2A",
"2~.	c #593F2E",
"3~.	c #583E2D",
"4~.	c #5B422E",
"5~.	c #57412C",
"6~.	c #59432E",
"7~.	c #584131",
"8~.	c #574634",
"9~.	c #83654D",
"0~.	c #B89579",
"a~.	c #BC9576",
"b~.	c #C6A07C",
"c~.	c #C29A76",
"d~.	c #C39D78",
"e~.	c #C6A079",
"f~.	c #C5A074",
"g~.	c #BA9664",
"h~.	c #B18B5A",
"i~.	c #B48F5B",
"j~.	c #B48E5D",
"k~.	c #A6855C",
"l~.	c #8C6B4C",
"m~.	c #5D3E29",
"n~.	c #6A4F3C",
"o~.	c #5F452E",
"p~.	c #654D33",
"q~.	c #61492D",
"r~.	c #5F472B",
"s~.	c #60482C",
"t~.	c #5F4829",
"u~.	c #60492A",
"v~.	c #5F472F",
"w~.	c #664E32",
"x~.	c #664C31",
"y~.	c #634A2C",
"z~.	c #644A31",
"A~.	c #62482F",
"B~.	c #624A30",
"C~.	c #63492E",
"D~.	c #5F452A",
"E~.	c #644A2F",
"F~.	c #634930",
"G~.	c #644A33",
"H~.	c #604530",
"I~.	c #614631",
"J~.	c #634835",
"K~.	c #614633",
"L~.	c #614736",
"M~.	c #624837",
"N~.	c #5F4536",
"O~.	c #654A37",
"P~.	c #644934",
"Q~.	c #664B38",
"R~.	c #654A39",
"S~.	c #634837",
"T~.	c #5E4433",
"U~.	c #624839",
"V~.	c #5B4432",
"W~.	c #5B4434",
"X~.	c #5E4737",
"Y~.	c #5C4535",
"Z~.	c #52422B",
"`~.	c #52412D",
" {.	c #50412E",
".{.	c #4B3B2B",
"+{.	c #4C3F2E",
"@{.	c #493C2B",
"#{.	c #443724",
"${.	c #433623",
"%{.	c #473020",
"&{.	c #795F44",
"*{.	c #B99973",
"={.	c #A4825C",
"-{.	c #B38E64",
";{.	c #AB885E",
">{.	c #AC8A64",
",{.	c #A78560",
"'{.	c #A8875E",
"){.	c #B38F6B",
"!{.	c #BF9974",
"~{.	c #C09A76",
"{{.	c #BD9773",
"]{.	c #B18D69",
"^{.	c #AD8967",
"/{.	c #755E4C",
"({.	c #604937",
"_{.	c #604733",
":{.	c #5E452F",
"<{.	c #573F27",
"[{.	c #5A4228",
"}{.	c #584024",
"|{.	c #5B4327",
"1{.	c #5A4226",
"2{.	c #5C4227",
"3{.	c #61472E",
"4{.	c #61492F",
"5{.	c #5A422A",
"6{.	c #594129",
"7{.	c #614931",
"8{.	c #5C442A",
"9{.	c #634B31",
"0{.	c #5E462C",
"a{.	c #5E492E",
"b{.	c #5F4A2F",
"c{.	c #614A2B",
"d{.	c #604B2C",
"e{.	c #5E4B2B",
"f{.	c #604B2E",
"g{.	c #5E462E",
"h{.	c #664B30",
"i{.	c #634B33",
"j{.	c #654D35",
"k{.	c #634A34",
"l{.	c #634A36",
"m{.	c #644B37",
"n{.	c #644A39",
"o{.	c #624B39",
"p{.	c #644D3B",
"q{.	c #5E4938",
"r{.	c #5E4B3A",
"s{.	c #594836",
"t{.	c #5A4937",
"u{.	c #554432",
"v{.	c #51402E",
"w{.	c #C19771",
"x{.	c #B58861",
"y{.	c #9A7950",
"z{.	c #926D52",
"A{.	c #8E6A48",
"B{.	c #8C694B",
"C{.	c #896648",
"D{.	c #8A6548",
"E{.	c #8C674A",
"F{.	c #8E694C",
"G{.	c #8C6846",
"H{.	c #8A6646",
"I{.	c #8B6649",
"J{.	c #886346",
"K{.	c #85613F",
"L{.	c #856242",
"M{.	c #856443",
"N{.	c #805F40",
"O{.	c #735437",
"P{.	c #745538",
"Q{.	c #8B6C4F",
"R{.	c #88694A",
"S{.	c #866748",
"T{.	c #836447",
"U{.	c #816245",
"V{.	c #806144",
"W{.	c #7F6041",
"X{.	c #7E5F40",
"Y{.	c #7D5E3F",
"Z{.	c #826044",
"`{.	c #826045",
" ].	c #7D5E42",
".].	c #795A3E",
"+].	c #76573B",
"@].	c #715235",
"#].	c #705738",
"$].	c #6E5536",
"%].	c #6F5735",
"&].	c #715839",
"*].	c #674E30",
"=].	c #775F3D",
"-].	c #705834",
";].	c #785A36",
">].	c #7A5936",
",].	c #795732",
"'].	c #D8AF83",
")].	c #E4BD92",
"!].	c #E9C297",
"~].	c #E4BE8F",
"{].	c #CE9E70",
"]].	c #D0A477",
"^].	c #AC8A5D",
"/].	c #A28156",
"(].	c #A48255",
"_].	c #947147",
":].	c #916E52",
"<].	c #926F53",
"[].	c #936E53",
"}].	c #8F6A4F",
"|].	c #866347",
"1].	c #7C593B",
"2].	c #8E6A46",
"3].	c #906A45",
"4].	c #8A6642",
"5].	c #7F5B39",
"6].	c #98774E",
"7].	c #94724C",
"8].	c #8D6B46",
"9].	c #907049",
"0].	c #866345",
"a].	c #896849",
"b].	c #8F6E4F",
"c].	c #906F50",
"d].	c #927152",
"e].	c #94744E",
"f].	c #B39265",
"g].	c #D6B17C",
"h].	c #E7BF8C",
"i].	c #D5AE75",
"j].	c #D9B180",
"k].	c #E0B789",
"l].	c #DCB385",
"m].	c #C59F7A",
"n].	c #7E5A3A",
"o].	c #846141",
"p].	c #8D6949",
"q].	c #8A6644",
"r].	c #91704D",
"s].	c #8A6845",
"t].	c #8C6848",
"u].	c #876643",
"v].	c #866542",
"w].	c #886744",
"x].	c #876645",
"y].	c #81603F",
"z].	c #7B5D3B",
"A].	c #7D5F3D",
"B].	c #765840",
"C].	c #6F5139",
"D].	c #7B5D43",
"E].	c #795B41",
"F].	c #735539",
"G].	c #725438",
"H].	c #715337",
"I].	c #735638",
"J].	c #715436",
"K].	c #6E5131",
"L].	c #6C4F31",
"M].	c #6F5234",
"N].	c #6D5234",
"O].	c #684D30",
"P].	c #664B2E",
"Q].	c #64492C",
"R].	c #62472A",
"S].	c #61462B",
"T].	c #62472C",
"U].	c #5F4429",
"V].	c #5D4328",
"W].	c #63452D",
"X].	c #5E4028",
"Y].	c #4E321A",
"Z].	c #593D27",
"`].	c #5D4129",
" ^.	c #5C4028",
".^.	c #5E4328",
"+^.	c #E9C08C",
"@^.	c #DDB67F",
"#^.	c #E4B684",
"$^.	c #DEB07F",
"%^.	c #D6AB7E",
"&^.	c #D8AE7E",
"*^.	c #DDB381",
"=^.	c #E1B683",
"-^.	c #DEB380",
";^.	c #D5AB81",
">^.	c #D2A87E",
",^.	c #D1A77D",
"'^.	c #DDB88C",
")^.	c #EAC598",
"!^.	c #E5C191",
"~^.	c #DFB988",
"{^.	c #DBB682",
"]^.	c #DAB07E",
"^^.	c #DFB382",
"/^.	c #E7BF8E",
"(^.	c #D1A47A",
"_^.	c #CDA079",
":^.	c #C89E76",
"<^.	c #D5AB7B",
"[^.	c #D6AA7B",
"}^.	c #CEA273",
"|^.	c #D0A980",
"1^.	c #DEB587",
"2^.	c #DCB081",
"3^.	c #E3B987",
"4^.	c #E5BA87",
"5^.	c #E2BA86",
"6^.	c #E1B986",
"7^.	c #DCB687",
"8^.	c #D7B182",
"9^.	c #D5AF80",
"0^.	c #DAB483",
"a^.	c #E1B88A",
"b^.	c #DFB688",
"c^.	c #E6BE8A",
"d^.	c #E8C08D",
"e^.	c #EDC592",
"f^.	c #E4BC89",
"g^.	c #D3AB78",
"h^.	c #D2A377",
"i^.	c #DBAC7E",
"j^.	c #D3A372",
"k^.	c #E4BD86",
"l^.	c #C79D77",
"m^.	c #CBA07D",
"n^.	c #C19A73",
"o^.	c #CEA87B",
"p^.	c #C89F73",
"q^.	c #D3AE79",
"r^.	c #CDA873",
"s^.	c #C8A470",
"t^.	c #CCA876",
"u^.	c #CAA674",
"v^.	c #CCA675",
"w^.	c #D8B484",
"x^.	c #D6B486",
"y^.	c #DABA8B",
"z^.	c #E5C697",
"A^.	c #E3C495",
"B^.	c #ECCD9E",
"C^.	c #E4C694",
"D^.	c #E1C38F",
"E^.	c #E2C38D",
"F^.	c #E1C08B",
"G^.	c #E0BD87",
"H^.	c #DFBC86",
"I^.	c #E5C18D",
"J^.	c #E2BE8A",
"K^.	c #DEBA86",
"L^.	c #E2BD88",
"M^.	c #DDB881",
"N^.	c #E2BE84",
"O^.	c #E8C58D",
"P^.	c #EDCA92",
"Q^.	c #DFBC84",
"R^.	c #DEBB83",
"S^.	c #E1BC85",
"T^.	c #E3BE89",
"U^.	c #E0B884",
"V^.	c #E1BB8A",
"W^.	c #D2A97B",
"X^.	c #C69C72",
"Y^.	c #D4AB7F",
"Z^.	c #D7AE82",
"`^.	c #DAB487",
" /.	c #DBB586",
"./.	c #E3BD8C",
"+/.	c #DDB884",
"@/.	c #DCB481",
"#/.	c #E1BB8C",
"$/.	c #CCA679",
"%/.	c #C49E71",
"&/.	c #E3BD8E",
"*/.	c #E0BB87",
"=/.	c #E2BD89",
"-/.	c #E4BE8D",
";/.	c #E3BE8A",
">/.	c #E7C391",
",/.	c #E7C595",
"'/.	c #E0BE8E",
")/.	c #DEBA88",
"!/.	c #E3BF8B",
"~/.	c #E3BF8D",
"{/.	c #E3C191",
"]/.	c #E7C190",
"^/.	c #DEB887",
"//.	c #D3B47E",
"(/.	c #D6B781",
"_/.	c #DBBC86",
":/.	c #DCBB86",
"</.	c #DBBA87",
"[/.	c #DDBC89",
"}/.	c #E0BC8A",
"|/.	c #DFBB89",
"1/.	c #DEBC8C",
"2/.	c #E3BF8F",
"3/.	c #D3AE81",
"4/.	c #C19C6F",
"5/.	c #C59E73",
"6/.	c #CEA378",
"7/.	c #CCA176",
"8/.	c #D3A97F",
"9/.	c #D8B186",
"0/.	c #D2AB80",
"a/.	c #99714E",
"b/.	c #9D7456",
"c/.	c #AB8765",
"d/.	c #A0795A",
"e/.	c #AA825F",
"f/.	c #A5815D",
"g/.	c #9F7A5F",
"h/.	c #9E795F",
"i/.	c #A17C62",
"j/.	c #A37D66",
"k/.	c #9E7861",
"l/.	c #A17B64",
"m/.	c #9A7958",
"n/.	c #987852",
"o/.	c #9C7B58",
"p/.	c #9D7C59",
"q/.	c #9A7A54",
"r/.	c #B8956F",
"s/.	c #B3916B",
"t/.	c #B4926C",
"u/.	c #BE9D7C",
"v/.	c #C09F7E",
"w/.	c #AE8D6A",
"x/.	c #AE8C69",
"y/.	c #B18F6A",
"z/.	c #B38D69",
"A/.	c #B48C69",
"B/.	c #B48C68",
"C/.	c #B98D6A",
"D/.	c #BF936E",
"E/.	c #BE9672",
"F/.	c #B6906C",
"G/.	c #B6906B",
"H/.	c #B58D69",
"I/.	c #AC8961",
"J/.	c #AE8B63",
"K/.	c #A7865B",
"L/.	c #A7865D",
"M/.	c #9D7B55",
"N/.	c #A98060",
"O/.	c #9E775A",
"P/.	c #9F765A",
"Q/.	c #A27B5E",
"R/.	c #9C745A",
"S/.	c #A47C62",
"T/.	c #A57E5F",
"U/.	c #B18562",
"V/.	c #B9916D",
"W/.	c #B68E6A",
"X/.	c #AF8668",
"Y/.	c #A77C5C",
"Z/.	c #AE8361",
"`/.	c #B38B67",
" (.	c #B28A67",
".(.	c #AC8564",
"+(.	c #B28B6A",
"@(.	c #B38C6B",
"#(.	c #B08C6C",
"$(.	c #AC8C65",
"%(.	c #AF8F68",
"&(.	c #AD8D66",
"*(.	c #AE8E65",
"=(.	c #AD8D64",
"-(.	c #AC8C63",
";(.	c #AB8B62",
">(.	c #A48060",
",(.	c #B38B68",
"'(.	c #B08968",
")(.	c #9E7D54",
"!(.	c #9D7C53",
"~(.	c #A28158",
"{(.	c #DCB477",
"](.	c #E9C18D",
"^(.	c #DBB181",
"/(.	c #D2A375",
"((.	c #CEA579",
"_(.	c #D2AC7D",
":(.	c #C59F6E",
"<(.	c #D1AC75",
"[(.	c #DAB57E",
"}(.	c #D8B07F",
"|(.	c #DEB484",
"1(.	c #DCB483",
"2(.	c #D8B281",
"3(.	c #D2AA77",
"4(.	c #CEA877",
"5(.	c #CFA978",
"6(.	c #DCB685",
"7(.	c #D0AA79",
"8(.	c #D1AC78",
"9(.	c #DAB581",
"0(.	c #E6BE8B",
"a(.	c #DDB582",
"b(.	c #CB9E74",
"c(.	c #D8B37E",
"d(.	c #CEA974",
"e(.	c #CEA972",
"f(.	c #E3B989",
"g(.	c #DBAF80",
"h(.	c #E8BE8C",
"i(.	c #DFB98A",
"j(.	c #E4BE91",
"k(.	c #E8C295",
"l(.	c #E1B689",
"m(.	c #DFB487",
"n(.	c #D9AE81",
"o(.	c #DAB781",
"p(.	c #D9B680",
"q(.	c #D9B47D",
"r(.	c #E7BE8A",
"s(.	c #E6BD89",
"t(.	c #E8C38F",
"u(.	c #EDC894",
"v(.	c #E7BF8B",
"w(.	c #D7A978",
"x(.	c #DBB785",
"y(.	c #E0BF8C",
"z(.	c #DCBB88",
"A(.	c #DAB580",
"B(.	c #E4BF88",
"C(.	c #E6C38D",
"D(.	c #E8C490",
"E(.	c #F0CC98",
"F(.	c #F1C795",
"G(.	c #EEC492",
"H(.	c #EAC18D",
"I(.	c #EBC28C",
"J(.	c #E5BE85",
"K(.	c #E6BF88",
"L(.	c #EBC38F",
"M(.	c #E1BA7F",
"N(.	c #EABE8D",
"O(.	c #EDC893",
"P(.	c #E0B483",
"Q(.	c #D7B27D",
"R(.	c #DBB584",
"S(.	c #DEB77E",
"T(.	c #E2BD86",
"U(.	c #E7C28D",
"V(.	c #EBC594",
"W(.	c #F5CFA0",
"X(.	c #EDC798",
"Y(.	c #EBC596",
"Z(.	c #ECC491",
"`(.	c #DFBA86",
" _.	c #DEB985",
"._.	c #C09B6E",
"+_.	c #D8B386",
"@_.	c #E7C192",
"#_.	c #E0BA8B",
"$_.	c #DDB989",
"%_.	c #E5BF8E",
"&_.	c #EFC99C",
"*_.	c #DDB788",
"=_.	c #E4BB8D",
"-_.	c #E4BC8B",
";_.	c #D5AA7D",
">_.	c #DBB085",
",_.	c #D2A77C",
"'_.	c #CFA477",
")_.	c #C79C72",
"!_.	c #C69B71",
"~_.	c #ECC695",
"{_.	c #E8BA86",
"]_.	c #AB8465",
"^_.	c #AB8763",
"/_.	c #A28053",
"(_.	c #AB895C",
"__.	c #B59366",
":_.	c #BA976D",
"<_.	c #BC9B72",
"[_.	c #AE8C5F",
"}_.	c #B69165",
"|_.	c #B49060",
"1_.	c #B5905C",
"2_.	c #B5905B",
"3_.	c #BA9560",
"4_.	c #B7935F",
"5_.	c #BA9662",
"6_.	c #B69466",
"7_.	c #BD9B6D",
"8_.	c #B79565",
"9_.	c #B18C5F",
"0_.	c #A87C5F",
"a_.	c #A87F5F",
"b_.	c #A67F60",
"c_.	c #9B7858",
"d_.	c #957256",
"e_.	c #967357",
"f_.	c #977255",
"g_.	c #A98660",
"h_.	c #B18F61",
"i_.	c #B49264",
"j_.	c #B59365",
"k_.	c #B89366",
"l_.	c #B79268",
"m_.	c #A98561",
"n_.	c #A78361",
"o_.	c #AB886A",
"p_.	c #A98668",
"q_.	c #926D50",
"r_.	c #B58F68",
"s_.	c #B8926B",
"t_.	c #B49169",
"u_.	c #B28F67",
"v_.	c #B08D65",
"w_.	c #E5BB8B",
"x_.	c #997044",
"y_.	c #D1A171",
"z_.	c #CF9F6F",
"A_.	c #D5B07B",
"B_.	c #C39160",
"C_.	c #CEA76C",
"D_.	c #CBA469",
"E_.	c #DEB780",
"F_.	c #DCB983",
"G_.	c #E1BD89",
"H_.	c #E0BC88",
"I_.	c #E6BB88",
"J_.	c #E4B887",
"K_.	c #E4B776",
"L_.	c #D9AC6B",
"M_.	c #AD7E46",
"N_.	c #E8C38E",
"O_.	c #E7C48C",
"P_.	c #EAC996",
"Q_.	c #F0CF9C",
"R_.	c #E9C895",
"S_.	c #E5C48F",
"T_.	c #E8C08F",
"U_.	c #DBB783",
"V_.	c #D0AB76",
"W_.	c #D1AC77",
"X_.	c #CFAA75",
"Y_.	c #D0AB77",
"Z_.	c #D6B27E",
"`_.	c #D6B37D",
" :.	c #E3C08A",
".:.	c #E5C48E",
"+:.	c #E4C38D",
"@:.	c #E3C28C",
"#:.	c #E3C086",
"$:.	c #E3C088",
"%:.	c #E4BF8A",
"&:.	c #E3BC83",
"*:.	c #E4BD84",
"=:.	c #E9C289",
"-:.	c #E1BA81",
";:.	c #E2BB82",
">:.	c #E3BC85",
",:.	c #E3BE87",
"':.	c #E6C18D",
"):.	c #E9C490",
"!:.	c #EEC897",
"~:.	c #EAC493",
"{:.	c #E6C18A",
"]:.	c #EEC994",
"^:.	c #ECC792",
"/:.	c #E8C38C",
"(:.	c #E3BF85",
"_:.	c #DAAE7F",
"::.	c #E9C18E",
"<:.	c #F0C895",
"[:.	c #EEC693",
"}:.	c #E5C08B",
"|:.	c #EAC495",
"1:.	c #E9C394",
"2:.	c #E8C293",
"3:.	c #EDC796",
"4:.	c #F1CB9A",
"5:.	c #E9C392",
"6:.	c #E8C291",
"7:.	c #E4C08E",
"8:.	c #DFBB87",
"9:.	c #D7B27E",
"0:.	c #D2AD79",
"a:.	c #D1A578",
"b:.	c #EBC48D",
"c:.	c #EBC386",
"d:.	c #E8C082",
"e:.	c #B7916A",
"f:.	c #BD9772",
"g:.	c #AD8A64",
"h:.	c #A38153",
"i:.	c #A77F5C",
"j:.	c #A68461",
"k:.	c #A4825F",
"l:.	c #A78464",
"m:.	c #9F7C5C",
"n:.	c #9C7959",
"o:.	c #A68562",
"p:.	c #A98865",
"q:.	c #AA8966",
"r:.	c #A78562",
"s:.	c #AD8B68",
"t:.	c #B08E61",
"u:.	c #B79669",
"v:.	c #B19264",
"w:.	c #B6976B",
"x:.	c #B3936C",
"y:.	c #A07E58",
"z:.	c #A07F56",
"A:.	c #A7855F",
"B:.	c #A5835D",
"C:.	c #A88660",
"D:.	c #BA946D",
"E:.	c #BD9969",
"F:.	c #C09972",
"G:.	c #C19975",
"H:.	c #BC9470",
"I:.	c #BD9571",
"J:.	c #C29774",
"K:.	c #C09572",
"L:.	c #A48050",
"M:.	c #A48358",
"N:.	c #B38E61",
"O:.	c #D0A173",
"P:.	c #A47A48",
"Q:.	c #E4BF8B",
"R:.	c #D4AF7A",
"S:.	c #D4AF78",
"T:.	c #B48B55",
"U:.	c #B68857",
"V:.	c #D0A970",
"W:.	c #DCB678",
"X:.	c #DAB378",
"Y:.	c #DAAB7D",
"Z:.	c #E6BD8F",
"`:.	c #E0B281",
" <.	c #D3A069",
".<.	c #E6BF84",
"+<.	c #E8C188",
"@<.	c #EEC692",
"#<.	c #E3BA8C",
"$<.	c #E7BE90",
"%<.	c #DFB786",
"&<.	c #E2BA89",
"*<.	c #F3CD9C",
"=<.	c #E2BE82",
"-<.	c #EABC88",
";<.	c #EABF88",
"><.	c #EFC690",
",<.	c #EEC995",
"'<.	c #EAC591",
")<.	c #EBC28A",
"!<.	c #E9C287",
"~<.	c #EAC388",
"{<.	c #ECC58A",
"]<.	c #EAC38A",
"^<.	c #F1CC97",
"/<.	c #EEC790",
"(<.	c #E4BD82",
"_<.	c #E1BC88",
":<.	c #E7C28E",
"<<.	c #E3BC81",
"[<.	c #E6C18C",
"}<.	c #EAC694",
"|<.	c #EFCD9D",
"1<.	c #EBC999",
"2<.	c #ECC894",
"3<.	c #EBC793",
"4<.	c #E9C591",
"5<.	c #E5BE83",
"6<.	c #ECBD85",
"7<.	c #E5B37E",
"8<.	c #B48863",
"9<.	c #B68A65",
"0<.	c #B98D66",
"a<.	c #B39066",
"b<.	c #AF8C62",
"c<.	c #B69167",
"d<.	c #A78353",
"e<.	c #AF8D60",
"f<.	c #B18F62",
"g<.	c #BC9868",
"h<.	c #B89464",
"i<.	c #C09C6C",
"j<.	c #AA8761",
"k<.	c #AF8C64",
"l<.	c #AD8965",
"m<.	c #A68260",
"n<.	c #AA8865",
"o<.	c #A6845F",
"p<.	c #AD8A60",
"q<.	c #B69467",
"r<.	c #BC9A6D",
"s<.	c #BF9E73",
"t<.	c #BC9B70",
"u<.	c #B39267",
"v<.	c #B79567",
"w<.	c #B39163",
"x<.	c #AC8856",
"y<.	c #AA8654",
"z<.	c #AB8755",
"A<.	c #AB7D59",
"B<.	c #E6C08F",
"C<.	c #DBB284",
"D<.	c #E6BC8A",
"E<.	c #E9BF8D",
"F<.	c #E1BD83",
"G<.	c #E5C28C",
"H<.	c #E1B787",
"I<.	c #D3AC73",
"J<.	c #DFB87F",
"K<.	c #EBC691",
"L<.	c #EAC590",
"M<.	c #E8BD8A",
"N<.	c #E9BF8F",
"O<.	c #E6BC8C",
"P<.	c #DCAA75",
"Q<.	c #EDC997",
"R<.	c #F2CE9C",
"S<.	c #EBC795",
"T<.	c #ECC58E",
"U<.	c #EDC68F",
"V<.	c #F0C897",
"W<.	c #ECC490",
"X<.	c #EECA98",
"Y<.	c #ECC896",
"Z<.	c #ECC898",
"`<.	c #EAC38C",
" [.	c #EBC18F",
".[.	c #E2B685",
"+[.	c #EAC28F",
"@[.	c #DDB883",
"#[.	c #DBB882",
"$[.	c #D9B883",
"%[.	c #CEAD7A",
"&[.	c #DFBE8B",
"*[.	c #DAB986",
"=[.	c #D9B581",
"-[.	c #DDBA84",
";[.	c #D9B882",
">[.	c #E3C28D",
",[.	c #E6C590",
"'[.	c #E7C794",
")[.	c #E6C693",
"![.	c #DDBC87",
"~[.	c #D7B681",
"{[.	c #DCBB85",
"][.	c #D7B680",
"^[.	c #E2BF89",
"/[.	c #E4C18B",
"([.	c #E6C28E",
"_[.	c #D0AF7A",
":[.	c #D8B782",
"<[.	c #DBBA85",
"[[.	c #EAC791",
"}[.	c #EAC692",
"|[.	c #E7C38F",
"1[.	c #E7C48E",
"2[.	c #E5C089",
"3[.	c #E8C48A",
"4[.	c #E5C187",
"5[.	c #E4C086",
"6[.	c #F3CE99",
"7[.	c #EBC191",
"8[.	c #EAC090",
"9[.	c #F4CE9D",
"0[.	c #EFC998",
"a[.	c #E6BF86",
"b[.	c #E9C690",
"c[.	c #ECC793",
"d[.	c #EBC890",
"e[.	c #EAC58E",
"f[.	c #E2BB80",
"g[.	c #E2BC7E",
"h[.	c #E4BE80",
"i[.	c #E9C092",
"j[.	c #EEC597",
"k[.	c #EDC995",
"l[.	c #E9C48F",
"m[.	c #E9C48D",
"n[.	c #E7C28B",
"o[.	c #EDC999",
"p[.	c #ECC697",
"q[.	c #DFB87D",
"r[.	c #C69F64",
"s[.	c #D9B277",
"t[.	c #E6BA8B",
"u[.	c #E0AE79",
"v[.	c #C7A077",
"w[.	c #C29C75",
"x[.	c #C19B74",
"y[.	c #BD926F",
"z[.	c #BB936F",
"A[.	c #C69A73",
"B[.	c #BE9B71",
"C[.	c #C19E76",
"D[.	c #BC9A74",
"E[.	c #C2A07A",
"F[.	c #BF9D77",
"G[.	c #BB9A71",
"H[.	c #B9946A",
"I[.	c #B9966C",
"J[.	c #C3A076",
"K[.	c #C4A177",
"L[.	c #C8A680",
"M[.	c #BA9872",
"N[.	c #B5926A",
"O[.	c #B8956B",
"P[.	c #B7946A",
"Q[.	c #BD9A72",
"R[.	c #C09A73",
"S[.	c #B58A68",
"T[.	c #B38865",
"U[.	c #B68B68",
"V[.	c #C29A77",
"W[.	c #B58D6A",
"X[.	c #AB8A5F",
"Y[.	c #A8875A",
"Z[.	c #A9895A",
"`[.	c #AA895C",
" }.	c #BD9861",
".}.	c #BE9964",
"+}.	c #C09670",
"@}.	c #A68558",
"#}.	c #B19065",
"$}.	c #AC8D61",
"%}.	c #AC895F",
"&}.	c #D6B07F",
"*}.	c #EAC696",
"=}.	c #E6C292",
"-}.	c #DFBB8B",
";}.	c #DAB588",
">}.	c #D1AB7A",
",}.	c #E3B788",
"'}.	c #D2AD78",
")}.	c #D0A57A",
"!}.	c #DCB886",
"~}.	c #DBB787",
"{}.	c #E2BC8D",
"]}.	c #E1BD8D",
"^}.	c #E3B786",
"/}.	c #E6C093",
"(}.	c #EBC699",
"_}.	c #E9C497",
":}.	c #E7C295",
"<}.	c #D9B382",
"[}.	c #D0AA7D",
"}}.	c #D8AF81",
"|}.	c #DFB98C",
"1}.	c #D9B384",
"2}.	c #E5BD8C",
"3}.	c #E8C396",
"4}.	c #E8BF91",
"5}.	c #E9BD8C",
"6}.	c #E5B988",
"7}.	c #E0B58A",
"8}.	c #E2B98B",
"9}.	c #E4BF92",
"0}.	c #DDBB8E",
"a}.	c #DEB98C",
"b}.	c #DCB78A",
"c}.	c #DAB485",
"d}.	c #DFBA8E",
"e}.	c #DDB88B",
"f}.	c #DFBA8D",
"g}.	c #DEB88B",
"h}.	c #DFBD90",
"i}.	c #E7C296",
"j}.	c #E2B482",
"k}.	c #D8A878",
"l}.	c #D9AD7E",
"m}.	c #EBC392",
"n}.	c #EEC89B",
"o}.	c #F3CDA0",
"p}.	c #EEC899",
"q}.	c #ECC493",
"r}.	c #EAC08E",
"s}.	c #EAC291",
"t}.	c #E5C08C",
"u}.	c #D9B47F",
"v}.	c #ECCC9D",
"w}.	c #F1D1A2",
"x}.	c #EACB9C",
"y}.	c #EDCE9F",
"z}.	c #EECD9A",
"A}.	c #E8C794",
"B}.	c #E4C38E",
"C}.	c #E2C18C",
"D}.	c #E9CA94",
"E}.	c #EDCD9A",
"F}.	c #EFCD9F",
"G}.	c #DDBB8B",
"H}.	c #E5C393",
"I}.	c #E1C08A",
"J}.	c #E5C491",
"K}.	c #EAC898",
"L}.	c #EECC9C",
"M}.	c #E8C696",
"N}.	c #E9C797",
"O}.	c #E2C18E",
"P}.	c #E6C194",
"Q}.	c #DAB88A",
"R}.	c #E1BF8F",
"S}.	c #DEBD88",
"T}.	c #DFBE88",
"U}.	c #E4C08C",
"V}.	c #E7C393",
"W}.	c #E4C396",
"X}.	c #E8C99D",
"Y}.	c #EBCEA2",
"Z}.	c #E7C796",
"`}.	c #E5C594",
" |.	c #E3C392",
".|.	c #E4C292",
"+|.	c #E0BE90",
"@|.	c #DFBD8F",
"#|.	c #E2BD90",
"$|.	c #E0BB8E",
"%|.	c #DCBA8D",
"&|.	c #CDAB7E",
"*|.	c #E0BE91",
"=|.	c #E1BC8F",
"-|.	c #E0BA8D",
";|.	c #F2CDA1",
">|.	c #EFCA9D",
",|.	c #ECC290",
"'|.	c #E8C58F",
")|.	c #EBC892",
"!|.	c #ECCC99",
"~|.	c #ECCC9B",
"{|.	c #EDCD9C",
"]|.	c #ECCA9A",
"^|.	c #E9C68E",
"/|.	c #ECC991",
"(|.	c #EDC594",
"_|.	c #F2CE9E",
":|.	c #F1CC98",
"<|.	c #EFC793",
"[|.	c #EDC391",
"}|.	c #EFC891",
"||.	c #EEC591",
"1|.	c #EECA9A",
"2|.	c #EBC99B",
"3|.	c #F2D0A2",
"4|.	c #E6C290",
"5|.	c #E5C18F",
"6|.	c #D4B07E",
"7|.	c #E8C196",
"8|.	c #E7C095",
"9|.	c #E2BD91",
"0|.	c #E4BF95",
"a|.	c #E6C497",
"b|.	c #ECCA9D",
"c|.	c #E4BF93",
"d|.	c #DCBA8A",
"e|.	c #DEBC8F",
"f|.	c #DBB98C",
"g|.	c #E3C295",
"h|.	c #DFBE91",
"i|.	c #E5BF92",
"j|.	c #E3BD90",
"k|.	c #E9C396",
"l|.	c #E7C194",
"m|.	c #EBC797",
"n|.	c #E8C492",
"o|.	c #EAC89A",
"p|.	c #EBC28E",
"q|.	c #E9BB8A",
"r|.	c #EDC190",
"s|.	c #E6BA89",
"t|.	c #E3B88B",
"u|.	c #DCB689",
"v|.	c #E1BA8F",
"w|.	c #E0BB91",
"x|.	c #DEB98F",
"y|.	c #E6C197",
"z|.	c #E2BD93",
"A|.	c #E3BE91",
"B|.	c #E1BB8E",
"C|.	c #AF8B67",
"D|.	c #B08C68",
"E|.	c #AA8A64",
"F|.	c #A98963",
"G|.	c #A88661",
"H|.	c #A3815B",
"I|.	c #8F6C46",
"J|.	c #86643E",
"K|.	c #916E50",
"L|.	c #8F6C50",
"M|.	c #8E6B4F",
"N|.	c #947155",
"O|.	c #926F51",
"P|.	c #886A48",
"Q|.	c #8C6B4A",
"R|.	c #8F6E4D",
"S|.	c #8D6C4D",
"T|.	c #8F6D51",
"U|.	c #907154",
"V|.	c #8D734E",
"W|.	c #937750",
"X|.	c #93754F",
"Y|.	c #997953",
"Z|.	c #A0825C",
"`|.	c #A2845E",
" 1.	c #A48861",
".1.	c #A18560",
"+1.	c #A2865F",
"@1.	c #A3855F",
"#1.	c #9A7C56",
"$1.	c #977953",
"%1.	c #A58964",
"&1.	c #A68564",
"*1.	c #A58463",
"=1.	c #A48566",
"-1.	c #A68768",
";1.	c #9F8061",
">1.	c #9E805E",
",1.	c #A38465",
"'1.	c #A98869",
")1.	c #AA8968",
"!1.	c #A48161",
"~1.	c #A38060",
"{1.	c #9B7A5B",
"]1.	c #9B7A59",
"^1.	c #987557",
"/1.	c #947256",
"(1.	c #967458",
"_1.	c #937054",
":1.	c #967154",
"<1.	c #A78363",
"[1.	c #AC8A67",
"}1.	c #AF8D6A",
"|1.	c #B08D6D",
"11.	c #B29170",
"21.	c #B69574",
"31.	c #B3916E",
"41.	c #B18F6C",
"51.	c #B18E6E",
"61.	c #B28E6C",
"71.	c #B18D6B",
"81.	c #C79F7C",
"91.	c #C59D79",
"01.	c #BF9C72",
"a1.	c #B9986F",
"b1.	c #B8986F",
"c1.	c #C1A178",
"d1.	c #B5956C",
"e1.	c #A3835C",
"f1.	c #AC8C66",
"g1.	c #A5855F",
"h1.	c #C89870",
"i1.	c #C4976E",
"j1.	c #C49871",
"k1.	c #C3966F",
"l1.	c #C49672",
"m1.	c #C69874",
"n1.	c #C49D74",
"o1.	c #BF9871",
"p1.	c #BA976F",
"q1.	c #B4936A",
"r1.	c #B29062",
"s1.	c #B08E60",
"t1.	c #A38354",
"u1.	c #99794A",
"v1.	c #9F7D4F",
"w1.	c #A48254",
"x1.	c #A58355",
"y1.	c #AA8956",
"z1.	c #AF8E5B",
"A1.	c #B3925F",
"B1.	c #B69260",
"C1.	c #B5915F",
"D1.	c #B08F5C",
"E1.	c #AE8D5A",
"F1.	c #B99573",
"G1.	c #B59171",
"H1.	c #B48F72",
"I1.	c #B59073",
"J1.	c #B68F72",
"K1.	c #B48D6E",
"L1.	c #B18A6D",
"M1.	c #B08B6E",
"N1.	c #B28D70",
"O1.	c #AE896C",
"P1.	c #AC876A",
"Q1.	c #A17E60",
"R1.	c #A37E61",
"S1.	c #A67F62",
"T1.	c #A68363",
"U1.	c #A88764",
"V1.	c #A1805D",
"W1.	c #A3815E",
"X1.	c #A07F5E",
"Y1.	c #A2815E",
"Z1.	c #A3835D",
"`1.	c #957451",
" 2.	c #997857",
".2.	c #957455",
"+2.	c #8B6A4B",
"@2.	c #846246",
"#2.	c #836145",
"$2.	c #846247",
"%2.	c #876549",
"&2.	c #88664A",
"*2.	c #9F7D57",
"=2.	c #B28D58",
"-2.	c #B4905E",
";2.	c #BD9B6B",
">2.	c #C29E6E",
",2.	c #C49F73",
"'2.	c #C6A175",
")2.	c #C59E75",
"!2.	c #BE9770",
"~2.	c #BD966F",
"{2.	c #B7936F",
"]2.	c #B6926E",
"^2.	c #B28E6A",
"/2.	c #B18A6B",
"(2.	c #B29172",
"_2.	c #B39273",
":2.	c #B39475",
"<2.	c #B49674",
"[2.	c #B59775",
"}2.	c #B79675",
"|2.	c #B49871",
"12.	c #B69A73",
"22.	c #B59972",
"32.	c #B79C71",
"42.	c #B89B71",
"52.	c #B99C72",
"62.	c #BA9D73",
"72.	c #BB9E72",
"82.	c #BC9F73",
"92.	c #BE9E78",
"02.	c #C0A07A",
"a2.	c #BFA17D",
"b2.	c #BD9F7B",
"c2.	c #BB9D79",
"d2.	c #BEA07C",
"e2.	c #BFA37E",
"f2.	c #BDA17C",
"g2.	c #BFA479",
"h2.	c #C1A57D",
"i2.	c #C0A47C",
"j2.	c #C3A67E",
"k2.	c #C2A47E",
"l2.	c #BFA37C",
"m2.	c #C0A47D",
"n2.	c #BEA27B",
"o2.	c #BBA17C",
"p2.	c #BCA27D",
"q2.	c #BDA37E",
"r2.	c #BBA27A",
"s2.	c #BDA17A",
"t2.	c #B9A078",
"u2.	c #BBA279",
"v2.	c #B9A077",
"w2.	c #BAA178",
"x2.	c #B99D75",
"y2.	c #B89C74",
"z2.	c #B79B74",
"A2.	c #AF936C",
"B2.	c #A38762",
"C2.	c #9D815C",
"D2.	c #9D8466",
"E2.	c #A08769",
"F2.	c #9E8365",
"G2.	c #A48769",
"H2.	c #A38668",
"I2.	c #AB9072",
"J2.	c #AC9173",
"K2.	c #AE9576",
"L2.	c #B39A71",
"M2.	c #B59D71",
"N2.	c #B69E72",
"O2.	c #B49C70",
"P2.	c #B29A6E",
"Q2.	c #AE966A",
"R2.	c #AB9367",
"S2.	c #B29970",
"T2.	c #B79E75",
"U2.	c #BBA47A",
"V2.	c #BBA47B",
"W2.	c #B9A279",
"X2.	c #B9A278",
"Y2.	c #BA9E76",
"Z2.	c #B49870",
"`2.	c #B2966E",
" 3.	c #B1956D",
".3.	c #B0946C",
"+3.	c #B3966E",
"@3.	c #B2956D",
"#3.	c #B4946B",
"$3.	c #B5956E",
"%3.	c #B4946D",
"&3.	c #B1916B",
"*3.	c #B09276",
"=3.	c #AE9074",
"-3.	c #AD8F73",
";3.	c #B19275",
">3.	c #B39477",
",3.	c #B49578",
"'3.	c #B29575",
")3.	c #B09174",
"!3.	c #B29376",
"~3.	c #B29577",
"{3.	c #B49779",
"]3.	c #B19273",
"^3.	c #B19474",
"/3.	c #B59878",
"(3.	c #B09270",
"_3.	c #BB9A79",
":3.	c #BC9B78",
"<3.	c #BD9C79",
"[3.	c #BA9C78",
"}3.	c #B99B77",
"|3.	c #B99D76",
"13.	c #B69A75",
"23.	c #A78B66",
"33.	c #AC906B",
"43.	c #B69977",
"53.	c #B99C7A",
"63.	c #B4997B",
"73.	c #BAA182",
"83.	c #B69B7D",
"93.	c #B79D7C",
"03.	c #BFA280",
"a3.	c #BD9F7D",
"b3.	c #BFA072",
"c3.	c #BB9F70",
"d3.	c #BA9F72",
"e3.	c #B89B6F",
"f3.	c #B79A6E",
"g3.	c #B79C6F",
"h3.	c #B5936E",
"i3.	c #B6946F",
"j3.	c #B49370",
"k3.	c #AF8E6B",
"l3.	c #AC8E6C",
"m3.	c #A88B69",
"n3.	c #A98C6A",
"o3.	c #AB8C6D",
"p3.	c #AD9070",
"q3.	c #AE9171",
"r3.	c #B09373",
"s3.	c #AD9372",
"t3.	c #AA906F",
"u3.	c #B09172",
"v3.	c #B19476",
"w3.	c #B59679",
"x3.	c #B69778",
"y3.	c #B8997A",
"z3.	c #B89A76",
"A3.	c #BB9D77",
"B3.	c #B99C7C",
"C3.	c #BD9E7F",
"D3.	c #BC9D7E",
"E3.	c #BC9F7F",
"F3.	c #BA9C76",
"G3.	c #BD9F79",
"H3.	c #BB9D7B",
"I3.	c #BA9C7A",
"J3.	c #B89A78",
"K3.	c #B99B79",
"L3.	c #B99A6E",
"M3.	c #BA9A71",
"N3.	c #C0A077",
"O3.	c #BD9D74",
"P3.	c #BC9C75",
"Q3.	c #B99972",
"R3.	c #BB9F77",
"S3.	c #BFA37B",
"T3.	c #BEA07A",
"U3.	c #B99D78",
"V3.	c #BA9E79",
"W3.	c #BDA179",
"X3.	c #B79B73",
"Y3.	c #B59870",
"Z3.	c #B69971",
"`3.	c #B59971",
" 4.	c #B69B70",
".4.	c #B59A6F",
"+4.	c #B6996D",
"@4.	c #B3976F",
"#4.	c #B0936B",
"$4.	c #AE926B",
"%4.	c #A68A63",
"&4.	c #A78D6C",
"*4.	c #AE916F",
"=4.	c #AF9270",
"-4.	c #B19570",
";4.	c #B0926E",
">4.	c #B49672",
",4.	c #B59773",
"'4.	c #B79673",
")4.	c #BA9D75",
"!4.	c #B99C74",
"~4.	c #B69872",
"{4.	c #B79973",
"]4.	c #BB9E76",
"^4.	c #BD9D76",
"/4.	c #BE9E77",
"(4.	c #BF9F78",
"_4.	c #BF9F76",
":4.	c #BEA378",
"<4.	c #BDA277",
"[4.	c #BCA37A",
"}4.	c #BCA37B",
"|4.	c #BEA57C",
"14.	c #BEA27A",
"24.	c #BDA577",
"34.	c #BEA678",
"44.	c #BEA179",
"54.	c #BDA074",
"64.	c #BDA172",
"74.	c #BEA273",
"84.	c #BFA374",
"94.	c #C0A475",
"04.	c #C1A576",
"a4.	c #C4A577",
"b4.	c #C2A579",
"c4.	c #C0A377",
"d4.	c #C1A274",
"e4.	c #C2A472",
"f4.	c #C0A270",
"g4.	c #C1A273",
"h4.	c #C3A573",
"i4.	c #C4A670",
"j4.	c #C4A672",
"k4.	c #BFA074",
"l4.	c #C2A273",
"m4.	c #C4A475",
"n4.	c #C6A476",
"o4.	c #C9A779",
"p4.	c #C7A577",
"q4.	c #C3A173",
"r4.	c #C4A376",
"s4.	c #C6A578",
"t4.	c #C2A375",
"u4.	c #C3A275",
"v4.	c #C7A679",
"w4.	c #C8A77A",
"x4.	c #C9A87B",
"y4.	c #C4A378",
"z4.	c #C1A075",
"A4.	c #C09F74",
"B4.	c #C1A17A",
"C4.	c #C4A47B",
"D4.	c #BE9E75",
"E4.	c #BB9B75",
"F4.	c #BD9A70",
"G4.	c #775F43",
"H4.	c #776041",
"I4.	c #765F40",
"J4.	c #755E3F",
"K4.	c #72593B",
"L4.	c #70583C",
"M4.	c #6E563A",
"N4.	c #6F573D",
"O4.	c #6D553B",
"P4.	c #6B5339",
"Q4.	c #6A5238",
"R4.	c #664E34",
"S4.	c #674F35",
"T4.	c #674D3C",
"U4.	c #664C3B",
"V4.	c #674C3B",
"W4.	c #664B3A",
"X4.	c #674C39",
"Y4.	c #654B34",
"Z4.	c #664B36",
"`4.	c #624933",
" 5.	c #614834",
".5.	c #5C4537",
"+5.	c #5D4638",
"@5.	c #5B4436",
"#5.	c #594234",
"$5.	c #573F33",
"%5.	c #584034",
"&5.	c #533E2D",
"*5.	c #533D2F",
"=5.	c #543E30",
"-5.	c #513B2D",
";5.	c #513C2B",
">5.	c #533C2C",
",5.	c #543D2D",
"'5.	c #523B29",
")5.	c #533928",
"!5.	c #523726",
"~5.	c #573B2D",
"{5.	c #593D2F",
"]5.	c #523829",
"^5.	c #4D3823",
"/5.	c #513B26",
"(5.	c #4F3620",
"_5.	c #5F4630",
":5.	c #634938",
"<5.	c #5A402F",
"[5.	c #5B4130",
"}5.	c #66513E",
"|5.	c #67523F",
"15.	c #685340",
"25.	c #695441",
"35.	c #6B5442",
"45.	c #624C37",
"55.	c #64523C",
"65.	c #67523D",
"75.	c #6B5641",
"85.	c #6A5542",
"95.	c #705B40",
"05.	c #6E593E",
"a5.	c #735B3F",
"b5.	c #755D41",
"c5.	c #765E42",
"d5.	c #786044",
"e5.	c #7A5E46",
"f5.	c #795E43",
"g5.	c #7A6045",
"h5.	c #756041",
"i5.	c #796243",
"j5.	c #786142",
"k5.	c #796041",
"l5.	c #775E3F",
"m5.	c #755C3D",
"n5.	c #795E40",
"o5.	c #765B3E",
"p5.	c #765B40",
"q5.	c #755B44",
"r5.	c #745944",
"s5.	c #715641",
"t5.	c #6F543F",
"u5.	c #684D3A",
"v5.	c #6E5340",
"w5.	c #715643",
"x5.	c #68533E",
"y5.	c #645038",
"z5.	c #584735",
"A5.	c #55402F",
"B5.	c #593E2B",
"C5.	c #583D2A",
"D5.	c #513728",
"E5.	c #4D3626",
"F5.	c #503929",
"G5.	c #513824",
"H5.	c #4D3420",
"I5.	c #4E3521",
"J5.	c #4F3924",
"K5.	c #513A28",
"L5.	c #553B2A",
"M5.	c #583D2C",
"N5.	c #563B2A",
"O5.	c #573C2B",
"P5.	c #593E2D",
"Q5.	c #5C412E",
"R5.	c #5D422D",
"S5.	c #5C412C",
"T5.	c #5C422B",
"U5.	c #5F4534",
"V5.	c #5E4332",
"W5.	c #614635",
"X5.	c #644938",
"Y5.	c #684D3C",
"Z5.	c #664A3C",
"`5.	c #674B3D",
" 6.	c #65493B",
".6.	c #694D3F",
"+6.	c #684C3E",
"@6.	c #6B4F43",
"#6.	c #684C40",
"$6.	c #6B4F44",
"%6.	c #684C41",
"&6.	c #6A4E43",
"*6.	c #6D5146",
"=6.	c #6D5646",
"-6.	c #745D4D",
";6.	c #775D50",
">6.	c #785E51",
",6.	c #785D52",
"'6.	c #765C4F",
")6.	c #795D51",
"!6.	c #755A4F",
"~6.	c #74594E",
"{6.	c #6F574B",
"]6.	c #6D5549",
"^6.	c #745C50",
"/6.	c #775F53",
"(6.	c #786054",
"_6.	c #76614C",
":6.	c #6F5A45",
"<6.	c #6A5540",
"[6.	c #69543F",
"}6.	c #6D523F",
"|6.	c #6A513D",
"16.	c #6B523C",
"26.	c #6B503B",
"36.	c #6C513C",
"46.	c #6B4F39",
"56.	c #6D533C",
"66.	c #6A5039",
"76.	c #5F4632",
"86.	c #644936",
"96.	c #624734",
"06.	c #5E4236",
"a6.	c #5F4538",
"b6.	c #583D32",
"c6.	c #573C31",
"d6.	c #574636",
"e6.	c #584737",
"f6.	c #5B4A38",
"g6.	c #594232",
"h6.	c #5B4530",
"i6.	c #5D4430",
"j6.	c #5A442C",
"k6.	c #5F4433",
"l6.	c #5F4431",
"m6.	c #604532",
"n6.	c #624732",
"o6.	c #634732",
"p6.	c #634634",
"q6.	c #624533",
"r6.	c #644737",
"s6.	c #624535",
"t6.	c #634739",
"u6.	c #674C37",
"v6.	c #5A3E32",
"w6.	c #523C2E",
"x6.	c #533D30",
"y6.	c #503D2F",
"z6.	c #4E3D2D",
"A6.	c #564334",
"B6.	c #594637",
"C6.	c #5F493B",
"D6.	c #5C4638",
"E6.	c #5D4837",
"F6.	c #594335",
"G6.	c #574133",
"H6.	c #574134",
"I6.	c #725641",
"J6.	c #795D47",
"K6.	c #7B5F47",
"L6.	c #795D45",
"M6.	c #7A5E48",
"N6.	c #69503A",
"O6.	c #6A513B",
"P6.	c #684F39",
"Q6.	c #634833",
"   .  +  @  #  $  %  &  *  *  =  *  *  =  -  ;  >  ,  '  =  )  !  ~  -  {  ]  ^  /  (  _  :  <  [  }  |  1  1  2  3  4  5  6  7  8  9  0  a  b  c  d  e  f  g  h  i  j  k  l  m  n  l  o  o  p  q  r  s  t  u  v  w  x  y  z  A  B  C  B  D  E  F  G  H  I  J  z  K  L  M  N  O  P  Q  R  S  T  U  V  W  X  Y  Z  `   . .. +. @. #. $. %. &. *. =. -. ;. >. ,. ^  *. '. ). !. ~. {. ~. ). ). ). ]. ^. /. (. _. :. :. @  <. [. }. }. |. 1. 2. 3. 4. 5. 6. 7. 8. 9. 0. 0. a. b. c. d. e. f. g. h. i. j. j. k. l. m. n. o. p. q. $  1. r. s. t. u. G  G  v. w. x. y. z. A. B. C. C. D. v. v. E. C. F. G. F. H. I. J. 3  K. L. M. N. O. P. Q. R. S. T. U. V. W. X. X. Y. Z. S. `.  + `. .+ ++ @+ x  #+ $+ %+ &+ *+ v  =+ -+ =+ T. =+ ;+ ;+ =+ >+ ;+ ,+ '+ )+ x. y. !+ ~+ ~+ {+ ]+ z. ^+ /+ (+ _+ :+ U. <+ [+ }+ y. |+ |+ N. 1+ 2+ 3+ 4+ 5+ 6+ 7+ 8+ 9+ 0+ 0+ a+ b+ c+ d+ &. e+ f+ g+ h+ i+ j+ g+ k+ l+ m+ n+ o+ p+ q+ r+ s+ H. t+ u+ v+ v+ w+ v+ x+ y+ z+ A+ B+ A+ C+ D+ E+ F+ G+ 9  G+ H+ I+ J+ K+ L+ M+ N+ O+ P+ Q+ R+ O+ V. 2+ S+ T+ U+ 4+ w  P+ V+ F  L  W+ X+ Y+ Y+ Z+ `+ p+  @ .@ +@ @@ #@ $@ %@ &@ *@ <+ !+ 3+ |+ !+ =@ -@ -@ ;@ >@ >@ ,@ '@ )@ !@ ~@ {@ ]@ ^@ /@ /@ (@ _@ :@ <@ [@ }@ |@ 1@ ",
"2@ 3@ 4@ 5@ 6@ 7@ 8@ 9@ 0@ a@ b@ c@ c@ d@ e@ f@ g@ h@ i@ j@ k@ l@ m@ n@ o@ p@ q@ r@ s@ t@ u@ j+ v@ w@ x@ y@ z@ A@ B@ C@ D@ E@ F@ G@ e. H@ I@ J@ K@ L@ M@ N@ O@ P@ Q@ R@ S@ T@ J@ i. U@ V@ W@ X@ Y@ Z@ `@  # .# +# @# ## $# %# &# *# =# -# ;# ># ,# $# '# )# e@ d@ !# f@ ~# {# ]# q@ ^# /# (# _# :# <# [# M@ }# |# 1# |# 2# 3# 4# 5# 6# 7# 8# 9# 0# a# 7# 7# b# c# d# 7# e# f# g# h# i# j# k# k# l# m# n# o# )# k# p# q# r# r# r# s# s# t# o# u# v# w# x# x# y# r@ z# A# B# C# D# E# F# G# H# I# J# K# K# J# L# M# N# O# P# Q# R# S# T# U# U# V# W# X# Y# Z# `#  $ .$ +$ @$ X# #$ $$ $$ #$ #$ $$ %$ &$ *$ =$ *$ *$ -$  $ W# W# ;$ >$ U@ ,$ '$ )$ W# !$ Y# .$ ~$ {$ ]$ ^$ /$ ($ _$ :$ <$ {$ [$ }$ q# |$ 1$ 2$ Y# 3$ 4$ 5$ )$ 4$ 6$ 7$ 8$ 8$ 9$ 0$ a$ b$ a@ c$ d$ h# r# e$ f$ c$ c$ r# |$ s# s# s# g$ h$ i$ j$ j$ j$ j$ k$ l$ f@ f$ j# c$ m$ n$ o$ p$ q$ r$ s$ t$ u$ v$ w$ L# x$ y$ P# z$ A$ A$ b# B$ C$ C$ D$ E$ F$ G$ H$ I$ h$ l# J$ l# K$ J$ L$ M$ M$ N$ O$ P$ P$ Q$ R$ S$ }$ T$ U$ U$ V$ W$ X$ Y$ Z$ Y$ `$  % #$ .% `$ $$ +% @% 0. #% $% +% %% &% *% =% -% ;% -% >% ,% '% )% !% ~% y# {% ]% ^% /% h$ (% _% :% d+ !$ <% m# [% h$ }% i$ i$ l# l# |% 1% f# 2% 3% 4% f$ q# 5% n@ 9. 6% 7% 7% 8% [. ",
"9% 0% a% b% c% d% {# p# 3% e% e% 0% 9% 9% f% 0# g% h% 4% i% j% s$ k% l% u$ m% m% w$ n% q$ o% 5% p% q% r% m@ s% t% u% v% w% x% y% z% A% B% C% D% 1@ 1@ E% %# F% G% H% I% J% K% p@ L% M% N% O% y# P% Q% A# '% x$ h# R% S% k$ T% U$ J$ K$ T$ U% V% m# h$ I$ a$ h@ W% X% S# Y% Z% `%  & .& +& @& #& $& %& && *& =& -& ;& >& ,& '& )& !& ~& {& d# ]& {& ^& /& (& N# _& :& <& #& [& }& |&  & e$ s# q# d$ 1& 3@ 2& J# 3& 3& 4& 3& 5& 5& 9# 6& 2% 7& 8& 9& 0& 5% h# a& }& b& c& d& e& f& /$ !& g& h& H# 2& L# M# 6# i& j& P# k& l& m& n& J# 0% o& ~# x$ ~# E% p& q& r& j+ s& t& w# {# o& u& u& o& t& {# 9% 0# v& t& t& t& w# v# t& v# w& x& p& y& z& A& B& B& B& B& C& U$ D& E& F& F& G& H& I& F& J& F& _# 2& K& {# L% L& M& N& O& U$ G% q& P& Q& Q& R& S& S& R% l% T& U& T& n$ V& V& U& U& 3% 3% 3% 3% W& ~# K& X& 0% Y& Z& `&  * .* +* T& 9# @* #* $* e% 2% e% %* u$ v$ v$ m% &* ** b# =* -* ;* >* ,* '* b# b# )* !* ~* {* ]* ^* /* B# ^* /* (* B# _* i$ :* b$ <* W% q# [* }* s& s& u& t& w& X& |* 1* B# /* i$ l# l# %# K$ K$ 2* J% 3* 4* 5* 6* b% B& %# K$ &# &# *# 7* s& 8* 9* 0* v$ w$ a* f# 6& e% b* c* Z& d* J# e* u& K& o& K& K& K& f* d* d* d* 2& g* h* c* i* j* `& k* l* k% w@ m* n* o* p* q* ",
"r* s* t* !# !# ,* u* v* w* w* w* u* 0* x* y* z* [@ A* B* r* B* C* D* E* F* G* G* H* I* l% J* K* U& U& U& V& k% k%  *  * a& ~& y$ G# L* S# X% M* N* K% o@ b% o@ O* ;. X$ M* X% d% j$ v% u% P* Q* %# j$ R* 1@ S* [* 5% R% !# +# T* U* }* b$ U@ V* W* X* Y* Z* `*  = Z* .= += +# :* @= #= $= %= @= x% &= *= == -= ;= >= ,= '= )= != ~= {= ]= ^= /= (= _= := <= [= }= ~= |= 1= :@ 2= 3= 3= 4= w* w* 5= T# t# 6= y* 7= 8= 9= A* 0= a= b= b= y* 1= 2= t* c= g% d= e= (= f= g= := h= i= j= k= l= m= n= _= _= := := <= o= p= q= r= s= t= u= w* 0* v= w= a* 4& &* x= y= r# z= A= u$ w$ w$ w$ B= C= m% B= D= E= m% a* F= G= o% n% j% H= I= g# c$ J= K= s& o# o# W% W% }% L= M= e& R* R* N= O= N* N* I# (# z$ N# j& I# P= Q= R= S= L$ L$ R& r@ x= T= U= c$ a& e$ V= W= X= Y= Z= Z= w= 9* I= `=  - .- +- `% `* @- @- #- c& $- g@ T# 1@ T# %- &- *- 1@ 1@ g@ =- N* !* -- ;- >- E$ ,- 8* o@ '- $& &= )- !- ~- {- '% Q= ]- ^- /- (- _- :- <- <- D# [- }- |- |- R= S$ %% @$ `$ h$ +# 1- o# W% t# !# q# 1% 2- 3- g@ T# g@ r#  & e$  & |$ 4- 8& 5- 6- 7- k$ R% 8- q# s# )# )# j# i# U= c= 9- 6= 0- a- [& {- b- c- 5& d- e- f- f# j# g- c$ a& a& g# g- e# h- i- i- 1* j- k- f# 4& &* 2% 3% l- A= 0% 0% m- n- o- p- ",
"q- (. r- s- t- u- v- w- x- y- z- y- x- A- B- y- C- D- _. E- F- G- F- ~. H- I- J- x@ K- L- M- N- :  O- O- P- Q- R- R- S- T- U- V- W- E+ j  X- Y- M. L. V% V% K. Z- `-  ; .; +; @; @; y+ H. #; $; 1+ >+ T+ %; &; *; =; W. -; O+ ;; >; ,; '; ); !; ~; $  {; ]; ^; =  /; (@ (; ~  *  _; -; $  :; +  5$ <; [; }; (+ ^+ |; 1; 2; 3; 4; 5; 5; 6; 7; 7; 8; 9; 0; a; b; c; d; (+ e; f; g; h; i; V- V- j; k; x. |+ l; m; [. n; o; p; Q@ c; (. Q@ (. #  q; r; r; s;    t; .  F- u; v; w; x; y; z; A; B; B; N& B; C; C; D; E; E; F; G; H; I; <. J; 8+ K; K; {; |. L; M; N; t. O; P; !     Q; Q; R; R; R; S; v- T; U; V; W; X; X; Y; Z; X; `;  > .> +> w+ y+ @> )+ )+ |+ 5+ #> $> %> &> *> => F+ -> 8  ;> >> ,> '> )> !> ~> {>  + $> O+ ]> ]> ^> /> (> _> P+ :> A  A. Z+ <> K; [> }> &  |> J; 1> 2> 2> 3> [; 4> 5> q; 3. 6> ]+ ^+ ^+ 7> ); <+ )+ 8> 9> -+ 1+ t. 7+ 1. 1. |> 0> |> O; a> b> M& c> d> x@ e> f> g> h> |> i> 2. W+ |  `+ j> k> l> m> n> o> p> p> q  q> )+ r> B. D. I  s> t> ~; u> s. v> v> w> x> y> N+ z> _> _> A> B> C> D> E> F> G> H> B> '; I> K  )@ K  u. r. s. s. 1. [; J> K> L> M> 2> J; J; N> /+ O> h; P> Q> R> h; S> }+ T> [+ T> [+ U> [+ V> W> X> 3+ )+ Y> !@ w> >  $+ 7= Z> `>  , ., +, ",
"s# j$ Q% @, #, $, *- e$ G# G# %, &, 2- 2- %, {- *, =, =, -, L% *# *# ~# 3% 0% d* f% ;, >, o& ,, ', s% s% b@ 0@ ), 0@ a@ !, ~, v; F% /% |% q# 1- {, ], U* b@ v% ^, /, b% V$ V$ O& /* l# 2* 2* &# k@ ', %% (, i$ d@ U# s% 2* a$ 1- l@ _, :, 3% Z> w= 4- _, n@ <, [, }, |, 1, )# a$ 2, 3, R& 4, f# b& 5, 6, /% 7, 8, 9, 0, a, b, c, d, e, ^* f, 1% g, h, i, j, k, l, m, n, o, *. p, p, *. =. q, =. r, s, t, /% u, [% v, w, G% x, y, z, @# -# *. A, U* B, 8@ C, m# D, E, F, ]% G, H, I, J, K, |* {# k# ', L, )# e@ M, K$ N, u. 0. O, P, ;. S= Q, R, S, T, N& U, V, U, N& Q, W, g$ X, 7@ 7@ =. o, Y, 4$ Z, `,  ' .' j@ +' $# @' B& 1& u% z, #' x$ $' ;% ;% $$ X# @$ X# #$ 0$ %' &' .. (+ *' U  =' .. -' ;' >' ,' '' )' )' !' ~' ~$ S, {' P, m# C, P, ]' ^' r, /' (' V$ q& J% e@ ,, p# i# p# e@ f@ t# _' H# 5% 9&  &  & j# j% l# b$ '# B& :' <' $$ U# p# u& u& ** d$ |* ** d$ 3& 3& J* [' }' }' A= s$ |' n$ m@ 0@ W, 1' 2' ~$  & s# q# e$ 4, e$ s# r# U= 3' (& 4' 5' 0# h# 6' d$ u& ', h# h# q# s# '# 7' #$ $# <* 8' 9' 0' <* a' @' b' b' o# :* 1- $# c' <* 2, 2, 2, 2, d' 8@ b@ e' U= .* 8& T& T& T& :* s# i# f$ E% <& /& d$ 8* E% E% 5- 1@ ~# ~# l$ i$ O& f' g' c% *# L% #' J% L% h' i' j' k' ;' l' ",
"m' n' o' [= [= p' q' r' s' q' ^& j- k- ~& N# := u& a& g- t' F= t' t' 9* u' v' u= s* 2= 2= t' t' t$ w' q$ w' x' y' ', ', z' 5$ w@ A' Q& ~- 3' 2- &* f$ R% B' C' j$ 2& D' ]* ]* ]* ** {# S% E' F' y' G' H' r& I' p% K& J' K' F' .* 4% l% l% L' @* M' `& T& U& k% N' k% k% O' P' t& K$ m# @= Q' @= <& R# R' S' T' U' V' ;& (- (- W' X' )- _' y$ 1* Y' d= 7# 7# 1* 7* s& u& v& F' I' I' I' 0% f%  * X& >, a# K# d* d* 0# g* 6& 6& 9# l% T& e% Z' <, l% `'  ) .) c* d* +) K# H# '- @) #) /& c- g% $) %) %) &) *) Z& M' m- Y& Q; z% u% P* Q* -, =) P* -) ;) p% j# a& i# Z' p% v& >) ,) ') )) !) e* u% P$ f+ j$ k# y' ~) ~) ,, 8- 0& R% 8& h# 4, U= S& D' {) {) ]) ^) /) () _) F' I# :) <) [) }) |) 6* J# L# P% 1) p@ =- p@ 2) H, H, 3) T% 4) 4) 4) 5) =# s& i$ j+ 6) R& {# K' h# ~) 8& e% 3% h# c$ a& 7) 8) 8# 4& |* ** X& e% Y& U& V& I' q@ 9) w& 4% $* |' l- 0) a) b) *) c) L# c- {& >* c- M# 4& 6& d) c) 2% {# v% 5) R, e) _# q@ K, !* ]* !* !* )% >, 2) j& p' ~* E$ |* g# d* f% 9% f% 9% X& |* u& f) p& E' v& {# v# Q* v# i# o& {# {# 0# +) f%  * w& t& {# {# w# P* v# t& 5- v# >, g* g* K# K# g) h* @* @* @* h) d= i) j) w$ v$ v$ m% m% A= n% t' k) l) m) j# u$ u$ t$ 8& i# h# x- B- y- n) ,' t- ",
"o) p) q) r) s) t) u) u) v) w) x) x) x) y) z) A) &* g% z* A* A* A* A* :@ 7= B) C) D) E) F) y* 2= 8=  , G) G) g) +) 0# 0% ;, H) q, h# T# c& b& I) `= J) +- o% 9& K) L) e% M) N) O) P) :* Q) R) Q) 8- g# Y# S) 1% 8- {, i# ~) ~) n% n% j% n% &* g% g% 4& h% 2% e% 3% 3% .* A= n% a& T) <* U) V) @& W) X) /# I, *= Y) Z) `)  ! .! +! @! k= #! $! n= m= %! p- $! := T% p@ ]* &! t' a* a* t' w= *! *! f- '* z* 3= 4= =! v' C* ]& Y'  , -!  , C$ f# e# v' ;! ;! >! >! ,! `> u= =* /= #, '! )! n= e= a- !! !! v' C* =! v' !! u' ~! $- H= &! 4- U= h# 9& {! ]! o% t' w* a* ^! /! t' m% m% u$ A= u$ u$ o% M* (! U= a* C= t$ v$ B= g# e- 9# d* {& _! :! 4& h% 6& 6& h% g# c$ f$ c$ <! [! s, S$ }! :* 4, ~- e= |! {- 1! '- 2! #, != X' 3! 4! X% 1@ ~# E% 8* l) G= 5! }* 6! v= z= z= F= o% o% F= t' t' F= I= z$ 1* t' t' g# f# h- z= l) v= 7! w= &, 8! t# Z% g# f# h- h- m$ i- 6# b# W) N# N# n' n' 9! 9! n- 0! a) 9# S& Z' d@ a! *# |* f* K& K& ** K& ** d$ g- b! c! d! M# d$ g# e! 6& h% h% 8# 8# 8# f# c$ W, j$ k# S& U= s# h# a& U= h# g# ;, b# c- ;, d* h# s# |$ s# k# ,, k# 3% 6' r# f# i- f- f- i- i- ,* e- 4& m$ b! V) f! g! b- *- T= H# *- d% x= T= Z% c& }% B# V= V= b! ~- H# T= h! h! T& V& g* i! ",
"j! k! e. l! m! n! o! p! q! p! j. r! s! t! t! t! u! v! U@ U@ 8; w! x! y@ y@ z@ y! z! A! /  B! h> h> C! C! C! D! _  E! #% F! G! =; #+ H! v. r. 7+ S> !+ !+ #  I! K. K. 7+ g; J! K! L! _+ :+ _+ _+ n> #  M! N! O! w> _+ O! P! w> Q! R! S! 6> {+ T! 6> w> U! V! v> $  $  W! U! !@ A. A. s. |. X! Y! Z! `!  ~ .~ +~ @~ +. 7; #~ $~ $~ %~ &~ *~ =~ =~ *~ -~ a. ;~ >~ ,~ '~ )~ K> !~ M> 3> Q! Q! [; ~~ {~ {+ 2; }; ]~ ]~ (. p;  @ ^~ /~ <;  @ (~ (~ _~ o; :~ +  <~ [~ c; '' '' }~ |~ 1~ 3; ,' }~ .~ 5$ (. (. (. (. (. :~ c; Q@ 2~ /+ 3~ 3~ I! I! B. s> ,@ -@ 4~ 5~ 6~ 7~ ;@ m; 7+ O! O! W! v> W! W! ~; ;@ Z+ 8~ =  9~ 0~ )  9~ a~ b~ c~ }>  @ d~ O  e~ f~ `; g~ r> h~ ;; i~ j~ k~ l~ m~ J+ n~ .> o~ p~ q~ r~ s~ t~ p  u~ v~ w~ x~ y~ B> A  z~ A~ A~ z~ B~ |> 4> %  D> |> *  Q; <. {@ {@ {@ C~ C~ {@ L; x  D~ [. ~  ,  p. ~@ ,  w> E~ F~ V! S> z> I! G~ +@ H~ I~ J~ J~ K~ L~ M~ #. a~ N~ w! @% S= 1' O~ ). {. P~ Q~ #+ #+ R~ S~ T~ z~ T~ A  T~ T~ A  T~ ~@ U~ '@ V~ W~ $+ ,  ~; X~ Y~ Y~ Z~ `~ `~ q.  { .{ +{ C> A> v. V+ Y> '@ !@ Y> z> )+ U. |+ v  T! v  Y> W. W. V. B> V~ W~ p; (. [~ +  @  @{ #{ y; ${ b; c; %{ &{ /+ *{ &{ x~ ={ 5~ -{ ;{ ={ ={ >{ S> ,{ '{ ){ !{ q~ ~{ {{ ]{ ^{ b= 2= Y' b# l= /{ ",
"2* l# /* ({ R= (* J$ R& Q& i$ R& 6, ^* _{ _* :{ <{ [{ }{ O= |{ 1{ 1{ 2{ 5' ~* G& 3{ 4{ 5{ A' -, 1& =# 1& B& z, O* 4) e) 4% 6{ 7{ p# 8' b' T) {, P& 8{ }% x$ l# $. 9{ l# V$ (* (* 2* 0{ 8' h@ f@ a{ `' b{ c{ 8& &! d{ 8& t# o# e{ f{ Z* g{ ,% d+ Z* h{ i{ i{ j{  ' k{ f{ u# u# b' :* |$ Z' U& =! g) g) M# l{ 2) m{ n{ n{ h. W@ d, ^, /* o{ o{ p{ 8* T= >, 3' b{ @= R# H# f# a& a&  & !# c@ 8' 1$ q{ d+ !$ r{ <% ,% s{ s{ P& #' 4) 4) t{ 8{ t, u{ I$ [% L= &# K$ R& p{ (* 6* v{ w{ x{ y{ w% z{ s@ b$ $# &# &# 2* l# J$ l$ c, _% d' 9' Y# A, A{ B{ S= S= 7$ Z! C{ ({ D{ E{ A, q, q, =. P, F{ +$ G{ H{ I{ T) J{ i@ K{ L{ M{ N{ y= O{ P{ L& <' f) t@ Q{ R{ S{ T{ U{ U{ B, 0' 0' V{ W{ ]$ E, 9' u, I$ %- X{ Y{ Z{ `{ q{  ] (~ O& U$ m# N, b$ a$ T) c' J{ )# 1% %, 4, |$ j# 0& s# s# h# j# k# k# i# s# .] h$ [* <, !# W% o# +] f* .* 4% p# 2) (# |* ~) -- ;- >- @] @] >- n- E$ <& #] K% )* $] %] m- &] i- f- h- g- r# r# 2- b$ $# $# b$ 1$ b$ b$ 8' <* v# K$ G{ P, h@ d@ c@ '# )# )# )# M, 7* 2* R& {- *] (* l# u# s{ ,% -# ## H{ _% q{ !$ S) =] .$ #$ -# D, C, m# L= L$ 6, 8* |& 5, c$ g# f$ e# V= 6' a& 2% 4% U= 4, 2$ o# e$ 5! [* l@ n@ 8- -] Q) Q) <! ;] >] ,] '] I) {- @) )] )] !] ~] u- '' {]  { ",
"4& 2& ]] y= x= ~& L# 4& >* 6# b# k- k- d# n= x) :! b# 7# g% g% 7& C$ d= B* u= 7= B) %* `' 7& n% w' q$ ^] ^] /] 9& e! `= *) (] [& c) e% k# y' j# _] N= N= ;- _# :' :] <] ]* !* ** u& F' F' 4% 8& t$ [] >, d% %) 0! 0& T& l* }] |' |] 1] 3% K& 2] %* U& A= u$ t$ 3] 3] $* 4] `& c* 7# 0# S& h% s* {& {& 1* h& _' $, 3! X' [$ 5] 4! 6' f# m$ 6# 6# c- C$ C$ c- ~& 6] d# ]& 3= e- 8# 8# U= p# ', ', E' 7] v# 2& K& f* f% c* h! h! l- t$ v$ w$ J* 9# E$ @] 8] 9] c* Z& M' `& &* f# d% s& c- 8# 3& F= 0] 0] 0] b* a] b] c] d] e] h) #* f] g] ]# 9% ;) ', ,, )# d@ h] k# ~)  ) S% E' K' E' K'  * 9] 9] |& g! i# U= 8& y' i] j] k] l] r$ p$ 9& m] n] o] p] q] r] s] t] u] y' S& v] {# X) R* 2& g* E$ w] x] J# S& ') )) !* y] z] A] p& v# Q* L, p# p# w& {# o& X& ;, K# d* Y& c* 8& e% l% T& V& %* l% T& f+ d% h% t$ 9# d* 3% 6& d* `& d- `& %] {* ,- h) m% w$ B= u' B= u' ,! d- [! =# x= {& )* C$ 7# B] B] h* m- &] d* J# M# o& i# j# ', ,, k# k# ,, L, ])  * =# #] K& F'  ) 4% ~) S% S% S% {# o& q@ W) D$ C] 9] k* F' I' F' v] S% u& j$ s& y& J% Q* v& ]) G' G' v] k* h) b] D] a# x] Z& x] 0] @* &] x] M' 3& &) [' 4& E] a& 8# &* e% 8& 3% 2% 6& a& a& K# W) F] I, $, j& G] ^# *- 1@ a; }~ v- H] u- I] ",
"J] -! K] Q* ^& +, D) C) E) +, L] L] o) o) M] N] O] p) E) P] Q] 0= R] E) Q] S] T] E) C$ 7& 2= 7& C$ a# 7# g) M# b# d# k- G* U] V] W] y* 4= C= &! 9* c& #& m$ #& X] :% b{ V= 6' `% I= Y] H= Z] k) `] o%  ^ .^ z= +^ @^ e! t' t' {! #^ F= 9*  & $^ p# ', p# h# j% &! &! +* 8& e% g- 0- f-  & +- %^ &^ &^ *^ P# =^ -^ +! ;^ >^ j& j- b= 8= B) ,^ K] '^ )^ )^ m= )! !^ ~^ u) {^ ]^ ^^ /^ (^ w* (^ w* _^ u] e% :^ :^ ^^ <^ [^ }^ W] A* u= A* 1= R] |^ A* A* A* G* D* 1^ 2^ 3^ `> d# 1* H# 4^ |^ `> u= D* 5^ D* 5^ B* 3^ u= B) g% !! 6^ m% 6& h- h- i% 7^ Z] e! -] 8^ I= 9^ /! C= B= 0* z= $) a* m% m% .- 0^ 9* $) F= w$ m% v$ n% t$ *) 3& 4& a^ S& 5& b^ c^ d^ /! o% o% t' F= d^ u* e^ e^ f^ c= 1* X) C$ c- ;, 2& g* X) g^ h^ H# *- 5, g# a& l) b& b! V= [& f! i^ ,* f# f# 4& h- e- B$ e- 8# e- B$ 4& R, 6' 0* v' =! &* $) z= V= w= j^ w= :& [! f! *! }& 6' b! g! #& #& g! i& 3' s& 2) )* k^ k^ $] 9! 3= y* ,! &* h% ;, 8* M* f$ i# k# ', p# k# ', k# E' s& l^ B, :* U= a& a& e# a& a& g# f- y$ 3' g& k- K# e- h- 5, }& g- &* G= 4, 5, 1% m^ T= g- 8# 6& 6& h% &* 8# 4& 7& y* n^ 2= b= <@ A* 7= u= B) o^ a- 7& ,* [& -] .- f^ a- a- a- a- f! p^ p^ p^ b# q^ r^ s^ |= t^ u^ v^ -* W) n% n$ $* K* &* w^ ",
"N~  ~ x^ y^ n+ z^  ~ >$ #. A^ v! v! j! 0. A@ B^ C^ a; B- 9; D^ H@ u! 0. E^ E^ F^ !] G^ H^ I^ I^ J^ [~ <~ K^ L^ x; M^ N^ O^ P^ %@ Q^ L^ b; <~ :~ R^ 8+ S^ !. T^ U^ V^ W^ X^ 9~ =  _; Y^ Z^ `^  / ~, {@ _> Y> |. ,; ./ +/ 3  r+ @/ #/ $/ K. %/ &/ I+ */ =/ G> u+ w+ x+ P. y+ F. v+ 4+ -/ ;/ O! s- >/ L~ M~ M~ ,/ '/ #@ )/ .. !/ ~/ Y, {/ ]/ 8; U@ U, ^/ // (/ 4* x@ m* _/ :/ </ </ x{ [/ }/ }/ |/ )' K; I  1/ 2/ 2/ 3/ R! L~ >/ 4/ 5/ .. d. 6/ 7/ 8/ ]~ 9/ 0/ 3> a/ G^ @~ b/ a; T  3; >' c/ H@ 9; a; H^ @~ 6; 3/ d/ 1/ e/ f/ g/ [; $@ |; O> M. h/ D. @> M! N. i/ *@ T> 3. j/ 3~ p> p> V; Q  R! 9/ 4; s- O! :; v> |. ~@ k/ E! N- l/ /; 0> m/ E! N- *  =  =  *  ~  C~ }. :. n/ !~ :; #{ o/ Q@ p/ q/ 0/ r/  @ s/ 5$ a/ r> #; >{ t/ ;/ ]+ {~ ]+ {~ 2; N> _+ ~+ S> T> U> d; P! u/ u/ v/ w/ q. w/ m; U~ x/ |+ S~ ,; ~; $  P! y/ $  {; 9~ 8+ :; z~ v> /; O  O- ~, 3> 2> 1> 2> J> z/ A/ =~ u! B/ 0. B! B! :~ o; ^.  { C/ D/ E/ Y. F/ G/ D/ D/ G/ D/ ); D/ D  5+ H/ I/ J/ @> !+ q  I! B. V^ v  +{ K/ =+ L/ M/ N/ P. #; %/ %/ F. P. L. J. X- O/ P/ i; y. +{ !+ P> P> i; h; h; h; g; ={ -{ Q/ Q/ R/ S/ T/ S/ U/ Z~ V/ W/ ,  |. }. t; X/ (  B! Y/ B! Z/ `/ b/ /  G^  ( .( +( @( #( l; $( %( i) -! d] &( m& ~^ ",
"@$ Y# C, [% &# B& @# 0{ H' *( B& 1& K= ,# ,# ,# =( V, -( ;( e* y= >( u, U# |% /% p{ ,( 4# '( {% J$ l# Q& '% )( !( )( !( '% ~( x, _* O& O& 3) #' a@ c@ )# j# K& h& 3' 5- _, <, }* l@ {( m@ r% m@ S& 5- ]( ]( k# ^( /(  ' d@ t#  '  ' ', j# h# b! Y] 4- 0& ^] [* [* _, _, /] )# W% 2, (( +# b$ 1$ q# .& {- G# _( R' :( I% !& b{ T= c$ 2% m% u$ A= 8& R% R% j# A' <( N, a$ [% L= h$ }% v, F{ 7@ +$ =) x, $$ [( }( N, d' |( ## N, 1& 3@ m^ m# 1( 2( W& m^ 3( >( @# *# s& *# P* x$ 6, _{ s@ P* s% ', 0{ >( ,# N, z, 4( 5( :  +@ a. 4$ ,. 6( 7( s/ z^ 8( 9( g$ *$ 0( l+ g$ a( `! 7$ 7$ ,. b( b( Z! c( >/ d( {$ e( ,# N{ ,# >( f( [( 1& >( [% B# R& c@ g( E] h( i( m) g( E] |( 2] j( k( v- l( m( n( o( >( B& >( p( 4( ~( [$ e& 4) B& 0{ B& ## 4@ B& &# u# H{ V{ b~ `# q( w, +# {% A] s& ~# j$ *# K$ i$ a& x$ u% P* I' I' j# f@ l@ i% 4% !# %% r( l# v& R% N' U& j* b* 0] @* c] e- y* s* 4& 4& h% 8& 3% !( R* ]# /{ p& s( t( F^ e$ !# e@ e@ )# ', ,, ,, d@ )# 1@ *- L* l$ ~# {# ~# ~# ## 2* &# -# R= 1' ]  {$ `$ +$ -# C, `$ $$ u( v, v, (* ^, }$ :] H' 9$ Z# $% v( i' w( )$ x( y( ^  5] p@ q@ !* z( P= 5, h# 6& U= r# b& a& 4% p# k# i# f$ h# h# i# o& .* i# 2$ $# L$ 1@ 8* 3' m{ !( l( v( i+ P$ A( B( ",
"4, 4, U= Y] G= n% t' o% 3% e% e% 8& i% i% i% +* H% G# m$ K* w$ o% I= V= C( G) D$ %] D( E( F$ F( !* !* 5' G( H( G$ I( J( b- 7* L$ G# ~- R# H# *- e! ^] p# 6& 8# >* b# *- U& V& k% k% N' `' `' #* K' K, v; 6$ 9% O' 9& j# r$ o% H= F= m% m% &* t* K( L( *) %) %) &) T& T& }] U& 0# K& M( ** I' f% &] B] n& n& 9! N( 3{ G$ O( P( )- y$ c= a- ,* m$ !! b^ Q( z= i- R( r# Z% [' K* K* K* T& k% V& T& S( b& 5, V& l- n% :, A= e% 4% e% 8& ~) U= |( T) i% w' i% +* n% $) 0* a* C= a* 5= T( e# $) B= U( V( W( X( |] $* Y( Z' Z( `( `&  _ ._ O' +_ k% N' q# f$ 4] f$ +& |& 4] 1% @_ S( @_ #* 4] O' 4] l* w, #_ d% i# T& V& .* ~) 8& k* L' .) 0% 0# M' %) e% e% 3% s$ +* &! j% i% ^] 9% $_ 3$ /* %_ 0% W{ g- g- k# Z' )# !# :* ~-  & s# f@ !# q# k# ^] 5%  _ +_  * &_ *_ ;- .) #* ;- Y& 9] Y& h) Y& h) Z& ;, K& |* |* f% 9] 4% a& |& .* G' ** I$ =_ E% Y& c$ a& &* e- e- 4& B$ g% G) -_ -_ G) G) B] m- m- C= ;! ;! l- 4% }& ;_  % E' S% v& S% E' v] v] v] V& v] 9] g) g* 0# Y& >_ 9] k* f] c* 9] 0% q@ x& ,_ K% X& K' E' F' I' {# j# 8& e% g- [&  & u& K' k% V& k* .) v] G' `' N' u, Z( b# g) h* h*  , d= n' $] '_ $] N( $! 9! )_ h% 2% 6& 6& 2% 2% 0# d* f* S# ^' W$ '( z( !_ I, ~_ {_ ]_ :  O- P- ^_ /_ ",
"B$ s* d- ,! ,! 3& ,! d- K( K( (_ c) b) b) c) c) __ b# :_ W] <_ Z> [_ (= }_ ~^ |_ o' F] 1_ 2_ 3_ q' 4_ 5_ 5_ |_ 6_ G( I( j& K% O= j& (& N# j& j& j- M# '_ D$ 7_ 8_ 9_ H( Z> J* J* J* ,! B$ B$ s* 7& 6# 8$ `! ,! D* z= C* _^ ,! }' J* _^  , [_ c# 4= (^ w* w* *! *! v= w= Y] G= 5, 2- $^ 1- !# |& a% 0_ (& N# a_ b_ /# c_ ;^ d_ O# ]] c# (= m' [_ 7= r* e_ 8= c# s@ i& 0- 8= 7= u= `> Z> J* Z> u= f_ :! c# g_ h_ J* B$ i_ J* _^ I* i_ i_ Z> ~) 4& F* _^ K( i_ F* W] H* }^ 8= o^ d! 6] c# :@ 2= j_ k_ l_ m_ n_ o_ ;! 4& s% p_  , q_ r_ K( x] -_ b] h* @* s_ t_ u_ -! v_ +) 3& }' 3& 3& }' [' K* [' F% w_ >, +) C( ]& C( a# a* v' `> `> b= :@ x_ y_ Y' ]& B] x] x] m- 3& [' }& g* A/ T$ 5- z_ b] <& 7& s* h% ** f* x= 2) j& T= 8* 5- f* d$ |* U= a& A_ 9* }& h@ a$ b& f- 0* 8# e- &* w$ u' v' C* d- B_ g! m$ 4& 4& 7& a* 9* 5, 4& [' f# :* C_ f# 5& D_ D_ E_ F_ F_ E_ G_ H_ N# N# (& I_ (# j& j& N= 4& 8# c$ q# g@ ^* J_ %' K_ g@ g@ 2- 2- 2- $- %, }& 5, c& V) ;] .& b! *! }& e# l) w= g- 5, 6' e@ h@ b& b& j^ w= .- X= L_ M# a# ]& b# 6] ~& D$ M_ h* G) D$ $] 9! D$ 7# C$ !_ N_ <= 4_ O_ P_ Q_ Q_ R_ K] m' S_ T_ U_ V_ ]& :^ :^ ^^ /^ (^ w* g% 3= G$ W_ A% &= b_ G] X_ Y_ Z_ `_ -# 0{ ## B& V$  : ",
"/  B! Z/ h> .: `# `# ^  .: 6. 6. +: +: @: @: `# O- H@ #: 8$ 8$ $: A@ n! %: &: o. *: =: =: -: ;: a. >: ,: n! ': ': ): !: :~ :; p; c; ~: {: ]: ^: /: a/ (: _: A- K> /. (.  { q. m; >@ :: :: }+ T> |. <: T. @+ [: }: 9~    |: 5. {  `#  : C! 1: 2: 3: y/ F~ y/ F~ F~ F~ 3: D> 4: A. E. >; 5: G  D. 6: I~ 7: 8: 9: 0: a: b: c: d: m+ 6( 2( {' {' O, `# +: 6. .: v- e: <;  ] r/ ^~ f:  @ f: ^~ ^~ ^~ g: M~ M~ h: e> '$ y( `! h: i: K- K- 7. j: (  b/ `! 6. b( `! Z! 8$ k: k: l: m: n: o: p: P{ s@ u% >( N, >( Z( q: P{ ^' |: g~ r: s: ~, t: P  r: u: v: ^~ L> M> w: a/ X/ J~ U  x: U  x: y: x: U  x: f~ z: p> @@ A: x: B: C: z. w> V! A. I! I! #  [. c~ N- N- D: E: `^ F: {  ]( M- G: 4: z/ H: @% I: p! I@ Z/ J: o/ a/ S! 4: r: ^_ ^_ A: <; v: ~, t: n> K: O> M. P> L: (+ {~ T> {+ w> w> $  :; #  W! M: N: O: P: `~ `~ ~@ `~ A~ `~ Q: R: S: -; n; R^ T: U: U: V: W: X: c> c> j! Y: Z: Y: `:  ]  < Z: .< +< @< |+ ++ #< $< %< =; =; i~ ;; i~ i~ [  K: w. )+ R. N. &< T> B. v. K: I! C. I! I! C. ;/ +{ t/ t- 3. s- P! {+ 2; N> x: y: e/ *< #@ R  $@ S! 1/ e/ '/ #@ R  *' =< #@ U> D. -< ;< '/ @~ H^ .~ K^ >< O: O: ,< :: N^ W^ S^ '< w- w- w- S^ )< T^ b( 4$ a~  < $: B! j: b/ z- !< j# y' .* ~) d$ Z( ",
"q& *( z, R, ~( z, |) -, M, x$ A' A' A] A] A] A] _{ Q% 7* P* t& p& Q% ~< *- 8* N* Q= }$ u( P% A' (* (* Q= Q= Q= 3! I% X$ {< ]< ^< /< (< _< :< ]< '- P% A] K% ]% A& << 6* &# &# &# u, [% (% ^, ^, T) ~# [< }< 4% |< :, V& I' o& {# u& o& ~# h$ 1< 2< 3< 4< 5< 4< 6< 6< ^( {( ^] k# r#  & !# e@ b@ v# K& 2& ;, 2& d$ d% H# N{ %# U= e% 3% U& %* 9# 7< K' F' 8< 9< 0< B% a< g+ g+ e( ~( e( g+ ^' g+ b< D: c< 5) d< H' u@ 3@ -, s@ e< c% d< M% J% z, K= #] 3@ 1& e* f< v# w& w# -, ]' g< K% 8< v# w# ## 4@ -# @# R( __ z, S$ E& *( d< h< k+ g+ p( t@ 7$ R, i< ^/ j< C; ~( k: k< l< k< k< !, !, l< p: m< n< V, u( o< k: 8. x! p< q, A, =. =] q< p, C, #] r< $' e* P* e* s< Q* e* t< u< v< J% B# 5- O& z( 1) 4) y, 3* w< n* U: g< g< f) ~( u@ C& G% G% c@ b$ h@ /* ^* L$ i$ E% ^, ^, }% }% %# %# I$ L= x< D& K% 8< M, ## M, O% L$ x$ *# M, !# e$ :, j% 3& 9# T& 9# w$ C= a* a* G) Y& Y& m- &] m- B] h* C= 0* l) &- y< |% T# T) d@ d@ d@ d@ b@ a@ t% d@ s@ C& O~ /' 4) M, M, h@ u, K$ ## $# K$ &# K$ z( 8* 1@ k$ e@ )# b$ b$ 0{ $% 3$ l( y! _  h' i< f' n* g' n* // g' _/ ^/ z< A< Q$ P$ /$ R= :' #' J$ 1- '# d@ <* 9' B< $# s# 0& 0& 5% 9& G= H= h# h# K& x= d% 1@ |* u& t& *# J$ 6, #$ +$ C, ~( +% C< ",
",* h- #& t% q# D< v= j^ I= w= 0* 0* z= 0* *! E< o^ F< u* G< =! x* i- c= ^& ^& H< 4' !( y, X) ;, >, >, (& =* =* &^ I_ I< N( q' k^ |* ;, k- d# c- f^ E< 0* F= t' F= J< l) *) %) }] @_ U& 9# [' &* a& m- W) I< D] c) 8# K< d^ Q( U( /! L< 9^ M< N< O< P< j] |< |< r$ s$ Q< r$ t$ %* 8# &* R% y' k# K* 3& 5& J* 5& 3& 4& d= ## 1@ h- e- 5& ,! ,! ,! C* 6^ >! >! ]& c# 8# A= U& k% +_ u] R<  ) +_ +_ |$ S< T< 6' j% 8- -] w' a& g# h# U= 4% e% 3= h% i% +* &! A= n$ A= m% C= ;! a* I= 2@ u* w$ b^ b^ h! U< m% u$ 3] |] K* g% ,* &* t$ n$ i% q$ q$ n$ 5% s$ s# E' V< y' w' G= T& l% T& T& 9# l% 9# [' 8# Z> A= &! +* i% i# c$ X& F' !% W< _] X< e* c* r$ r$ r$ r$ Y< Y< Z< `<  [ &)  , 4% .* H= Y] g- e% 6& 8& 4% c$ c$ '# .[ n] n] L{ r% /] 5% 5% 5% }] l* c* Z& Z& Y& b* @* h) Y& Y& 0] i* c* +[ 8] @[ J, ;- #[ d* f* E$ $[ 0# f% d* Z& `& d- K* u' K# K# m- 5& 5& 5& J* `> 7& 3% 2% 7& s* 7& s* 7& %[ W] 3& h% h- 2& 2& ** 8& 8& 8& 8& ~)  ) u]  ) &[ K% g+ m: q@ #[  * X& j$ 8* u& {# K& {# u& 0_ %] d* 9% o& K& u& u& w& w' i% j# k$ *[ 1- ', +_ y' S& p% =[ q$ ~) j# h# l% ,! ~) n% &! w$ w$ h! U= 8& 2% U= |& |( j# e% l% [' K* 9# 9# T& c* M' d$ d% {- 1@ f* ** u& ~# ~# R& _  N- Z^ N- (: 2> ",
"-_ Y' (= u& >, c# d= 3= z* B) B) A* A* ,^ -[ r' [_ e= ;[ [@ A* 7= 2= e= &^ l= [= }= $& Q= >[ N# ,[ 8_ |_ '[ t) A) )[ ![ ~[ {[ x) q' m= ][ ^[ f= |! k- c- Y' d= ;, ;( 1* E= 5^ 6^ 0! 0! E= !! C* /[ 7= _& f= 8= B* ([ F* `> A* 8= 7= <_ J* L# _[ Z] +^ `] Z= U( A_ 7! :[ +^ <[ E< F< *! Z% +- X= ]& d= d= d# d# {& k- 4^ R* X) 4^ e= ,^ -[ ,^ J] <@ [[ }[ [@ %! y) K] z* 7= `> J* 5& d- d- 5& ,! b# m# D, Y' Z> s* s* I* `> Z> ,! Z> Z> 7= ;[ W] 5^ D* D= D* E= |[ y_ y_ [^ 1[ f! f@ '* 2= 4= /^ 2[ I* !! C* v' J* s* a- Y' u= _^ J* (^ $) 3& (_ E= 3[ g) 4[ 5[ 6[ %[ 7[ I* I* I* F* G* G* <_ W] 8[ 9[ G* <_ F* _^ `> Z> C* 5^ i_ 3& 4& m) &! C* x] B] G) ,! 7& s* ,* i- i^ d# 8_ o- c- 6# 8) 7_ i) |^ B] x] C$ [_ >* f< l% l% 9# [' u' v' C* v' B* ^^ 0[ 0[ 9= ^^ /^ [^ D= 5^ 5^ 1^ 5^ v' Z> 8# b~ '- 3& J* w* E< g% i_ v* x* B$ s* `> 7= B* (^ s* s* (^ [^ [^ D= a[ b[ c= f# h- c= c= ,* c= c= s* B$ g% 4& e# c[ ]] 4! <! M< <! e! l) Y] Y] l) G= d[ e[ >% b& h% 9* %- `% `% l) l) 9* `=  - 5= a- m$  - `= `= `= Z% Y] u$ l% +) |* f[ >, [' g[ g* 4& 8# &* 8# 4& e- a# J] -[ D] h[ i[ -_ |^ -! o^ g% s* i- b! s# 6' c= s* z* 2= g% s* 4& g) Y' j[ /# k[ l[ G$ G( l[ b_ )* N( S* R) 9& j# f- m[ ",
"n[ o[ p[ p; y; y- x- q[ A! z; A! A! z; q[ z; A! ~: u; A- h: /  5$ L> G^ j: r[ s[ c/ }~ t[ ;# y@ u! H@ }~ u[ /: v[ F@ w[ x[ y[ &@ ]~ z[ A[ 6/ B[ C[ }; 6> 8/ @( s- F  }; 0/ 5> G^ 3/ @~ D[ E[ b. +( H; F[ G[ W^ :~ {+ [~ n; <~ n; 9~ }. [. ]~ L+ H[ /; I[ ^; (@ /; =( @[ ^; *  I[ Q~ C  ,  $+ R- ,$ b~ b~ C< b~ `# `# ]  ~, J[ >$ Z! `! 1' 7$ w@ K[ A@ x! y- ~: L[ z[ G^ 5> 5> 5> G^ G^ G^ H^ }~ )' I! U- A- M[ _: 5$ 8. A! N[ S^ N[ A! d> c> 6% O$ ^/ ^/ M& B; O[ m* P[ k< g' Q[ Q; R[ // k< E{ S[ T[ S= 1' H% f) T, w@ U[ V[ N& e> K- H- W[ X[ +: Y[ 1> Z[ `[  } x@ 7$ S= 1' 1' D{ +% o< ({ o< h. D^ 0. D^ H@ 5$ H@ M> M> 0/ 3> Q@ &{ T- .} 9/ J^ J^ @{ '' y; 8/ +} U^ @} #} D~ $} 4; c; %} &} F- *} =} <~ !~ H^ 5> 4: C! (  M- Y/ j: ,. ,. b( `/ J[ +~ <; <; +~ v- _: G^ o/ r/ M~ ~~ 7/ 7/ K: -} ;} n; _: M~ d. @~ >} >} Q@ Q@ K^ ,} R: 1. w> <. {@ }. '}  } R[ N& C; )} !} ~} !} ~} {} ]} ]} c( ,. 8$ `! b( `# ^} ~, 0/ 1> 4> 8+ 8+ 8+ 8+ O; X/ r: U- /} (} =( _} J> E: :} E: E:  / <} X^ ;  }. {@ _; 9~ *  9~ !  )  .@ s: [; z. [} *< S! J: R; R; J- /  Y/ j: A! A! +( 8/ t- c; '' r- A[ C[ }} |} M; v/ t/ 3+ w. ;@ ;@ :: -@ -@ @< :: 1} N: ,< D~ s- '' >} @{ :~ 4; g: 2} d$ 9% M' h* 3} 7_ ",
"}% ^, W$ W$ 4} 5} (% }% 6} u{ u{ t{ e) U$ C& [$ (  7} g' H' u@ 8} // b< s@ 9} 0} a} %& b} c} |{ Q& y, 4) A' P% F% O& 3) d} c< e} :# f} u< g} n{ 3) s@ U$ p& t< R' h} i} K& ** a& g- 6& a& U= a& d* c} ;  8. #' F' o& s@ *# s& q# i# p% S& a& b& ^] w' q$ =[ p$ {( {( {( ,) w# x$ 3( 3, &# y= j} p# 3% e% 3% 2% 8# 8# &* A$ M# f% 4% 8& 2% 0% E' l# l# L$ U$ k} l} ~$ +% &. d+ m} X# $$ X# @$ #$ R= n} 6- ^' e( -$ o} 0{ r, u( X# ~$ g. )$ p} !: K= R( [( #] =# u% v% 7* 7* J$ J$ L$ 2* s& k$ =# t@ }) k+ R, f) |: C; q} 5. 1' O~ /' Q, f) ~! g< c+ S= w_ r} o* o< ({ s} s} W, t} t} u} l^ 2$ v} 8+ w} m* x} t@ 3( F{ D, K= b@ m) v% -( y} v< e< $$ _% `$ `$ `$ p< W# =] ({ D^ z} A} B} C} @# C, ~' v, 1& N, +$ _% J$ X& _, <, }* <, ^] ^] {( m@ s% v& K% D} 8$ !( {# )# L$ L$ l# 2* %# L$ i$ P& !( *- i# 1@ F% F% 1) 8* +* +* 3%  & U* E} @' b$ i% +* n$ A= w$ d- }' [' [' u= Z> 3& d- u' w$ B= U< l- F} :, r$ 9% G} h+ a& i# k# p# q# q# !# q# 5% k% 4, H} l% y' 1- k# o# b$ T) |% h$ _% I} J} 2' x, ^' ]' e< 3@ K= =# g+ H' a< K} 5] g^ o* L} t@ |) b< p: // n* _/ U, 0. X/ M} n} ^, I$ {, g{ l# M, ~# s& L$ 6, J$ {# N} g. !$ 3$ 6- R= l( /$ O} P} X^ Q} ,( d& R} t, y% F# R= [$ e) g^ S} T' ",
"5& 5& e- a# a# e- B$ B$ g- 6& h% 8# }' }' 8# &* _[ L# h% l% 2% &* 0# &] ;, b# 4^ q^ d_ T} /& {& A$ L# |* a& g- b& b! c& U} m# R# [! h& 3' 1* y$ V= f- b! c= J* V} >]  , {* n& C$ C( a# 7# a# C( h% c! @% :] V= +* +* e# d* g- m$ B$ 3& [' e- d# 4& 6& e% e% 6& h% 2% e% n$ i% Y] )# ), <! 5% n% 9# d- 5& d- ,! Z> Z> C$ 0- a- 7& v' v' v' x* u* ,! 5& ,! B$ m$ a@ d$ X& U= 8& 8& e% 2% e% 2% h% h% b! ,* U& %* r# a& b) e% ~) e% 2% j# 5- W} l# 8& 4% 4% 3% h% 8# 4& e- 5& `> u= 8= ,! _^ 6^ a) |' 0) t$ 1] +_ p% .* X} R< %* k%  _ #* #* @_ |] |< 3] Y} Z} _^ *) h! `} t$ t$ t$ s$ r$ r$ r$ r$ R=  | 8* c$ .* w' 0& 4- 2% t' .| n% |* /& L# 4% %) b) *) &) &) &) }] }] 8& J$ +| @| Y& 2- 9# 3% O= >- Z& Z& 2& 2& n- #| K* l% T& l% 9# &) }] l* 3% `& a# f) $| _# k* f$ A= A= t$ %* T& l% l% %* g* ,! >! ;! *) m- 3& h! >- %| &| q@ 9} p( =- ]* &* h% &* d- ,! ,! B] G) G) J] |^ B] i_ i_ _^ _^ ,! d- d) g- T& 0# *| A% =| -| B' ;| f] .) k* .) 3% S( f* i& 0] Y& ** U& U& `' V& .* E' t& |* M( m^ 1% !# )# k# k# k# j# &! r$ |] Q< C= F= v$ h! t$ u$ u$ &! +* +* +* 9& O% >| !% 8] j* j* 0] *) &] 0] c] h) f% g* g* h) &! l] l] P< N' N' `' c* |{ ,| '| )| l[ %] %] a% j= x% !| ~| {| ]| ]( ^| ",
"/| (| t_ _| P_ -! |^ -! P_ _| :| <| <| [| }| || q: M# -!  , a# Y' -!  , s' ~^ 1| ![ }= 2| _= 3| _! (= k- M# >* {& 4^ c[ Q# z, )! x) S_ F) e= r' c# }@ c# 4| 5| 6| 7| 8| z) 9| 0| 3| ,[ ,[ s' n= a| )! z< C& ;* B$ e- a- [^ b| b| c| v* [^ ^^ d| n^ o^ y* y* !! =! u' =! i_ J* 3= k# e| f# h% &* =! v* B* r* 3^ 3^ ^^ ]^ U_ V_ 4| 1= <@ f| 1= g| J] h| h| ., 4^ i| n' e] -!  , G) D] D] g_ h[ j| j| R_ E) D] t_ C( 7# k| g_ d] l| b] d]  , m| '_ G* <_ F* <_ W] W] }^ }^ h| n| o| p| q| q| (| r| I* 1^ D* >! L( c) b) s| K' 8# 4& }' 5& 5& ,! J* !! F* 2[ l| ,^ Z> d- >! B$ B$ ,! 5& 5& ,! s* g% p& y= C$ u= F* I* ,! 5& }' ,! D= Z> j- '^ ,[ i) h[ i[ i)  ,  , ]& d= Y' -! N( t| u| v| /& Q_ p- 4^ e= <@ A* 2= 4^ |@ w| ;[ [@ [@ [@ [@ [@ <@ [@ x| y| ;[ b$ T) y* 5^ :^ J* J* Z> u= 7= -_ -_ |^ >[ 4^ 3= 7= Y' K] b= A* 3= 2= ]& j- *- z| g# B$ f^ E< (^ /^ B* u= 7= f| [@ ;[ [@ 8= 7= 8= e_ E* 2= 8= v* W= x* i- A| o{ d- 5& 5& 3& 3& 5& ,! ,! e- i_ t* B| G* Z> f- 3& C= C= v' w$ h% &* 7& ', S& 4& 3& }' B= u' =! =! g* }' i_ I* [@ 8= i_ 2[ ,! J* Z> J* 7& s* s* s* }& a@ f# i- s* u* w* 4= E< x* j_ a- ;] C| u_ i& b- T= g# 2& d$ d$ _# 8) [< (- l( (- D| I) V} V} c_ h= c@ b@ E| )# ^* F| ",
"D^ B- H^ @~ 3/ d/ d/ ,/ +. +. 5; ~] !] E[ G| G| H| d/ 3/ I| K~ T  3/ 9/ {: C^ J| K| +( L| G| K[ a; }~ G^ 0/ v: <; r/ I^ 5; 3> ]: q! B/ j: Y/ c~ J[ B! 1: 1: D: 1/ M| N| v! j! A^ m+ 8( O| z^ o+ `/ ~~ D. }; 0; P| #. u! d> q[ A! w- c> T^ W^ A~ W~  { Q| {@ '  '  _; r;  : C{ b~ a~ R| ]( S| T| )  R; U| !. )< F- J^ u; ~~ 0/ J[ J[ 5( 5( D^ D^ ): D^ x- G^ 7; n> .. 9/ ~~ 6; a/ M> M> o/ G^ 5> 5> V  S  +~ H@ I| M~ H@ r/ !: f: V| b/ f: R- M> J- J- I- H- K- 8. x@ i< !] !] W| 0; @. e. 0. 9; a. a. n+ X| X| 0; 0; <; }> h> Y/ B! Y/ /  K- i: @% ({ M& w@ 9. z@ Z# o< 4( E{ ;. ;. T[ H% R, S, Y| P- H@ $: `! ,. +: ]  .~ .: A| Z: Z| g/ 5> b/ M~ I| ,/ 5/ 5/ `|  1 .1 r: o> +1 O! e/ *' '/ }; x~ ]{ @1 #1 p/ $1 %1 ={ u/ @< @< @< @< w/ w/ ,< @  &1 :. t. t. .  *1 8+ =1 -1 -1 O  t: t: ~, r: w+ #@ M~ o+  @ v: ;1  < 5$ B! _} L> a/ O  V| M- +  +  )< >1 >1 >1 T^ =} =} G- .  E- {. {. ,1 ,1 O: t; C~ ~; '1 B  )1 !1 P+ _> C> _> A> _> B> =@ k/ ~1 :: t/ {1 '  W! F! ~; U! O! A. U! V^ ;/ Y> ]1 ^1 /1 (1 (1 _1 :1 1} y. T> &@ t/ ;< f/ t- q- 8/ 8/ 8/ 8/ 4; r- @( @1 <1 '+ &; _+ o~ ;< *{ [1 9/ s- 6> &@ R> }1 s~ |1 |1 11 11 11 21 21 31 41 51 61 71 t~ 81 <+ 91 >{ 01 a1 4% 6& %* 3% [& N{ ",
"b1 R$ Q$ w@ i< h. i' y! v( c1 n< c1 l( 4* v( n< d1 e1 f1 g1 :/ U[ h^ h1 ^- i1 j1 k1 l1 6% f} C% A% z% A% z% [) o: 8} [) A% m1 v< L% J% -, v% =# =# 2] N, -( l: K- J: /< 5- 5- 8* |& x= 8* 6, 6, z( n1 o1 p1 I, '- I# R* m$ m$ 5, e# e# ;, G# a> P, m^ 3( ), e| r% o] m@ )) 2] f< N* 2) t& w& v# S& 4% e% g# |* 5- 5- T= n* g' w% s@ o@ A] {% {% m1 A% 3* G, q1 e} m< U, v@ i+ i+ V, (/ V, V, z< z< Z/ ~, r1 _/ +% ~$ g+ >. D{ u@ u@ j+ g' s1 s1 /{ /{ t1 N% x& u1 x& N% n: b1 g^ v1 [) [) 5) O* z< o< >. S= Q, B; _/ w1 i< i< i: I- J- H- 8. x@ ({ z< m* x1 ^; v; A; e( m: p( p( ]' t@ g+ $| g+ s, j+ ]' Z( a! q: q: q: <( y1 N{ '. z1 5* z1 ^' ]' ]' }) e( $| e( >. 1' 1' x@ A1 7% w! >$ /  w- >. ({ +% +% :] k} h: #% F{ 7@ -. -. -. 7@ 7@ 7@ ,# 2] #] _%  % b@ E| B1 C, u@ j+ g+ e( u( C1 u( D1 x{ L% Q* x& E1 i| E' _, <, [* <, Q) F1 8- 4- 4, e# f# 8# 4& B$ e- 8# h- p# ', c$ U= f$ U= a& T= K* |$ b$ G1 $# g{ |( 7@ F{ G{ +$ F{ 7@ G{ m# G{ ,# &. H1 B& c' H{ a@ X# %% #$ %% W# W# $% 3$ g. 6$ .: ^  `#  < A^ y( @  E- +  /@ R~ <~ g: I1 z] z] z] D; J1 J1 K1 L1 @$ h$ u, (* I$ u, u, h$ q# ,, 7* B& :' 7. 4* <- .%  %  % H{  %  % Z$ Y@ _* M1 N1 O1 8} z, 5) n: D& E& R= x} j+ C& n} R| ",
"e- h- c= e$ |$ V= 4, 6' b& m$ i- i- f- b& #& f! ]= b# g) 7# >, |* >, e] z$ X) (& W) 2* ,# 1* i- c- M# h& 1* h& f- f# g# c= a- 4& o% u$ C= Y< P1 ]! {! G= o% s$ 0' b+ m'  , Z> `> 7= 8= [_ [_ m' Q1 ^& y) ^[ 5= R1 j_ z* [_ Y' M# a# C( ]& $! w_ P* t& K' R% `' V& U& k% 1] j] |< F= u* t$ n$ P< c* Z& m- x] m- Z& +) 7# d@ j# 7& o% v$ m% 3& d- s* 5& 5& 7& a- T( g- 4% U= g# a& 8& 4% 8& 4% ~) 6& -% S1 6' V& .* U= .* &! &! F= t' o% 8& 0- m$ o% t' t' t' o% o% F= z= 5& ,! d- ;) 3& 3& }' *) g# a& 3% 3% ~) .* e% 7# &] h) `& k* f] k% N' V& T1 U1 ;| c* V1 F' 9# W1 u$ t$ |' u$ u$ n$ j% o% 6' [& 9& 0& &! o% n% o% :, X1 `< Y1 Q) Z1 j{ <! n$ n$ s$ j% n% n% j% j% 5% 3% M) 3% [* w' .' ', W< &| ~% `1 !% @] N_  2 d* c* k* k* 9] c* c* c* p@ %| k* H# T= 9] h) c$ A= m% v$ &! j% n% n% +* L- R} H= ]! o% U= t' &! E$ E$ $] .2 +2 G] .2 j) }' ,! J* _^ i_ <_ I* L( Z> %* U& 3& d- }' x] D] 3& @2 2& o& >_ ** ]& C' F' S% F' K' E' C' C' f] k$ {# u( #2 j$ v# W% .* t< ~% ~% y# 7< 7< !* 5' `= |$ !# f@ f@ f@ q# e@ k{ a$ |% ], $2 %2 _, q$ 9& 9& 9& :, :, 4- n% 6& >- D$ x# .) c* 9] c* Y& 3% 0% d* _] '- ^/ b1 &2 N% /{ t1 /{ /{ p& =- 2) N* J, o1 0< 9} 7< K% z' ]% *2 B~ =2 0~ ~  0> !@ ",
"8= 8= r' d= ]& K] 3= 3= [_ e= K] ,^ m' m' r' S_ d! e= J] J] [_ C$ d= 4| <= |_ -2 ;2 =- p& j- ]& 8_ ,[ m= l= l= 0| 3| ., e= |@ -_ A* 8= I* B* v* /^ e_ j_ C* (_ k$ 7@ >2 w| ,2 ,2 p| w| C) u) 9| U_ '2 )2 !2 U_ ~2 {2 +, {2 B_ B_ ]2 ^2 '* T( +# _, H= Y] o% n% o% t' t' e- &* 8# z* :@ s* &* 4& 0* 4= B* B* B* 4= j_ ^^ ~# d$ :_ A* ;[ B) 7= u= <@ [[ /2 <@ g| _! [_ -_ y* u= `> ,! ,! J* J* 5& B] }% #$ c- q_ c] B] B] }' 3& 3& }' u= u= e= e= m' Y' ]& C$ C$ C( C$ ]& t_ h|  , `& G* <_ <_ I* b] K( K( J* 5& ,! 5& -_ C( g) 7# 4& h% &* 2% 6& i_ h* +) >* (2 H# C$ d- s* B$ 7& y* y* c= 0- B_ 4^ r' y* 3= 8= u= J* ,! I* E= 5^ C* 3= {# c$ x* 4= v* !! !! v* v' u' v' F* _2 m' :2 w* <2 v' K( E= C* C* C* I* Z> ** C, B) 8= u= u= 7= 7= 8= A* o^ B) }[ ^2 ^2 e_ E* [2 F* F* I* J* J* Z> J* 5& Y/ }2 b! [2 t* b- i& g! ,* s* C$ k- &^ -* q' 7_ B$ g% 3= [^ r* <^ r* v* r* v' =! !! `> Z> Z> `> j_ |2 f! V= ,! I) o^ h- 2% 2% 2% 2% e% %* U& U& d$ +) /* 0$ M# U= 4, C= }' [' h% 4& 8# 4& s* 2= D_ /! Q( w$ u' B= C= A= l) U= 5- B# 12 R} m$ d- l) I= 4& B$ B$ B$ J* `> c# d| 2= 3= v* =! v' v' z= 0* w* g! V) /% 22 32 8) 8) >, ;, T= 4! 42 #) 52 62 72 82 O) ;] c& d& 8* A$ k$ i# -) ~) ** T= ",
"': /: w[ E[ G| w[ w[ I: ]: /: W| F^ W| F@ 92 02 a2 b2 c2 ;: d2 e2 f2 92 g2 h2 i2 j2 D~ P! #{ J^ ]. k2 l2 m2 n2 o2 n[ p2 q2 @  z; X^ M- Y/ M- v; s/ ^  r2 X/ D: G~ s2 t2 y(  ~  ~ y( Y:  ]  @  @ 1/  ( u2 v2 d; )/ '/ j/ 1; (+ N> f~ w2 n> f~ &; Q  V; O! P! s- 6> 3. O! r: S! R! x2 U; ~~ 3~ r: J~ I| }~ H^ H^ }~ a; ~] e/ 1/ 5; ^~ D^ D^ H@ A- y2 t[ }~ D[ z2 f2 6/ +. E^ E^ t[ Z| H@ D^ ): !: n) A2 4  T  _} q- 5> }~ @. r/ +~ 0; !: B2 @~ &{ G^ a/ 0/ 0/ a/ o/ o/ o/ o/ ]: 5> a/ u[ u[ y- y- D^ A@ 9; 0.  < +~ I^ E^ q! u! u! J[ `/ b/ Y: y( Y/ b/ M> d/ /_ C2 e. h' 4* E# E# E# q[ A! !< D2 E2 F2 A! S^ '< M[ M[ z] D; G2 f) +: '< &  (  6$ J- H- K- i: M& B; C; M& H@ H2 B- 7. I2 J2 O| ]  J: v: r: <; L> o/ _+ K2 U> [+ T> }+ }+ T> [+ v/ ]~ .  2} 1> 3> R; )  K;  @ v: s: t: ^_ U; G~ G~ L2 O! [> ]  c~ !~ q- (: +@ z/ r: w2 M2 [  z. 7+ [+ S> t- 4; y; b; b; %{ #{ '' y; >} J^ .< .< ]. 3/ N2 L: O2 V~ $; W. ;/ x. |+ x. w. w. z> Y> w  P2 Q2 2~ R2 u/ q. 7+ L; 3. s- s- ]~ 6> s- f/ C[ h; N. S2 ;+ L/ X> G[ L/ 7+ V! x. */ T2 U2 }+ W~ ^+ (+ d; V2 V2 v/ D~ }} %} O: H] >1 '< S; 8. K- W2 V: V: S; @{ c; I] X2 ': t! Z| I^ K~ I| o. Y2 w[ Z2 `2  3 @( o/ ~~ t- G[ .3 +3 ^! @3 V( u$ 9* ",
"M* L* O& )- [< 4} `$ ^, #3 :' u{ u{ :' S$ }$ w, :] T$ R= C& g^ [) 7} _- ~< $3 %3 && &3 *3 b1 v( *( U$ 7} ($ =3 :' L= +$ -3 j< c( ;3 s% s{ Y( !) E| E| 2] e* v# K& >, {# s% ,, Z' E| s% s% E| L, z| 0@ >3 ,3 a@ g( E| E| '3 m) *# h@  = )3 h# ]& }& |&  & 4,  & e$ r# r# l$ {# #' g. R| `$ ,# ,% 1- 1% 5, }& 6' %, c& 3- P# R* E% 5- E% J$ k$ 7< ~# k$ k$ E% M, #] 1@ 5- e$ e$ e$ e$ e$ 5- 1@ E% I# !3 ~3 R& ~# {3 |% o# p& A' ** A' A' 3) P; ]3 E, _% .% .% _% E, E, `$ L$ p{ 5] F# 5] Q% 4) T% q& z, z, e( x} C1 r, 5. k: T$ r, r, +% C1 1' k: j! U@ x@ z@ K@ j. 8; =] #$ .% q{ {$ 6- 6- {$ {$ 5> y/ ^3 7$ 1' ({ C1 u( B, $^ ,# @# m# (% V$ u@ 8' c' /3 B1 3( N{ 3( K= O{ 4( (3 d+ J= _3 :3 2$ m} =] .$ .$ A, +$ $$ <3 [3  $ 6$ U@ 8; `! Z! Z# #$ c% 3) }3 ;1 T$ +$ |3 0{ 0{ B& b@ t% b@ d@ c@ .* 9] u& /% R& S% Y& c$ +* l] /] e@ 9' 3, B& M, 1- h@ x$ 1@ 8* f* d$ 3' $] p- e] $] )* >, d$ M# e# 6' 5- B& v, ^, C{ ~' u# s{ @' T) h@ b$ a@ b@ '# J$ 5] '( W% f@ b$ ## 7, n} (% `$ F, d, 13 y( .: V@ $% =] =] .$ $% ~$ !$ 23 &~ C& 33 Z# x^ 7: '$  ~ y(  < z^ P| A^ A^ 43 S| I$ $# d@ k@ l@ ^] S& R% 53 w# D% j= n1 _{ 63 y% 5} S$ r, :] M= s1 73 '= '< =3 n< r, :] D, N$ q* 3* 6* 83 93 03 ^- ",
"(# N= x% @! k[ x% a3 _' $, $, '- x% k[ I< )( !( s& 2& 2& d$ 2& |* ;, M# k- [! b3 b3 c[ >* 5- L* ~) f* >, <] <] >, U= y' ]# c3 ], d3 &! &- C= t$ m% a* $) $) h% s* :@ 7& u' B= w$ m% m% v$ u$ v$ &! $) q% x' n% n% k) /! &! 6& h% e# v= v= f- ]& e3 f3 g3 f3 g3 h3 h3 i3 Z& h3 j3 y, T[ ,- .) 9% l% }'  , -_ i)  ,  , -! ]] c= x* /^ j_ v= o% U& F= B$ 4& 8# 6& S& :^ (^ 7# a# a# a# a# C( C$ C$ k3 l3 l3 j3 m3 d= 7# G) &* }' ,! }' B$ i& >( ^* c) b) *) *) b) b) b) b) v* y* b= a| [_ -_ ,! ,! d- 5& d- 9# &* 2% e# 2@ k% Z> K* (_ L( 5& d- }' 7&  , h* C$ _! R_ C$ ,! J* Z> ,! 5& J* J* B] B] {% n3 +) V& @_ |' U< |' |' o3 o3 p3 l% 7= Z> a] w$ v$ A= 0) U< U< *) c) `& 6' q3 {3 9& u$ P1 r3 |' w$ o% n$ Q< }] l% 3% f$ f$ h# i# h# f$ c$ ** f* 8] ,- T[ ~( O% /) x$ o& {# u& 4% 8& 3% f$ j# t' 9# 8# c& +- v$ U< 4- 6& 8& e% g# l# m^ d% ** 4- :, o% $) B= C= }' B$ J* A* 3= g% b= g% 0* x* (_ K( L( k* I' X& s3 K% K' K' I'  * 0% k* .) k* &) 0# %] 9! Y& T& T& 0% %* l* S( @_ %) %* d* $' 1& 8* |$ k# k# p# c$ e$ k% |& e$ t3 R# h* ;,  &  & |$ s# e$ f$ k# ', p# (/ u3 5' Z& Z& &* T& T& h# e% 3% ** !( I, @) ~- a% <] H# H# x= E% N* (# [< v3 [$ !3 1! o{ l$ i$ 1) '( 3+ )+ V. 6+ 1+ w3 ",
"p' x3 {= F] o= o' 2_ #! W) &^ _= l3 y3 l3 o' l3 P% Q# P# X) X) 1* ~& /& +, T_ z3 )! A3 $! c- y$ C$ $! n= 2_ := $! b# K# G& z/ _( B3 y* p^ B)  , <_ u= ;[ ,^ -_ }@ +, g| B) u= `> 7= 7= u= u= u= Z> A* %* T& g% g% ,! C* B$ [_ P_ i) 7= 2= ]] ~[ E( C3 C3 D( H( H( H( G( m[ b= j- D3 `$ ^& y* Q1 j- c# :! F) |@ g| 0| 9| _! g| [[ E3 F3 ;[ [@ /2 7= B) ., J] |^ c* S] a= -[ D) w| w| G3 H3 I3 8| J3 K3 L3 v) M3 y) '^ u) N3 ,2 ,2 q| w| E) ~* j& -_ -_ -_ |^ |^ |^ ., ., 1= r' :! O3 K] K] Y' i) [_ e= g% 7& b= c= /& s& f% |@ K] D) J] [_ K] e= f| C) H3 0| '2 P3 l= 0| '^ :! K] e= r' r' 4| D) I# a! c- d- ,! _^ I* K( s*  , t_ -_ d= ~^ H< o- i[ t_ d] t_ h[ h[ Q3 R3  , {& 4@ S3 b= 8= /^ 0^ 7= z* 2= f| z* g| :! 4' (| (| |^ -! i) |^ |^ i) i^ 8= Y' &# 4@ K# [' 0* e- e- u* 0* z= u* (^ (^ [! d= -! 6# f# i_ =! X= *! 0* u* *! [* b@ t* 7& y* u= 8= H* H* }^ }^ H* :_ T3 |@ 4| K] z* 2= z* ^^ /^ 4= j^ .- c& T) P) g# 8# 8# e- s* g% J* J* !! y* 4^ S_ 2= B* j_ g% C$ ]& B]  , Y' M# k^ A' ]# a% >, 0# J# K# C( a# 7# 6# N= e3 U3 $] '_ y$ ]& G) B] h* h* B] B] D] x, W& k- ]& 7& t* B$ 3= j[ 8) )* l[ .! V3 W3 /= 2_ <= &^ &^ := ^# <{ k[ O# ]= [{ /# k[ b_ a3 (# N# @! d@ q# x$ s& V$ 4. ",
"%~ X3 4/ 4/ Y3 c2 l. r! Z3 `3  4 .4 +4 @4 F@ 02 b; #4 B@ K[ q[ y@ y@ y@ |# D@ E@ $4 %4 &4 *4 b. =4 -4 -4 %( S  V  *< x: /. ;4 1/ T, H@ I^ Y/ /  x@ 8. w! 5( .~ .~ [> K> h> c~ C! h> (  (  h> h> c< c< >4 ,4  ] x^ r2 `: s/ [> r; c< J- Z/ w2 '4 H~ )4 H~ )4 +@ )4 H~ )4 ]+ x> [+ Q> !4 t- /. g/ ~4 {4 ]4 ^4 /4 [3 ^4 (4 A@ h. {$ $% W# U@ 8$ Z! 7$ i< x! z@ z@ Y/ i' y@ =] W# <3 0$ 0$ <3 q{ p< Q$ _4 :4 r, x} ~$ W# +$ z@ A; w@ 8. x! 9; a/ S! L~ L~ L~ M~ !/ m( y2 <4 M& m* (/ V, (/ V, o* g' m* C1 g+ C1 R= r, c( `^ M- y! h' h. h' z@ y! h. V@ h. z! B@ [4 }4 ^: |4 u[ u[ !] !] 14 :4 y! ]3 6; 24 D^ 5( w! 8$ i< h: D^ 9. w@ 34 K[ a; o/ @{ 3/ a/ M> a/ r/ r/ r/ r/ B! ^~ ]_ M~ z^ .:  ] d: +: ]  ]  '$ j: J[ 2>  ( f: /~ v: /~ A: u: 44 u: z> v  q  1+ 54 T! ,@ U! |. 8~ 8~ ^@ Q~ ~@ |. |. 64 5> I- h> a~ 5. ,$ 74 :; L; <. L; 84 y/ q- N[  ~ $: `! ,. b( ,. `! `! 4$ ^  Y/ /  h> `# ^  .: o/ 1> 7+ A. I! r> 94 04 5: v. G  G  D. C. E. !@ C. !+ 81 a4 f/ +} 2; q> b4 c4 d4 C:  1 e4 f4 g4 h4 W; V; _~ i4 _~ i4 Q  t: V| 0/ E- j4 <~ {; Q! '/ ~~ [; S! R! a/ G^ G^ h; 2+ -@ A> V. x. V. k4 G  y  4: t. @> q  1; T  M| l4 W  M| m4 m4 n4 o4 5; L| +( +( A[ A[ #( |~ 5; z[ p4 Z] +3 0& `% q4 ",
"M= r4 C1 >. e& 5] B# R& s4 t4 u4 v4 w4 x4 y4 && z4 A4 B4 C4 D4 q( N} E4 w{ F4 G4 H4 |- I4 J4 [- K4 K4 8, L4 y! l( v( n< 6* 3# A% @| A' P& /{ p& J% L% L% -, 6* *,  2 o* B} p: *, M4 p: p: *, M4 E1 s@ L% y, z, |) z, y, 2* B& -, /{ >) M, c( J  u% u% 7* 7* 7* s& ~# k$ {, q# !# N4 O4 e@ l] n@ Z' S& e% [' K* %* %* l% f) c% u& I' {# t& v# N% P* /{ /{ J% ]% z# N* L% L, ,, ,, ,, L, L, Z' s% 8{ {/ P4 G{ 3( %% -% B1 e< e< d< K} -( Q4 n: U, t@ t@ ]' t@ |) -( *( *( L& t{ G% 4( G% L& j+ -( u, D, 0{ N{ 7@ +$ _% E, r{ <% !$ 9$ $. 9$ o, %. 9$ @% g. 9; I> G~ R4 X/ <;  @  @ ^~ z^ z^ '$  ~ /: ~] 14 h' v@ r[ y@ x! g. $% 4* l( K@  @ _: z- A; A; ^/ ^/ ^/ o< +% u( H' 5) L& $| p( }) W& N{ q, %. %. @% 8$ 5( ~, S4 D{ b( 6. `! b( g> b~ N~ =. 6( >$ N} $% $% $$ [% 2* B& 4@ 1$ 1$ B& N, W& T4 A< U4 N% *# w# f< L= h@ d@ e@ k@ k{ &- _, 0& 5- f* f* K& X& K& f* f* ;, f< x& ]# O% K, X& X& f$ k# s< #] 4@ 4@ C, W, V4 *% &% n, W4 V4 W4 T< X4 Y, a~ b~ W# %% $. Z# z< >. D{ >. ({ ^/ A; A; 5( h: K- `! `! +: @: c< Y4 N~ .~ 1> Z4 5> h> z/ /  B! Y/ K- K- I- I- 8. =] _% h$ m# X# .$ @% $% l1 O[ n* O[ x1 P~ <- e} 9, ^$ N} W@ `4 C4  5 .5 Q$ F4 +5 x4 @5 #5 $5 ^- _* s1 A% P& #' C% A% I- ",
"N# W) I_ A' r@ ;, M# h% a3 !- b_ b_ X_ %5 Y_ &5 u_ :& 1* 6# m$ h- U= :, 6, d% X) q^ 3) 4} )- P= b& }& e# a& c$ f$ e% 6& U= g! e# 3& e% 6& [' l% &! n% H= c$ e# p# g( |& h# c$ g# g# c$ c$ g# g- 6& &* s* e# f$ :, o% j% *5 =5 :, A= -5 k) |% ;5 3% 8& 3% 2% 2% 6& &* h% 5, 4& d$ 32 ~- .* T& 9& %* K* K( F* >5 2[ 2[ I* z| t' D* m_ Q( d^ m% m% C= u' v' 7& g% T3 2= y* 3& 3& [' [' [' [' 9# T& h* 7* =# M' Z} k% T& l* t' t' t' a* z= i- 0- V= C= m% v$ u$ v$ v$ v$ u$ C= C* w$ P' v* v' ;! 0! a) ,5 '5 )5 )5 Q( Q( v* a[ '5 !5 ,5 !5 '5 ~5 )5 L< t$ m% h- {5 |$ 3% @_ c$ U= e% 6& $) a* F= w$ {& m' 8# [' [' 9# 9# 9# v$ a) U< %) e- ]5 y' 0# U= U= c$ c$ 8& 3% e% 2% e# h- g% .* h# 4- 9& n% Q< |] n$ |] |] l% m) Z( 4- 9& 5% 8- _, [* _, 5!  * k$ K% a% q@ p@ r@ M' |* K& X& ** ** ** ~# s@ ^5 d% #* r$ i% 1] P< q$ f$ 4% %* N' h% g% 3% K* z= u* v' =! u' u' u' 0* c| j] n$ ;! >! 6^ ;! >! x] m- Y&  * ** ;, b- E% ~) .* R% y' R% .* R% S& R% u& K} K} f% I' F' K, &! w' :, 5% 9& a& U= f# 4, f$ i# 9& i% /] 1, /] 8- /5 v] b% (5 ** l* a* |$ r# r# e$ |$ s# |$ e$ d$ a# .) ]) t& w& 8< ]# 1% f@ [* a$ 5] +% o{ c& r# q# |& }&  & 8* *- H# 6, G# 32 $, _' {- b- *- 9& r# +} 2; 4; r- +( _5 ",
":5 <5 w) [5 9! _| -[ -_ m& 0| v) }5 |5 15 25 35 2| z3 T_ 6] S_ S_ 4^ 4^ k- C( -! 8_ <] P= _= p- d= ]& -! Z> ,! K( _^ I* t* :@ z* f| C$ u= b= 7= b= 3= 3= y* 3= 8# f% k- 7& y* 3= g% g% y* y* 3= [_ m' g| ]& ]& Y' u= J* e_ z* b# 7= 45 H* *- i: ]& C( C( ]& ]& C$ C$ C( X= b= 0- 55 (] 0- 9= D< ]& ]& [_ r' r' r' 4| F) w# s* [[ 65 y| <^ 8= W] e_ 8= <@ }@ D) |@ r' E) v| v| ., ., J] J] ., -_ -_ L* M* K] t_ ]& Y' (| W] W] G* [[ /2 ;[ p| ,^ [@ <@ <@ B) A* A* 8= 8= z* :@ 3= e% :_ b= v* v* B* v* C* v' C* [^ [^ 9= <^ 3^ 2^ E* 1^ D* =! v' E= I* A* [_ v# m$ Z> 75 `> Z> Z> `> 7= u= u= 8= 4| S] 8= <_ <_ F* F* `> v* W] G* u= 1= p# |* Y' u= u= `> F* F* <_ <_ <_ 4| J] }@ G) |^ Y' C$ |^ J* J* Z> 5& (_ i) f* K$ v' d- }' }' }' d- d- }' 85 [2 ([ ;[ 8= f! f^ E= E< *! E< E< E< E< [& b& z^ b- b] B$ ,* g% d] h* u* v' 5^ =! j_ 2= y* 8= u= 8= B) <@ A* 8= 8= 8= 2^ c) <_ /2 G* G* <_ }^ 7= A* g% 7& i- 0- e^ g! >! 6^ ;! 0! 6^ 6^ ;! 0! !5 C= R% 4% D= 95 ;! (_ 4& 8# 4& 4& B$ s* s* [_ G) }' L( L( b) b) b) c) l) 05 0] p& a5 ]* p3 9# d- ,! ,! 3& &* 4& B$ e- 4& 8= J* ,! e# e# h- B$ G# T= M# N= $& b5 &= c5 I# I# N= W) W) d5 C3 e5 z$ a3 Q# j& I_ (# c- 6# $) h- 6& 4& B$ 6# W) #) ",
"<$ 2# j' 9. ]3 ^$ U@ >$ @% k} d} `4 K4 ]3 v@ n< f5 g5 E2 h5 i5 j5 2# 2# K@ v( x{ q[ o; w> +  _. R! S! 2>  @ [> [> K> _: y2 u! E^ D[ k5 B- a/ E^ t[ +~ +~ G^ G^ o/ a/ a; H@ 0. H@ b/ .~ H@ b/ `/ n; @  >} J; !~ (} _; <} D: !~ $  |. R^ l5 '@ m5 T, W[ n5 T, T, e> o5 o5 )< p5 q5 ^. p. r5 s5 O; E:  / l} ,. Z! 6$ 6$ 4$ 3~ z- 4* ^/ w@ z@ w! q[ y@ y@ q[ K[ t5 X2 N@ /: h' h' h' h' w( )$ )$ w( u{ A^ z/ D{ 4( :] Z# g+ ^/ O$ O[ (/ A; Q[ x1 E; X: R[ 7% 7% R[ X: R[ R[ 8. 6% 6% '} E# i< ^/ C1 U, r1 z< o< ({ ^/ z< z< 8; 8; $: 6. 6. ^  '$ .: H- K- g: '< 8+ q! V, L& u5 i+ 4* l( c1 q* <- :- <$ /$ ~' R= R= u5 {$ v@ )$ c1 n< ]3 L@ o/ o/ B@ 14 14 :4 q! v5 w5 2# x5 )' y5 z5 t2 A5 x- v- N[ x- K> L> <} B5 2} %  o> H@ 5$ `/ b/ j: Y/ r; -  [> y: *< a/ M> C5 #} 5> a/ 0/ M> 5> G^ 3/ [; w> D5 d; _} f: E5 G^ F- .  5> q- G- +  o; >@ m; p. J; {; (: ;  r; V| 1: J: Y/ Y^ X^ S^ X^ N[ 2} z] F5 F5 s5 G5 R^ s; s; I[ |> |> &  B~ &  ]; H5 I5 J5 K5 I> y/ `/ C! N[ q- n/ I- n/ Y/ /  /  g: c> x- x- x! h: Y/ /  /  Y/ L5 M5 V: w/ N5 @  O5 7. j: Y/ `/ 5$ f: 43 s: Y| ~+ T> O!  ( :+ P5 q> T> d; ]+ 3. &@ '{ Q5 R5 S5 T5 U2 U2 U5 V5 W5 X5 ,> Y5 l; l; Z5 %{ t- a/ L> 5$ r/ m- &] c] m3 `5  6 ",
"I$ [% ^, F, .# /% 2* 1- C% =, G, H, f& M$ f1 .6 E. :; n[ +6 @6 +6 +6 #6 8} V$ :' m1 $6 %6 O* F{ t@ |) *( z, *( M% a< -, Q& U@ .: L& z, %% #$ @# u, #$ .% `$  % F, 3) e) &6 &6 `$ $$ 0$ p< p< <3 O* T$ #: *6 6- :] v, -# 1$ 4@ v, D, K= 1& v% l$ j# ;) -) y' d@ c@ e@ Q* =6 Z' s< -6 ;6 o,  ) >6 z| 0@ E| R% f% f% 9% I' z( z( I$ [% w, E, L= v, 6- $% Z# U@ ]3 Z/ H@ v5 U@ >$ 6$ $: $: >$ 8; >$ p! $| k} ^' +% ,6 p( u( u@ m# -# 2, +$ s, h> ~  4( ;. $| x} X, g$ N{ @# 0{ ## &# I$ D, C, G{ 3( $| T[ H%  | s} #_ '. s} <  ^_ '6 )6 D! S| T| T| !6 ~6 {6 z1 H- ]6 y& 9{ g>  :  : l} 5. ^6 4. ^6 z/ /6 k: z, $$ @# }( +$ l: &$ ## N, x} 5] C4 v< E4 W@ 6- u5 T$ (% I$ u, B& O& ^_ k> C1 C, $. S, ;. H% 4( f) $| ;. l< (6 L= v, D, G{ G{ D, N, Z( t} Z( ;. b( {| U@ @% :] $% r, o< C1 :] r, s, X# M= u@ v, -# L= ^' ~( R= [$ |) -, *( ~' S| r, -, s@ J% k$ j$ j$ ~# E% r@ h) ,- 5' 5' 8& %* 8& 0% 0% X& k# a@ N, A,  : (  2$ l^ ,3 ), j} j} 3( N{ 3( 3( m^ 0{ |) m: W& G{ n* // f' v1 O[ M& e> _6 :6 8} g' o: g' // n* 8} *( r, k: c( 5} L& ~( o< y] f' v1 <6 N& O[ z] '} d: [6 `: A^ v! 4$ {/ x( 3$ v@ r[ `4 }6 |6 ;& w; z- B- _: S^ s[ i5 i5 16 p[ 26 n) I] 2# U[ :/ +6 r1 r1 M) %, 3' b- I< 36 ",
"o- H< H< s' q' 8) $] M_ h* 7# {& k- A$ 0_ N( '_ b( ^' 5# N* 2) 2) l{ )* {* {& b# j- 8_ H3 |^ x* 7# K# J# h% &* &* h% h% d= L$ d' U= 4% h# 5! i% U= 5% ^] 5% ^] c$ m$ U= .* 4% 4% .* .* f$ h# i# k% c$ B& (2 *- c$ 3% +* t$ 6& &* 2% U& &) U& 4& h* i* W1 }] %* %* k* L' U& >, E$ 46 56 G% >_ f$ o% n% u$ B= v' v' u' B= g_ (| ,! e- x* z= =! C* b) }' }' 9# &* p% 8& L# 9# T& e% 3% 4% 8& 3% 3% &* 05 g% W1 l* 2% Y} U< }] l* |' |] @_ M' x& >| }] 4] #* l* $* |] |' `} 66 g[ _^ W] i_ K( K< 76 %) @_ 3] 0) 3] Q< Q< 86 R( {# Q* ') R% p% y' R% G' W% c$ e% b- 0# @_ 9& L, L, L, ,, ,, ,, ,, ,, }% 7' b& }' c= `> 96 (^ >5 [& ,! A* b= 1= 6| ., 7& `> d- c) L( L( K( L( 3& ]& D{ b( 0# k% |$ 3% c$ h# :, ^] f$ h# f$ t* [' K* v$ A= n$ t$ l- |' j# j# c$ K$ 5@ (* T) ', f@ e@ c@ f@ !# d@ '# h@ 8*  & q# q# s# )# b@ )# @' d@ S& d@ |% 06 i$ I' 9] Y& Z& &] M' M' m- x]  , 7_ s' n' g% Z> Z> a# 6[ a6 a] &)  * u& __ b< p% p% `' f] v] v] K' K' p# p# c$ i- d$ X& f@ !# <, <, <, l@ i{ i{  ' )3 i@ +] n@ b6 c6 p4 b6 9& w' 3% c$ r# ,* B$ 6& n% 5% 0& 5% /] ^] _, !# )# h$ s} W% T# )# !# |$ q# k$ {# t& 5# @) d6 u^ m{ k$ j$ o& o& K& !* !* q@ e6 f6 T% o@ q@ g6 f]  * h# c$ =; ;; w. W. Y. h6 ",
"<= l3 2_ }= 1_ l3 l3 ;2 j- (= ]] _= z3 z3 4' := k: :' ]= 42 42 36 q^ ^= x3 k& z3 l3 y3 t) (= s* i6 ., -_ -_ j| i[ j| (| n| L# ~# t_ j6 Z> s* (_ K( (_ _^ `> u= ]& 4| C( D] d] d] G) G) B] h* x] h* M# {% -( =* ]& C$ g% -! i) ]& C( G) |^ P_ x) a| A* e_ !! 4= 4= 4& J* t* ,* g* j3 M  8* c) f- }' d- _^ G* H* /2 [@ ;[ k6 N3 5| (| H* <_ G* W] u= u= 7= 7= 3= 9% J# Y' y* g% 3= 3= s* 7& c= a- d# u= T( d- J* c= h_ J* C$ ]& 3= s* 7# 8) A' =, C( a# ]& k- s* B$ 7& J*  , Y' e= |@ ,^ |^ g_ t_ Z> 5& v' C* =! }' 4& &* !) +) J# h) d- [' &* s*  , b! m$ B$ c! j- d- 9* &* 8# &* 6& 6& h% 2% 3% )( l6 A$ -[ d! e= <@ m6 }[ e^ 1= n6 F) o6 p6 l= w| w| ,^ ,^ }@ 3| 3| ,[ J] Q_ // T, $] B] 7# h3 h% 9# 9# [' }' J* C$ e= j| h[ F* i_ (_ b) c) j6 a# M' C( !* a! *- d* Z& J# K# g* C$ s* h- i- t* q' n= 6# g* 4& e- K# g) H# 2& +) d$ S# -. x= +) B$ g% j_ j_ j_ /^ 2= z* q6 w^ U_ B_ 9= j_ /^ a- F* I* 1^ u' 6& i- w# ~# z= 0* 0* =! J* 7& B$ B$ D] c] r6 v| `5 j3 M_ M_ }' 3& &* &* &* &* 2% f$ k% ,! C= ;! ;! a) 0! 6^ J* B$ 7& b# r' f| g% 5& h- f- f- 8# &* e# L# >* N= M% 2& d$ L# +) 0# K# 5' ,- n- {* x3 s6 o= t6 .& %, 2-  & 4, *- {- !- b_ '! :{ 5] j& 8) M# M# c- i- E| ,, '# &# D3 4. ",
"Z@ U'  5 u6 v6 w6 :$ K4 <- x6 y6 z6 A6 B6 C6 D6 8/ u- ;' E6 F6 ]: z- q[ l2 X2 E2 )' G6 A5 U[ ({ q[ A! w- 5( h: j: /  H- B; H@ I^ r[ 1' 7$ 6$ S= J- J- c< ^  Y/ `/ ^~ 5> f: f:  @  @ <; /~ /~ P  /~ =' r+ G: b4 p> r: U  ^~ J~ x: ~~ 9/ S! 7/ K: |+ v/ q. ~; U! D. w  _> )@ H6 I6 J6 K6 L6 M6 #  ]  `# 6. Z! 9. 9. 9. w! !] H^ @. E^ @. e. t[ 0; x@ 8. 5( h: h: X/ 1: b/ `/ `/ J[ H@ b/ 5$ J[ D^ Z| h' N6 B/ w! 0; ^/ :4 14 H@ b/ H@ .~ 5> x2 U! 5> H^ }~ H^ r/ Z/ `/ 5$ .~ u! c/ B^ j' x5 4* 4* U@ >$ 6$ $:  ~ v; h: S^ _; S^ z] 8. i< h: 5( z@ O6 x! ^/ (/ W| 34 o* Z! f' f' ^/ m* z< z< ^/ M& N[ T4 Q[ b1 n< r1 b1 L4 !, l( r, c1 R$ D4 P6 x6 n< c1 4* i' |4 z- }~ b; y: |~ #; Q6 3/ g/ $@ H^ D^ v; v; 5( 9. A@ 14 }~ 6; 9/ R! [; [; A: r: r: %  ,; |> _@ R6 <; Z/ 6. h> Y/ Y/ Y: Z: Z: d: d: 4; S! K; ~, )6 a~ `:  ] /~ )6 R4 D! r: S6 U; J> 3. t- ]~ t- t- 8/ r- 4; H] L^ v/ L[ Q@ @  [~ ^. ]~ P! x> u. N+ W. T6 M+ )@ !@ t. U! O! @< C/ :: |> %  /. O! s- P! s- #  -@ -@ -@ ;@ t/ ;/ T! z> Q+ ,@ 7+ 1. 1. W! O! s- M- C! X^ v- v- _: Y/ c< +  J^ >} G- .  .  D- Q^ U6 T- )/ )/ p> V; x: =' *< $@ V; N> V6 W6 X6 Y6 6/ 4/ P  r: (~ 6; @~ b. |~ Z6 ;< }; o/ A- v- }~ w@ i< V& V& +_ K' *- 6@ ",
"I} `6  7 .7 y! `4 .7 q( e1 e1 A( +7 @7 #7 $7 %7 &7 *7 =7 #7 -7 B( x5 +6 E6 2# z6 ;7 >7 k/ r[ x, ,7 '7 )7 z& !7 e< ,_ p( -6 O& t, 8< `1 *# 7* w& -, -, a< |) x} +% D: y! G% G% C& C& [$ [$ }$ T$ G% T$ 9, ^$ E# z< :] {$ 7} s( n} }$ C# V, z6 e: ]| {$ $| C, .% #$ #$ C1 .% 4@ 2* *# ~7 f* f$ W% J% A] K% r@ p@ K% Q% Q% P$ e> [$ u@ ^' x, x} g+ k: c( r[ h: x! z@ w! j: v; J[ H@ u! H@ .~ D^ 9; e. 0. {7 t[ h. v5 z< Z| 8; U@ g. w( H@ .~ 9; ]7 c/ K[ x- _: q- q- _: S^ Y: .~ D^ .~ z@ ^$ v( 3$ r[ i< `! j: j: v; '< A! +6 6% U| K- K- v; 5( v; ^7 h: T, T, J  24 f1 {$ n* // n* g' i+ V, U, U, h+ K4 C# b< E# o< m: @% -( C1 e( Z# H' x@ /7 8. b( Z! 7$  ~ [> R4 t: S! .: 0~ u- (7 Q[ 4* 8, w< 3* v< 6* A& w% g^ v{ 7% O; K> ;  _} 2} 2} N[ 2} M& v1 P[ g' R$ u@ *( c% z, -( t@ }) ,# D, C, %% S; _7 C; T[ T[ ;. e( ~( }) }) ]' }) $| G% o: o* b' s{ s{ @' @' [% }% h$ l# L& :7 V$ %# f@ x$ T% <% 9$ %. b( `! b( c( q( `$ `$ D, m# -# x} ({ D{ z; x- 5> z  }; 4; u- k5 <7 [7 L[ $} }7 @< >@ @< %@ V2 v/ t- r- 4; 8/ D~ |7 T  E[ T  64 17 7/ P  e/ .. 3/ 6; t- t- @1 L[ c/ 27 y! v; j: /  B! K- J[ h: /  L> M> [; !@ C^ 37 47 #( b. 57 67 &4 %4 g5 ,' 77 E[ q- z; x- 9; h' i< Y] H= :, 0& 5, 8@ ",
"C( C$ j- <] K% N# W) H< k- 6# {& 8) 0_ p' a_ y3 87 @! d5 a_ P# '- I# g* H# ;, J# *- Q= a> ~# v$ e% 4% .* 8& a& g# g# l) [' 5= 5= w$ ;! F= F= C= &* z= $) l) e! 1% 97 i, A= A= u$ o% t' F= t' o% A= $) ,* 0- 2% e% t' Y] 6& a* l) n% F= U= b{ 2' 07 H$ C] #[ 8] K' !% x# 6, 0% k$ L# '] b) e% f$ G= 9* w* 4= y* g% s* i- e# a7 (^ u' u$ Q( m% m% %) &) l% U& K* Z> d- %* %* 4% 8& 3% 4% .* 4% 8& 9% 0% F| E% c* 3% Y} c$ U< u$ n$ A= %* &* 8# e- K# g* +) d* f% 0% 9% `& e% e% 2% R% 6& 5& [' b) M' K* T& %* T& `& h) m- ., c* f] c* k% N' 4% R% E' |$ V& d* 1' b7 C$ &* }' [' [' B$ B$ 4& 8# 4& G) ^[ 8= I* m$ e- E= j^ d- C= C= v= h_ g- c7 d$ u$ m% B= m% T& 8& h# g-  - 8& i& d7 s* f^ `% c) >, g- &* &* f- T= R# v, +$ J$ l# s& k$ x$ i$ L$ o# s# s# 6' V) e$ 0& i% H= 0& 0& 0& 0& 9& e7 f7 [% g7 t# 8- 5% ^] :, :, &! +* j% n% n% o^ 6'  & Y& `& `& Y& Y& h) h7 h7 N( =- i7 (# K# B$ 7# D$ >, q@ 7< L% o@ J% I# N( +) ,- n- h7 h7 @] t< -- k$ l$ #3 @: 6} 6} M= e) (% ^, ^, ^, (% (% I} O4 j7 k7 E, V# ], ], ,% X# m# &# p& Q& S= >. 6, ** 5! +] 4- 9& j# i# 5- d% X% l7 R# S# j$ k$ f@ e@ <* T) f@ l$ (* (% 1' S' (6 m7 9< =- *2 *2 *2 +2 8) p@ <] H# S% 9] .) 0% x= j# ~; |> .  *1 .  [. ",
"2@ e| s< s< e* m) g( n7 e| e| e| g( g( e| 2@ E| o7 $# c@ e| s% Z' j# c@ !# j# X& X& 1@ !( ({ g> v- D^ D^ b/ `/ J[ u! 0. y2 43 B/ :4 h' i' h' ]3 Q[ z! p7 x! z@ <$ q7 6- k} r7 q1 e} r7 U'  5 9, G{ h. 6; G| s7 }$ :' t7 e< s@ Q4 R= :% ,% +# 8* 6} {$ ~$ 8$ k: {$ h' h' >$ w! y! 5> u7 v7 l4 S  w7 x7 y7 z7 A7 B7 C7 P> D7 Y2 Y4 .$ 8' 9& t$ E7 p4 ^! 86 E| F7 G7 L* v& l@ e@ e@ )# '# t% c@ q# .* f- ,* e# 2% T& e% g# U= c$ 8& 4% k# e$ 2, %2 1& w& X& _] =- )( F# e& H7 I7 J7 K7 D4 q7 I% 4} 4} u{ 5} /* V$ t{ F# $| O- -~ y( '$ Z! Z# k: @% D{ u( G{ m# e& Z@ }$ g' ~$ ~$ k} ~' {$ {$ 6- {$ <4  @ 9; z@ ,6 {$ g. ,6 ~' k} 3$ n} ~' L7 4} R= T$ }$ E, _% $$ C1 +% Z# ,6 ,6 M7 J: D^ `! =. N7 g$ G{ -. @# ## x$ =- ~* T% @# ,# c' 8' 1$ 4@ %# _{ #3 O7 Y: >$ F, B& Q* q# !# !# s# r# r# e$ 4, P7 Q7 $-  & a& h% n% &! 5! q$ &! |$ s, +: f, =[ A= m% v$ t$ U& %* h% B$ y$ ;* _' '- !- (# b# 6# h& [& g! 8* h$ R$ _; B@ ~' u5 }$ u{ }$ C& L= [% #' t, 1! :( }$ u{ u{ u5 R= :] u5 {$ g. J@ R7 A/ j! S@ g. U@ g. {$ ]$ M} i+ ^3 ;# A% &= _$ 9, w1 i' z@ h' h' w@ w@ A; w@ 9/ J[ X$ p{ D3 S7 T7 N1 :( X$ :{ o{ M* y$ c- g* &* 2% h% 8# e% U& l% K* 0# ;, C_ h@ $# o] j] $* =[ ^] 1, o% .* 4% |* :& ",
"3% 3% 9% 0# 0# .* .* w' i] |< `' `' +_  )  ) u] (! j$  * R% k% V& 2% I' &! a* C* !! e- 6' $# 9' 4( $| x} C, G{ F{ o< o< U7 _} n< h+ w1 b1 8} 8} 4) G% e) 8{ V$ 3) 22 2* [) w< y% y} i1 v{ &3 &3 U$  5 z[ 47 V7 C# 7} /$ `$ e) G% u5 w, W7 /% 1) v, ## 2* B& @# j+ x} :] s{ -# u, r4 j! X7 Y7 Y7 Z7 `7  8 .8 +8 @8 #8 $8 %8 C@ L4 W$ S# V= h- 9* I= h% K* M# p{ =. R# 0# K* l% %* l% Z& h) `& M' Z& C( b# K# M' 3& [' h% h% 2% l% [' h% f- /3 +# 8- 5! e$  & &, H} &8 *8 =8 -8 ;8 >8 C4 I% ,( (- I< '- N= <] <] <] f6 w% b( r4 R= v, v, L= C& x, [% 2* J$ R& c{ t, V$ 1) B# (* /* /* }% }% /% I$ c1 K- D& U$ U$ 4) G% }% K$ l# q& o@ s@ O= =- {% A% G% C& G% U$ n: R$ Q$ f} _- ,8 g1 </ !, M% P* v% ~# v% u% k$ 2) l{ w] x% !( Q& %# %# J$ P% P= 2) R* )- g+ x} p& i| g6 9% 0% d* 0# f% 9% f% +) g) K# +) Z& M' Z& Y& Y& ** Y& L' E$ 6* '8 ]* l* g# ;, ;, L# c- A$ 1* A$ z$ )8 -^ c5 !8 $& *^ '- a# d= c- O= !( R$ *  g5 u5 s, `$ &6 (% }% I$ /% A' K% R* z( P& P& Q% #' C% C% w% G, b1 Q$ ($ v; I- n< i+ P$ w1 o: R$ Q$ U$ 6} r4 y, P= ~8 c, T% T$ [$ [$ [$ L& j+ ^' g+ D{ >( e# 2% U= 4, I# O= O= O= R* ~* _# D$ j3 $[ >, 2& 2& +) J# 0# +) K# d$ d$ [( 5-  & U= 2% 9# U& e% i# 2% f% 9% _# I< ",
"[^ r* [^ :@ :^ z= 7! A_ c^ c^ Q( d^ L< A= A= u$ E] 2% e- B= 0! m% w$ C= 5& 5& J* A* ,^ ^& T= i$ 9} p& T% T% U$ x, [) n: K4 9. r4 T$ L& L= L= }% V$ A% A% M1 {8 :# ]8 n{ 4} T$ u{ W$ _- S} s1 _- e, W{ 6; t[ W{ e, /* u{ Y* ], U# o# S* i{ o# d& ^8 Z* /8 /8  = u# ,% ;% @$ /* 22 X$ )$ (8 (8 W{ _8 :8 <8 [8 }8 |8 |8 18 ;= 28 38 7) N= M# M# t* C$ h* l| p- I_ Q& )* }| j^ w= I= 9* c= t* c= c= b= n^ i^ t* J* u= `> 7& s* B$ 5& Z> B$ ,* 8' H} e# h- f- i- {& ;* :& '] !8 48 58 68 .! f6 d5 a_ f6 *^ q^ *^ ]= c5 @, m1 3( a$ )# q# [* [* t# W% I{ T# |& 2- N) 78 %, }& c& &, $- g@ t# T# :* :* `$ O, I} |% |% {, g{ 88 T# 1% 1- t# g@ {- G# 6, _{ /* (* (* /% 8{ #3 X$ :{ #3 B; R$ Q$ U$ 7* 7* g# f# |$ r# |& {- 42 >[ 36 )8 }! c{ c{ 98 }! C| 08 a8 #=  % #$ /% /* J$ T# t# T# :* 2- g@ g@ $- y$ y$ 3' T= L* g@ z_ b8 *] d& M* o{ 7,  : J$ /] 8* =- K, _] _# 2) I# O= @) c8 W' d8 W' (- 1! R' ]* =- A' U$ v@ A- w> e8 #4 F2 #4 p[ y5 y5 i5 h5 R$ f8 g8 g8 D4 9, m< m< N} h8 M} N} ,6 f. i8 d: A, [% [% l# l# K$ l# l# a$ I} D3 L$ {- .# B# !# {, U# u# u# T) $# $# T) Z! v, 1* i- m[ b{ 36 /# A$ /& /& ;* ~& ;* j- d# f! f! g! g! g! #& V= V= f! b! !# g# U= f$ e% 2% v$ a* G= g# 8# ;, I< )- ",
"   .  +  @  #  $  %  &  *  *  =  *  *  =  -  ;  >  ,  '  =  )  !  ~  -  {  ]  ^  /  (  _  :  <  [  }  |  1  1  2  3  4  5  6  7  8  9  0  a  b  c  d  e  f  g  h  i  j  k  l  m  n  l  o  o  p  q  r  s  t  u  v  w  x  y  z  A  B  C  B  D  E  F  G  H  I  J  z  K  L  M  N  O  P  Q  R  S  T  U  V  W  X  Y  Z  `   . .. +. @. #. $. %. &. *. =. -. ;. >. ,. ^  *. '. ). !. ~. {. ~. ). ). ). ]. ^. /. (. _. :. :. @  <. [. }. }. |. 1. 2. 3. 4. 5. 6. 7. 8. 9. 0. 0. a. b. c. d. e. f. g. h. i. j. j. k. l. m. n. o. p. q. $  1. r. s. t. u. G  G  v. w. x. y. z. A. B. C. C. D. v. v. E. C. F. G. F. H. I. J. 3  K. L. M. N. O. P. Q. R. S. T. U. V. W. X. X. Y. Z. S. `.  + `. .+ ++ @+ x  #+ $+ %+ &+ *+ v  =+ -+ =+ T. =+ ;+ ;+ =+ >+ ;+ ,+ '+ )+ x. y. !+ ~+ ~+ {+ ]+ z. ^+ /+ (+ _+ :+ U. <+ [+ }+ y. |+ |+ N. 1+ 2+ 3+ 4+ 5+ 6+ 7+ 8+ 9+ 0+ 0+ a+ b+ c+ d+ &. e+ f+ g+ h+ i+ j+ g+ k+ l+ m+ n+ o+ p+ q+ r+ s+ H. t+ u+ v+ v+ w+ v+ x+ y+ z+ A+ B+ A+ C+ D+ E+ F+ G+ 9  G+ H+ I+ J+ K+ L+ M+ N+ O+ P+ Q+ R+ O+ V. 2+ S+ T+ U+ 4+ w  P+ V+ F  L  W+ X+ Y+ Y+ Z+ `+ p+  @ .@ +@ @@ #@ $@ %@ &@ *@ <+ !+ 3+ |+ !+ =@ -@ -@ ;@ >@ >@ ,@ '@ )@ !@ ~@ {@ ]@ ^@ /@ /@ (@ _@ t> -; j8 k8 l8 m8 ",
"2@ 3@ 4@ 5@ 6@ 7@ 8@ 9@ 0@ a@ b@ c@ c@ d@ e@ f@ g@ h@ i@ j@ k@ l@ m@ n@ o@ p@ q@ r@ s@ t@ u@ j+ v@ w@ x@ y@ z@ A@ B@ C@ D@ E@ F@ G@ e. H@ I@ J@ K@ L@ M@ N@ O@ P@ Q@ R@ S@ T@ J@ i. U@ V@ W@ X@ Y@ Z@ `@  # .# +# @# ## $# %# &# *# =# -# ;# ># ,# $# '# )# e@ d@ !# f@ ~# {# ]# q@ ^# /# (# _# :# <# [# M@ }# |# 1# |# 2# 3# 4# 5# 6# 7# 8# 9# 0# a# 7# 7# b# c# d# 7# e# f# g# h# i# j# k# k# l# m# n# o# )# k# p# q# r# r# r# s# s# t# o# u# v# w# x# x# y# r@ z# A# B# C# D# E# F# G# H# I# J# K# K# J# L# M# N# O# P# Q# R# S# T# U# U# V# W# X# Y# Z# `#  $ .$ +$ @$ X# #$ $$ $$ #$ #$ $$ %$ &$ *$ =$ *$ *$ -$  $ W# W# ;$ >$ U@ ,$ '$ )$ W# !$ Y# .$ ~$ {$ ]$ ^$ /$ ($ _$ :$ <$ {$ [$ }$ q# |$ 1$ 2$ Y# 3$ 4$ 5$ )$ 4$ 6$ 7$ 8$ 8$ 9$ 0$ a$ b$ a@ c$ d$ h# r# e$ f$ c$ c$ r# |$ s# s# s# g$ h$ i$ j$ j$ j$ j$ k$ l$ f@ f$ j# c$ m$ n$ o$ p$ q$ r$ s$ t$ u$ v$ w$ L# x$ y$ P# z$ A$ A$ b# B$ C$ C$ D$ E$ F$ G$ H$ I$ h$ l# J$ l# K$ J$ L$ M$ M$ N$ O$ P$ P$ Q$ R$ S$ }$ T$ U$ U$ V$ W$ X$ Y$ Z$ Y$ `$  % #$ .% `$ $$ +% @% 0. #% $% +% %% &% *% =% -% ;% -% >% ,% '% )% !% ~% y# {% ]% ^% /% h$ (% _% :% d+ !$ <% m# [% h$ }% i$ i$ l# l# |% 1% f# 2% 3% 4% f$ q# 5% n@ W% $# @# G% c< 1: ",
"9% 0% a% b% c% d% {# p# 3% e% e% 0% 9% 9% f% 0# g% h% 4% i% j% s$ k% l% u$ m% m% w$ n% q$ o% 5% p% q% r% m@ s% t% u% v% w% x% y% z% A% B% C% D% 1@ 1@ E% %# F% G% H% I% J% K% p@ L% M% N% O% y# P% Q% A# '% x$ h# R% S% k$ T% U$ J$ K$ T$ U% V% m# h$ I$ a$ h@ W% X% S# Y% Z% `%  & .& +& @& #& $& %& && *& =& -& ;& >& ,& '& )& !& ~& {& d# ]& {& ^& /& (& N# _& :& <& #& [& }& |&  & e$ s# q# d$ 1& 3@ 2& J# 3& 3& 4& 3& 5& 5& 9# 6& 2% 7& 8& 9& 0& 5% h# a& }& b& c& d& e& f& /$ !& g& h& H# 2& L# M# 6# i& j& P# k& l& m& n& J# 0% o& ~# x$ ~# E% p& q& r& j+ s& t& w# {# o& u& u& o& t& {# 9% 0# v& t& t& t& w# v# t& v# w& x& p& y& z& A& B& B& B& B& C& U$ D& E& F& F& G& H& I& F& J& F& _# 2& K& {# L% L& M& N& O& U$ G% q& P& Q& Q& R& S& S& R% l% T& U& T& n$ V& V& U& U& 3% 3% 3% 3% W& ~# K& X& 0% Y& Z& `&  * .* +* T& 9# @* #* $* e% 2% e% %* u$ v$ v$ m% &* ** b# =* -* ;* >* ,* '* b# b# )* !* ~* {* ]* ^* /* B# ^* /* (* B# _* i$ :* b$ <* W% q# [* }* s& s& u& t& w& X& |* 1* B# /* i$ l# l# %# K$ K$ 2* J% 3* 4* 5* 6* b% B& %# K$ &# &# *# 7* s& 8* 9* 0* v$ w$ a* f# 6& e% b* c* Z& d* J# e* u& K& o& K& K& K& f* d* d* d* 2& g* h* c* i* j* `& k* l* k% 3% f$ o& O= y] 7. ",
"r* s* t* !# !# ,* u* v* w* w* w* u* 0* x* y* z* [@ A* B* r* B* C* D* E* F* G* G* H* I* l% J* K* U& U& U& V& k% k%  *  * a& ~& y$ G# L* S# X% M* N* K% o@ b% o@ O* ;. X$ M* X% d% j$ v% u% P* Q* %# j$ R* 1@ S* [* 5% R% !# +# T* U* }* b$ U@ V* W* X* Y* Z* `*  = Z* .= += +# :* @= #= $= %= @= x% &= *= == -= ;= >= ,= '= )= != ~= {= ]= ^= /= (= _= := <= [= }= ~= |= 1= :@ 2= 3= 3= 4= w* w* 5= T# t# 6= y* 7= 8= 9= A* 0= a= b= b= y* 1= 2= t* c= g% d= e= (= f= g= := h= i= j= k= l= m= n= _= _= := := <= o= p= q= r= s= t= u= w* 0* v= w= a* 4& &* x= y= r# z= A= u$ w$ w$ w$ B= C= m% B= D= E= m% a* F= G= o% n% j% H= I= g# c$ J= K= s& o# o# W% W% }% L= M= e& R* R* N= O= N* N* I# (# z$ N# j& I# P= Q= R= S= L$ L$ R& r@ x= T= U= c$ a& e$ V= W= X= Y= Z= Z= w= 9* I= `=  - .- +- `% `* @- @- #- c& $- g@ T# 1@ T# %- &- *- 1@ 1@ g@ =- N* !* -- ;- >- E$ ,- 8* o@ '- $& &= )- !- ~- {- '% Q= ]- ^- /- (- _- :- <- <- D# [- }- |- |- R= S$ %% @$ `$ h$ +# 1- o# W% t# !# q# 1% 2- 3- g@ T# g@ r#  & e$  & |$ 4- 8& 5- 6- 7- k$ R% 8- q# s# )# )# j# i# U= c= 9- 6= 0- a- [& {- b- c- 5& d- e- f- f# j# g- c$ a& a& g# g- e# h- i- i- 1* j- k- f# 4& &* 2% 3% l- A= n% n% 3% a& ##  % ",
"q- (. r- s- t- u- v- w- x- y- z- y- x- A- B- y- C- D- _. E- F- G- F- ~. H- I- J- x@ K- L- M- N- :  O- O- P- Q- R- R- S- T- U- V- W- E+ j  X- Y- M. L. V% V% K. Z- `-  ; .; +; @; @; y+ H. #; $; 1+ >+ T+ %; &; *; =; W. -; O+ ;; >; ,; '; ); !; ~; $  {; ]; ^; =  /; (@ (; ~  *  _; -; $  :; +  5$ <; [; }; (+ ^+ |; 1; 2; 3; 4; 5; 5; 6; 7; 7; 8; 9; 0; a; b; c; d; (+ e; f; g; h; i; V- V- j; k; x. |+ l; m; [. n; o; p; Q@ c; (. Q@ (. #  q; r; r; s;    t; .  F- u; v; w; x; y; z; A; B; B; N& B; C; C; D; E; E; F; G; H; I; <. J; 8+ K; K; {; |. L; M; N; t. O; P; !     Q; Q; R; R; R; S; v- T; U; V; W; X; X; Y; Z; X; `;  > .> +> w+ y+ @> )+ )+ |+ 5+ #> $> %> &> *> => F+ -> 8  ;> >> ,> '> )> !> ~> {>  + $> O+ ]> ]> ^> /> (> _> P+ :> A  A. Z+ <> K; [> }> &  |> J; 1> 2> 2> 3> [; 4> 5> q; 3. 6> ]+ ^+ ^+ 7> ); <+ )+ 8> 9> -+ 1+ t. 7+ 1. 1. |> 0> |> O; a> b> M& c> d> x@ e> f> g> h> |> i> 2. W+ |  `+ j> k> l> m> n> o> p> p> q  q> )+ r> B. D. I  s> t> ~; u> s. v> v> w> x> y> N+ z> _> _> A> B> C> D> E> F> G> H> B> '; I> K  )@ K  u. r. s. s. 1. [; J> K> L> M> 2> J; J; N> /+ O> h; P> Q> R> h; S> }+ T> [+ T> [+ U> [+ V> W> X> 3+ )+ Y> !@ w> >  $+ t> t> n8 _> x. o8 ",
"s# j$ Q% @, #, $, *- e$ G# G# %, &, 2- 2- %, {- *, =, =, -, L% *# *# ~# 3% 0% d* f% ;, >, o& ,, ', s% s% b@ 0@ ), 0@ a@ !, ~, v; F% /% |% q# 1- {, ], U* b@ v% ^, /, b% V$ V$ O& /* l# 2* 2* &# k@ ', %% (, i$ d@ U# s% 2* a$ 1- l@ _, :, 3% Z> w= 4- _, n@ <, [, }, |, 1, )# a$ 2, 3, R& 4, f# b& 5, 6, /% 7, 8, 9, 0, a, b, c, d, e, ^* f, 1% g, h, i, j, k, l, m, n, o, *. p, p, *. =. q, =. r, s, t, /% u, [% v, w, G% x, y, z, @# -# *. A, U* B, 8@ C, m# D, E, F, ]% G, H, I, J, K, |* {# k# ', L, )# e@ M, K$ N, u. 0. O, P, ;. S= Q, R, S, T, N& U, V, U, N& Q, W, g$ X, 7@ 7@ =. o, Y, 4$ Z, `,  ' .' j@ +' $# @' B& 1& u% z, #' x$ $' ;% ;% $$ X# @$ X# #$ 0$ %' &' .. (+ *' U  =' .. -' ;' >' ,' '' )' )' !' ~' ~$ S, {' P, m# C, P, ]' ^' r, /' (' V$ q& J% e@ ,, p# i# p# e@ f@ t# _' H# 5% 9&  &  & j# j% l# b$ '# B& :' <' $$ U# p# u& u& ** d$ |* ** d$ 3& 3& J* [' }' }' A= s$ |' n$ m@ 0@ W, 1' 2' ~$  & s# q# e$ 4, e$ s# r# U= 3' (& 4' 5' 0# h# 6' d$ u& ', h# h# q# s# '# 7' #$ $# <* 8' 9' 0' <* a' @' b' b' o# :* 1- $# c' <* 2, 2, 2, 2, d' 8@ b@ e' U= .* 8& T& T& T& :* s# i# f$ E% <& /& d$ 8* E% E% 5- 1@ ~# ~# l$ i$ O& f' g' c% *# L% #' J% L% 8< ]# w& K& *- d% ",
"m' n' o' [= [= p' q' r' s' q' ^& j- k- ~& N# := u& a& g- t' F= t' t' 9* u' v' u= s* 2= 2= t' t' t$ w' q$ w' x' y' ', ', z' 5$ w@ A' Q& ~- 3' 2- &* f$ R% B' C' j$ 2& D' ]* ]* ]* ** {# S% E' F' y' G' H' r& I' p% K& J' K' F' .* 4% l% l% L' @* M' `& T& U& k% N' k% k% O' P' t& K$ m# @= Q' @= <& R# R' S' T' U' V' ;& (- (- W' X' )- _' y$ 1* Y' d= 7# 7# 1* 7* s& u& v& F' I' I' I' 0% f%  * X& >, a# K# d* d* 0# g* 6& 6& 9# l% T& e% Z' <, l% `'  ) .) c* d* +) K# H# '- @) #) /& c- g% $) %) %) &) *) Z& M' m- Y& Q; z% u% P* Q* -, =) P* -) ;) p% j# a& i# Z' p% v& >) ,) ') )) !) e* u% P$ f+ j$ k# y' ~) ~) ,, 8- 0& R% 8& h# 4, U= S& D' {) {) ]) ^) /) () _) F' I# :) <) [) }) |) 6* J# L# P% 1) p@ =- p@ 2) H, H, 3) T% 4) 4) 4) 5) =# s& i$ j+ 6) R& {# K' h# ~) 8& e% 3% h# c$ a& 7) 8) 8# 4& |* ** X& e% Y& U& V& I' q@ 9) w& 4% $* |' l- 0) a) b) *) c) L# c- {& >* c- M# 4& 6& d) c) 2% {# v% 5) R, e) _# q@ K, !* ]* !* !* )% >, 2) j& p' ~* E$ |* g# d* f% 9% f% 9% X& |* u& f) p& E' v& {# v# Q* v# i# o& {# {# 0# +) f%  * w& t& {# {# w# P* v# t& 5- v# >, g* g* K# K# g) h* @* @* @* h) d= i) j) w$ v$ v$ m% m% A= n% t' k) l) m) j# u$ u$ t$ 8& i# h# g# h- a& f$ 4, }& ",
"o) p) q) r) s) t) u) u) v) w) x) x) x) y) z) A) &* g% z* A* A* A* A* :@ 7= B) C) D) E) F) y* 2= 8=  , G) G) g) +) 0# 0% ;, H) q, h# T# c& b& I) `= J) +- o% 9& K) L) e% M) N) O) P) :* Q) R) Q) 8- g# Y# S) 1% 8- {, i# ~) ~) n% n% j% n% &* g% g% 4& h% 2% e% 3% 3% .* A= n% a& T) <* U) V) @& W) X) /# I, *= Y) Z) `)  ! .! +! @! k= #! $! n= m= %! p- $! := T% p@ ]* &! t' a* a* t' w= *! *! f- '* z* 3= 4= =! v' C* ]& Y'  , -!  , C$ f# e# v' ;! ;! >! >! ,! `> u= =* /= #, '! )! n= e= a- !! !! v' C* =! v' !! u' ~! $- H= &! 4- U= h# 9& {! ]! o% t' w* a* ^! /! t' m% m% u$ A= u$ u$ o% M* (! U= a* C= t$ v$ B= g# e- 9# d* {& _! :! 4& h% 6& 6& h% g# c$ f$ c$ <! [! s, S$ }! :* 4, ~- e= |! {- 1! '- 2! #, != X' 3! 4! X% 1@ ~# E% 8* l) G= 5! }* 6! v= z= z= F= o% o% F= t' t' F= I= z$ 1* t' t' g# f# h- z= l) v= 7! w= &, 8! t# Z% g# f# h- h- m$ i- 6# b# W) N# N# n' n' 9! 9! n- 0! a) 9# S& Z' d@ a! *# |* f* K& K& ** K& ** d$ g- b! c! d! M# d$ g# e! 6& h% h% 8# 8# 8# f# c$ W, j$ k# S& U= s# h# a& U= h# g# ;, b# c- ;, d* h# s# |$ s# k# ,, k# 3% 6' r# f# i- f- f- i- i- ,* e- 4& m$ b! V) f! g! b- *- T= H# *- d% x= T= Z% c& }% B# V= V= b! ~- H# T= *- <] N= I< !- p8 ",
"j! k! e. l! m! n! o! p! q! p! j. r! s! t! t! t! u! v! U@ U@ 8; w! x! y@ y@ z@ y! z! A! /  B! h> h> C! C! C! D! _  E! #% F! G! =; #+ H! v. r. 7+ S> !+ !+ #  I! K. K. 7+ g; J! K! L! _+ :+ _+ _+ n> #  M! N! O! w> _+ O! P! w> Q! R! S! 6> {+ T! 6> w> U! V! v> $  $  W! U! !@ A. A. s. |. X! Y! Z! `!  ~ .~ +~ @~ +. 7; #~ $~ $~ %~ &~ *~ =~ =~ *~ -~ a. ;~ >~ ,~ '~ )~ K> !~ M> 3> Q! Q! [; ~~ {~ {+ 2; }; ]~ ]~ (. p;  @ ^~ /~ <;  @ (~ (~ _~ o; :~ +  <~ [~ c; '' '' }~ |~ 1~ 3; ,' }~ .~ 5$ (. (. (. (. (. :~ c; Q@ 2~ /+ 3~ 3~ I! I! B. s> ,@ -@ 4~ 5~ 6~ 7~ ;@ m; 7+ O! O! W! v> W! W! ~; ;@ Z+ 8~ =  9~ 0~ )  9~ a~ b~ c~ }>  @ d~ O  e~ f~ `; g~ r> h~ ;; i~ j~ k~ l~ m~ J+ n~ .> o~ p~ q~ r~ s~ t~ p  u~ v~ w~ x~ y~ B> A  z~ A~ A~ z~ B~ |> 4> %  D> |> *  Q; <. {@ {@ {@ C~ C~ {@ L; x  D~ [. ~  ,  p. ~@ ,  w> E~ F~ V! S> z> I! G~ +@ H~ I~ J~ J~ K~ L~ M~ #. a~ N~ w! @% S= 1' O~ ). {. P~ Q~ #+ #+ R~ S~ T~ z~ T~ A  T~ T~ A  T~ ~@ U~ '@ V~ W~ $+ ,  ~; X~ Y~ Y~ Z~ `~ `~ q.  { .{ +{ C> A> v. V+ Y> '@ !@ Y> z> )+ U. |+ v  T! v  Y> W. W. V. B> V~ W~ p; (. [~ +  @  @{ #{ y; ${ b; c; %{ &{ /+ *{ &{ x~ ={ 5~ -{ ;{ ={ ={ >{ S> ,{ '{ ){ !{ q~ ~{ {{ ]{ ^{ q8 r8 s8 t8 u8 v8 ",
"2* l# /* ({ R= (* J$ R& Q& i$ R& 6, ^* _{ _* :{ <{ [{ }{ O= |{ 1{ 1{ 2{ 5' ~* G& 3{ 4{ 5{ A' -, 1& =# 1& B& z, O* 4) e) 4% 6{ 7{ p# 8' b' T) {, P& 8{ }% x$ l# $. 9{ l# V$ (* (* 2* 0{ 8' h@ f@ a{ `' b{ c{ 8& &! d{ 8& t# o# e{ f{ Z* g{ ,% d+ Z* h{ i{ i{ j{  ' k{ f{ u# u# b' :* |$ Z' U& =! g) g) M# l{ 2) m{ n{ n{ h. W@ d, ^, /* o{ o{ p{ 8* T= >, 3' b{ @= R# H# f# a& a&  & !# c@ 8' 1$ q{ d+ !$ r{ <% ,% s{ s{ P& #' 4) 4) t{ 8{ t, u{ I$ [% L= &# K$ R& p{ (* 6* v{ w{ x{ y{ w% z{ s@ b$ $# &# &# 2* l# J$ l$ c, _% d' 9' Y# A, A{ B{ S= S= 7$ Z! C{ ({ D{ E{ A, q, q, =. P, F{ +$ G{ H{ I{ T) J{ i@ K{ L{ M{ N{ y= O{ P{ L& <' f) t@ Q{ R{ S{ T{ U{ U{ B, 0' 0' V{ W{ ]$ E, 9' u, I$ %- X{ Y{ Z{ `{ q{  ] (~ O& U$ m# N, b$ a$ T) c' J{ )# 1% %, 4, |$ j# 0& s# s# h# j# k# k# i# s# .] h$ [* <, !# W% o# +] f* .* 4% p# 2) (# |* ~) -- ;- >- @] @] >- n- E$ <& #] K% )* $] %] m- &] i- f- h- g- r# r# 2- b$ $# $# b$ 1$ b$ b$ 8' <* v# K$ G{ P, h@ d@ c@ '# )# )# )# M, 7* 2* R& {- *] (* l# u# s{ ,% -# ## H{ _% q{ !$ S) =] .$ #$ -# D, C, m# L= L$ 6, 8* |& 5, c$ g# f$ e# V= 6' a& 2% 4% U= 4, 2$ o# e$ 5! [* l@ n@ 8- -] Q) Q) <! ;] >] ,] '] I) {- @) )] )] I{ W7 w8 Z@ W@ x8 ",
"4& 2& ]] y= x= ~& L# 4& >* 6# b# k- k- d# n= x) :! b# 7# g% g% 7& C$ d= B* u= 7= B) %* `' 7& n% w' q$ ^] ^] /] 9& e! `= *) (] [& c) e% k# y' j# _] N= N= ;- _# :' :] <] ]* !* ** u& F' F' 4% 8& t$ [] >, d% %) 0! 0& T& l* }] |' |] 1] 3% K& 2] %* U& A= u$ t$ 3] 3] $* 4] `& c* 7# 0# S& h% s* {& {& 1* h& _' $, 3! X' [$ 5] 4! 6' f# m$ 6# 6# c- C$ C$ c- ~& 6] d# ]& 3= e- 8# 8# U= p# ', ', E' 7] v# 2& K& f* f% c* h! h! l- t$ v$ w$ J* 9# E$ @] 8] 9] c* Z& M' `& &* f# d% s& c- 8# 3& F= 0] 0] 0] b* a] b] c] d] e] h) #* f] g] ]# 9% ;) ', ,, )# d@ h] k# ~)  ) S% E' K' E' K'  * 9] 9] |& g! i# U= 8& y' i] j] k] l] r$ p$ 9& m] n] o] p] q] r] s] t] u] y' S& v] {# X) R* 2& g* E$ w] x] J# S& ') )) !* y] z] A] p& v# Q* L, p# p# w& {# o& X& ;, K# d* Y& c* 8& e% l% T& V& %* l% T& f+ d% h% t$ 9# d* 3% 6& d* `& d- `& %] {* ,- h) m% w$ B= u' B= u' ,! d- [! =# x= {& )* C$ 7# B] B] h* m- &] d* J# M# o& i# j# ', ,, k# k# ,, L, ])  * =# #] K& F'  ) 4% ~) S% S% S% {# o& q@ W) D$ C] 9] k* F' I' F' v] S% u& j$ s& y& J% Q* v& ]) G' G' v] k* h) b] D] a# x] Z& x] 0] @* &] x] M' 3& &) [' 4& E] a& 8# &* e% 8& 3% 2% 6& a& a& K# W) F] I, $, j& G] ^# *- 1@ ~# 1) P= @) :# S} ",
"J] -! K] Q* ^& +, D) C) E) +, L] L] o) o) M] N] O] p) E) P] Q] 0= R] E) Q] S] T] E) C$ 7& 2= 7& C$ a# 7# g) M# b# d# k- G* U] V] W] y* 4= C= &! 9* c& #& m$ #& X] :% b{ V= 6' `% I= Y] H= Z] k) `] o%  ^ .^ z= +^ @^ e! t' t' {! #^ F= 9*  & $^ p# ', p# h# j% &! &! +* 8& e% g- 0- f-  & +- %^ &^ &^ *^ P# =^ -^ +! ;^ >^ j& j- b= 8= B) ,^ K] '^ )^ )^ m= )! !^ ~^ u) {^ ]^ ^^ /^ (^ w* (^ w* _^ u] e% :^ :^ ^^ <^ [^ }^ W] A* u= A* 1= R] |^ A* A* A* G* D* 1^ 2^ 3^ `> d# 1* H# 4^ |^ `> u= D* 5^ D* 5^ B* 3^ u= B) g% !! 6^ m% 6& h- h- i% 7^ Z] e! -] 8^ I= 9^ /! C= B= 0* z= $) a* m% m% .- 0^ 9* $) F= w$ m% v$ n% t$ *) 3& 4& a^ S& 5& b^ c^ d^ /! o% o% t' F= d^ u* e^ e^ f^ c= 1* X) C$ c- ;, 2& g* X) g^ h^ H# *- 5, g# a& l) b& b! V= [& f! i^ ,* f# f# 4& h- e- B$ e- 8# e- B$ 4& R, 6' 0* v' =! &* $) z= V= w= j^ w= :& [! f! *! }& 6' b! g! #& #& g! i& 3' s& 2) )* k^ k^ $] 9! 3= y* ,! &* h% ;, 8* M* f$ i# k# ', p# k# ', k# E' s& l^ B, :* U= a& a& e# a& a& g# f- y$ 3' g& k- K# e- h- 5, }& g- &* G= 4, 5, 1% m^ T= g- 8# 6& 6& h% &* 8# 4& 7& y* n^ 2= b= <@ A* 7= u= B) o^ a- 7& ,* [& -] .- f^ a- a- a- a- f! p^ p^ p^ b# q^ r^ s^ |= t^ u^ v^ -* W) X) *^ x3 s6 ]8 _- ",
"N~  ~ x^ y^ n+ z^  ~ >$ #. A^ v! v! j! 0. A@ B^ C^ a; B- 9; D^ H@ u! 0. E^ E^ F^ !] G^ H^ I^ I^ J^ [~ <~ K^ L^ x; M^ N^ O^ P^ %@ Q^ L^ b; <~ :~ R^ 8+ S^ !. T^ U^ V^ W^ X^ 9~ =  _; Y^ Z^ `^  / ~, {@ _> Y> |. ,; ./ +/ 3  r+ @/ #/ $/ K. %/ &/ I+ */ =/ G> u+ w+ x+ P. y+ F. v+ 4+ -/ ;/ O! s- >/ L~ M~ M~ ,/ '/ #@ )/ .. !/ ~/ Y, {/ ]/ 8; U@ U, ^/ // (/ 4* x@ m* _/ :/ </ </ x{ [/ }/ }/ |/ )' K; I  1/ 2/ 2/ 3/ R! L~ >/ 4/ 5/ .. d. 6/ 7/ 8/ ]~ 9/ 0/ 3> a/ G^ @~ b/ a; T  3; >' c/ H@ 9; a; H^ @~ 6; 3/ d/ 1/ e/ f/ g/ [; $@ |; O> M. h/ D. @> M! N. i/ *@ T> 3. j/ 3~ p> p> V; Q  R! 9/ 4; s- O! :; v> |. ~@ k/ E! N- l/ /; 0> m/ E! N- *  =  =  *  ~  C~ }. :. n/ !~ :; #{ o/ Q@ p/ q/ 0/ r/  @ s/ 5$ a/ r> #; >{ t/ ;/ ]+ {~ ]+ {~ 2; N> _+ ~+ S> T> U> d; P! u/ u/ v/ w/ q. w/ m; U~ x/ |+ S~ ,; ~; $  P! y/ $  {; 9~ 8+ :; z~ v> /; O  O- ~, 3> 2> 1> 2> J> z/ A/ =~ u! B/ 0. B! B! :~ o; ^.  { C/ D/ E/ Y. F/ G/ D/ D/ G/ D/ ); D/ D  5+ H/ I/ J/ @> !+ q  I! B. V^ v  +{ K/ =+ L/ M/ N/ P. #; %/ %/ F. P. L. J. X- O/ P/ i; y. +{ !+ P> P> i; h; h; h; g; ={ -{ Q/ Q/ R/ S/ T/ S/ U/ Z~ V/ W/ ,  |. }. t; X/ (  B! Y/ B! Z/ `/ b/ /  G^  ( .( +( @( #( l; $( %( %( *{ [1 <1 y8 f; ",
"@$ Y# C, [% &# B& @# 0{ H' *( B& 1& K= ,# ,# ,# =( V, -( ;( e* y= >( u, U# |% /% p{ ,( 4# '( {% J$ l# Q& '% )( !( )( !( '% ~( x, _* O& O& 3) #' a@ c@ )# j# K& h& 3' 5- _, <, }* l@ {( m@ r% m@ S& 5- ]( ]( k# ^( /(  ' d@ t#  '  ' ', j# h# b! Y] 4- 0& ^] [* [* _, _, /] )# W% 2, (( +# b$ 1$ q# .& {- G# _( R' :( I% !& b{ T= c$ 2% m% u$ A= 8& R% R% j# A' <( N, a$ [% L= h$ }% v, F{ 7@ +$ =) x, $$ [( }( N, d' |( ## N, 1& 3@ m^ m# 1( 2( W& m^ 3( >( @# *# s& *# P* x$ 6, _{ s@ P* s% ', 0{ >( ,# N, z, 4( 5( :  +@ a. 4$ ,. 6( 7( s/ z^ 8( 9( g$ *$ 0( l+ g$ a( `! 7$ 7$ ,. b( b( Z! c( >/ d( {$ e( ,# N{ ,# >( f( [( 1& >( [% B# R& c@ g( E] h( i( m) g( E] |( 2] j( k( v- l( m( n( o( >( B& >( p( 4( ~( [$ e& 4) B& 0{ B& ## 4@ B& &# u# H{ V{ b~ `# q( w, +# {% A] s& ~# j$ *# K$ i$ a& x$ u% P* I' I' j# f@ l@ i% 4% !# %% r( l# v& R% N' U& j* b* 0] @* c] e- y* s* 4& 4& h% 8& 3% !( R* ]# /{ p& s( t( F^ e$ !# e@ e@ )# ', ,, ,, d@ )# 1@ *- L* l$ ~# {# ~# ~# ## 2* &# -# R= 1' ]  {$ `$ +$ -# C, `$ $$ u( v, v, (* ^, }$ :] H' 9$ Z# $% v( i' w( )$ x( y( ^  5] p@ q@ !* z( P= 5, h# 6& U= r# b& a& 4% p# k# i# f$ h# h# i# o& .* i# 2$ $# L$ 1@ 8* 3' m{ !( )( _* _* t, n{ a} ",
"4, 4, U= Y] G= n% t' o% 3% e% e% 8& i% i% i% +* H% G# m$ K* w$ o% I= V= C( G) D$ %] D( E( F$ F( !* !* 5' G( H( G$ I( J( b- 7* L$ G# ~- R# H# *- e! ^] p# 6& 8# >* b# *- U& V& k% k% N' `' `' #* K' K, v; 6$ 9% O' 9& j# r$ o% H= F= m% m% &* t* K( L( *) %) %) &) T& T& }] U& 0# K& M( ** I' f% &] B] n& n& 9! N( 3{ G$ O( P( )- y$ c= a- ,* m$ !! b^ Q( z= i- R( r# Z% [' K* K* K* T& k% V& T& S( b& 5, V& l- n% :, A= e% 4% e% 8& ~) U= |( T) i% w' i% +* n% $) 0* a* C= a* 5= T( e# $) B= U( V( W( X( |] $* Y( Z' Z( `( `&  _ ._ O' +_ k% N' q# f$ 4] f$ +& |& 4] 1% @_ S( @_ #* 4] O' 4] l* w, #_ d% i# T& V& .* ~) 8& k* L' .) 0% 0# M' %) e% e% 3% s$ +* &! j% i% ^] 9% $_ 3$ /* %_ 0% W{ g- g- k# Z' )# !# :* ~-  & s# f@ !# q# k# ^] 5%  _ +_  * &_ *_ ;- .) #* ;- Y& 9] Y& h) Y& h) Z& ;, K& |* |* f% 9] 4% a& |& .* G' ** I$ =_ E% Y& c$ a& &* e- e- 4& B$ g% G) -_ -_ G) G) B] m- m- C= ;! ;! l- 4% }& ;_  % E' S% v& S% E' v] v] v] V& v] 9] g) g* 0# Y& >_ 9] k* f] c* 9] 0% q@ x& ,_ K% X& K' E' F' I' {# j# 8& e% g- [&  & u& K' k% V& k* .) v] G' `' N' u, Z( b# g) h* h*  , d= n' $] '_ $] N( $! 9! )_ h% 2% 6& 6& 2% 2% 0# d* f* S# ^' W$ '( z( !_ I, ~_ {_ z8 z8 A8 B8 G4 C8 ",
"B$ s* d- ,! ,! 3& ,! d- K( K( (_ c) b) b) c) c) __ b# :_ W] <_ Z> [_ (= }_ ~^ |_ o' F] 1_ 2_ 3_ q' 4_ 5_ 5_ |_ 6_ G( I( j& K% O= j& (& N# j& j& j- M# '_ D$ 7_ 8_ 9_ H( Z> J* J* J* ,! B$ B$ s* 7& 6# 8$ `! ,! D* z= C* _^ ,! }' J* _^  , [_ c# 4= (^ w* w* *! *! v= w= Y] G= 5, 2- $^ 1- !# |& a% 0_ (& N# a_ b_ /# c_ ;^ d_ O# ]] c# (= m' [_ 7= r* e_ 8= c# s@ i& 0- 8= 7= u= `> Z> J* Z> u= f_ :! c# g_ h_ J* B$ i_ J* _^ I* i_ i_ Z> ~) 4& F* _^ K( i_ F* W] H* }^ 8= o^ d! 6] c# :@ 2= j_ k_ l_ m_ n_ o_ ;! 4& s% p_  , q_ r_ K( x] -_ b] h* @* s_ t_ u_ -! v_ +) 3& }' 3& 3& }' [' K* [' F% w_ >, +) C( ]& C( a# a* v' `> `> b= :@ x_ y_ Y' ]& B] x] x] m- 3& [' }& g* A/ T$ 5- z_ b] <& 7& s* h% ** f* x= 2) j& T= 8* 5- f* d$ |* U= a& A_ 9* }& h@ a$ b& f- 0* 8# e- &* w$ u' v' C* d- B_ g! m$ 4& 4& 7& a* 9* 5, 4& [' f# :* C_ f# 5& D_ D_ E_ F_ F_ E_ G_ H_ N# N# (& I_ (# j& j& N= 4& 8# c$ q# g@ ^* J_ %' K_ g@ g@ 2- 2- 2- $- %, }& 5, c& V) ;] .& b! *! }& e# l) w= g- 5, 6' e@ h@ b& b& j^ w= .- X= L_ M# a# ]& b# 6] ~& D$ M_ h* G) D$ $] 9! D$ 7# C$ !_ N_ <= 4_ O_ P_ Q_ Q_ R_ K] m' S_ T_ U_ V_ ]& :^ :^ ^^ /^ (^ w* g% 3= G$ W_ A% &= b_ G] X_ Y_ Z_ `_ D8 E8 F8 G8 H8 H8 ",
"/  B! Z/ h> .: `# `# ^  .: 6. 6. +: +: @: @: `# O- H@ #: 8$ 8$ $: A@ n! %: &: o. *: =: =: -: ;: a. >: ,: n! ': ': ): !: :~ :; p; c; ~: {: ]: ^: /: a/ (: _: A- K> /. (.  { q. m; >@ :: :: }+ T> |. <: T. @+ [: }: 9~    |: 5. {  `#  : C! 1: 2: 3: y/ F~ y/ F~ F~ F~ 3: D> 4: A. E. >; 5: G  D. 6: I~ 7: 8: 9: 0: a: b: c: d: m+ 6( 2( {' {' O, `# +: 6. .: v- e: <;  ] r/ ^~ f:  @ f: ^~ ^~ ^~ g: M~ M~ h: e> '$ y( `! h: i: K- K- 7. j: (  b/ `! 6. b( `! Z! 8$ k: k: l: m: n: o: p: P{ s@ u% >( N, >( Z( q: P{ ^' |: g~ r: s: ~, t: P  r: u: v: ^~ L> M> w: a/ X/ J~ U  x: U  x: y: x: U  x: f~ z: p> @@ A: x: B: C: z. w> V! A. I! I! #  [. c~ N- N- D: E: `^ F: {  ]( M- G: 4: z/ H: @% I: p! I@ Z/ J: o/ a/ S! 4: r: ^_ ^_ A: <; v: ~, t: n> K: O> M. P> L: (+ {~ T> {+ w> w> $  :; #  W! M: N: O: P: `~ `~ ~@ `~ A~ `~ Q: R: S: -; n; R^ T: U: U: V: W: X: c> c> j! Y: Z: Y: `:  ]  < Z: .< +< @< |+ ++ #< $< %< =; =; i~ ;; i~ i~ [  K: w. )+ R. N. &< T> B. v. K: I! C. I! I! C. ;/ +{ t/ t- 3. s- P! {+ 2; N> x: y: e/ *< #@ R  $@ S! 1/ e/ '/ #@ R  *' =< #@ U> D. -< ;< '/ @~ H^ .~ K^ >< O: O: ,< :: N^ W^ S^ '< w- w- w- S^ )< T^ b( 4$ a~  < $: B! j: b/ z- !< ]: a; B2 b. ${ }; ",
"q& *( z, R, ~( z, |) -, M, x$ A' A' A] A] A] A] _{ Q% 7* P* t& p& Q% ~< *- 8* N* Q= }$ u( P% A' (* (* Q= Q= Q= 3! I% X$ {< ]< ^< /< (< _< :< ]< '- P% A] K% ]% A& << 6* &# &# &# u, [% (% ^, ^, T) ~# [< }< 4% |< :, V& I' o& {# u& o& ~# h$ 1< 2< 3< 4< 5< 4< 6< 6< ^( {( ^] k# r#  & !# e@ b@ v# K& 2& ;, 2& d$ d% H# N{ %# U= e% 3% U& %* 9# 7< K' F' 8< 9< 0< B% a< g+ g+ e( ~( e( g+ ^' g+ b< D: c< 5) d< H' u@ 3@ -, s@ e< c% d< M% J% z, K= #] 3@ 1& e* f< v# w& w# -, ]' g< K% 8< v# w# ## 4@ -# @# R( __ z, S$ E& *( d< h< k+ g+ p( t@ 7$ R, i< ^/ j< C; ~( k: k< l< k< k< !, !, l< p: m< n< V, u( o< k: 8. x! p< q, A, =. =] q< p, C, #] r< $' e* P* e* s< Q* e* t< u< v< J% B# 5- O& z( 1) 4) y, 3* w< n* U: g< g< f) ~( u@ C& G% G% c@ b$ h@ /* ^* L$ i$ E% ^, ^, }% }% %# %# I$ L= x< D& K% 8< M, ## M, O% L$ x$ *# M, !# e$ :, j% 3& 9# T& 9# w$ C= a* a* G) Y& Y& m- &] m- B] h* C= 0* l) &- y< |% T# T) d@ d@ d@ d@ b@ a@ t% d@ s@ C& O~ /' 4) M, M, h@ u, K$ ## $# K$ &# K$ z( 8* 1@ k$ e@ )# b$ b$ 0{ $% 3$ l( y! _  h' i< f' n* g' n* // g' _/ ^/ z< A< Q$ P$ /$ R= :' #' J$ 1- '# d@ <* 9' B< $# s# 0& 0& 5% 9& G= H= h# h# K& x= d% 1@ |* u& t& *# J$ 6, R& I$ M= W$ f8 x@ ",
",* h- #& t% q# D< v= j^ I= w= 0* 0* z= 0* *! E< o^ F< u* G< =! x* i- c= ^& ^& H< 4' !( y, X) ;, >, >, (& =* =* &^ I_ I< N( q' k^ |* ;, k- d# c- f^ E< 0* F= t' F= J< l) *) %) }] @_ U& 9# [' &* a& m- W) I< D] c) 8# K< d^ Q( U( /! L< 9^ M< N< O< P< j] |< |< r$ s$ Q< r$ t$ %* 8# &* R% y' k# K* 3& 5& J* 5& 3& 4& d= ## 1@ h- e- 5& ,! ,! ,! C* 6^ >! >! ]& c# 8# A= U& k% +_ u] R<  ) +_ +_ |$ S< T< 6' j% 8- -] w' a& g# h# U= 4% e% 3= h% i% +* &! A= n$ A= m% C= ;! a* I= 2@ u* w$ b^ b^ h! U< m% u$ 3] |] K* g% ,* &* t$ n$ i% q$ q$ n$ 5% s$ s# E' V< y' w' G= T& l% T& T& 9# l% 9# [' 8# Z> A= &! +* i% i# c$ X& F' !% W< _] X< e* c* r$ r$ r$ r$ Y< Y< Z< `<  [ &)  , 4% .* H= Y] g- e% 6& 8& 4% c$ c$ '# .[ n] n] L{ r% /] 5% 5% 5% }] l* c* Z& Z& Y& b* @* h) Y& Y& 0] i* c* +[ 8] @[ J, ;- #[ d* f* E$ $[ 0# f% d* Z& `& d- K* u' K# K# m- 5& 5& 5& J* `> 7& 3% 2% 7& s* 7& s* 7& %[ W] 3& h% h- 2& 2& ** 8& 8& 8& 8& ~)  ) u]  ) &[ K% g+ m: q@ #[  * X& j$ 8* u& {# K& {# u& 0_ %] d* 9% o& K& u& u& w& w' i% j# k$ *[ 1- ', +_ y' S& p% =[ q$ ~) j# h# l% ,! ~) n% &! w$ w$ h! U= 8& 2% U= |& |( j# e% l% [' K* 9# 9# T& c* M' d$ d% {- 1@ f* ** u& ~# ~# R& R& R} I8 :( q( 8$ ",
"-_ Y' (= u& >, c# d= 3= z* B) B) A* A* ,^ -[ r' [_ e= ;[ [@ A* 7= 2= e= &^ l= [= }= $& Q= >[ N# ,[ 8_ |_ '[ t) A) )[ ![ ~[ {[ x) q' m= ][ ^[ f= |! k- c- Y' d= ;, ;( 1* E= 5^ 6^ 0! 0! E= !! C* /[ 7= _& f= 8= B* ([ F* `> A* 8= 7= <_ J* L# _[ Z] +^ `] Z= U( A_ 7! :[ +^ <[ E< F< *! Z% +- X= ]& d= d= d# d# {& k- 4^ R* X) 4^ e= ,^ -[ ,^ J] <@ [[ }[ [@ %! y) K] z* 7= `> J* 5& d- d- 5& ,! b# m# D, Y' Z> s* s* I* `> Z> ,! Z> Z> 7= ;[ W] 5^ D* D= D* E= |[ y_ y_ [^ 1[ f! f@ '* 2= 4= /^ 2[ I* !! C* v' J* s* a- Y' u= _^ J* (^ $) 3& (_ E= 3[ g) 4[ 5[ 6[ %[ 7[ I* I* I* F* G* G* <_ W] 8[ 9[ G* <_ F* _^ `> Z> C* 5^ i_ 3& 4& m) &! C* x] B] G) ,! 7& s* ,* i- i^ d# 8_ o- c- 6# 8) 7_ i) |^ B] x] C$ [_ >* f< l% l% 9# [' u' v' C* v' B* ^^ 0[ 0[ 9= ^^ /^ [^ D= 5^ 5^ 1^ 5^ v' Z> 8# b~ '- 3& J* w* E< g% i_ v* x* B$ s* `> 7= B* (^ s* s* (^ [^ [^ D= a[ b[ c= f# h- c= c= ,* c= c= s* B$ g% 4& e# c[ ]] 4! <! M< <! e! l) Y] Y] l) G= d[ e[ >% b& h% 9* %- `% `% l) l) 9* `=  - 5= a- m$  - `= `= `= Z% Y] u$ l% +) |* f[ >, [' g[ g* 4& 8# &* 8# 4& e- a# J] -[ D] h[ i[ -_ |^ -! o^ g% s* i- b! s# 6' c= s* z* 2= g% s* 4& g) Y' j[ /# k[ l[ G$ G( l[ b_ )* N( <] I< I, $& #5 #6 ",
"n[ o[ p[ p; y; y- x- q[ A! z; A! A! z; q[ z; A! ~: u; A- h: /  5$ L> G^ j: r[ s[ c/ }~ t[ ;# y@ u! H@ }~ u[ /: v[ F@ w[ x[ y[ &@ ]~ z[ A[ 6/ B[ C[ }; 6> 8/ @( s- F  }; 0/ 5> G^ 3/ @~ D[ E[ b. +( H; F[ G[ W^ :~ {+ [~ n; <~ n; 9~ }. [. ]~ L+ H[ /; I[ ^; (@ /; =( @[ ^; *  I[ Q~ C  ,  $+ R- ,$ b~ b~ C< b~ `# `# ]  ~, J[ >$ Z! `! 1' 7$ w@ K[ A@ x! y- ~: L[ z[ G^ 5> 5> 5> G^ G^ G^ H^ }~ )' I! U- A- M[ _: 5$ 8. A! N[ S^ N[ A! d> c> 6% O$ ^/ ^/ M& B; O[ m* P[ k< g' Q[ Q; R[ // k< E{ S[ T[ S= 1' H% f) T, w@ U[ V[ N& e> K- H- W[ X[ +: Y[ 1> Z[ `[  } x@ 7$ S= 1' 1' D{ +% o< ({ o< h. D^ 0. D^ H@ 5$ H@ M> M> 0/ 3> Q@ &{ T- .} 9/ J^ J^ @{ '' y; 8/ +} U^ @} #} D~ $} 4; c; %} &} F- *} =} <~ !~ H^ 5> 4: C! (  M- Y/ j: ,. ,. b( `/ J[ +~ <; <; +~ v- _: G^ o/ r/ M~ ~~ 7/ 7/ K: -} ;} n; _: M~ d. @~ >} >} Q@ Q@ K^ ,} R: 1. w> <. {@ }. '}  } R[ N& C; )} !} ~} !} ~} {} ]} ]} c( ,. 8$ `! b( `# ^} ~, 0/ 1> 4> 8+ 8+ 8+ 8+ O; X/ r: U- /} (} =( _} J> E: :} E: E:  / <} X^ ;  }. {@ _; 9~ *  9~ !  )  .@ s: [; z. [} *< S! J: R; R; J- /  Y/ j: A! A! +( 8/ t- c; '' r- A[ C[ }} |} M; v/ t/ 3+ w. ;@ ;@ :: -@ -@ @< :: 1} N: ,< D~ s- '' >} @{ :~ 4; g: 2} -  (} /. %{ V2 V^ ",
"}% ^, W$ W$ 4} 5} (% }% 6} u{ u{ t{ e) U$ C& [$ (  7} g' H' u@ 8} // b< s@ 9} 0} a} %& b} c} |{ Q& y, 4) A' P% F% O& 3) d} c< e} :# f} u< g} n{ 3) s@ U$ p& t< R' h} i} K& ** a& g- 6& a& U= a& d* c} ;  8. #' F' o& s@ *# s& q# i# p% S& a& b& ^] w' q$ =[ p$ {( {( {( ,) w# x$ 3( 3, &# y= j} p# 3% e% 3% 2% 8# 8# &* A$ M# f% 4% 8& 2% 0% E' l# l# L$ U$ k} l} ~$ +% &. d+ m} X# $$ X# @$ #$ R= n} 6- ^' e( -$ o} 0{ r, u( X# ~$ g. )$ p} !: K= R( [( #] =# u% v% 7* 7* J$ J$ L$ 2* s& k$ =# t@ }) k+ R, f) |: C; q} 5. 1' O~ /' Q, f) ~! g< c+ S= w_ r} o* o< ({ s} s} W, t} t} u} l^ 2$ v} 8+ w} m* x} t@ 3( F{ D, K= b@ m) v% -( y} v< e< $$ _% `$ `$ `$ p< W# =] ({ D^ z} A} B} C} @# C, ~' v, 1& N, +$ _% J$ X& _, <, }* <, ^] ^] {( m@ s% v& K% D} 8$ !( {# )# L$ L$ l# 2* %# L$ i$ P& !( *- i# 1@ F% F% 1) 8* +* +* 3%  & U* E} @' b$ i% +* n$ A= w$ d- }' [' [' u= Z> 3& d- u' w$ B= U< l- F} :, r$ 9% G} h+ a& i# k# p# q# q# !# q# 5% k% 4, H} l% y' 1- k# o# b$ T) |% h$ _% I} J} 2' x, ^' ]' e< 3@ K= =# g+ H' a< K} 5] g^ o* L} t@ |) b< p: // n* _/ U, 0. X/ M} n} ^, I$ {, g{ l# M, ~# s& L$ 6, J$ {# N} g. !$ 3$ 6- R= l( /$ O} P} X^ Q} ,( d& R} t, y% F# 3) ## &# i$ P= a3 ",
"5& 5& e- a# a# e- B$ B$ g- 6& h% 8# }' }' 8# &* _[ L# h% l% 2% &* 0# &] ;, b# 4^ q^ d_ T} /& {& A$ L# |* a& g- b& b! c& U} m# R# [! h& 3' 1* y$ V= f- b! c= J* V} >]  , {* n& C$ C( a# 7# a# C( h% c! @% :] V= +* +* e# d* g- m$ B$ 3& [' e- d# 4& 6& e% e% 6& h% 2% e% n$ i% Y] )# ), <! 5% n% 9# d- 5& d- ,! Z> Z> C$ 0- a- 7& v' v' v' x* u* ,! 5& ,! B$ m$ a@ d$ X& U= 8& 8& e% 2% e% 2% h% h% b! ,* U& %* r# a& b) e% ~) e% 2% j# 5- W} l# 8& 4% 4% 3% h% 8# 4& e- 5& `> u= 8= ,! _^ 6^ a) |' 0) t$ 1] +_ p% .* X} R< %* k%  _ #* #* @_ |] |< 3] Y} Z} _^ *) h! `} t$ t$ t$ s$ r$ r$ r$ r$ R=  | 8* c$ .* w' 0& 4- 2% t' .| n% |* /& L# 4% %) b) *) &) &) &) }] }] 8& J$ +| @| Y& 2- 9# 3% O= >- Z& Z& 2& 2& n- #| K* l% T& l% 9# &) }] l* 3% `& a# f) $| _# k* f$ A= A= t$ %* T& l% l% %* g* ,! >! ;! *) m- 3& h! >- %| &| q@ 9} p( =- ]* &* h% &* d- ,! ,! B] G) G) J] |^ B] i_ i_ _^ _^ ,! d- d) g- T& 0# *| A% =| -| B' ;| f] .) k* .) 3% S( f* i& 0] Y& ** U& U& `' V& .* E' t& |* M( m^ 1% !# )# k# k# k# j# &! r$ |] Q< C= F= v$ h! t$ u$ u$ &! +* +* +* 9& O% >| !% 8] j* j* 0] *) &] 0] c] h) f% g* g* h) &! l] l] P< N' N' `' c* |{ ,| '| )| l[ %] %] a% j= x% <{ z( p@ 9< J8 K8 ",
"/| (| t_ _| P_ -! |^ -! P_ _| :| <| <| [| }| || q: M# -!  , a# Y' -!  , s' ~^ 1| ![ }= 2| _= 3| _! (= k- M# >* {& 4^ c[ Q# z, )! x) S_ F) e= r' c# }@ c# 4| 5| 6| 7| 8| z) 9| 0| 3| ,[ ,[ s' n= a| )! z< C& ;* B$ e- a- [^ b| b| c| v* [^ ^^ d| n^ o^ y* y* !! =! u' =! i_ J* 3= k# e| f# h% &* =! v* B* r* 3^ 3^ ^^ ]^ U_ V_ 4| 1= <@ f| 1= g| J] h| h| ., 4^ i| n' e] -!  , G) D] D] g_ h[ j| j| R_ E) D] t_ C( 7# k| g_ d] l| b] d]  , m| '_ G* <_ F* <_ W] W] }^ }^ h| n| o| p| q| q| (| r| I* 1^ D* >! L( c) b) s| K' 8# 4& }' 5& 5& ,! J* !! F* 2[ l| ,^ Z> d- >! B$ B$ ,! 5& 5& ,! s* g% p& y= C$ u= F* I* ,! 5& }' ,! D= Z> j- '^ ,[ i) h[ i[ i)  ,  , ]& d= Y' -! N( t| u| v| /& Q_ p- 4^ e= <@ A* 2= 4^ |@ w| ;[ [@ [@ [@ [@ [@ <@ [@ x| y| ;[ b$ T) y* 5^ :^ J* J* Z> u= 7= -_ -_ |^ >[ 4^ 3= 7= Y' K] b= A* 3= 2= ]& j- *- z| g# B$ f^ E< (^ /^ B* u= 7= f| [@ ;[ [@ 8= 7= 8= e_ E* 2= 8= v* W= x* i- A| o{ d- 5& 5& 3& 3& 5& ,! ,! e- i_ t* B| G* Z> f- 3& C= C= v' w$ h% &* 7& ', S& 4& 3& }' B= u' =! =! g* }' i_ I* [@ 8= i_ 2[ ,! J* Z> J* 7& s* s* s* }& a@ f# i- s* u* w* 4= E< x* j_ a- ;] C| u_ i& b- T= g# 2& d$ d$ _# 8) [< (- l( (- D| I) V} V} c_ h= q^ L8 !- $, k[ /= ",
"D^ B- H^ @~ 3/ d/ d/ ,/ +. +. 5; ~] !] E[ G| G| H| d/ 3/ I| K~ T  3/ 9/ {: C^ J| K| +( L| G| K[ a; }~ G^ 0/ v: <; r/ I^ 5; 3> ]: q! B/ j: Y/ c~ J[ B! 1: 1: D: 1/ M| N| v! j! A^ m+ 8( O| z^ o+ `/ ~~ D. }; 0; P| #. u! d> q[ A! w- c> T^ W^ A~ W~  { Q| {@ '  '  _; r;  : C{ b~ a~ R| ]( S| T| )  R; U| !. )< F- J^ u; ~~ 0/ J[ J[ 5( 5( D^ D^ ): D^ x- G^ 7; n> .. 9/ ~~ 6; a/ M> M> o/ G^ 5> 5> V  S  +~ H@ I| M~ H@ r/ !: f: V| b/ f: R- M> J- J- I- H- K- 8. x@ i< !] !] W| 0; @. e. 0. 9; a. a. n+ X| X| 0; 0; <; }> h> Y/ B! Y/ /  K- i: @% ({ M& w@ 9. z@ Z# o< 4( E{ ;. ;. T[ H% R, S, Y| P- H@ $: `! ,. +: ]  .~ .: A| Z: Z| g/ 5> b/ M~ I| ,/ 5/ 5/ `|  1 .1 r: o> +1 O! e/ *' '/ }; x~ ]{ @1 #1 p/ $1 %1 ={ u/ @< @< @< @< w/ w/ ,< @  &1 :. t. t. .  *1 8+ =1 -1 -1 O  t: t: ~, r: w+ #@ M~ o+  @ v: ;1  < 5$ B! _} L> a/ O  V| M- +  +  )< >1 >1 >1 T^ =} =} G- .  E- {. {. ,1 ,1 O: t; C~ ~; '1 B  )1 !1 P+ _> C> _> A> _> B> =@ k/ ~1 :: t/ {1 '  W! F! ~; U! O! A. U! V^ ;/ Y> ]1 ^1 /1 (1 (1 _1 :1 1} y. T> &@ t/ ;< f/ t- q- 8/ 8/ 8/ 8/ 4; r- @( @1 <1 '+ &; _+ o~ ;< *{ [1 9/ s- 6> &@ R> }1 s~ |1 |1 11 11 11 21 21 31 41 51 61 71 t~ 81 <+ 91 >{ 01 a1 M8 N8 O8 P8 Q8 R8 ",
"b1 R$ Q$ w@ i< h. i' y! v( c1 n< c1 l( 4* v( n< d1 e1 f1 g1 :/ U[ h^ h1 ^- i1 j1 k1 l1 6% f} C% A% z% A% z% [) o: 8} [) A% m1 v< L% J% -, v% =# =# 2] N, -( l: K- J: /< 5- 5- 8* |& x= 8* 6, 6, z( n1 o1 p1 I, '- I# R* m$ m$ 5, e# e# ;, G# a> P, m^ 3( ), e| r% o] m@ )) 2] f< N* 2) t& w& v# S& 4% e% g# |* 5- 5- T= n* g' w% s@ o@ A] {% {% m1 A% 3* G, q1 e} m< U, v@ i+ i+ V, (/ V, V, z< z< Z/ ~, r1 _/ +% ~$ g+ >. D{ u@ u@ j+ g' s1 s1 /{ /{ t1 N% x& u1 x& N% n: b1 g^ v1 [) [) 5) O* z< o< >. S= Q, B; _/ w1 i< i< i: I- J- H- 8. x@ ({ z< m* x1 ^; v; A; e( m: p( p( ]' t@ g+ $| g+ s, j+ ]' Z( a! q: q: q: <( y1 N{ '. z1 5* z1 ^' ]' ]' }) e( $| e( >. 1' 1' x@ A1 7% w! >$ /  w- >. ({ +% +% :] k} h: #% F{ 7@ -. -. -. 7@ 7@ 7@ ,# 2] #] _%  % b@ E| B1 C, u@ j+ g+ e( u( C1 u( D1 x{ L% Q* x& E1 i| E' _, <, [* <, Q) F1 8- 4- 4, e# f# 8# 4& B$ e- 8# h- p# ', c$ U= f$ U= a& T= K* |$ b$ G1 $# g{ |( 7@ F{ G{ +$ F{ 7@ G{ m# G{ ,# &. H1 B& c' H{ a@ X# %% #$ %% W# W# $% 3$ g. 6$ .: ^  `#  < A^ y( @  E- +  /@ R~ <~ g: I1 z] z] z] D; J1 J1 K1 L1 @$ h$ u, (* I$ u, u, h$ q# ,, 7* B& :' 7. 4* <- .%  %  % H{  %  % Z$ Y@ _* M1 N1 O1 8} z, 5) n: D& E& s1 W$ S} C# U[ R; ",
"e- h- c= e$ |$ V= 4, 6' b& m$ i- i- f- b& #& f! ]= b# g) 7# >, |* >, e] z$ X) (& W) 2* ,# 1* i- c- M# h& 1* h& f- f# g# c= a- 4& o% u$ C= Y< P1 ]! {! G= o% s$ 0' b+ m'  , Z> `> 7= 8= [_ [_ m' Q1 ^& y) ^[ 5= R1 j_ z* [_ Y' M# a# C( ]& $! w_ P* t& K' R% `' V& U& k% 1] j] |< F= u* t$ n$ P< c* Z& m- x] m- Z& +) 7# d@ j# 7& o% v$ m% 3& d- s* 5& 5& 7& a- T( g- 4% U= g# a& 8& 4% 8& 4% ~) 6& -% S1 6' V& .* U= .* &! &! F= t' o% 8& 0- m$ o% t' t' t' o% o% F= z= 5& ,! d- ;) 3& 3& }' *) g# a& 3% 3% ~) .* e% 7# &] h) `& k* f] k% N' V& T1 U1 ;| c* V1 F' 9# W1 u$ t$ |' u$ u$ n$ j% o% 6' [& 9& 0& &! o% n% o% :, X1 `< Y1 Q) Z1 j{ <! n$ n$ s$ j% n% n% j% j% 5% 3% M) 3% [* w' .' ', W< &| ~% `1 !% @] N_  2 d* c* k* k* 9] c* c* c* p@ %| k* H# T= 9] h) c$ A= m% v$ &! j% n% n% +* L- R} H= ]! o% U= t' &! E$ E$ $] .2 +2 G] .2 j) }' ,! J* _^ i_ <_ I* L( Z> %* U& 3& d- }' x] D] 3& @2 2& o& >_ ** ]& C' F' S% F' K' E' C' C' f] k$ {# u( #2 j$ v# W% .* t< ~% ~% y# 7< 7< !* 5' `= |$ !# f@ f@ f@ q# e@ k{ a$ |% ], $2 %2 _, q$ 9& 9& 9& :, :, 4- n% 6& >- D$ x# .) c* 9] c* Y& 3% 0% d* _] '- ^/ b1 &2 N% /{ t1 /{ /{ p& =- 2) N* J, o1 0< 9} 7< K% z' ]% *2 N= $, 5# ~< S8 A} ",
"8= 8= r' d= ]& K] 3= 3= [_ e= K] ,^ m' m' r' S_ d! e= J] J] [_ C$ d= 4| <= |_ -2 ;2 =- p& j- ]& 8_ ,[ m= l= l= 0| 3| ., e= |@ -_ A* 8= I* B* v* /^ e_ j_ C* (_ k$ 7@ >2 w| ,2 ,2 p| w| C) u) 9| U_ '2 )2 !2 U_ ~2 {2 +, {2 B_ B_ ]2 ^2 '* T( +# _, H= Y] o% n% o% t' t' e- &* 8# z* :@ s* &* 4& 0* 4= B* B* B* 4= j_ ^^ ~# d$ :_ A* ;[ B) 7= u= <@ [[ /2 <@ g| _! [_ -_ y* u= `> ,! ,! J* J* 5& B] }% #$ c- q_ c] B] B] }' 3& 3& }' u= u= e= e= m' Y' ]& C$ C$ C( C$ ]& t_ h|  , `& G* <_ <_ I* b] K( K( J* 5& ,! 5& -_ C( g) 7# 4& h% &* 2% 6& i_ h* +) >* (2 H# C$ d- s* B$ 7& y* y* c= 0- B_ 4^ r' y* 3= 8= u= J* ,! I* E= 5^ C* 3= {# c$ x* 4= v* !! !! v* v' u' v' F* _2 m' :2 w* <2 v' K( E= C* C* C* I* Z> ** C, B) 8= u= u= 7= 7= 8= A* o^ B) }[ ^2 ^2 e_ E* [2 F* F* I* J* J* Z> J* 5& Y/ }2 b! [2 t* b- i& g! ,* s* C$ k- &^ -* q' 7_ B$ g% 3= [^ r* <^ r* v* r* v' =! !! `> Z> Z> `> j_ |2 f! V= ,! I) o^ h- 2% 2% 2% 2% e% %* U& U& d$ +) /* 0$ M# U= 4, C= }' [' h% 4& 8# 4& s* 2= D_ /! Q( w$ u' B= C= A= l) U= 5- B# 12 R} m$ d- l) I= 4& B$ B$ B$ J* `> c# d| 2= 3= v* =! v' v' z= 0* w* g! V) /% 22 32 8) 8) >, ;, T= 4! 42 #) 52 62 72 82 O) ;] c& d& 8* A$ c[ [! g& @) _* Q$ ",
"': /: w[ E[ G| w[ w[ I: ]: /: W| F^ W| F@ 92 02 a2 b2 c2 ;: d2 e2 f2 92 g2 h2 i2 j2 D~ P! #{ J^ ]. k2 l2 m2 n2 o2 n[ p2 q2 @  z; X^ M- Y/ M- v; s/ ^  r2 X/ D: G~ s2 t2 y(  ~  ~ y( Y:  ]  @  @ 1/  ( u2 v2 d; )/ '/ j/ 1; (+ N> f~ w2 n> f~ &; Q  V; O! P! s- 6> 3. O! r: S! R! x2 U; ~~ 3~ r: J~ I| }~ H^ H^ }~ a; ~] e/ 1/ 5; ^~ D^ D^ H@ A- y2 t[ }~ D[ z2 f2 6/ +. E^ E^ t[ Z| H@ D^ ): !: n) A2 4  T  _} q- 5> }~ @. r/ +~ 0; !: B2 @~ &{ G^ a/ 0/ 0/ a/ o/ o/ o/ o/ ]: 5> a/ u[ u[ y- y- D^ A@ 9; 0.  < +~ I^ E^ q! u! u! J[ `/ b/ Y: y( Y/ b/ M> d/ /_ C2 e. h' 4* E# E# E# q[ A! !< D2 E2 F2 A! S^ '< M[ M[ z] D; G2 f) +: '< &  (  6$ J- H- K- i: M& B; C; M& H@ H2 B- 7. I2 J2 O| ]  J: v: r: <; L> o/ _+ K2 U> [+ T> }+ }+ T> [+ v/ ]~ .  2} 1> 3> R; )  K;  @ v: s: t: ^_ U; G~ G~ L2 O! [> ]  c~ !~ q- (: +@ z/ r: w2 M2 [  z. 7+ [+ S> t- 4; y; b; b; %{ #{ '' y; >} J^ .< .< ]. 3/ N2 L: O2 V~ $; W. ;/ x. |+ x. w. w. z> Y> w  P2 Q2 2~ R2 u/ q. 7+ L; 3. s- s- ]~ 6> s- f/ C[ h; N. S2 ;+ L/ X> G[ L/ 7+ V! x. */ T2 U2 }+ W~ ^+ (+ d; V2 V2 v/ D~ }} %} O: H] >1 '< S; 8. K- W2 V: V: S; @{ c; I] X2 ': t! Z| I^ K~ I| o. Y2 w[ Z2 `2  3 @( o/ ~~ t- G[ .3 T8 U8 V8 W8 o  X8 ",
"M* L* O& )- [< 4} `$ ^, #3 :' u{ u{ :' S$ }$ w, :] T$ R= C& g^ [) 7} _- ~< $3 %3 && &3 *3 b1 v( *( U$ 7} ($ =3 :' L= +$ -3 j< c( ;3 s% s{ Y( !) E| E| 2] e* v# K& >, {# s% ,, Z' E| s% s% E| L, z| 0@ >3 ,3 a@ g( E| E| '3 m) *# h@  = )3 h# ]& }& |&  & 4,  & e$ r# r# l$ {# #' g. R| `$ ,# ,% 1- 1% 5, }& 6' %, c& 3- P# R* E% 5- E% J$ k$ 7< ~# k$ k$ E% M, #] 1@ 5- e$ e$ e$ e$ e$ 5- 1@ E% I# !3 ~3 R& ~# {3 |% o# p& A' ** A' A' 3) P; ]3 E, _% .% .% _% E, E, `$ L$ p{ 5] F# 5] Q% 4) T% q& z, z, e( x} C1 r, 5. k: T$ r, r, +% C1 1' k: j! U@ x@ z@ K@ j. 8; =] #$ .% q{ {$ 6- 6- {$ {$ 5> y/ ^3 7$ 1' ({ C1 u( B, $^ ,# @# m# (% V$ u@ 8' c' /3 B1 3( N{ 3( K= O{ 4( (3 d+ J= _3 :3 2$ m} =] .$ .$ A, +$ $$ <3 [3  $ 6$ U@ 8; `! Z! Z# #$ c% 3) }3 ;1 T$ +$ |3 0{ 0{ B& b@ t% b@ d@ c@ .* 9] u& /% R& S% Y& c$ +* l] /] e@ 9' 3, B& M, 1- h@ x$ 1@ 8* f* d$ 3' $] p- e] $] )* >, d$ M# e# 6' 5- B& v, ^, C{ ~' u# s{ @' T) h@ b$ a@ b@ '# J$ 5] '( W% f@ b$ ## 7, n} (% `$ F, d, 13 y( .: V@ $% =] =] .$ $% ~$ !$ 23 &~ C& 33 Z# x^ 7: '$  ~ y(  < z^ P| A^ A^ 43 S| I$ $# d@ k@ l@ ^] S& R% 53 w# D% j= n1 _{ 63 y% 5} S$ r, :] M= s1 73 '= '< =3 n< r, :] D, N$ q* [# Q} C# U$ E& f& ",
"(# N= x% @! k[ x% a3 _' $, $, '- x% k[ I< )( !( s& 2& 2& d$ 2& |* ;, M# k- [! b3 b3 c[ >* 5- L* ~) f* >, <] <] >, U= y' ]# c3 ], d3 &! &- C= t$ m% a* $) $) h% s* :@ 7& u' B= w$ m% m% v$ u$ v$ &! $) q% x' n% n% k) /! &! 6& h% e# v= v= f- ]& e3 f3 g3 f3 g3 h3 h3 i3 Z& h3 j3 y, T[ ,- .) 9% l% }'  , -_ i)  ,  , -! ]] c= x* /^ j_ v= o% U& F= B$ 4& 8# 6& S& :^ (^ 7# a# a# a# a# C( C$ C$ k3 l3 l3 j3 m3 d= 7# G) &* }' ,! }' B$ i& >( ^* c) b) *) *) b) b) b) b) v* y* b= a| [_ -_ ,! ,! d- 5& d- 9# &* 2% e# 2@ k% Z> K* (_ L( 5& d- }' 7&  , h* C$ _! R_ C$ ,! J* Z> ,! 5& J* J* B] B] {% n3 +) V& @_ |' U< |' |' o3 o3 p3 l% 7= Z> a] w$ v$ A= 0) U< U< *) c) `& 6' q3 {3 9& u$ P1 r3 |' w$ o% n$ Q< }] l% 3% f$ f$ h# i# h# f$ c$ ** f* 8] ,- T[ ~( O% /) x$ o& {# u& 4% 8& 3% f$ j# t' 9# 8# c& +- v$ U< 4- 6& 8& e% g# l# m^ d% ** 4- :, o% $) B= C= }' B$ J* A* 3= g% b= g% 0* x* (_ K( L( k* I' X& s3 K% K' K' I'  * 0% k* .) k* &) 0# %] 9! Y& T& T& 0% %* l* S( @_ %) %* d* $' 1& 8* |$ k# k# p# c$ e$ k% |& e$ t3 R# h* ;,  &  & |$ s# e$ f$ k# ', p# (/ u3 5' Z& Z& &* T& T& h# e% 3% ** !( I, @) ~- a% <] H# H# x= E% N* (# [< v3 [$ !3 1! o{ l$ i$ 1) '( Y8 X' L* E% G# =^ ",
"p' x3 {= F] o= o' 2_ #! W) &^ _= l3 y3 l3 o' l3 P% Q# P# X) X) 1* ~& /& +, T_ z3 )! A3 $! c- y$ C$ $! n= 2_ := $! b# K# G& z/ _( B3 y* p^ B)  , <_ u= ;[ ,^ -_ }@ +, g| B) u= `> 7= 7= u= u= u= Z> A* %* T& g% g% ,! C* B$ [_ P_ i) 7= 2= ]] ~[ E( C3 C3 D( H( H( H( G( m[ b= j- D3 `$ ^& y* Q1 j- c# :! F) |@ g| 0| 9| _! g| [[ E3 F3 ;[ [@ /2 7= B) ., J] |^ c* S] a= -[ D) w| w| G3 H3 I3 8| J3 K3 L3 v) M3 y) '^ u) N3 ,2 ,2 q| w| E) ~* j& -_ -_ -_ |^ |^ |^ ., ., 1= r' :! O3 K] K] Y' i) [_ e= g% 7& b= c= /& s& f% |@ K] D) J] [_ K] e= f| C) H3 0| '2 P3 l= 0| '^ :! K] e= r' r' 4| D) I# a! c- d- ,! _^ I* K( s*  , t_ -_ d= ~^ H< o- i[ t_ d] t_ h[ h[ Q3 R3  , {& 4@ S3 b= 8= /^ 0^ 7= z* 2= f| z* g| :! 4' (| (| |^ -! i) |^ |^ i) i^ 8= Y' &# 4@ K# [' 0* e- e- u* 0* z= u* (^ (^ [! d= -! 6# f# i_ =! X= *! 0* u* *! [* b@ t* 7& y* u= 8= H* H* }^ }^ H* :_ T3 |@ 4| K] z* 2= z* ^^ /^ 4= j^ .- c& T) P) g# 8# 8# e- s* g% J* J* !! y* 4^ S_ 2= B* j_ g% C$ ]& B]  , Y' M# k^ A' ]# a% >, 0# J# K# C( a# 7# 6# N= e3 U3 $] '_ y$ ]& G) B] h* h* B] B] D] x, W& k- ]& 7& t* B$ 3= j[ 8) )* l[ .! V3 W3 /= 2_ <= &^ &^ := ^# <{ k[ O# ]= [{ /# k[ b_ a3 (# N# @! {= O# y$ 2& I_ k& ",
"%~ X3 4/ 4/ Y3 c2 l. r! Z3 `3  4 .4 +4 @4 F@ 02 b; #4 B@ K[ q[ y@ y@ y@ |# D@ E@ $4 %4 &4 *4 b. =4 -4 -4 %( S  V  *< x: /. ;4 1/ T, H@ I^ Y/ /  x@ 8. w! 5( .~ .~ [> K> h> c~ C! h> (  (  h> h> c< c< >4 ,4  ] x^ r2 `: s/ [> r; c< J- Z/ w2 '4 H~ )4 H~ )4 +@ )4 H~ )4 ]+ x> [+ Q> !4 t- /. g/ ~4 {4 ]4 ^4 /4 [3 ^4 (4 A@ h. {$ $% W# U@ 8$ Z! 7$ i< x! z@ z@ Y/ i' y@ =] W# <3 0$ 0$ <3 q{ p< Q$ _4 :4 r, x} ~$ W# +$ z@ A; w@ 8. x! 9; a/ S! L~ L~ L~ M~ !/ m( y2 <4 M& m* (/ V, (/ V, o* g' m* C1 g+ C1 R= r, c( `^ M- y! h' h. h' z@ y! h. V@ h. z! B@ [4 }4 ^: |4 u[ u[ !] !] 14 :4 y! ]3 6; 24 D^ 5( w! 8$ i< h: D^ 9. w@ 34 K[ a; o/ @{ 3/ a/ M> a/ r/ r/ r/ r/ B! ^~ ]_ M~ z^ .:  ] d: +: ]  ]  '$ j: J[ 2>  ( f: /~ v: /~ A: u: 44 u: z> v  q  1+ 54 T! ,@ U! |. 8~ 8~ ^@ Q~ ~@ |. |. 64 5> I- h> a~ 5. ,$ 74 :; L; <. L; 84 y/ q- N[  ~ $: `! ,. b( ,. `! `! 4$ ^  Y/ /  h> `# ^  .: o/ 1> 7+ A. I! r> 94 04 5: v. G  G  D. C. E. !@ C. !+ 81 a4 f/ +} 2; q> b4 c4 d4 C:  1 e4 f4 g4 h4 W; V; _~ i4 _~ i4 Q  t: V| 0/ E- j4 <~ {; Q! '/ ~~ [; S! R! a/ G^ G^ h; 2+ -@ A> V. x. V. k4 G  y  4: t. @> q  1; T  M| l4 W  M| m4 m4 n4 o4 5; L| +( +( A[ A[ #( |~ 5; z[ A[ +. r/ ^~ g/ C[ ",
"M= r4 C1 >. e& 5] B# R& s4 t4 u4 v4 w4 x4 y4 && z4 A4 B4 C4 D4 q( N} E4 w{ F4 G4 H4 |- I4 J4 [- K4 K4 8, L4 y! l( v( n< 6* 3# A% @| A' P& /{ p& J% L% L% -, 6* *,  2 o* B} p: *, M4 p: p: *, M4 E1 s@ L% y, z, |) z, y, 2* B& -, /{ >) M, c( J  u% u% 7* 7* 7* s& ~# k$ {, q# !# N4 O4 e@ l] n@ Z' S& e% [' K* %* %* l% f) c% u& I' {# t& v# N% P* /{ /{ J% ]% z# N* L% L, ,, ,, ,, L, L, Z' s% 8{ {/ P4 G{ 3( %% -% B1 e< e< d< K} -( Q4 n: U, t@ t@ ]' t@ |) -( *( *( L& t{ G% 4( G% L& j+ -( u, D, 0{ N{ 7@ +$ _% E, r{ <% !$ 9$ $. 9$ o, %. 9$ @% g. 9; I> G~ R4 X/ <;  @  @ ^~ z^ z^ '$  ~ /: ~] 14 h' v@ r[ y@ x! g. $% 4* l( K@  @ _: z- A; A; ^/ ^/ ^/ o< +% u( H' 5) L& $| p( }) W& N{ q, %. %. @% 8$ 5( ~, S4 D{ b( 6. `! b( g> b~ N~ =. 6( >$ N} $% $% $$ [% 2* B& 4@ 1$ 1$ B& N, W& T4 A< U4 N% *# w# f< L= h@ d@ e@ k@ k{ &- _, 0& 5- f* f* K& X& K& f* f* ;, f< x& ]# O% K, X& X& f$ k# s< #] 4@ 4@ C, W, V4 *% &% n, W4 V4 W4 T< X4 Y, a~ b~ W# %% $. Z# z< >. D{ >. ({ ^/ A; A; 5( h: K- `! `! +: @: c< Y4 N~ .~ 1> Z4 5> h> z/ /  B! Y/ K- K- I- I- 8. =] _% h$ m# X# .$ @% $% l1 O[ n* O[ x1 P~ <- e} 9, ^$ N} W@ `4 C4  5 .5 Q$ F4 +5 x4 @5 #5 $5 ^- _* s1 b5 b1 z, u@ ^/ _} ",
"N# W) I_ A' r@ ;, M# h% a3 !- b_ b_ X_ %5 Y_ &5 u_ :& 1* 6# m$ h- U= :, 6, d% X) q^ 3) 4} )- P= b& }& e# a& c$ f$ e% 6& U= g! e# 3& e% 6& [' l% &! n% H= c$ e# p# g( |& h# c$ g# g# c$ c$ g# g- 6& &* s* e# f$ :, o% j% *5 =5 :, A= -5 k) |% ;5 3% 8& 3% 2% 2% 6& &* h% 5, 4& d$ 32 ~- .* T& 9& %* K* K( F* >5 2[ 2[ I* z| t' D* m_ Q( d^ m% m% C= u' v' 7& g% T3 2= y* 3& 3& [' [' [' [' 9# T& h* 7* =# M' Z} k% T& l* t' t' t' a* z= i- 0- V= C= m% v$ u$ v$ v$ v$ u$ C= C* w$ P' v* v' ;! 0! a) ,5 '5 )5 )5 Q( Q( v* a[ '5 !5 ,5 !5 '5 ~5 )5 L< t$ m% h- {5 |$ 3% @_ c$ U= e% 6& $) a* F= w$ {& m' 8# [' [' 9# 9# 9# v$ a) U< %) e- ]5 y' 0# U= U= c$ c$ 8& 3% e% 2% e# h- g% .* h# 4- 9& n% Q< |] n$ |] |] l% m) Z( 4- 9& 5% 8- _, [* _, 5!  * k$ K% a% q@ p@ r@ M' |* K& X& ** ** ** ~# s@ ^5 d% #* r$ i% 1] P< q$ f$ 4% %* N' h% g% 3% K* z= u* v' =! u' u' u' 0* c| j] n$ ;! >! 6^ ;! >! x] m- Y&  * ** ;, b- E% ~) .* R% y' R% .* R% S& R% u& K} K} f% I' F' K, &! w' :, 5% 9& a& U= f# 4, f$ i# 9& i% /] 1, /] 8- /5 v] b% (5 ** l* a* |$ r# r# e$ |$ s# |$ e$ d$ a# .) ]) t& w& 8< ]# 1% f@ [* a$ 5] +% o{ c& r# q# |& }&  & 8* *- H# 6, G# 32 $, _' {- b- *- 9& r# |$ j# 9& H= a$ Y# ",
":5 <5 w) [5 9! _| -[ -_ m& 0| v) }5 |5 15 25 35 2| z3 T_ 6] S_ S_ 4^ 4^ k- C( -! 8_ <] P= _= p- d= ]& -! Z> ,! K( _^ I* t* :@ z* f| C$ u= b= 7= b= 3= 3= y* 3= 8# f% k- 7& y* 3= g% g% y* y* 3= [_ m' g| ]& ]& Y' u= J* e_ z* b# 7= 45 H* *- i: ]& C( C( ]& ]& C$ C$ C( X= b= 0- 55 (] 0- 9= D< ]& ]& [_ r' r' r' 4| F) w# s* [[ 65 y| <^ 8= W] e_ 8= <@ }@ D) |@ r' E) v| v| ., ., J] J] ., -_ -_ L* M* K] t_ ]& Y' (| W] W] G* [[ /2 ;[ p| ,^ [@ <@ <@ B) A* A* 8= 8= z* :@ 3= e% :_ b= v* v* B* v* C* v' C* [^ [^ 9= <^ 3^ 2^ E* 1^ D* =! v' E= I* A* [_ v# m$ Z> 75 `> Z> Z> `> 7= u= u= 8= 4| S] 8= <_ <_ F* F* `> v* W] G* u= 1= p# |* Y' u= u= `> F* F* <_ <_ <_ 4| J] }@ G) |^ Y' C$ |^ J* J* Z> 5& (_ i) f* K$ v' d- }' }' }' d- d- }' 85 [2 ([ ;[ 8= f! f^ E= E< *! E< E< E< E< [& b& z^ b- b] B$ ,* g% d] h* u* v' 5^ =! j_ 2= y* 8= u= 8= B) <@ A* 8= 8= 8= 2^ c) <_ /2 G* G* <_ }^ 7= A* g% 7& i- 0- e^ g! >! 6^ ;! 0! 6^ 6^ ;! 0! !5 C= R% 4% D= 95 ;! (_ 4& 8# 4& 4& B$ s* s* [_ G) }' L( L( b) b) b) c) l) 05 0] p& a5 ]* p3 9# d- ,! ,! 3& &* 4& B$ e- 4& 8= J* ,! e# e# h- B$ G# T= M# N= $& b5 &= c5 I# I# N= W) W) d5 C3 e5 z$ a3 Q# j& I_ (# c- 6# $) h- >* 4& d- x* *- t{ ",
"<$ 2# j' 9. ]3 ^$ U@ >$ @% k} d} `4 K4 ]3 v@ n< f5 g5 E2 h5 i5 j5 2# 2# K@ v( x{ q[ o; w> +  _. R! S! 2>  @ [> [> K> _: y2 u! E^ D[ k5 B- a/ E^ t[ +~ +~ G^ G^ o/ a/ a; H@ 0. H@ b/ .~ H@ b/ `/ n; @  >} J; !~ (} _; <} D: !~ $  |. R^ l5 '@ m5 T, W[ n5 T, T, e> o5 o5 )< p5 q5 ^. p. r5 s5 O; E:  / l} ,. Z! 6$ 6$ 4$ 3~ z- 4* ^/ w@ z@ w! q[ y@ y@ q[ K[ t5 X2 N@ /: h' h' h' h' w( )$ )$ w( u{ A^ z/ D{ 4( :] Z# g+ ^/ O$ O[ (/ A; Q[ x1 E; X: R[ 7% 7% R[ X: R[ R[ 8. 6% 6% '} E# i< ^/ C1 U, r1 z< o< ({ ^/ z< z< 8; 8; $: 6. 6. ^  '$ .: H- K- g: '< 8+ q! V, L& u5 i+ 4* l( c1 q* <- :- <$ /$ ~' R= R= u5 {$ v@ )$ c1 n< ]3 L@ o/ o/ B@ 14 14 :4 q! v5 w5 2# x5 )' y5 z5 t2 A5 x- v- N[ x- K> L> <} B5 2} %  o> H@ 5$ `/ b/ j: Y/ r; -  [> y: *< a/ M> C5 #} 5> a/ 0/ M> 5> G^ 3/ [; w> D5 d; _} f: E5 G^ F- .  5> q- G- +  o; >@ m; p. J; {; (: ;  r; V| 1: J: Y/ Y^ X^ S^ X^ N[ 2} z] F5 F5 s5 G5 R^ s; s; I[ |> |> &  B~ &  ]; H5 I5 J5 K5 I> y/ `/ C! N[ q- n/ I- n/ Y/ /  /  g: c> x- x- x! h: Y/ /  /  Y/ L5 M5 V: w/ N5 @  O5 7. j: Y/ `/ 5$ f: 43 s: Y| ~+ T> O!  ( :+ P5 q> T> d; ]+ 3. &@ '{ Q5 R5 S5 T5 U2 U2 U5 V5 W5 X5 ,> Y5 l; l; Z5 %{ t- a/ L> 5$ r/ a/ K> 5$ b/ 1/ h~ ",
"I$ [% ^, F, .# /% 2* 1- C% =, G, H, f& M$ f1 .6 E. :; n[ +6 @6 +6 +6 #6 8} V$ :' m1 $6 %6 O* F{ t@ |) *( z, *( M% a< -, Q& U@ .: L& z, %% #$ @# u, #$ .% `$  % F, 3) e) &6 &6 `$ $$ 0$ p< p< <3 O* T$ #: *6 6- :] v, -# 1$ 4@ v, D, K= 1& v% l$ j# ;) -) y' d@ c@ e@ Q* =6 Z' s< -6 ;6 o,  ) >6 z| 0@ E| R% f% f% 9% I' z( z( I$ [% w, E, L= v, 6- $% Z# U@ ]3 Z/ H@ v5 U@ >$ 6$ $: $: >$ 8; >$ p! $| k} ^' +% ,6 p( u( u@ m# -# 2, +$ s, h> ~  4( ;. $| x} X, g$ N{ @# 0{ ## &# I$ D, C, G{ 3( $| T[ H%  | s} #_ '. s} <  ^_ '6 )6 D! S| T| T| !6 ~6 {6 z1 H- ]6 y& 9{ g>  :  : l} 5. ^6 4. ^6 z/ /6 k: z, $$ @# }( +$ l: &$ ## N, x} 5] C4 v< E4 W@ 6- u5 T$ (% I$ u, B& O& ^_ k> C1 C, $. S, ;. H% 4( f) $| ;. l< (6 L= v, D, G{ G{ D, N, Z( t} Z( ;. b( {| U@ @% :] $% r, o< C1 :] r, s, X# M= u@ v, -# L= ^' ~( R= [$ |) -, *( ~' S| r, -, s@ J% k$ j$ j$ ~# E% r@ h) ,- 5' 5' 8& %* 8& 0% 0% X& k# a@ N, A,  : (  2$ l^ ,3 ), j} j} 3( N{ 3( 3( m^ 0{ |) m: W& G{ n* // f' v1 O[ M& e> _6 :6 8} g' o: g' // n* 8} *( r, k: c( 5} L& ~( o< y] f' v1 <6 N& O[ z] '} d: [6 `: A^ v! 4$ {/ x( 3$ v@ r[ `4 }6 |6 ;& w; z- B- _: S^ s[ i5 i5 16 p[ 26 n) I] 2# U[ :/ +6 r1 r1 :] r, u( o* 8} G, ",
"o- H< H< s' q' 8) $] M_ h* 7# {& k- A$ 0_ N( '_ b( ^' 5# N* 2) 2) l{ )* {* {& b# j- 8_ H3 |^ x* 7# K# J# h% &* &* h% h% d= L$ d' U= 4% h# 5! i% U= 5% ^] 5% ^] c$ m$ U= .* 4% 4% .* .* f$ h# i# k% c$ B& (2 *- c$ 3% +* t$ 6& &* 2% U& &) U& 4& h* i* W1 }] %* %* k* L' U& >, E$ 46 56 G% >_ f$ o% n% u$ B= v' v' u' B= g_ (| ,! e- x* z= =! C* b) }' }' 9# &* p% 8& L# 9# T& e% 3% 4% 8& 3% 3% &* 05 g% W1 l* 2% Y} U< }] l* |' |] @_ M' x& >| }] 4] #* l* $* |] |' `} 66 g[ _^ W] i_ K( K< 76 %) @_ 3] 0) 3] Q< Q< 86 R( {# Q* ') R% p% y' R% G' W% c$ e% b- 0# @_ 9& L, L, L, ,, ,, ,, ,, ,, }% 7' b& }' c= `> 96 (^ >5 [& ,! A* b= 1= 6| ., 7& `> d- c) L( L( K( L( 3& ]& D{ b( 0# k% |$ 3% c$ h# :, ^] f$ h# f$ t* [' K* v$ A= n$ t$ l- |' j# j# c$ K$ 5@ (* T) ', f@ e@ c@ f@ !# d@ '# h@ 8*  & q# q# s# )# b@ )# @' d@ S& d@ |% 06 i$ I' 9] Y& Z& &] M' M' m- x]  , 7_ s' n' g% Z> Z> a# 6[ a6 a] &)  * u& __ b< p% p% `' f] v] v] K' K' p# p# c$ i- d$ X& f@ !# <, <, <, l@ i{ i{  ' )3 i@ +] n@ b6 c6 p4 b6 9& w' 3% c$ r# ,* B$ 6& n% 5% 0& 5% /] ^] _, !# )# h$ s} W% T# )# !# |$ q# k$ {# t& 5# @) d6 u^ m{ k$ j$ o& o& K& !* !* q@ e6 f6 T% o@ q@ g6 f]  * h# c$ 3% e% 2% 3% f% 7# ",
"<= l3 2_ }= 1_ l3 l3 ;2 j- (= ]] _= z3 z3 4' := k: :' ]= 42 42 36 q^ ^= x3 k& z3 l3 y3 t) (= s* i6 ., -_ -_ j| i[ j| (| n| L# ~# t_ j6 Z> s* (_ K( (_ _^ `> u= ]& 4| C( D] d] d] G) G) B] h* x] h* M# {% -( =* ]& C$ g% -! i) ]& C( G) |^ P_ x) a| A* e_ !! 4= 4= 4& J* t* ,* g* j3 M  8* c) f- }' d- _^ G* H* /2 [@ ;[ k6 N3 5| (| H* <_ G* W] u= u= 7= 7= 3= 9% J# Y' y* g% 3= 3= s* 7& c= a- d# u= T( d- J* c= h_ J* C$ ]& 3= s* 7# 8) A' =, C( a# ]& k- s* B$ 7& J*  , Y' e= |@ ,^ |^ g_ t_ Z> 5& v' C* =! }' 4& &* !) +) J# h) d- [' &* s*  , b! m$ B$ c! j- d- 9* &* 8# &* 6& 6& h% 2% 3% )( l6 A$ -[ d! e= <@ m6 }[ e^ 1= n6 F) o6 p6 l= w| w| ,^ ,^ }@ 3| 3| ,[ J] Q_ // T, $] B] 7# h3 h% 9# 9# [' }' J* C$ e= j| h[ F* i_ (_ b) c) j6 a# M' C( !* a! *- d* Z& J# K# g* C$ s* h- i- t* q' n= 6# g* 4& e- K# g) H# 2& +) d$ S# -. x= +) B$ g% j_ j_ j_ /^ 2= z* q6 w^ U_ B_ 9= j_ /^ a- F* I* 1^ u' 6& i- w# ~# z= 0* 0* =! J* 7& B$ B$ D] c] r6 v| `5 j3 M_ M_ }' 3& &* &* &* &* 2% f$ k% ,! C= ;! ;! a) 0! 6^ J* B$ 7& b# r' f| g% 5& h- f- f- 8# &* e# L# >* N= M% 2& d$ L# +) 0# K# 5' ,- n- {* x3 s6 o= t6 .& %, 2-  & 4, *- {- !- b_ '! :{ 5] j& 8) M# M# c- i- f- f- ,* b# c[ ^[ ",
"Z@ U'  5 u6 v6 w6 :$ K4 <- x6 y6 z6 A6 B6 C6 D6 8/ u- ;' E6 F6 ]: z- q[ l2 X2 E2 )' G6 A5 U[ ({ q[ A! w- 5( h: j: /  H- B; H@ I^ r[ 1' 7$ 6$ S= J- J- c< ^  Y/ `/ ^~ 5> f: f:  @  @ <; /~ /~ P  /~ =' r+ G: b4 p> r: U  ^~ J~ x: ~~ 9/ S! 7/ K: |+ v/ q. ~; U! D. w  _> )@ H6 I6 J6 K6 L6 M6 #  ]  `# 6. Z! 9. 9. 9. w! !] H^ @. E^ @. e. t[ 0; x@ 8. 5( h: h: X/ 1: b/ `/ `/ J[ H@ b/ 5$ J[ D^ Z| h' N6 B/ w! 0; ^/ :4 14 H@ b/ H@ .~ 5> x2 U! 5> H^ }~ H^ r/ Z/ `/ 5$ .~ u! c/ B^ j' x5 4* 4* U@ >$ 6$ $:  ~ v; h: S^ _; S^ z] 8. i< h: 5( z@ O6 x! ^/ (/ W| 34 o* Z! f' f' ^/ m* z< z< ^/ M& N[ T4 Q[ b1 n< r1 b1 L4 !, l( r, c1 R$ D4 P6 x6 n< c1 4* i' |4 z- }~ b; y: |~ #; Q6 3/ g/ $@ H^ D^ v; v; 5( 9. A@ 14 }~ 6; 9/ R! [; [; A: r: r: %  ,; |> _@ R6 <; Z/ 6. h> Y/ Y/ Y: Z: Z: d: d: 4; S! K; ~, )6 a~ `:  ] /~ )6 R4 D! r: S6 U; J> 3. t- ]~ t- t- 8/ r- 4; H] L^ v/ L[ Q@ @  [~ ^. ]~ P! x> u. N+ W. T6 M+ )@ !@ t. U! O! @< C/ :: |> %  /. O! s- P! s- #  -@ -@ -@ ;@ t/ ;/ T! z> Q+ ,@ 7+ 1. 1. W! O! s- M- C! X^ v- v- _: Y/ c< +  J^ >} G- .  .  D- Q^ U6 T- )/ )/ p> V; x: =' *< $@ V; N> V6 W6 X6 Y6 6/ 4/ P  r: (~ 6; @~ b. |~ Z6 ;< }; o/ A- v- }~ w@ i< A; r[ y@ z@ N@ !< ",
"I} `6  7 .7 y! `4 .7 q( e1 e1 A( +7 @7 #7 $7 %7 &7 *7 =7 #7 -7 B( x5 +6 E6 2# z6 ;7 >7 k/ r[ x, ,7 '7 )7 z& !7 e< ,_ p( -6 O& t, 8< `1 *# 7* w& -, -, a< |) x} +% D: y! G% G% C& C& [$ [$ }$ T$ G% T$ 9, ^$ E# z< :] {$ 7} s( n} }$ C# V, z6 e: ]| {$ $| C, .% #$ #$ C1 .% 4@ 2* *# ~7 f* f$ W% J% A] K% r@ p@ K% Q% Q% P$ e> [$ u@ ^' x, x} g+ k: c( r[ h: x! z@ w! j: v; J[ H@ u! H@ .~ D^ 9; e. 0. {7 t[ h. v5 z< Z| 8; U@ g. w( H@ .~ 9; ]7 c/ K[ x- _: q- q- _: S^ Y: .~ D^ .~ z@ ^$ v( 3$ r[ i< `! j: j: v; '< A! +6 6% U| K- K- v; 5( v; ^7 h: T, T, J  24 f1 {$ n* // n* g' i+ V, U, U, h+ K4 C# b< E# o< m: @% -( C1 e( Z# H' x@ /7 8. b( Z! 7$  ~ [> R4 t: S! .: 0~ u- (7 Q[ 4* 8, w< 3* v< 6* A& w% g^ v{ 7% O; K> ;  _} 2} 2} N[ 2} M& v1 P[ g' R$ u@ *( c% z, -( t@ }) ,# D, C, %% S; _7 C; T[ T[ ;. e( ~( }) }) ]' }) $| G% o: o* b' s{ s{ @' @' [% }% h$ l# L& :7 V$ %# f@ x$ T% <% 9$ %. b( `! b( c( q( `$ `$ D, m# -# x} ({ D{ z; x- 5> z  }; 4; u- k5 <7 [7 L[ $} }7 @< >@ @< %@ V2 v/ t- r- 4; 8/ D~ |7 T  E[ T  64 17 7/ P  e/ .. 3/ 6; t- t- @1 L[ c/ 27 y! v; j: /  B! K- J[ h: /  L> M> [; !@ C^ 37 47 #( b. 57 67 &4 %4 g5 ,' 77 E[ q- z; x- 9; h' i< E# A; K- h: !< K; ",
"C( C$ j- <] K% N# W) H< k- 6# {& 8) 0_ p' a_ y3 87 @! d5 a_ P# '- I# g* H# ;, J# *- Q= a> ~# v$ e% 4% .* 8& a& g# g# l) [' 5= 5= w$ ;! F= F= C= &* z= $) l) e! 1% 97 i, A= A= u$ o% t' F= t' o% A= $) ,* 0- 2% e% t' Y] 6& a* l) n% F= U= b{ 2' 07 H$ C] #[ 8] K' !% x# 6, 0% k$ L# '] b) e% f$ G= 9* w* 4= y* g% s* i- e# a7 (^ u' u$ Q( m% m% %) &) l% U& K* Z> d- %* %* 4% 8& 3% 4% .* 4% 8& 9% 0% F| E% c* 3% Y} c$ U< u$ n$ A= %* &* 8# e- K# g* +) d* f% 0% 9% `& e% e% 2% R% 6& 5& [' b) M' K* T& %* T& `& h) m- ., c* f] c* k% N' 4% R% E' |$ V& d* 1' b7 C$ &* }' [' [' B$ B$ 4& 8# 4& G) ^[ 8= I* m$ e- E= j^ d- C= C= v= h_ g- c7 d$ u$ m% B= m% T& 8& h# g-  - 8& i& d7 s* f^ `% c) >, g- &* &* f- T= R# v, +$ J$ l# s& k$ x$ i$ L$ o# s# s# 6' V) e$ 0& i% H= 0& 0& 0& 0& 9& e7 f7 [% g7 t# 8- 5% ^] :, :, &! +* j% n% n% o^ 6'  & Y& `& `& Y& Y& h) h7 h7 N( =- i7 (# K# B$ 7# D$ >, q@ 7< L% o@ J% I# N( +) ,- n- h7 h7 @] t< -- k$ l$ #3 @: 6} 6} M= e) (% ^, ^, ^, (% (% I} O4 j7 k7 E, V# ], ], ,% X# m# &# p& Q& S= >. 6, ** 5! +] 4- 9& j# i# 5- d% X% l7 R# S# j$ k$ f@ e@ <* T) f@ l$ (* (% 1' S' (6 m7 9< =- *2 *2 *2 +2 8) p@ <] H# S% 9] .) 0% x= j# c$ R% E| M, M*  | ",
"F) |@ ~^ &^ G] y3 l3 <= B_ ]] f= &^ _= Z8 `8  9 .9 +9 `8 1_ @9 q^ := 4| g= R_ [_ W) #9 U, z$ z* i) -!  ,  , G) J* Z> 7= $9 :! S_ H* %9 8= 8= :2 <_ <_ I* K( d- 4& e* H# &9 75 *9 75 y_ 65 =9 75 75 y| 0= w| ,^ W] 8= u= _^ u= r* B* r* b= ;* ~( >( >* U& [' C= z= u* d- 6' J* H} -9 ;9 E* x* [2 m$ c= 2= f| J] J] m' [_ 3& `' W] y_ *9 >9 *9 *9 2^ D* D= G* H* ,9 A* u= J* J* Z> J* 5& 5& J* 7& C( C( q, 5, ,! 5& h_ 7& 6^ J* ,! Z> e- B$ 7& s* a# C$ C( 7# g) +) J# h* B$ e- a# 0# C( ]& B$ y* C$ C$ B$ B$ g% s* g% :@ r' a# a# i) ,! d- B$ B$ 6# b! 8# B$ 3$ o< g| u= -_ Y' [_ K] r' c# c# c# ,[ '9 _! )9 d! d# [@ '* d! 4| R_ !9 $9 ^& ~9 )* A* 8= W] <_ W] A* Z> u= v* {9 ]9 o) 45 H* A* ^9 f| B) 7= }^ <@ 2= f= 6, {# g) K# M' 3& K* 4& 8# b! t* ]& e= :! k- C$ -! y* J* `> J* d- d- u' j_ 8* v# s* B$ d- L( _^ D] F* ,! ,! 8= 8= [@ 2= o^ v* v* v* [^ [^ u= u= u= t* >* u% /& x* c| /9 /^ `> s* 7& f* |* e# c= w* 7& 7& s* 7& 4& &* h% 6& g3 %] 2) H' y} m{ ~* '_ M# >, 2& >, M# c- {& k- d# >, f# h% 8# 8# i- h- G# d$ %| 8) z, j+ b# x] 4& e- e- 4& g* 6# 0_ 0_ H< ~^ H< k^ q' 0_ L# b# H# d$ 0% J# =- '% #' f6 k[ P# !- z$ (& (& z$ z$ b# y$ A$ /& g) s* 7& s* 6' e# 7& e- 4& f- 1* 0{ ",
"M= c, D4 `4 14 D2 D2 27 ;# _4 `4 [# ;' l' (9 _9 :9 <9 [9 }9 |9 19 ;7 @6 w5 :- 29 39 49 |+ y; g: x1 l1 d> l1 x1 s[ s[ s[ 59 z- W| q* }/ U[ h' O$ x{ }/ 69 }/ [/ H2 =  +  x! w! x! 9. y@ y! y! z@ U@ k! 79 3/ ~] _: I^ >/ r/ ^~ I~ 89 A/ %~ 99 09 a9 b9 {~ Q! Q  Q  p> p> }+ `~ O> P5 c9 v- g/ 6; 6; G^ k5 K[ !< !< !< !< }~ `/ h' ~$ 6- c( Z# k: %% ({ u( ({ @% $% @% `! Z! 7$ @% @% 8$ @% U@ 8; w@ h' d9 I^ r[ x@ t@ I@ A; r[ w! i' y- D^ y@ ^$ 0, v5 0. H@ u! u! x! h' B^ c/ e9 ~] ^: W| z- N@ e9 B@ B/ 14 p! f. s! f9 g9 K@ ^3 ]3 L4 M} M} ]$ n< V@ :] i+ Q  4: s1 t{ s( D& E& E& =3 ($ O} n< [- -& h9 i9 M@ p7 h1 2# e9 U[ s[ u[ j9 =} k9 D- 8. i: w@ O$ z< V, ^/ m* v! :/ l9 ;' /$ 14 :4 (/ y@ E# Z! c( E# 14 n! K~  @ E^ H@ 9. g. U@ i. k. @. :4 z! e9 H] #{ +  <} <} ;  _}  / c< 8. H- J- E~ O; q[ i< d> V[ V[ R[ 7. 5( j: j: S; _} _: R! ~~ [; ~~ 6; g/ ]~ t- t- D~ T> w. +} a/ J[ .~ +~ g/ V! I! :+ r> m9 /} p> X; M2 _+ _+ h~ h~ K: r> B. ^+ j4 n9 o9 p9 q9 r9 g; M! g; f; R> K! s9 t9 p~ e; [1 o~ o~ o~ -< ;< M| 7; o/ u9 v9 w9 U6 2> S> &@ V2 V2 ,{ x9 y9 z9 A9 B9 e8 3; C[ &{ ${ #( C9 @~ 3> t- C. |+ i; D9 V  E9 d/ T  u9 F9 6/ T  5> D[ y2 G9 9; A@ I@ j! z@ v@ C1 ~( j+ V, n< (  ",
"1& %# V$ :' H, s1 z% 8{ =3 e} e} =3 d} D4 V' _8 n) U% D2 B@ L4 8, z6 z6 n: g^ z% f& =7 N1 3) e$ g} (6 #' P& #' m7 m7 D% 5] g< *( 1@ S% 9% k* c* J& 4% K& n- v$ Q' H9 2% u& o& u& 9%  * E' K' 9% 4% f, I9 9+ {, p# -] j{ }* o# :* t# 5! %- &8 )& !- 4! R# 5- 1@ j$ J$ K$ I} p& Q$ j5 J9 f} {% K9 !( O= 2) j& N= N= R# <& #) z$ *# )# h# 9& 5% 5% t& u# a$ L9 *3 4: 5$ M9 x} u@ u@ ^' ^' u@ L& L& u, T$ _- u{ -# <* $^ v, P* 1& ## +$ $| Q$ v; v: ]$ ]$ ~$ 8$ @% $% 6- r4 h$ M= 8, N9 x4 w{ h+ R$ ,% T* O9 P9 Q9 Q9 P9 O9 J[ w! w@ 4* V, R$ R$ P$ C} R9 `$ C& ]7 d2  ~ S9 0. 9; A@ 9; 0. 0. 0. u! c; Z+ {: B@ D# Q$ U, s, w@ m* _/  } Q[ |4 Q} :- x, L& j+ ^' C1 #$ #$ #$ R< 2* ^6 T9 >( U9 V9 r& f) |: 4. F: Q, H% >. ~8 :% `$ (% E, h$ u, h$ (% z% D& W9 +6 X9 E# ^/ ~( $| 4( ;. E{ 7@ -. g$ -. w, w, L& g+ $| x} C, $$ ,# ,# t} @$ 4$ Y9 7$ D{ >( 4@ &# *# M, x$ ~# k$ K% 1) F% v% P* Q* 1& l# :] l} (  Z/ !: Z| Z9 E~ Z! `! `! `! `! Z! 8$ 8$ D^ w- c/ `9 [4 p2 z- 7; z[ y; '' @{ !~ G^ ${ {~  0 e; 0/ .~ J~ y: >/ 5$ 0/ o/ +~ +~ f: R! R! U; M2 X; .0 .0 '4 v+ +0 @0 #0 $0 %0 Z5 b; {: C^ J| z6 w5 27 k' !] !] e9 q- z- c/ c/ F2 c/ B/ 0. P| 6( J@ .@  ] ~' q, `{ ]} W& X, G{ +$ 3( 3( }% ^8 ",
"B) <@ K] _! ][ c# m' m' e] 7_ o- 7_ n& 9! n' m= m7 c_ := k^ )* '_ %] o- b# j- c# Z8 &5 }= n= ,! F< f^ x* x* 4= /^ 4= u* =^ L& !( ~& 6# k- )* )* [5 I* n& &0 :2 _& *0 :| Y' d= ]& ]& C( 7# g) 7& =0 E( W9 }/ -0 ;0 j3 )* [_ o- {* D$ C$ Y' a_ >0 ,0 '0 C3 G$ H( G( G$ G$ i- a] )* [{ Z; )* t_ I) ~& 1* A$ ^& 4^ (= g= c[ )0 ![ p' n= K] e= Y' [_ 8= /[ !0 %[ (= V@ w8 i_ 5& J* J* ,! J* u= 8= 8= P_ 3| ~0 l& J] i[ -_ ., y_ E= 5& J* `> e= x= U$ ,! ,! }' *) c) (_ _^ i_ i_ }@ '^ '2 %! v| i[ Z> {0 3} 3} 3} 3} r6 M_ }| L, m$ $) C= a) ;! !! v* K( u= ]0 ^0 q' x) s_ 5^ >! >! >! 0! 0! ;! >! >! 4! /0 g& g! e- C* [^ (^ b= Z> 8= A* i^ c# (0 Y' 3^ [^ !! v' 6^ 6^ E= E= 95 C$ H' 1& 7& *) %* ** }' 8# g# a& +) +) y$ _0 j- 6# L# d$ +) d$ >, L# h- h& g& G# Z( R& s# h# h# k# p# i# U= U= h# G= e- 8# 6& Y& `& l% .* S& 3% ~) y' !# o# :0 W% |$ ** |* d$ |* f* 0# +) K# J# ;, b# f- 7& }' 4& g- 6& E' v] E' {# #' <0 4$ j# j# p# p# j# i# h# h# w' A= h% [! *- K# &* F1 S# e$ j# U= h# s# :* N, [0 i1 ~% f] w& A] X& E' 4- H= 5% 9& *! l) '# q# v% v% s@ 5) *, o* }0 k1 |0 Z^ M= J$ ~# e$ r# T= X% L* 6, Q= 3! )- 1! V$ w& v# N% N% w# t& p# p# i#  & [( 1& 8& `' n$ P< i% H= e# g# 3% h% 9* X= ",
"10 ][ !^ 20 30 Z8 9_ 5_ 5_ |5 3_ 25 |_ l& l3 y3 G4 40 50 1_ )! m= ~^ A3 60 |! z3 70 80 90 00 !^ a0 }5 b0 b0 c0 d0 d0 c0 e0 g% f| n6 S] f0 E) F) 0| g0 |@ h0 i0 j0 k0 l0 ][ ][ _! _! F) |@ a| a| ,9 m0 .& o# m0 ,9 ;[ n0 D) C) 3| D) S] )9 y) r) q) A) A) 9| o) 9| l= l= m= ]9 |5 %5 a; |_ o0 _& |! T_ p0 (0 _! ~^ }_ A3 q0 r0 s0 a0 }5 o) 9| t0 u0 S_ v0 w0 x0 4} b{ y0 x_ x| x| x| z0 F3 g0 g0 %! '[ A0 z) o) D) C) %! H* 0= a| :_ r' V_ I_ 3) J] J] ., J] }@ }@ -[ }@ B0 u) l3 C0 ~0 u) J] Q] h0 B0 B0 h0 G3 h0 i6 p- K& g| [_ ., -[ ,^ [@ A* %! (& 9| }5 D0 E0 |5 %! m= m= s' q' $! $! $! q' u_ F{ F0 _0 _! 1= 1[ e^ g= j- (= ][ G0 H0 I0 J0 L] F) 4| 4| r' ,^ <@ ;[ 4| !^ y% ~< (= -_ m' c# A* z* S_ V_ 4^ n= K0 L0 p0 6] c# d# d# A$ ;* g= f| :_ S_ /& x$ e# 2% a* g* 0# +) g) 7# 7# e- B$ p- :| :| }| m3 e3 M_ r6 -! h* B] K# L# P* g)  , w* (^ (^ (^ (^ j_ ^^ ]^ v| p) l= g) ,^ ., -_ Y' e- c) 6[ v_ b] M# W, &$ U( U( k) k) /! d^ Q( Q( a* 9# e# M0 b{ &] 8# N0 }& [& g- h- f# H# y$ ## 7. l7 u* B= 0* m$ (^ B= z= $) $) $) /^ 0^ g- h- F= t' o% o% c$ f$ x= 2) v4 D{ R' L* G# 3' {- c! '^ n= =* N# O0 1_ /= <{ b{ {- P= 2) 3' 3' b& b& 3' !- P% P% c- K# 8# m$ d- `> |^ i) d] (| -! c# ",
"A( +7 V' *7 A6 D6 P0 |- >7 ;' E2 ;' Q0 R0 S0 T0 U0 V0 W0 47 !] !] c/ !< p7 |4 z! X2 X0 Y0 U% `4 Z0 `0 j. j. J@ T@ T@  a n[ *} *} #4 F2 x; {] .a +a }~ <7 @a F2 #a $a %a &a *a &a =a -a l1 6% g: w- }~ 1/ [; ~] B- c/ z- I@ p! t! l. f. p! ;a >a T  ,a <4 M~ K~ K~ >/ >/ |7 o/ ]~ A2 'a o~ [; )a A: L~ ): 0; B/ A@ A@ 14 !a ): ^3 M} ,6 h8 ]$ V@ @6 t! ^3 h+ 2# 6; 0; :] 4) 4) q& T% T% q& q& q& }% #3 r7 3# I$ }% }% e) 4) 8{ u{ 8{ f} s1 +6 O; l! l! l! ;a c2 ~a ;: ~a h+ z6 U% |# {a  5 r4 p< V@ M} ,6 )$ )$ )$ )$ )$ ^  r4 %' F, D3 F, e, Y@ g{ ]a ^a /a (a _a F, |% D3 D3 D3 I} D3 D3 D3 D3 U% S4 #( 67 o2 )' :a 67 |9 67 E2 <a [9 <9 [a }a X2 )' p2 o[ o[ =a &a |a r1 1a {@ B5 r1 |) x} $| $| R= +% D{ (/ U[ #4 37 <% q{ <3 0$ .$ %.  $ -$ 2a :4 ': e. +~ 0; P| >$ B/ D^ A@ B/ 0. u! 0. 9; C[ A[ w[ B2 6; 9/ ~~ 9/ (: r; X^ D! ~, K5 c~ n/ @  @  [~ <~ [~ @  [~ +  5$ [> +~ e. A@ 5( A@ u! .. 7/ s- s- 7+ :+ 3a A+ [+ T> }+ }+ >@ @< @< @< {; -  /. U> Y5 l9 S^ R! (} A- v- v- J^ >} j2 w/ E. !] 6$ @% z@ B/ y! $% s[ s[ e9 e9 !< !< K[ 4a >$ $:  ~ 6$ 5( .~ A- k5 5a k; |9 >' |~ |~ 6a 7a X2 X2 8a g5 9a h2 0a aa Z6 L| C[ +} }; 9/ 9/ ~~ a/ 6; ba y  3> [> R4  @ J[ J[ D^ u! 5( x! E^ y2 ",
"8. K- z@ ;  ~  _} Q; ca *  r; X^ ;  _; '  _. @  %4 [4 }~ H^ .~ J: M- j: z] O$ (/ r[ A-  @ l. da $% Z# @% @$ X# %% A, =. ea fa ga ha ia ja ka c: '$ la .: (  06 @@ ma 9~ Q/ na oa p/ #1 pa ^. ,< o5 ,. k: ~' 7$ N& O$ N& W: c> Y! M[ qa qa *} ra sa '  _. C~ ta ua }. }. s/ B; N& I^ 0; 1: J- l} p, @$ C, 0{ M, *# u% x$ Z( va c@ ,, p# a& f$ i# F& (6 P& y# ]% >^ Q% ') *( z, O* y, y, 5) O* z, B, q, z1 C1 8@ B1 f( F{ -( H' e( x} z, 5) :# wa Q& Q& P& P& T% 5) z, 4) G% }$ :$ H@ w( 7, F, |3 )$ M} M} g. >$ 4$ 8; )$ Q$ V, n* P[ n* w1 U, N& E{ @% S, w! |  y  U, E{ B{ xa xa xa `{ T< )} )} 9. K@ q! u! 34 q[ U7 F^ !] !< z! w; I] %{ K  '' x! 5( 5( w@ A; i< O$ m* X, x} g^ U$ N, {5 ,3 K= C, Y# 7@ 2, G{ C1 y@ ya &6 (% F, I} F, &6 Y$ Z$ T% G, f} <# M1 y} #' {% q& 5) T% q& z, O* y, T% J; _} |4 x@ i< r[ A; 6% ^/ n* B} l< n* x, |) d< ,# ,# N, @# @# ,# ,# N, 4) T[ 1< R= u@ 5) q& ^' H@  @ P  (~ r: v: w! l( H) za Aa Aa Aa za c+ 9{  @ (: P! Ba h~ [~ !~ J~ j: /  v; h: <} J; L; [~ +a K^ n; (} L; P: |. C~ J; {; K; f: 4> 24 D> ~@ |> ]; _@ 0> 8~ t> F> q. pa >' ${ a/ #  p; @1 L[ 1~ *{ *{ *' ;< g; b  Ca Da *@ y. W. W. T! }+ C/ &  2> 79 E^ b/ (  s/ A/ l6 |: O~ Ea f) e> A; #% ",
"o% 6& m$ 1& R( f* I' I' f] `& M' `& 9] c* h) 0# s' 0_ f% 9% .*  ) N' 3% d* %* %* 4& i$ *. += Fa A; A; U, s, R= s, r, r, r, T$ [$  % $% k: U@ U@ r[ Y# E# Q[ C1 @~ Ga z; =. q, `, ;% @' s{ @' U* r1 u{ :' :( u{ R= i+ P$ C, $$ u5 #$ 2, #$ 7, I5 l} 3$ .% #$ @$  % `$ `$ 1$ t& v& F, ;, D, &# L, h@ q# [* H= t' d^ .| Q( S& p% }' 6^ 6^ D* i_ J* Z> f| /^ z* Y' F) 3= w$ c) L( K( K( (_ L( c) *) d- f% &_ g* K* L( K* m- >! w$ m% 6^ D= I* [@ n^ [^ v* !! C* v' B= C= v' Ha E= 3= }( d* e- 9# n% 4- l) w= l) :, 9& o% z= -[ c] l| *) }] %) 9# l% y# J$ k$ P% {; <} Ia ]# E% j$ j$ 5- 8* 8* x= T= o% Ja R1 [2 4& [' B$ f# V= e# 8# g# }& K$ W} h& F= o% t' a* $) d^ d^ Q( 0* 4& J] ., u' C= u$ n$ g- e# &! #^ ~5 v$ M< Ka a# a# a# i) i) ., -_ [_ t* a- /& d! T_ i^ s* u' F= o% a* t' j% &! 2% 4& ~( >( 1% )# )# s# s# f@ 1- !# f@ !# :*  ^ e$ j# u& X& X& K& K& K& ** ** f$ 1- q3 f, t# s# q# r# g^ z< x! A@ h' m* La Ma 1$ <* c' $^ $^ $^ /3 /3 Na z| v, Oa %% a@ Pa k{ 1, m@ /] /] 5% j# k# g- l7 1% Q) S* )# j$ !# n@ )# )# T) a$ l^ g7 h@ M, e@ .' .' e@ '# 1$ B& %# z( [! L* 6, L$ 6, 5# z( y} n{ P& y, P& 3) N& #6 A< [) g' P[ k< M4 B% Qa S% w& h# 8& N' `' ~) j# s{ U# Ra i{ l@ T) I8 Sa ",
"e- g% 0- k$ x$ A$ M# M# 7# a# a# a# G) C$ C$ a# Ta Ta 9! g* g* e- 7& e- >, s* 3= X) G4 N| Ua {: x1 E# (/ r, :] s, u5 R= La p@ o@ c% e< t@ H' H' <) 7@ m* ^7 k+ 0/ Va S; 7@ 8@ B, n# 9' 9' 2, n# .% 9' $^ 1$ 2, Z{ F{ F{ +$ u( s, C1 C, F{ E# Wa 4( U$ ## B& 4@ &# ## &# w% Xa Ya g} Za w% w% `a D% w% A' 8) +) `> F* D* +) m- C)  b .b o| +b M3 n| @b Q] m0 )9 #b }@ :_ z* 1= 1= :@ z* f| z* b= 0- y$ d< W) b# C( a# {* i) z* :_ f| A* ., E) V_ [[ <@ B) A* B) 8= 7= A* }^ d= &^ }0 $b ^< /< %b (* ^* L* L* R& R& L* G# %^ `= Z% G= `% &b *b =b f$ &- :,  & ,$ 6- d! #& (& X) I_ I_ (# <] I# 2) A# +! ]- n1 *2 }{ ~< c} R' '% ~< y% _- C# <) {_ <{ !_ !_ <{ 7) _' I< I< -^ ~_ -b `_ ~_ c5 z8 Y_ C8 ;b (& m' A* a| 6] E, (= :! r' g| -[ C) -[ ,^ [@ D) g| >b ,b w| [[ _2 [[ /2 /2 W] G* W] W] q| -, -, 6# f- 7& s* 7& g) y$ M# g) M# {& d! M# >* 7& s* s* B$ e- f- f- h- 5' F% 4( 5] (6 9< 1{ La 'b )b !b ~b {b ]b ^b /b t% t% z| 0@ |( B1 Z1 Z1 g$ ~( M& (b i' P& j$ [% %# K$ 2* D, v, L= -# &# 6, u# _b :b >% D, 9' <b x} ^' :] ~$  : O~ G, g^ s{ $# $# T) T) u, u, u, F4 G4 H, s1 E& s1 k1 j1 [b 9< p@ X& u& p@ a< [{ 8{ V$ 3) L$ J$ {% K% K% -- _# >* B$ e- h% g# *- |* 2& g- 2% 6& d$ _' n5 ",
"i+ s( K4 A- x- w5 s[ q[ !] K[ K[ c/ K[ K[ z- z- }b |b =} =} B- v- !: r/ .~ x! A! 1b 2b 3b 4b 5b 6b 7b 8b 9b 0b 0b 0b 0b 0b ab bb cb db eb fb gb hb ib jb kb lb mb nb ob pb qb qb pb rb sb sb tb pb ub vb wb jb xb pb yb zb xb sb Ab ub Bb Cb Db Eb Fb Gb Hb Ib Jb Kb Lb Mb Nb Ob Pb Qb Rb Sb Tb Ub Vb Wb Xb T0 Yb A! q[ f: [> 0. y@ i' h' p7 w5 D# n< L4 t5 l' J4 Zb |# n< O} f8 /$ m< f8 ($ O} `b x8 '6  a V@ ~$ )$ h. h^ Q[ 1a U[ f1 f1 e1 D6 P$ i+ V, v@ 4* E# w@ w@ #4 }}  c .c +c @c #c $c %c &c *c *c &c &c =c -c ;c >c ,c 'c )c !c ~c 6b @c {c ]c ^c /c (c _c :c <c [c }c |c 1c }c [c [c 7b 2c 3c 7b 4c 5c *c 6c #c 7c &c 8c 9c 0c 9c <c >c ;c ac bc 7b [c <c }c @c cc dc 'c ec fc gc >c hc ic jc kc lc *a 4a w>  $ =$ 0$ p< #$  % m# m# c1 m< x5 +7 .5 c1 P$ u@ [) [) o: g' mc A< mc nc 91 [  e/ x: M~ I| M~ 6; [; 3> K> !~ :~ 4; #  :~ @  <~ J^ :~ :~ o; o; /. oc pc qc rc sc tc uc vc wc xc yc zc Ac 4c Bc Cc Dc Ec Fc Gc Hc Ic Ic Jc Kc zb Jc Lc Mc Fb Ob Nc Vb Oc Pc Qc Rc Sc Tc Uc Vc Wc Xc Yc Zc `c sb  d .d +d @d #d @d @d $d %d &d *d =d *d *d -d ;d >d ,d 'd 'd )d #c )d !d ~d {d t9 )/ U  E5  1 b4 n4 E5 E5 ,/ 7: )~ f: ^~ 5> @{ Q@ !] e9 0. u! !] 3/ T^ v- 2} K- c> A5 ]d ^d ",
"j: /  b/ .~ D^ 0. .~ b/ x- x- A- A- v- _: q- L> /d V. ^d [+ T! 7+ 3. t- B! K> ~] d( (d _d :d <d [d }d |d |d 1d 2d 3d 3d 4d 5d 3d 3d 6d 6d 7d 7d 8d 9d 9d 9d 9d 9d 9d 8d 0d ad 7d 7d 7d 7d 7d 7d bd 6d bd cd cd cd 7d dd dd dd 7d 7d cd dd ed ed bd fd fd fd fd fd fd fd gd hd hd hd id jd kd ld md nd od pd 1a E# x} x, O* M~ <; C; j: H@ H- i' ^$ ]3 v@ r[ h. 9; S4 '/ N~ '$ ^  .: `# '$ '$ '$ @: '$ u! 0. 9. w@ x! 0. x! 9. 9. z; q[ A- z- {; D^ 5$ Y/  ~ 6$ 6$ `! ,. p< J: qd rd sd td ud vd wd xd yd zd |d 1d Ad 5d Bd Cd Dd 0d 8d Ed Ed Ed bd 6d 6d fd fd fd bd bd Dd 0d dd cd dd 7d 7d dd Fd Fd Gd bd bd bd bd fd bd bd bd bd bd bd fd fd Hd Hd Hd Hd Hd Hd Id Id Jd Kd Ld Md Nd Od Pd Qd Rd Sd Td c( N| w- S= D2 v4 <# G% Q& 8{ T$ t{ e) E1 N% M% u@ ;. |: +% o< ({ D{ >. >. `! b( b( `! h< Ud ;$ F{ $. Vd @$ .$ 8; >$ $: v! D^ +~ ~, ;: g+ j+ [$ s, :] r, C1 u5 >a Wd _c Xd Yd Zd `d  e .e .e +e @e #e $e $e $e fd fd bd %e %e &e *e =e cd dd dd dd cd -e -e -e cd cd dd ;e >e >e ,e ,e 'e )e &e !e ~e =e ;e ;e {e {e {e >e >e ,e #e @e ]e !e ^e /e /e /e /e (e _e :e <e <e Gd [e }e |e 1e c; J; y[ 0/ r/ 5; r/ ): H@ .~ .~ u! ^$ h. y@ z; v- 6; I  ]: u! h: u! J[ K> }~ G^ 3> 3> K> y- ",
"6# m$ g- V= 5, #& 5, x=  * 9% f% d* f% t< -- -- 4} ({ S, S$ x, x, G% U$ 2e *3 +5 N& 3e 4e 5e 6e 7e 8e 3e 9e 0e ae be ce de ee fe ge he ie je ke le me ne oe pe qe re re se se se se se se se se re te ue ve we we xe ye ze Ae Ae Ae Be Ae Ce Ae De De Ee Fe Fe Ge He He Ie Je Ke Le Me Ne Oe Pe Qe Re Se Te M* x= V& u$ Ue |$ i# W1 %* 9# W1 L( 1[ y* 7& 4& 8# b& >( h$ 3% 3% 4% 3% 4% e% e% 6& F= a& g! ,* +) K# g- 5, >, 2& f* K& K& j$ 8* 1& l# =# =# M, M, 1& =# 1& t1 Ve We Xe We Ye Ze `e  f .f .f +f @f @f @f #f $f $f $f %f &f *f *f *f *f %f *f =f =f -f -f ;f >f ,f 'f )f !f ~f ~f ~f {f ]f ^f ^f ^f /f /f (f _f _f _f _f :f <f <f <f [f [f }f |f |f 1f 2f 2f 3f 4f 5f 6f 7f 8f 9f 0f af bf cf v' n& df 3& =^ F) ., k| %[ i_ i_ I* L( g% i- b- 32 6, }% .& $- l% 9# K* [' K* 9# K* 3& ef ff 6' l% e# e$ .* h# 8& 8& .* f% 9% u& u1 I# T= *- H# X% 6, R& l$ X% 5: gf hf if jf kf lf mf nf of =f pf qf rf sf sf tf tf tf uf uf uf vf vf te te wf wf wf te wf wf ue wf wf wf ue Ce ze ze xf yf xf xf Ce zf Ae Af Bf Bf Bf Cf Cf Cf Cf Df Ef Ff Gf Hf If Jf Kf Lf Mf Nf le Of Pf Qf Rf =f Sf `4 @$ 4* &# '# b% k# J$ J$ i$ R& 8* y$ *- 8* h) u& k$ t} 1@ X& ;, g- j% j% G= 4- :, :, 3% 7& ",
"y* g% g% 0- c= n^ c= 4& g* 7# a# 7# g* +) J# 0# c{ %# B& ~- M* l$ R& 6, K% m7 +5 H% Tf Uf Vf Wf Xf Yf Zf Zf Zf Zf Yf Yf `f  g  g .g .g +g @g @g #g $g %g %g &g *g *g *g &g &g %g %g %g =g -g -g ;g >g ,g 'g )g !g ~g {g ]g ^g /g /g (g (g (g _g :g <g [g }g |g 1g 2g 3g 4g 5g 6g 7g 8g 8g 9g 0g ag bg cg 3d c{ 5- y* `> dg m$ 4& eg K( `> R3 }^ [@ B) I* F* 8= s* fg h& 9# 9# l% [' 9# [' 3& 5& ,! h% i^ [_ B] G) d- B$ B$ 7& B$ e- a# 6# c- j$ 5- x= H# 3' d% !( '% )( Ia 69 ee gg hg ig jg kg lg lg lg lg mg ng og pg qg rg rg rg qg qg qg qg sg tg pg sg sg ug vg wg xg yg zg Ag  g Bg Bg Bg Cg Dg Dg Eg Fg Gg Hg Ig Jg Jg Kg Lg Mg Ng Ng Og Pg Qg Qg Qg Rg Sg Tg Ug Vg Wg Xg Yg Zg `g  h .h +h @h #h 7& |5 3| :@ $h 20 }_ o) -[ r' :! F) |@ c# ^& _= >[ I< )( ]] c[ ]& d= m' e= m' [_ m' K] %h d_ c! J] ^& ~& e= k- |^ -_ B] C( D$ D$ ]* q' o- k^ n' X) j& N= l{ W) {+ Rf &h *h =h -h ;h >h og og >h >h zg kg kg ,h 'h 'h )h !h !h !h ~h ~h {h {h {h {h {h !h !h ~h ]h *g &g *g {g ~g ^h /h (h _h :h <h [h }h <h /g |h |h 1h 1h 2h 3h 3h 3h 4h 4h 5h 6h 7h 8h 9h 0h ah bh 5g Pg ch Og dh eh fh gh `$ 3# M* |& =- e# }& }& V= [& [& m[ #& V= d- M# *- 0{ ]] d# {& i& x* 4= g% 7& t* g% s* 1= ",
"G% u5 7} m< v( O} [$ C1 q! ^3 ^3 q! B/ z- z- z- B/ J[ `/ B/ D^ .~ u! B/ v! f. f9 {| hh ih jh kh lh kg mh mh nh nh mh mh oh ~h ~h ph ph qh qh qh -g -g -g rh sh th th uh uh uh <h ]g ]g ]g ]g ]g th <h <h <h <h ]g vh vh wh xh yh yh zh Ah Bh Ch Dh Eh Fh Gh Hh Ih Jh Jh Kh Lh Lh Mh Nh Oh Ph Ph Qh Rh Sh Th p7 A! w@ c( 8} 79 H@ P[ k: ~$ R= n} G% e) z, O* t{ r, P; v( $| $| e( x} ^' x} x} L& B% P$ O} C# m1 A% w< z% }$ u{ Q$ R$ v( v@ h' /  w@ h. 8, L4 c/ c/ B@ )' ': V! Uh Vh Wh Xh lg Yh Zh wg `h `h `h  i xg yg  i xg xg xg xg .i .i .i +i +i +i .i @i .i .i @i #i #i $i %i &i *i =i =i -i -i ;i >i ,i ,i 'i 'i )i !i ]g ~i vh ^g ^g ^g {i {i ]i ]i ^i /i (i _i :i Ng <i [i }i }i |i 1i 2i 5d 3i V@ |9 ,' ^3 W0 4i $4 }9 ^: 5i w[ ]: 5i 6i :- z6 [# U7 A! h^ 1a K[ c/ !< !< |4 34 34 34 7i 47 B^ :) E# x! N& H2 y@ y@ 5( w- w- x- K> K[ }~ H^ 5; 5; B2 3/ g/ D[ 8i 9i 0i ai bi tg ci Ag lh lh lh lh lh di ei ei {h fi gi hi hi hi gi ii th th th uh uh uh uh th <h <h uh uh uh uh uh <h ji ji ki li mi li (i ni oi pi qi ri si ti 7h 7h ui vi vi wi Ih Jh xi yi zi Ai Bi Ci Di Ei Fi Gi Hi '' H5 3. ~, <; 3/ t[ w@ i< r[ l( y! 9, L4 ^$ ~' ;# ): s> a; a; a; b. '' Yb Yb Yb 4a n) u- x; ",
"o< 1' A; j: Y^ h: @% 8$ .~ H@ u! 0. 9; 9; 9; A@ w5 B@ B- B- q- q- H^ a; j! #. ^3 Ii be Ji Ki |i Li Mi Ni Oi Pi Pi Qi Ri Pi Pi Pi Si Ti Ti Ui Ui li li Vi |h |h |h {i ]i Wi Wi Wi Wi Wi Xi Yi Yi Zi `i  j <g <g <g .j +j @j yi @j Hh Hh Ih Hh Hh #j #j $j %j %j &j *j *j Mh Nh =j =j -j ;j >j ,j 'j )j !j ~j A- *  I- 7$ A; {j ]j W[ Y/ B! ,. 6$ 1' ;. E{ ;. >. o< x@ J- ]6 '8 ^j X[ X[  2 b> X[ /j C; ,4 Y^ m* <6 G2 C; @: +: +: K- j: j: u! 0. 7$ ,. 6$ w! x! 0. z- K[ (j z  _j -f :j }i <j Kg [j }j }j |j |j }h [h [h [h 1j 1j Qi 2j 2j 2j li 3j mi (i 4j /i {i ]i 3j ]i ]i 5j 5j 5j 5j Wi Wi Xi Xi Xi 6j 6j ni ni ni oi pi qi ri ri si si si 7j 8j 9j Ei 0j aj bj cj dj Bi ej fj gj hj ij jj kj bd lj V@ 77 A[ !: 5: mj !+ A. 3. 2/ 7/ R! 8/ t[ E^ +~ <4 ': (j ^3 A@ 0. u! u! 9. 9. x@ 8. K- S; nj 2> y] I- 7. C; c< v; x! w! h' y! h' H@ 0. P[ O$ m* w@ i< i: 8. E# z  oj pj qj rj sj tj Fg Si Pi Pi Pi Pi Ri uj uj vj wj wj Jg xj ^i ^i ^i ]i ]i ^i ^i /i /i /i /i /i /i ^i ^i /i (i ni ni yj zj Aj Bj Cj Dj wi vi Ej Ej Fj Fj Gj Gj Gj Gj Hj Ij Jj Jj Kj Lj Mj Nj Oj Pj Qj Pj Rj Oh Sj Tj [e i2 0> t- 5$ Z/ B. R! m* O$ w@ A; 8. i: j: h: Z! $: e. e. _: !~ M> 4> q; :; p; o; :~ Q@ 4; >@ ",
"&! c$ e$ E% Uj r# U= I= 8& 3% 6& &* &* +) +) J# W) I_ N* Q% Q& #' Q% V$ #' F% J, t@ Vj Wj <h Xj Yj Zj `j  k  k .k .k +k @k @k #k $k %k &k *k *k =k -k -k -k -k -k -k ;k >k >k >k >k ,k ,k 'k 'k )k !k ~k {k {k )k ]k ^k /k (k _k :k <k <k ^k [k }k |k 1k 1k 1k 2k 3k 3k 4k 5k 6k 7k 8k 9k 0k ak bk ck dk ek 3) c% g# e% g) A, @# j* 0# 8& %* 3% 6& &* 4& 4& B$ y* R_ >* h% 6& e% h% 6& h% e% e% +) M# 4@ B& {& +) 8# &* U= U= U= e# 5, .& -9 C| m$ e# g# |& 5- 1@ l$ L$ ~< fk gk hk ik oi jk kk lk lk @k mk mk #k #k nk $k $k %k %k %k ok pk pk qk rk sk tk sk ,k uk ,k >k >k ,k >k >k ,k )k vk >k >k >k >k ,k ,k ,k >k ,k ,k 'k 'k uk uk uk uk wk xk yk zk Ak Bk Ck Dk Ek Fk Gk Hk Ik Nj Jj Jk Kk Lk Mk K* <] e) %# v@ q} H, y, P& Q% P% Q& p&  & .& :* L* :& S3 V= a& 2% 2% 2% 2% 9# K* 9# l% <] C<  % 8& c$ h# ;) p# ~) %* 9# 3& 5& 8# 3% 8& r# s# T# W% g{ g{ g{ $- {+ Nk Ok Pk Qk vh Rk Sk Tk Uk Yj Vk Wk Xk Yk Yk Wk Wk Wk Xk Xk Yk kk kk Zk `k `k  l  l  l  l  l .l .l .l .l .l .l .l .l .l +l @l #l $l %l &l &l <k <k :k :k :k *l *l *l Fk =l -l 7k _k 7k (k ;l >l ,l 'l )l !l ~l {l ]l ^l '= ^' r1 v% w# l< b% ~) j# f$ a& h# c$ i# c$ l* %* +) [_ 0# `& 0# K& 5% /] h# a& i# f$ |& $# ",
"B= e- >, H# s3 f* f$ t' }' d- ,! 5& }' 3& [' M' ]& ]& >, f* d% d% O= !( =- I# x% |) /l (l _l :l <l [l }l |l 1l 2l 2l 1l 3l 3l 3l 4l 5l 5l 6l 7l 8l 9l 9l 8l 8l 8l 8l 0l al al bl cl cl dl dl dl el fl cl gl hl il hl gl jl kl kl ll ml cl cl cl nl nl ol ol ol ol pl pl ql rl sl tl ul vl wl xl yl zl Al ek 36 I# y* 4& 3} +% F% h[ G) B] d] ,! y* 2= 2= b= 2= b= K] m' y* y* 7& g% s* y* s* 7& G) k- x$ 2* k- g* ,! ,! B$ B$ 4& ,* ,* /& /& u_ >* 6# 0_ 8) N= I_ X) (# *^ 0< Bl ie Cl Dl El Fl Gl Gl Gl Gl Gl Hl Hl Il Jl Kl Kl Ll Ml Nl Nl Ol Ol Pl Nl Ql il Ql Ol il al Rl Rl al bl cl bl kl Sl Sl Sl el nl Tl Ul Ul Vl Vl Vl Vl Vl Wl Wl Wl Xl Yl Zl `l `l  m .m +m @m #m $m %m _k &m *m =m -m 4d ;m >! j& @) @= n< b( F# Q% E% 1@ S# d% |* a& M# >* i& g= c# d# g% L# >* M# >* g) 7# g) g* b_ `: M= g* 2& >, K# >, K# g) g) B] C$ g* J# J# K# +) ;, |* |* d$ 2& M# U^ >m ,m 'm )m !m ~m }l {m ]m ]m ^m /m (m (m _m :m :m :m :m 8l 0l 0l 0l 0l <m <m <m 0l 0l <m <m [m }m }m [m |m |m 1m gl ql ql 2m pl nl 3m 4m 5m el el el nl nl ol pl pl 6m 7m 8m 9m 0m am bm cm dm em fm gm hm im jm km lm mm t{ :# x= >, C% }{ >, ;, >* c- L# M# >, g* K( B] g* ., h[ I* d- 8# z= =! v' v' w$ $) i- U= ",
"q& n: Q$ h^ nm E# (/ u@ [$ }$ }$ R= r1 V, i+ h+ 8{ O& w< i+ V, i< i: 8. P| v! L4 .] om pm qm vk rm sm tm um um vm wm xm ym ym ym zm Am Bm Cm Dm Em Em Fm Gm Gm Gm Hm Hm Im Jm Jm Km Lm Mm Mm Mm Jm Nm 5m Om Pm Qm Qm Rm Sm Tm Um Vm Vm Wm Wm Wm Xm Ym Ym Ym Xm Xm Ym Ym Zm `m  n .n +n @n #n $n %n &n *n =n =7 H2 O$ v@ -n h~ !] S8 N$ <- C# f8 z% w< m1 m1 g^ y% y{ ;n g^ w< n: g^ b1 z% w< w< 03 29 34 2} D# g' o: 8} n: 8} n* z< (/ f8 K4 C4 >n ,n *a 'n z5 &a -a F; )n J; mf te !n Kl ~n {n ]n ]n ]n ]n ]n ]n ]n ]n ^n ^n /n (n (n (n _n _n Rm :n Rm :n nl <n [n }n |n |n 1n Hm 2n 3n 3n 2n 4n 4n 5n Jm Km Km Km Km 6n 6n 6n 6n 7n 7n 5m 5m 8n 9n 0n an an bn cn 0m dn en fn fn gn hn 1k in jn kn ln >. u9 R  I| ]+ H| 2/ 6; +~ !: <4 0; H@ a; ~] E[ w[ mn 92 W| ]: b; #{ #{ b; c; Q@ o; o; >< nn ]~ K1 g: c>  } 2} x- z; z; s[ |4 A! v- q- )< )< >} [~ @  @  <. <~ on pn qn rn 2l sn tn un vn vn wn xn yn zn zn An Bn Bn Bn 1n 1n 1n 1n 6n 7n 7n 7n 7n 7n 7n 5m Cn Cn 4m 4m Cn 5m 4m Dn En Fn Gn 2n Hn In Jn Kn Ln Mn Mn Nn Nn On On Nn Nn Pn Qn Qn Qn Rn Sn Tn Un Vn Wn Xn Yn Zn `n 8k  o .o +o F! |} L> q- t/ ${ A; A; E# 4* r[ V, (/ V, z< A; h' ($ R$ P$ s, 8$ i< </ :/ O6 X: 6% |4 q[ ",
"+~ I^ o/ [; 5> H^ J[ j: I- K- x@ H2 6% c> c> c> c> I[ z; X^ N[ /  8. H- j: 9. E# @o #o kd $o %o &o *o =o -o ;o >o ,o 'o )o !o ~o ~o ~o {o {o ]o ^o ^o /o (o _o _o /o :o <o [o [o }o |o 1o 2o 3o 4o 5o 6o 7o Hm 8o 9o 0o ao bo bo co do eo fo go ho ho io jo io ko ko ko lo mo no oo po qo ro so to uo vo wo M^ w. /@ <} 5( h. z@ j: Y/ 5$ 5$ 5$ !/ j: 0/ 7; W: s- xo P! z. ]+ ]+ E. E. x> x> x> j/ ]+ &{ 4; :; !~ !~ 2> (  h> Y/ h> C! V| H^ K; /  /  X/ =  (} (} <; s:  @ W. yo zo Ao &o Bo Co Do Eo Fo Go Ho Io Jo Jo Ko Lo Mo No No No No No Oo Po Po Qo Ro So To Uo Vo Wo Xo Yo Zo `o  p .p +p @p #p $p %p #p `o 9o <o <o `o 1o `o `o |o &p *p =p -p ;p _n >p Hm 1n Sl ,p En 'p )p !p ~p {p ]p ^p /p i' o2 9( >$ J@ Q$ Q$ z% 7} `4 P} (p _p 0, ~' r4 13 E5 U- G@ >. m( y2 m( I| +~ I^ +~ Z| .~ B/ !: t[ @. D^ /  9. x@ J- Z! Z! `! h: Y^ K@ U, r1 (/ (/ C1 u( D{ [$ I  :p <p [p }p |p 1p 2p 3p 4p Ko 5p 6p 6p 7p 6p 8p 9p 8p 0p ap bp cp dp ep fp (o gp hp #p #p @p ip jp kp lp lp }o hp 1n mp Vo np op go pp io qp rp sp sp tp rp up vp wp ho ko xp xp xp yp zp Ap Bp Cp Dp Ep Fp Gp Hp Ip 0d Jp ]@ >@ J; [> r- F~ 8> D/ Kp T. 6+ ;+ Lp 6+ Mp 4+ Np %; ]~ q; 0> %  K; T; T; O; J; R4 R4 `/ ",
"b] @* x] &]  , x] 0] ef ** f* |* |* f* ** ** f* }2 1' S$ S$ _% %% E, }% f$ x$ l{ W# Op Pp Qp Rp Sp Tp Up Vp Wp Xp Yp Zp `p `p  q  q .q .q .q +q Yp  q @q #q @q $q %q @q  q %q &q *q =q -q ;q >q ,q 'q )q !q ~q {q ]q ^q /q (q _q :q <q [q }q |q 1q 1q [q 2q [q 1q 1q [q 3q 4q 5q 4q 6q 7q 8q 9q Mn 0q *n aq bq x1 5) e$ a# [_  , h) c* f% f% 0% c$ Z& f% M* cq !* j> 4{  * K' K' F' E' 9% 0% 0# Z& f% 6# a# M' a] K* T& q# |$ K& X& k$ M, i$ G{ M* T= E% Q& Q& T% K$ [% u& H2 dq eq fq gq hq iq jq kq lq mq nq kq oq pq qq rq rq qq qq rq rq  q sq tq uq vq wq xq yq zq Aq Bq Cq Dq Eq Fq Gq Hq oq Iq Jq Jq Kq Hq Jq Lq &q Mq Nq Oq Pq Qq Pq Rq Sq Tq Sq Uq Vq Vq Wq Xq Yq Zq Wq `q  r .r +r @r #r $r %r [& z( H= 8& 6& >, g) C( ]& ~& ]= &r ~^ [! t* ,* [! [$ b( S# 4% 9] 9] .) k* `& h) `& Y& 0# 6# f* K& X& u& E'  * |$ !# |$ s# q# x$ 0{ <& z( P= L* R& l$ i$ l# G# '< *r =r -r ;r >r ,r 'r )r !r ~r !r {r {r Tp {r ]r ^r /r (r 'q _r :r <r >r >q >r >q [r }r |r Qq 1r 2r 3r 4r |r 5r 6r 7r 8r 9r 0r ar br cr dr er 1q 1q [q fr gr hr hr ir [q 2q 2q 2q jr jr kr _q fr lr mr nr or dm pr qr Nd N9 E{ +6 4) k$ 0} X& l# &# ## 4@ 0{ &# 2* 0{ 4@ [% D, g$ |$ ', o] /] t& w& S% F' F' S& .* &* ",
".,  , m' j- R_ d= C( a# h* B] G) G) G) G) G) G) O# m: x, t, _* O& '% Q& A' '% k[ $% rr Dd sr tr ur vr wr xr yr xr zr Ar Br Cr Dr Er Cr Cr Cr Fr Gr Hr Ir Jr Gr Kr Lr Ir Mr Nr Or Pr Qr Rr Rr Sr Tr Ur Vr Wr Xr Yr Zr `r  s .s +s @s #s $s %s &s *s *s *s *s *s *s *s =s -s #s ;s >s ,s 's )s !s ~s {s ]s ^s /s P} F% 3' o- m' d= g) &] g) g) K# e- Z& x] M# (s >- _s !% 3% .* +* +* 4- G= g# h- 4& f# p^ f! f- &* g# Y] *) *) @* a] 0] Y& f% :s k- {* ~* )% I( G& _# K, ~* <s [s }s |s 1s 2s 3s 4s 5s 6s 7s 8s 9s 9s 5s 0s as as bs bs as cs ds es fs gs hs is np js ks ls ms ns os ps qs rs ss ts us vs us ws xs ys xs zs As As As Bs Cs Bs zs Ds Es Bs Fs Gs Bs Es Es Hs Is Js Ks Ls Dn cm Ms #r Ns Os Ps /# g! d# c[ g= (= R_ V_ Qs Rs Ss Ts G0 T_ R_ U_ u< w1 N#  , ,! 5& 4& 4& s* s* B$ f- y* :@ c= h- e# h- h- f- d% *- *- *- 4! M* L$ V} a_ a_ I_ N= l{ l{ I# (& w5 Us Vs Ws Xs Ys Zs `s  t Hs .t Hs Hs Hs Is +t @t #t $t %t &t *t #t &t %t =t -t ;t >t ,t 't 't )t *t vr !t ~t {t ]t ^t /t (t _t :t <t [t >s }t |t 1t 2t 3t 4t 5t 4t 6t 7t 8t 9t 9t 0t at bt ct bt dt Ap et ft gt ht it Ld jt s( kt !( d% -^ p@ e$ e$ |&  & i# h# a& U= 1@ X% J$ m^ e# 2% n% F= h% h% K* [' K* K* 5& 7= ",
"y} f} _- y4 y4 =8 3# e} e} 3#  5 C4 :$ .5 ;7 z6 i5 /@ +  4a q2 4a N| >} lt {] )' s: mt nt ot pt qt rt st tt ut vt wt xt yt yt zt At Bt Bt Bt wt Ct Dt Et Ft Gt Ht It Dt Jt Kt Lt zt Mt At Kt tt Nt Ot Pt Qt Rt St Tt Ut Vt .s Wt ,s Xt Yt Zt `t Zt Zt Zt Zt `t `t Zt  u .u +u @u #u $u %u &u *u =u -u ;u >u ,u U8 '' #{ 1# /: ]: B@ B@ v5 ^3 q! ]3  a 9, v5 O1 B^ 'u x5 L& j+ L&  % _% R= s, k} i+ m< 8, 8, m< c1 k} ]$ ': ': ^3 v5 ': l! F@ d/ )u >& !u O@ ,u ,u ~u I; l2 S/ {u ]u ^u /u (u _u :u <u :u [u }u |u [u 1u 2u 3u 4u 5u :u 6u 7u 8u 9u 0u au bu cu du eu fu gu hu iu As ju ku lu mu nu ou pu ou qu ru su nu tu uu uu vu wu xu yu zu Au Bu yu Cu Du yu Cu xu Eu Fu Gu Hu Iu Ju bm Ku Lu Mu Nu y! M^ >/ 8/ &{ b; 34 l1 h^ y6 B( -7 @7 27 9, 4* y6 H] [. Q[ y] U@ w( )$ i. p! p! l. r! 9, &' 0, q! B/ B/ A@ 9; y@ |4 S^ v- z- _: L> N@ o( o( c. >a >a L| &{ e8 v. Ou Pu Qu Ru Su Tu Uu ut Vu Wu Xu Vu Xu xr Vu Yu Zu `u  v At Vu .v +v +v @v Vu `u Kt At Bt Bt ys #v ys Gr $v %v &v *v =v -v ;v >v ,v 'v )v !v 6t ~v {v 6t ]v ~v ^v 7t /v (v _v -s :v :v <v [v }v |v 1v 2v 3v 4v 5v 6v ad +o /@ 7v P! @~ 8v %( t- t- y; '' Q@ +  u; H] u; ]d }7 F> >} F- <} <}  ~ Z! 8$ Z# Z# Z# 3$ {$ ",
"^~ I^ L~ e/ p> ,/ 5/ 5/ M~ M~ 4/ 4/ %~ E5 5/ '/ 8/ 3. };  ( ]+ ]+ {+ z. 4~ +< H] 9v 0v av bv cv dv ev fv Xu .v gv ut hv iv @v zr ut @v @v @v jv kv wr kv Gu lv mv nv ov pv ju At qv ju tt gv rv lv sv tv uv vv wv xv yv zv Av 'v [v Bv Cv Dv <v Ev Ev Ev Ev Ev Ev Ev Fv Gv Cv 9t Dv Hv Iv Jv 7q =u Kv Lv >u Mv !+ q; q; ,a 3~ Q! o/ +~ J[ b/ J[ h> ^~ v; `/ E: _: C5 ;  f: f: 89 Y4 I~ I~ A: Y| P  '/ 17 Nv *< ,/ ,/ |7 L~ I^ I^ +~ K~ K~ 2/ #@ Ov Pv r9 Qv Rv J! f; f; y. N; Sv Tv Uv Vv Wv Xv Yv Zv `v  w .w +w  w  w Yv @w #w $w $w %w &w *w =w -w ;w ]t >w ,w 'w )w !w ~w {w ]w 7u tt pv ^w /w vt (w Ct It _w qv :w /w  v  v <w Jt [w At :w }w zt |w 1w At qv 2w [w tt Ht lv 3w 4w Mm 5w 6w 7w 8w 9w h> ,< d~ D. K: H! ,  I[ =2 H[ H5 O; ;  J: b~ {6 B! z; |4 z< 4( ;. 4( ~( >. >. 1' 7$ k: :4 h' ]3 ^$  a _4 &' &' /$ +7 ;7 39 >= 0w !< !< <- +6 x1 s[ s[ |4 z; |4 v  aw bw cw dw }w Qr ew fw gw hw iw Xu ut +v Xu jw kw lw wr st wr mw us kv nw ow nw vs #v Nt Nt qv ov lv xs pw qw rw sw tw uw vw ww xw Vt yw zw Aw Aw Bw [v Cw Dw Dw }v }v Ew Fw Gw Hw Hw Iw Jw Kw |v 4q Lw Mw Nw Ow Pw Qw }a B  ;{ V! {+ nn h~ u/ ;@ C/ +< ^. |} ]. Rw J^ y; L^ L^ .< G- <} X^ @: +: +: b( 6. +: 6. b~ ",
"T& 3& d* f* f< 2& c$ .* f$ r# e$  & 8* x= X% S# P= R' t, V$ M= u{ T$ u{ G, 8{ $, ~$ Sw Tw Uw Vw Ww Xw Yw Zw `w Ft ku  x nw nw rv ov nw nw .x Eu Er qs Er +x Cr @x fv Cr #x ow nv $x ts $x %x Er rs &x *x =x -x ;x >x ,x 'x )x !x ~x {x ]x ^x /x (x (x (x (x (x (x _x :x <x [x ^x }x Cw |x 1x 2x 3x 4x 5x 6x 7x |4 G% }% R' z, *# 5- f$ 8& 4% e% %) H} &* 0# x] C$ F0 j* M' Z& [' l% l% 9# c* 9] 9] d$ 1& 1& ** d* d* 8& V& %* Y& `& 9] f% |* 2& (* B# e& 3# Q} 6i b5 k1 ~8 A; 8x 9x 0x ax bx 6s cx *w dx *w @w ex ex fx gx hx hx gx ix 5s 5s jx kx lx mx nx ox px qx rx sx tx ux vx &w ts wx cs 4u us Br vs us 6u $x [u 0u mw mw 6u xs ws ys 7s zr zr Vu xx $x Br yx zx xr Kt xs Ax 4w Bx Cx Dx Ex Fx Gx c@ Hx $# H' o* b( G% M, s& 7* &# J$ 1@ r# M< +] r# b- d# f# z= b) b) %) l% 9# 9# T& l% &* 8& 8# ,! J* ,! J* 7& {& k- (# 42 Ix 42 N= *- Jx 22 ^* ^* B# I8 e, N4 Q^ Kx Lx Mx Nx Ox ]w _u ts xs |u ov ow wr lv ow Px Qx +x qs Fr qs +x Kr Er Rx Sx Rx fv Gr Hr ]w Br wr lv Sx Tx Ux Vx Wx Xx Yx Zx `x  y .y }r +y ~x @y #y ~x $y ]x ]x ]x ~x %y {t &y *y *y %y $y =y }t -y ;y >y ,y uo 'y )y !y O[ p2 :] e) R^ [) 1@ M, M, ~# E% ** |* ** t' g# V= 4^ g) d- $) 9^ h% h% T& l% U& 4% 8& 53 ",
",! 3= M# >* u& k- i- &* _^ _^ _^ K( x] x] h* B] ]& ^& >, *- =- K% p@ R* _{ o{ 32 <% ~y {y ]y ^y /y (y _y /w :y _w lu <y [y [y Jt }y |y 1y 2y 3y xs }u xs [u 4y ws Nt 4y 5y `u qv ju 8s xs ys ts ow 6y 7y 8y 9y 0y ay by cy dy !x $y ey *y }x fy }x gy gy hy hy gy }x iy ~x jy ky ly Dw 5t my lr ny oy py 6x qy <$ O& R} R# *# ** 7# 3& }' >! E= R3 V= K( G* <_ i[ R_ ry 7& e- B$ B$ 7& J* d- d- 9# i- T) h@ f# &* &* a* f# h- K# g* 2& 3' b- 32 h% |* O= >^ [{ [b (< ,| Y8 M$ sy ty uy vy wy xy yy zy Ay xy 5u zy By Cy Dy Ey Ey Dy Fy Gy Hy Iy Jy Ky Ly My Ny Oy Py Qy Ry Sy Ty Uy Vy xs [u Wy :u ys 4y kv kv <u xs 8u 4s Xy 6u [u mw vs Vu 4s tt tt `u vt wr }y Yy gv Zu tt ts Ax rq Zy `y  z .z +z @z e$ 1) 5, r@ Q% #: 4} 6, d% 5, 6' 5, 5, L# b! [& [& c- $! c- t* 1* 1* h& h& ~& ~& A$ A$ k- g* ., D) N3 n| ,2 C) f| e= n= ~[ C0 J0 -* ^& ^& ^& j- /& I_ N# N# L8 @6 #z $z %z &z *z xs =z Gu lw -z ow Gu Gu ow lw ;z >z >z ,z Dr ,z 'z fv )z !z +x ~z Er ]w ps Jr {z Br Br ,z ;t ]z ^z /z (z Ny _z :z <z [z }z |z Sq 1z ,q iy @y 2z 3z 3z 4z Jq 5z %y #y @y @y ~x Ew 6z 5q 7z 8z ,y 9z 0z az bz M= 73 W$ :{ g: h+ I= H= G= I= l) l) w= w= u* 9* [& g= C( B$ a* cz f- m$ 4& a# >* M# b# 5- ",
"g} g} E& 7} i+ :# y} A% D4 :$  5 C4 dz ,& ,& dz C4 I7  a ez 1# 1# ^: W| F@ fz C4 gz hz iz jz kz lz mz }y cs nz Qx oz ,z pz 4s iv .v 5s qz rz Jt Ft sz tz uz vz Ct Ft sz wz /w |w xz :w Zu qv `u .x yz zz Az Bz Cz Dz Ez Fz Gz Hz Iz Iz &y Jz fy ~x iy }x gy gy gy jy ~x _x Kz Lz Kz Bv Mz Nz _q Oz Pz Qz Rz C@ +} 6; 5; !] (} z@ f8 [$ U$ e) I$ C% v6 g} g} M1 n{ =8 ~< G% L& G% 8{ 3) Q& 4) T% T% 5} 4$ g. I% _* l$ l$ H, f} z% w< [) C# :- P} x8 I: @4 Sz Tz `7 Uz 8v Vz Wz Xz Yz Zz `z  A .A +A dx @A #A ;z $A %A &A *A dx dx *A =A -A ;z ;A >A ,A 'A )A !A ~A {A {A ]A ^A )A /A (A _A :A <A [A ju jw }A }A |A `u Hy 1A :A :A 2A vz Dt tz 3A ku 4A zu Gt _y _w Fu Ct Ft Et nw 5A mq 6A 7A 8A 9A 0A aA v@ 4a o+ @~ S  M2 E[ 9; w@ >$ U@ U@ w( x1 w! 0. U7 F; |a x1 9. w! y@ w! x! y@ w! 9. 9. D^ Z/ i' c1 i+ r1 i+ V, g' (/ q* i5 I4 bA +6 4* c/ B^ e9 #4 u- ~: n) P@ O  cA dA eA fA gA hA iA cs jA 5u 4y 6u 7u ts mw xy 8u 8u 6u $x 6u 1u $x }y kA 5y 5u Nt Br mw mw jA lA 4y }u ]w mA nA oA pA Az qA rA sA tA uA %y vA wA Lq ,q wA 2z 2z 2z /x Gq xA {t %y $y $y #y ly yA 5q zA AA BA CA DA EA FA L; F[ ]~ .. GA L! y! y@ z@ y! q! q! q! B/ U7 e9 }9 HA IA )' !< I: e. I: G@ F^ /: /: JA g/ ",
"h: H- T, J- h> j: I- E: b~ ]  N~ Y/ J: V| %  4: M2 KA @/ .> r> I! _+ r> W; L~ B^ LA MA NA OA PA QA RA SA TA qz UA Yw VA hx jx <w <w 6s 4s WA  v Gu ^w lw kA ^w nv }y #x Hy Zu  v Jt [y `u tt <w XA YA ZA `A  B .B +B @B #B $B %B &B *B *B #y gy ~x iy gy ~x ly ly iy }x iy ~x ^x ey =B -B Nz :q ;B >B ,B 'B ,' Y^ [~ b/ =~ z& 7. 7/ s; )B :} c~ a~ ]( a~  ] `: s/ J5  ]    E: n/ E: !B Q, S, l6 |: 7. K- I- c< 5. l} ,. A} '} M- (  E: J; B. H. Ov ~B .0 (+ |; _5 {B ]B B[ ^B /B (B _B :B <B [B }B |B yy 1B xy |B 2B Ay 3B 4B 5B 6B 7B 8B 9B 0B aB bB cB dB eB 9y 0y !A fB gB hB /A =z Wu iB jB Iy  v 7u xs xs kB .x kA jx lB lB rz [y Jt TA mB Jt  v <w Bt `u Yu [w tt nB oB Zw ]z  q `p =q pB qB aq rB J~ 5a L~ y- B@ sB 27 x5 i' ;# :4 q! y6 v@ l( A; U7 <} ^; B! /  B! h> M- M- (  (  (  M- 0/ r/ D! R4 V| 1: V| R4 w} C! ~, s: _; p> tB 4; K> !~ 0/ 1> J> K; 2> ~] ./ :f uB vB wB Qr xB yB <u 6u zy 6u 6u <u xs 4u zB 2u AB |u Nt [u :u Nt 6u :u <u BB As wx 7u 4u CB 7u 4y 'z DB EB FB GB HB IB lz JB KB ls 4w $y LB ,q wA ,q wA jy MB NB 4z Iq OB %y %y *B $y @y PB QB RB _q yw SB TB UB VB WB 44 M. Q! M> ]~ /~ %  43 v: /~ <;  @ <; v: O; T; Q! <> H^ _: 5$ b/ M~ I| ,/ x: E5 %~ d/ 6/ ",
"[' [' (_ 3& 7& B$ 9# l* j% n$ m% 2% 4% h# j# i# .# m} .$ ^, /% t{ e) T$ M$ y} )| <3 XB YB Py ZB `B  C .C +C WA :A (w VA Wy jx @C pv WA 5s Gy ju Yu rz <w Gy #C At pv pv jx pv `u  v qz Zu Kt <w |y YA ZA `A  B .B $C %C &C *C }r =C *B *B @y gy $y ~x }x ~x hy ^x jy }x }x iy -C ;C Fw -B Nz :q +s >C ,C wo %3 #] s@ 8- 'C <_ h- /, d$ T& r#  & N' k% k% U& %* N' Y( 3& h) h) h) h) 9# 3& }' b) d- ,! i) -! }' [' 9# l% c* 9% a& f$ ~) X& _* h: F, F, T$ R= [$ n< /$ D4 )C }#  f !C IB ~C {C ]C ^C /C (C _C :C <C <C [C }C |C 6B 1C 7B 2C aB =A 3C 4C 5C Ty Ny 6C 0y !A 7C gB hB 8C 9C Xy 0C zy Iy `u +C lw wr kA nw >A jx Hy qz 2A =w Jt Yu mB Zu Zu pv Jt <w TA wt tt 4y aC /w bC  q cC =q pB dC eC cf e@ ^% ~# K% ~- (& a% 7# K# >* >* 7# M' e- f- L# h& k$ K= j$ x$ s& s& x$ ~# E% 1@ 5- x= f* 6# 0% I' 0% K' E' >) S% K' k$ P* ^) L& ]  K% #' Q& V$ I$ I$ I$ /% d& fC gC hC qx iC Kr jC xy 8u 4u kC 6u |u 8u 4y 6u 5B AB xy |u Br 1u lC $x mw lC 5u mC Nt mw }u 6u CB 7u mw 'z nC oC pC qC rC Az lz JB sC tC :r $y LB Sq ,q ,q oq }x 2z 3z /x MB uC $y $y $y #y ~x vC QB RB _q Hz wC xC yC zC N1 G{ i: +$ ## y} i$ K$ J$ k$ s& M, s& f@ f@ w# i$ B# t} x= f* f$ r#  * K& h# i# f$ ** f* >* ",
",* B$ s* c= B_ e^ i- 8# e# a& g# g# g- f# 5, |& b& $^ 9' :* 8* E% ~# L$ j1 >^ AC .# BC YB CC 8y DC ]C EC lB Wy UA _y FC Ey Iy _y +C Ey hx GC Ft Yu rz Zu mB lB At Yu pv mB Yu ju Bt qz <w Bt +C 1y HC ZA IC JC KC LC MC &C NC }r OC 5z uC #y gy #y ~x ~x iy }x hy jy iy }x jy PC QC Iw RC Nz :q SC TC UC VC WC d% Ia +- }& 8= t* P) e- }' g# +- L# M# >* L# >* ** t& k- X) y$ 3' 3' 3' M# c= t* ;* ;* d! g= y$ >* c= g% &] C$ g% &* 4& g* $, +% d% *- 8* p@ !( O& S} %& {< <8 XC YC ZC `C  D .D +D @D #D $D @D #D #D @D %D &D }C *D 1C =D cx -D cx ;D >D ,D 'D )D :B !A Py gB !D 8C 9C pv hx ~D Iy pv [y <w Jt kA nw {D GC Gy Hy ]D wz Zu lB GC Zu  v pv Jt pv TA At Bt mw ^D :w /D (D _D =q pB :D <D [D 6' e6 x= N* l7 )! {* C$ d= {& b# Y'  , G* i[ J] J] 9] C' h* m- h* x] h* h* h* h* x] h* {* l= )* '_ a# +) +) J# ;- >- 3' ** h) 1) 7$ N( ~- S# o{ ^* ^* l$ l$ 4! !a }D |D qx 1D Ir (y {D lC 1u zy |u <u :u }u 4u 2D Wy 3D 5s 4y 1u jB {z 7u jB :u mC Br 6u 4u ^w Rx 7u }u <u 4D 5D 6D qA rC 0y lz 7D 8D 9D Eq #y 1z Rq wA wA oq fy 2z MB 4z Iq uC %y *B %y %y $y 0D aD _q kr bD cD dD eD fD gD l# S} 1) r@ !8 M* |* 2& ;, d$ f* f% d* 6& f% ;, 5- (! J# m- 3& &* b) b) b) 3& d- 3& x] -! ",
">^ 9< 9< hD /- iD f} *3 Hx b< M4 =, Hx B% Q4 *, ]3 /  D^ v5 p7 x5 x5 N@ C@ 0, y4 ^4 jD kD 0y ;x lD mD EC qz gx lB Yw :y ix Iy tz TA ix Ey nD  v TA rz <w Iy rz tt Yu +C oD #C `u  v qz <w Jt pv pD qD ZA IC rD :B LC MC sD tD }r uD uC vD $y hy @y ~x #y ~x }x hy }x ~x }x iy PC wD Hw Mz Nz :q xD yD zD AD BD 9, CD y! DD DD 03 g^ N_ ED M4 n: p7 y6 x6 e1 Q} x6 D# && #5 F4 j1 j1 j1 y% y} g} ^- /- B8 38 FD /< >^ ~< s1 D& s1 D& R$ ($ 73 L> /$ @6 p7 p7 w5 I] %{ #( GD HD ID JD OA KD LD MD ND OD PD QD RD SD OD OD TD &D UD *D }C zB 3C -D *A *A VD ,D 'D WD IC !A IB gB XD _u YD pv 4s ZD oD TA [y pv <w jx +C GC GC jx `D Gy  E `u [y Fy <w  v TA ju Yu TA tt Jt mw uu .E +E @E _D sq pB #E VC $E I~ f/ M~ ~] (j %E ,' !] /: G@ !a /: B@ G@ I: JA F@ @~ g/ G| E[ b. b. G| F@ 92 mn *4 02 }4 g5 1# e9 N@ B^ !< c/ N| v- D[ u[ Q[ @~ 17 k' B^ c/ !] 0. 9; A@ z@ <$ &E *E =E ZB -E ]w %w ;E :u 8u 4B <u 1u :u 4u <u >E ix 3D 4s 4y 8u jB wx |u zy :u 4B xs 7u 5y ^w >z 6u 8s 1u ,E 'E 6D qA HB 0y )E !E ~E {E ]E 5z Rq wA Lq &q &q fy 3z MB ^E MB 5z $y %y $y %y #y /E (E kr _E !x cD dD eD :E <E V| ]~ !~ A- R@ !< c> d> x1 :/ (/ U, U, z< o: P$ E# `^ r1 b1 x, u@ s, R= u5 6- 6- c1 c1 L4 ",
"w- S^ T^ Yb )@ 7+ K; r; @  -  _} _} r; ;  ;  K> L> 4> 2> a/ [~ <~ /. P! 3> `/ R[ ^5 [E }E 0y ZB DC |E #x hx 1E mB Et 2E yB Fy Yu +C 3D 3D 3E Zu #C Gy #C Iy qz Jt TA #C Fy #C TA pv rz <w  v `u 4E 5E ZA IC rD ZC LC MC 6E 7E >r 8E *B OB *B }x %y @y ~x @y }x hy jy }x }x iy PC =B Fv 9E Nz jr 0E aE bE cE z[ N- O: 8+ /+ dE &; w2 Q  o> p> eE 1/ $@ e/ 2/ e/ 6; g/ g/ 2> 2> 3> 3> 3> f: <; s: J> 2> %  J> G^ L> C! Y^ C! H- J- D: J- 9. (} J; _} ;  (: a/ g/ +} {~ h~ y: fE gE hE iE qx jE kE lE mE PD nE OD oE pE QD lE +D qE *D UD rE =A sE 7B -D tE uE 'D )D IC !A vE gB wE xE yE zE lC AE BE +C [y Yu =w mB #C GC 2D 2D mB jx [A +C lB nD TA Zu #C Zu TA CE Dt (w }u DE #C EE FE GE sq pB HE IE JE KE f/ <4 ~] J~ LE r> 3~ x2 Y| i4 r: r: (~ J~ =' 1/ d. 7; e/ Q  S! Q! Q! Q! j/ 3~ x2 x2 V; ME ~~ G^ H^ }~ a/ M> q- B- D[ K> R; E[ NE s[ c/ K[ K[ 9; A@ A@ z@ <$ a~ OE PE QE RE Ir (y SE xy jB 2B 5u 5u kC 4u <u TE 3E 3E WA mw zy 4B }u <u 4B jB 1B 7u }u UE zE <u 6u 9s -z ,E VE pC qA HB ~C WE XE YE ZE .q `E ,q Lq &q Lq Lq 1z 2z 3z  F MB *B $y %y @y $y @y ly (E .F _E !x cD dD eD +F @F '6 T> %  W! #F I> =2 /; ~  )     E:  / _6 n5 J- v; /  e> ]6 g< |: {  `# b~ b~ b~ s/ J: O  ",
"j3 df $] 0_ ,_ L% y# t< >- %| +[ )_ 8] @] E$ $] 5# t{ :' W$ m1 z% h+ v( $F z' %F  % BC &F IB *F =F |E 5y Ey -F `D _y ;F >F ,F +C 5s 3E 'F 3E Yu TA mB #C GC `D ju [y #C )F 4s .v `u `D <w Zu #C uz 5E ZA !F ~F {F LC ]F ^F /F }r 8E *B OB `E iy uC *B iy %y hy gy @y }x gy iy PC Fw (F 9E Nz jr >s _F :F <F [F }) B% T) }F |> i< p& A] q& o@ y, K' v&  * 0% Y& m- i) &] J# |* f* ** K& f* ** j# 0% f* Q* w& K# +) T& l% |$ U= h% |* 5- :& ~- d% x= !( '( S' Z@ q7 |F M} 1F z- 2F =E Az kz 3F 4F ND 5F QD lE mE nE PD oE mE 6F 5F qE 7F }B [C <C 6B +A 8F uE Ny )D IC 9F !A gB 0F aF bF 1u cF yy 2B 4u kA +C +C [A TA dF eF 3D 3D Fy Gy +C [A fF +C  v #C Zu UA CE Yw @C Qx gF :A hF FE iF rq jF kF Qw lF b@ 93 E% z( e, 4. L& 7* *# f@ h@ '# f@ 4% 4% F' o& c- d= 0# 9% 9%  * I' K' E' F' F' F' l$ t} 8* H# d$ 2& u& o& d* `& x= g* 0] h& mF 3} ~- G# G# L* M* l$ L$ T= j. OE nF QE oF pF qF |B Ay jB 3B :u lC 4B |u 8u rF -F yB WA 6u jB 4B 6u 8u Ay lC Ay mw 6u kB -z 8u 4u 7s =z ,E VE nA qC rC `C WE sF tF ZE @E uF %y %y ,q wA oq Sq 2z 3z ^E Kq *B *B *B #y %y @y -C vF wF _E !x xF yF zF AF w4 -. r[ s, }$ ~  M} Q& %# &# *# k$ u& K& K& d* f* 3' c[ ;, d* e% 2% 3% 6& 8& 3% 3% a&  & 7* ",
"{& b# 1* l7 u, 22 ~- 3' f- g- f# >, *- 3' <& l7 L# k$ L$ !( 1) Q% 8{ M= 03 ~< BF (% CF DF Qy ZB =F EF 5y Dy 1E `D vz FF GF HF Xy hx IF JF KF 9s hx yB 9s LF dF iv 4s 0u MF dF NF @v )F #C qv #C  E 5E ZA OF ~F {F PF ]F 6E /F 2r QF RF SF TF ~x UF UF VF WF (x XF YF ZF gy iy PC Gw (F 9E Nz jr >s `F  G .G !y e) &2 p{ /< 43 ~$  * ** E%  * ~# U= h# a& g# &* e- 3= 4& f# a& r# |$ |$ e$  & e$ f$ g# j$ T= g! f- h- f# 4, e- m- J# <] 36 '- <] ]* <] _' 3! c8 c8 :( X$ |{ j5 +G @G 0y qx #G $G %G &G *G =G 5F OD QD OD -G pE 6F ;G >G 3B :C ,G |C 'G )G !G Ny )D IC !A `C ;x ~G {G ]G 5u ^G /G (G <u jB zE UE _G 4s :G <G [G Ay }G ~D .x By |G `D `u #C  v :A :A Ft Yw 1G gF =w hF 2G iF rq 3G 4G wo 5G 5= 6G A$ !- 7G u( P& w# 4% 4% k# j# 6& c$ f$ |$ 1@ y$ k- e# e# e# g- a& U= c$ f$ c$ U= T= $' L# C$ u= A* u= 7= J* `> c= 3= r_ j- T} 8G (& !- z$ b{ 32 {- 4! :& S@ 9G nF ZB 0G ps `v LF [G =D *D BB AB zB 0s 2C aG UD UD :u |u xy bG |u cG dG eG fG NF 7s `D `D kA 0u qz kB gG hG nA qA rC iG WE !E 8D jG kG lG $y *B mG mG nG jy MB MB  F Kq %y *B *B ~x $y ~x _F oG wF _E /x xF pG qG rG sG h$ m< 8{ e& <} t7 )( P% L$ E% 8* d$ 2& ;, J# |* *- /& L# +) h% 8# [' }' *) b) [' [' K# t& ",
"_* :{ 5] q1 z@ W@ d, t, I$ }% B# t, :' r7 =8 tG S} n< ^$ 9, v( 1a U7 W| JA G@ x6 uG vG wG xG Yx Ny yG -z zG AG BG vz CG DG EG |u jB FG GG HG :u 2D dF hx IG MF NF Wy 4s JG KG .v 9s :G oD qv #C LG MG ZA OF NG {F PF OG PG QG }r RG SG gs TG iy UG Xs VG WG :x XG YG ZG }x ~x -C Fw (F 9E Nz jr xD `G  H .H +H K; ]{ 2/ 4a C+ d/ g' {$ ,6 u@ 6- $% 3$ ~' }$ #3 #3 5] t, V$ U$ G% t{ 8{ t{ e) u{ Q& 3* 8} z% f} V$ t, V$ =3 n: Qa p* z6 d1 73 D# @H #H |- h5 :a E6 F2 w; $H %H &H *H =H qx -H ;H >H ,H 'H )H !H ~H {H ]H ^H /H lE (H _H }G <C _C |C UD :H <H Ny )D IC !A [H IC }H |H 1H 2H 3H 4H 5H cF lC zE {D 6H )F 7H HG 8H 9H 0H aH zy xy bH nD [y rz `u 2A =w @C Et 1G gF =w cH 2G dH eH 3G fH gH hH fz [a 02 J| v[ '/ }~ I- i: ,. 6$ k: @% g+ D{ z< (/ s( E& o: g' u@ x} g+ $| $| $| ^' j+ 14 c~ L4 O} M= u{ [$ [$ 7, S$ J@ ]$ [) iH jH [F y6 N@ B@ B^ F^ F^ W| ez Y: kH hE *F lH mH nH oH /G 9H pH }C 8B [G 0s zB GG qH rH 2C lC sH tH kB uH vH wH xH 4s Wy Gy Iy yH hx `D zH AH BH CH DH EH iG FH !E ~E GH HH IH JH mG KH SG LH 5z MH MH 4z Gq {t uC uC $y *B #y _F oG wF NH /x OH pG PH QH RH !< [7 @{ n) )+ +} c/ z- q[ |4 h^ h^ 1a :/ :/ q* j5 Q} #6 mc w1 P$ h+ b1 j+ x, u@ (/ l( v; ",
"5/ >/ I^ 9/ .. ,a y2 !: L~ L~ %~ 4/ E5 1/ R  C2 -< /+ _+ o~ -< ;< o~ o~ }; 91 |~ 1. SH TH Az UH VH WH -D XH YH ZH ds `H  I .I 3H jx +I @I .I jB %D #I |C $I pH 4y %I &I *I =I qE Xy -I ;I qv lB >I ,I 'I PA )I `C !I ~I {I QG ]I ^I /I (I _I iy :I <I Ur [I }I {x |I 1I [x 2I ly _x Hw 3I 4I hr 5I Mw 6I 7I 8I W! 9I M! t- 9/ 9/ Z| <; [> 5$ Y/ _: !~ !~ 0/ 2> Q! k> ,/ (: !~ q- _: q- _: A- x- y( ~/ Z| !: D! J: /~ P  (} o/ ~~ Q  {~ ~+ 0I aI q9 bI q9 Y- cI F. v+ P. dI eI fI gI hI iI jI kI lI mI nI oI pI qI rI sI tI uI vI vI wI +D &D xI yI zI AI BI {A CI iG OA DI EI FI GI HI !H |G .I II JI KI bG 4B LI &D rH MI NI OI *I GG PI QI RI SI zG :G +C 2A wz Yw }A TI UI 5y VI WI iF XI YI ZI `I 7x O; K; F! R! :; ^; {; /. {; I- >. m* O$  ~ C; ^j z] j/ ./ M> )  8~ ]@ C~ C~ 8~ ,  r. n8 ]@ /@ ]; 84 <> ME /} T- 84 D> F~ s> ME 94  J .J +J 5+ @J */ =/ =/ @J #J $J %J &J PA *J =J -J >H ;J >J ,J ND JI KI -w |C II 'J >H )J 2u <G !J 5B 3B FG ~J OI AB sH {J 7B zy <u lC lC 'z ]J ^J qA /J 0y %C (J sC _J :J <J [J }J |J 1J 2J ~x 3J TF ^E Hq 4J xA xA Hq 4J Fq Gw 5J 6J 7J /x 8J 9J 0J aJ W5 bJ cJ dJ v+ eJ |} [+ ;/ U> }; {+ 2; {+ ]+ X> fJ K/ M+ D9 |; 2; d; ~~ ~~ 1> 0/ 2> 0/ 1> 6; ",
"2- 5, *- 3' 32 g& ~- *- U= c$ f$ c$ 5- 5- E% j$ 5] G% C& 8{ e) U$ 8{ t{ 3) ($ 4# S$ gJ hJ iJ jJ kJ lJ mJ 0H 5H ]H cF nJ oJ pJ qJ rJ sJ 'J tJ uJ 9H vJ qE wJ _H 2u xJ yJ *I OI {J gx zJ nD Bt `D AJ BJ 'I Yx CJ `C !I MC {I QG Eq |J DJ EJ UG %y FJ GJ :I HJ IJ JH |I JJ {x KJ ly _x Bv 3I 4I :q LJ Xq MJ NJ  5 8' Q& +# l$ L* l$ e$ c$ f# e- e- -_ m- d* d* ;, >, 3@ d% 3% 2% &* &* a* z= u' w$ &* B$ ,* C( `& h) d* g# Z& f$ q# e@ E% P& 7} '} E& :# _- s1 7} P$ V, r1 .6 L1 OJ PJ `B QJ RJ SJ TJ UJ VJ WJ XJ mI UJ YJ ZJ `J  K  K .K 5F +K @K fG #K bB BI $K (z iG %K DI EI &K *K =K oJ %I -K MI =I ;K >K 3B bH 9H HG ,K 'K OI {H )K qH !H >H qJ KG !K #C 2A uz Yw }A TI ~K 5y VI WI iF {K ]K ^K /K (K _K :K q& (% Q& k$ i$ M* 1@ f# g% :@ ]& b& 0# F' *- }$ 8$ _* /{ k# /] q$ q$ w' 5% ^] k# u& d$ u& v% 0{ 4@ ## s{ ,# ## B& L= u{ ~$ (; t5 R$ 4* E# h' y! y! ]3 :$ >@ <K [K gB }K |K ND 1K .K /H ,J %G DG HG }C *D tJ @I 2K qJ +K 3K HG 4K uJ 5K 6K RI =D 7K 8K rE zy 1u kC kC >z ]J ^J qA 9K :B 0K sF aK _J bK cK dK eK KH mx fK mG gK hK /x Hq MH xA 4J Gq MH $y Gw 5J 6J 7J /x 8J iK 0J jK C6 A, ^$ s, u@ @6 5} !( y, y, T% 4) y, y, 4) kK z{ N_ lK N* 8< /{ w& K' .) f] c* 9] `& Y& K# ",
"s* 7& J* 7# 4^ ^& C( ,! }' }' [' [' g* g) +) f% Q= O& _* '( 5} :' 4} M= !( :# p8 5] mK nK oK pK qK rK sK tK uK *I rE 7K )H vK oJ BG sJ NI ,K wK >G 1K xK wJ RI 6B yK }B  I GG 8K 3D zK fF Bt qz AK BJ BK Yx CJ :B !I LC CK DK EK FK /I GK KH MH /I GJ :I <I [I uF HK IK ]x JH ly }x Bv Iv JK jr KK Uq LK NJ MK f$ _# `% b- c= f- 8# u' [^ D= D= D) ., C( 7# >* y$ @# ~- ~* )% 5' a% >* 7# 7# g* g) k- ^& j- 7# g* 8# h- h% G= `= <! }& 6, :{ A; 5} ,( ,( :( ~8 d, d, ~8 La NK OK PK DC IB QK RK  K SK TK UK VK SK nI WK XK YK uI ZK qI OD $D 9H qE `K 4C  L .L +L {F %K DI @L #L *K VK qH $L II %L DG 5H 0H }G HG <G OI ,K -K 1K *I &L GG =I *L {H =L !K +C wz  E @C }A |y sz zE -L ;L iF >L ,L 'L )L !L ~L K_ +) 4, ,- {- S# *- a& f- g% T3 K] i) g_ a6 _| ]# P{ %] #| I= l) G= n% n% &! :, :, e% B$ 8# ~) .* .* i# f$ ~# 8* j$ L$ J$ G% {L g8 j$ K$ %# [% L= v, L= p{ {: ]L ^L gB rD /L mE (L _L /H _L &G wJ :L %D *D <L [L 1K qH PI ZH 1K QI &D ~J @I >H [G >K FG 1C xy 8u jB jB ~z }L ^J qA |L :B 0K XE KB 1L 2L 3L 4L [J SG mx 5L 3J 6L TG 2z xA xA 7L xA Hq {t %y Fw 8L 9L 7J /x 0L iK aL bL w4 $^ R= 2* k$ H, ^* '] ^* /* ^* ^* p{ R} o{ 8* S# i$ t@ 32 3' *- T= e# f# e# f- h- M# M# c- ",
"S' 5] n{ H, =8 T' M1 f} ~' h8 .7 <$ 8, 0, 0,  a <- U[ +6 D# z! s[ U7 s[ C@ cL dL j' eL fL OA gL CC hL >J iL RI jL }C 7K 5K kL *I lL mL nL oL nJ ZH >H ZH pL 2K *D {J bG ~H GG pH Ey zK qL Zu qz rL sL tL PA CJ ZC !I LC CK uL vL wL DJ xL LH 7L HJ yL :I <I FJ zL AL BL CL zL ^x }x DL EL JK jr FL Wq GL HL IL |a JL F6 z6 2# ($ e} #3 _* 1) )( w] w] KL e6 m7 63 A< LL z( P% P% L* M* 6, M* X% ML NL ]< {< Ia z# N* '% r@ F% _* 3) f} i1 Q} G- J4 @5 #7 @7 p[ F2 I] ~: OL 6/ PL QL RL OA SL -G TJ mI TL ZJ UL UK VL oI `J WL XL YL ZK oE ZL TD %D `L ;D  M .L NG vB %K .M +M @M GI UL qH $L II pJ DG #M 3K $M vJ (G 6K ,K -K 2K jL )K qH wJ )K  I %M &M +C LG ]D _y *M 1y sz UE -L ;L dH >L ,L =M -M qy v@ h. ;M 5i p2 n[ <- o: w1 >M A< i1 j1 x6 O1 h1 ,M 4a [~ y5 h^ &a =a 'M x{ :/ )M )M )M c1 n< O} 4* V, (/ ^/ O$ (/ M& x@ v@ q[ _: !M P@ r[ r[ i' i' h' z@ h' 8, _: ~M {M Yx ]M MD ZL ^M /M (M _M /H pL )K :M qE MI .I .I OI ZH ]H *L <M &D ~J @I 1K 6B 3K rH }C xy 5u zy zy kx vr ^J qC [M :B MC }M 8D |M 2L 1M 4L [J LH 2M 3M 4M TG 5M Kq [J [J Up [J {t uC 5z =B 6M 9L 7J /x 0L 7M 8M 9M 0M  @ #} 5/ G^ u- c1 p7 s[ s[ 34 l1 l( v( v( y! i' x! <} z6 x5 p7 j' ^$ 8, m< /$ /$ ;7 +7 .5 ",
"C1 C1 V, v( c~ y@ A; B;  < z^ P| H@ I^ f: I^ 0; w[ E[ B2 T  d/ *< *< S  Q! 3; F^ <} aM bM Py UH IB rK cM dM (L eM rF @K fM gM qH hM iM jM kM %I PI RI ]H qJ &L lM mM }B {H >H nM ix oM qL Zu rz pM sL qM PA CJ ZC rM LC CK uL ]E wL DJ GK LH 7L DJ yL /I ;w ~t HK sM tM JH lG hy }x DL uM vM jr wM Uq xM yM zM ,  AM z. (. S~ |> L> (  n/ W[ o5 K- 7. j: /  `/ Z/ 1> 4> O: P: P: P: `~ `~ P: [. -  K> K; K; !~ M- C! a~ B! J: <; /~ &  %  7+ >; 2; z. /+ |; .> j~ BM J. CM 1  DM EM IC gB FM GM WK HM TL XK IM JM TK oI JM WL XL YL YL pE KM LM :M MM NM  M %K NG {F %K OM @L PM QM RM OI SM MI pJ TM GG KI UM uK VM GG WM II 1K jL XM GG  I &L ~H YM MF [y ZM `M _y *M =w CE lB  N ;L .N >L +N @N #N 67 $N %N w  K2 &N *N =N $/ $/ -N ;N J. >N ,N v9 v9 'N )N !N ~N fE N! N! ,+ V- O> O> S2 S2 O; ,; L> S^ w- z; c> U| o5 N& m* d> U[ y6 N[ <} g: 6% 34 z; q[ s[ s[ j' ~  {N ]N PA ]M MD #D ^N tJ @I 2K oJ /N .K ZL $D (N 'K -K _N ]H :N *L lM &D ~J @I *L |C KI rH SI xy 5u zy xy <N [N }N qC |L ZC %C HB Wx _J |N 1N 2N 3N SG 4N 5N 6N 5M 7N Kq [J Up 8N 9N lG 0N uF =B aN bN 7J hy 0L iK 8M cN dN eN fN .0 j/ O+ S- =; =; gN T- u7 /} ba n> m> Y; .0 W; W; g~ g~ Y; `; M2 hN ba h4 g~ _+ '4 ",
"f# m$ e# /& _[ ~- *- g- 2% e% a& g# f* X& 8* H# {* X) 2) 1) !( O& t{ 5} I$ c, 22 3) iN hJ jN ;x %K rK *G kN lN (L fG BG @I gM @I mN iM nN kM /G ]H RI ]H qJ &L oN tK }G  I >H pH gx pN qN  v qz rN sN tN uN CJ vN wN LC xN yN Eq zN /I GJ KH Hq ~t HJ FJ ;w AN BN CN DN JH lG hy }x Cw EN FN GN HN Uq IN JN 8a -. u5 KN e} _6 o< 8{ l# k$ u& X& .* .* 3% 2% +) K# b# K&  * 0% e% ~) S& h# f$ p# G' I' 1& 1& f* f% f% f$ 9] I' 7< !* g] t1 A] z( (6 A% m1 y} H, i+ c1 l( c1 N[ LN {M uy qx MN NN vI WJ TL XK ON WL PN TJ YK PN ZJ YL QN RN SN >G oN TN UN VN %K ~F {F WN DI @L FI QM ON _N SM -K oL XN RI /G qE uK YN _N ZN tJ *L )H &L >H {H 2K {H `N &M #C ZM ]D tz .C =w CE lB  N ;L .N  O .O +O cE @O `# I@ i+ -~ .~ #O e9 v, @# u@ C# }$ &# ;) ,) S% E' K# C( d* d* E% ~# j# j# p# ', v# v# t{ 4( _{ z( )( z( N* A] 2% f% |* M# _& j& 2& ;, q@ O= O= P% F% 1) P% '% s[ $O ]N gB %O &O LM lN -K @I -K {H *O =O 5F 5F kM -O -K ;O PI wJ *L >O *D ~J @I II |C 3K FG ,O xy lC zy xy -A Tr }N qC HB ZC 0K HB 'O _J 2L mx )O !O LH ~O {O hK ]O 5M Iq [J Up ^O /O 0N 0N uF Fw 6M 9L (O hy _O :O <O EA dL -. s( 5) t{ x- v! j+ x} x, 5) O* c% b% {% K' F' !* N( K, t& {# o& X& X& o& i| /{ /{ A' a< ",
"7& g% g* k- Z( S# L# g) *) K* [' 3& M' J# K# g) I_ j& '- z( '( }2 X$ }2 M* e& ~- R& [O }O |O ;x 1O 2O ,J {J 3O 4O JF BG NI kL 'J 5O 6O jM 7O /G 3K >H ZH qJ &L (G KI }B  I 1K pH ix oM 8O pv `D 9O sN 0O aO bO vN wN LC cO dO Nq 5M /I GJ |J Fq FJ GJ FJ GJ [I /O CN DN 2I uF ly gy Cw eO FN GN |x /x GL AD bz J$ )( *b {8 fO C& R& 1@ c$ 8& e%  & 4, f# h- >* c- /& H# _# _# _# !* K, q@ d% 5- 3% d% 2* &# H# T= T= d% 2& 8* 5- d% ]* x= M* Jx :( :( S' :( L7 `6 `6 c, *3 >M gO =E !A KD hO iO vI WJ YK JM jO YK PN /M WL PN nI QN kO lO <G %I oN mO nO VN OA rD {F WN oO +M FI pO IM GG SM II WM qO GG >G oN YH YN OI ZN MI )K )H *L RI oJ *L {H `N :G TA ZM ]D tz _A 2A UA qz rO IH sO  O .O tO uO vO &# l# !% L$ J% wO f8 p# =[ w# A' X& i% h# i# e$ U= &* 4& U= |& u$ t$ s$ n$ s$ 1] q$ w' F% @# R# <& h& 1* i& M# f# L# b- (# -* (# M# c- N= <] 2) z( )( )( )( _' y6 ~M hC KD %O xO nE RI -K [L %L jL *O _L ND ND 7O -O -K ;O yO zO -K AO &D ~J fM .I 4K 3K FG BO xy lC zy xy CO DO ^J qA EH :B %C }M EO 1L Qt FO GO HO IO ~O JO KO 7N Pt Jq Up vD ^O /O 0N HK uF Fw aN bN (O ^x _O :O LO MO NO @# 8{ ~# M* i' =$ L= v, [% K$ J$ J$ ~# x= f% I' f% >* g# c$ c$ 4- c$ U= U= ** ** 1@ d% u% ",
"!_ !_ ]- B8 l1 x6 E& 3* g^ A% f} m1 E& M$ F4 ^- OO PO QO RO z5 'n SO I4 ;# ez Q} :/ TO #N UO VO %K WO wI pH XO XO fG qL ;O YO NI ZO 6O `O 7O 3K 3K *L ZH qJ &L /G  P bG =I *L nM WA .P BG pv Hy +P @P #P aO $P vN wN PF %P &P *P TG /I GJ |J Gq [I DJ :I HJ <I /O WI =P CL JH -C gy }v eO FN GN -P ;P >P HL ,P 'P )P x1 X2 (} z! m< T$ t{ e) Q% O& _{ _* ~< [{ 7) ,| )| z( Q% P& #' Q& P& #' l$ D% y} v( U[ k1 03 03 S8 B% m1 y} f} ~< g} s1 g8 z6 P} .5 ;7 2# M@ B( 27 !P B^ ~P {P %K gB ]P *O ^P uI PN WL /P TL WL IM WL PN (P SK _P :P VM <P oN [P }P VN OA rD {F WN OM +M @M QM RM GG |P MI 1P qO _N (G oN YH 2P GG 3P -K *L 5K &L >H )H &L *I 4P :G +C 5P `M tz .C 2A UA qz rO IH sO 6P 7P 8P 9P 0P s( {$ aP 9, d> bP y; 7@ Z1 $| O$ G{ cP :] o< c( h+ e) t{ M= 6} R$ i+ V, r, r, E# E# y! h' K- e} f8 ($ E& S$ #3 n< y6 P} *7 >8 '= dP :- y6 j' j' e9 B^ K[ z- t5 9~ eP hC vN fP gP hP II tJ ;O <L ~J iP _L mE 6F jP nL MI 'K kP zO MI >O qE qH fM II lP 3K FG QI xy kC zy xy ;A DO ^J qA rC ZC %C rC mP 1L bK nP oP 3N LH ~O {O 6L 7N ]O Gq vD 9N vD BN lG 0N uF =B pP bN (O ^x qP rP sP tP uP g. v[ 14 h' /. `/ w@ m* m* ^/ g' x, -( -( z, L& e) V$ M= _% -# b' $$ _% R= s, s, (/ l( E: ",
":+ v. p> Y; .0 [1 |; {~ [+ q> q> <+ y. J/ vP wP o8 xP T. 7v ;{ U> d; I! t/ (+ oa (; yP zP WN AP Py 2O MI  I GG *L xI BP RI YO _N CP DP nN oL 0H EP RI qJ !H 'H KI <P bG wJ 2K 6O Wy FP GP :w AJ HP IP JP ZC rD ZC KP KP LP MP ]I NP 2J xL SG MH OP PP ~t GJ DJ %v WI ^O 2I *B Tq /E Fv Iv QP _E dt [r RP SP TP y. o  Q> !+ 91 :+ z. p> o> w2 W; V; 1/ e/ *< 1; /+ gN o~ 2/ 1/ 7/ $@ 1/ 2/ '/ 1/ ~~ *' R  |; @> y. 81 U2 UP u  VP WP U5 r  XP YP ++ =+ q  *@ 91 ZP +; `P +0 1+  Q .Q Qy +Q @Q #Q RM ZJ $Q YK tI PN $Q qI PN PN TL UK UJ %Q >G  P KM &Q *Q =Q -Q )I {F WN QJ {F WO ;Q >Q _N ,Q II UK pI #I (G (G 1K (G #M 3P MI II YJ .K 1K *I &L oJ $I 'Q 7s Iy `M vz _y -z )Q !Q ~Q {Q ]Q ^Q /Q (Q _Q 0a i> :Q y> S+ nn <Q ]> U~ <: Y~ L6 L6 p. 8+ /; ,  q; E. N+ V~ S: w. 5: v. )@ z  F  5: v. F~ x2 h4 tB tB Q. O2 +{ V; o> .} `; P5 M. [Q }Q @> y. ZP v+ P. O. O. g; |Q 1Q hC gB CJ 2Q nE 3Q -K [L ,K ~J {H 2K ND #D %L 4Q <L [L zO  I 2K VM qE ~J ;O .I lP 3K 5Q 6Q mC jB 4B xy =D 7Q CH 8Q 9Q ~C 0K 0Q aQ 1L hu SG GO }J SG bQ cQ 6N 5M dQ #y mG OB ^O mG {t OB 5z ^x eQ _E fQ ^x }r gQ hQ nK iQ M+ jQ kQ lQ e; 6; ]+ I! B. V! 7+ 7+ w> x> 1> 6> T> Va t/ w> [> ^  ^~ ^~ /~ K; 4> G~ G~ 1/ ",
"k$ t& u& u& h& c[ H# !* r@ N* N* p@ A' F% 0} *3 A% f' 3* h= W_ z# F% Q& J% #3 n1 +# mQ nQ oQ pQ Py WO <L ~H GG 1K xI qQ >H YO _N rQ DP `O oL 0H !H RI qJ !H 'H tK %I 3B DG )K sQ WA FP GP .E tQ uQ vQ JP ZC rD ZC KP KP wQ /F ]I zN FO ;w |J Fq [I <I <I xQ yQ zQ IH AL 2I uC Tq jy Jw AQ BQ CQ DQ EQ FQ GQ K@ >% R= HQ #' $, *- E% ~# t& j$ j$ ^] ^] /] e@ f@ f@ IQ l$ j% &! F= F= &! &! 2% 8# e% f* y$ N= K% z' >^ 63 ~< _* I% I8 #3 C# W9 M[ z6 ($ O} q( q( <$ D2 O@ ,u G6 JQ KQ IB 0y LQ MQ  K ZJ $Q WL uI $Q $Q rI $Q $Q TL ZJ UJ %Q >G  P SN &Q *Q =Q -Q )I {F WN %K {F NQ ;Q >Q _N TM II ZJ qO #I (G VM 1K (G !J 3P MI -K YJ .K 1K *I &L *I $I 'Q 7s Iy `M vz _y -z )Q !Q ~Q {Q ]Q OQ /Q Qu PQ QQ x( s[ s, _/ ^' d'  ' 9& 7^ L< :[ A_ Z= 4- j% F= j^ 1- 8! !# k# R% S& 4% %* n$ +* i% i% h# ;, R& &# [% 2* 4) A] L$ 2* @# D, u{ }$ S, m< [) Q$ R$ c1 n< n< n< g8 N^ RQ SQ gB TQ UQ pE 'K -K 4Q ,K ~J {H 2K ND OD %L 'K <L [L zO  I 2K VM qE ~J NI .I lP 3K 5Q 6Q 4B jB 4B xy =D 7Q CH 8Q |L {F %C +L VQ |M hu LH WQ 8N LH cQ XQ hK ]O KH Gq YQ vD ^O ^O {t OB 5z ^x eQ ZQ `Q PC |r  R hQ .R +R $| q[ (/ u@ <{ e- 1@ E% q# !# p# j# i# i# i% j# x$ @R 5- )# 0& 7^ 4- j% i% +* 3% h# c$ f- ",
"c$ h% 6& 3% f- p^ g- 4& c$ a& a& f$ q# s# j$ ~# :{ j+ 3) P# X' O& t{ O& ** p{ <{ Q) #R $R %R &R Py NQ %L {H GG 1K *R =R 1K -R _N HF AG `O ,K 0H qJ RI :N !H ;R >R ,R eF DG )K sQ WA 'R BG )R tQ !R ~R JP vN ~F vN KP KP cO {R ]R ^R 1J xL ]O MH [I /R /R xQ /R zQ sM sM {t ^O Tq fy (R eO _R er :R <R [R Rz  7 l@ ~# }R i$ y$ *- h# a& e# g# c$ f% 0% ** o& y# y# y& I# `& h) h) Z& h) Z& $[ %| [' h% [& b- X& _] N= _' [b |R M1 {8 63 1R 2R t2 g8 <# :' M= #3 H, q1 A( [F 3R 4R 5R Az :B 6R 7R  K ZJ $Q WL 8R $Q 9R rI $Q $Q YK ZJ 0R =G /G 0H <G aR bR =Q -Q pA {F %K %K {F NQ ;Q qI GG XN -K ZJ cR #I 9H >G 1K VM ;K 3P <L -K YJ =O *L )H XM )H $I dR 7s Iy `M sz _y =z )Q !Q eR fR ]Q ^Q gR hR iR jR kR r1 &# s@ s& h$ i$ K& 4% T& 3& e- 8# *! a* $) *! -] 6! 9* n% I= n% o% o% n% o% n% G= }& p^ b& q# s# s# q#  & 3% .* R% X& u& j$ 3@ r@ A] #' P% O& 3) V$ 3) :{ {: lR hC gB mR UQ pE II -K 4Q oL qH oJ 2K ND mE %L 'K %L 4Q kP  I )K >G &D jL NI .I lP /G 7H KF 4B jB 4B xy =D 7Q CH 8Q nR !A oR }M YE pR qR |J rR GE LH sR tR hK uR 5M Gq }J 8N 9N OB 5z `E 5z ly vF vR _E -C wR xR yR zR AR [% <$ &6 (* _' 2% P% 1) r@ p@ K% K% O% y# .) 9% q@ BR +2 CR @] 0% @] !% C] #[ h7 +[ +[ j) ",
"A' K% A' z' [{ ]8 >^ I& A] #' #' Q& T% U$ g^ w< :- x1 @6 DR D6 E2 F6 F6 27 E@ =& M} ER FR Qy gB Py NQ %L oJ GG *L $M GR *L -R GG 'R AG `O oL HR qJ >H IR JR ;R iM ,R ,F KR LR sQ WA HF BG #C mB !R -L JP vN ~F vN KP KP MR NR qq OR gs sR PR ]E /I HJ HJ QR yL RR SR TR 7L cC >q Lq ^x UR QP VR WR XR YR av ZR S^ `R j' w{ W9 f} z% 4) T% Q& C% *# 7* l# l# i$ F% p( 5# 5- H# *- d% 5- 8* H# 8* |{ >^  S /- /- .S 2R +S M1 e} 8, <$ O} ($ 73 B- @S D6 I4 bA 8% l9 #S $S B[ U^ %S *H &S *S =S -S  K 0R 9R PN 8R 9R 9R WJ $Q $Q YK XK nI ;S /G 0H VM >S bR ,S {A pA {F %K %K {F NQ ;Q qI RI XN -K YO 'S #M oN YM LR VM EG 3P %L tJ )S =O *L 5K XM )H kN KG 7s GC `M CE _y kB !S >I eR fR ~S Xp gR {S gH !u ]  [~ b/ A- G^ c; B- q[ w@ U, R$ C# s( z5 ]S ^S /S 59 Y! (S _S :S <S (S [S }S 29 W9 k1 M1 u< m7 p& J% s@ O* y, L& u@ R= R$ r1 r[ 7. l( U7 B^ t5 N@ W| W| F^ |# $  |S 1S gB fP 2Q nE II -K 4Q oL @I oJ 2K ND mE %L 'K %L 'K kP ~H )K >G &D jL NI II lP /G 7H KG 4B jB mC 4B 8B 7Q CH 8Q [M vN 0K rC sC 1L Tt 2S 3S iF IO tR XQ dQ |J TG Hq !O 3N vD vD `E vD `E hy 4S ZQ `Q (R wR 5S 6S 7S 8S 4* P@ K[ U7 9S M1 M= u{ }$ [$ R= x, L= }% a$ }% ^, 5. O} e} d, :' c, #3 4} O& 3) V$ m1 y} ",
")6 N- N- 8+ e: [; Z/ C! 1: 1: x^ `:  @ ~, ~, f: p> g~ K: V- P. N! F. 0S E. 17 u/ e~ aS bS cS dS Py NQ %L oJ GG *L }G GR 2K -R GG ,R AG nN pJ SM eS (L fS JR gS sQ FP ,F hS lN sQ WA iS qN #C jx !R jS kS vN rD vN KP KP lS mS }r nS ]O SG oS pS qS RG 7N rS &v sS uD ^Q Qq >r tS uS vS wS xS yS zS AS BS CS DS ~@ ES q; *{ F  /} x2 ~,  @ <; %  8~ >  n8 A~ W~ U~ FS T~ A~ S: T~ A~ A~ A~ W~ F> F~ B. 94 G! (+ (+ :+ &; D  GS T+ X. ]> D  wP VP HS IS JS KS n9 LS MS MS NS [Q OS PS QS vy RS SS >Q 0R 9R $Q UK 9R 9R WJ $Q $Q YK XK VL TS 3K 0H VM US |E ,S {A pA {F %K %K vB VS ;Q qI RI WS tJ -R 'J #M 6Q `N XS >G FG 3P ,K tJ )S _L 2K 5K XM )H kN KF 0u Fy ZM CE Ft =z 9u !Q eR tM ~S Xp gR YS ^s ZS C! M; S! x> [  `S  T .T +T @T #T $T %T &T R. O2 |+ ZP q9 i; 91 v/ :: ::  { v> 7+ 7+ w> 3~ 3: !~ w! x@ 9. 9. H@ 1' O~ i: i< l( w! Y/ /  r/ ^~ r/ 9/ 9/ @~ B2 G| E~ *T YC +M =T 2Q nE .I -K 4Q pJ NI *I 2K ND oE %L .I ,K 'K kP ~H )K >G &D 5K NI II -T >G 7H dR 4B jB mC 4B 8B ;T }N 8Q 9Q ZC MC EH >T ,T qR FO 'T 3N KH )T !T 6L IO IO 7L dK nG YQ YQ ^O mG vD @y ~T VR ZQ hy {T ]T ^T /T (T _T u+ s+ I. =N s+ V^ T! +{ t/ C/ ,@ ,@ C/ M2 -N y+ t+ m  9  :T <T [T &/ }T |T }T */ 9  <T ",
"&* d* f% q@ 1T q& d$ 0# f% 0% K& a& ;, ** 5- l{ '% P& C& V, E# v@ E# E# V, E4 y4 E, 2T 3T 'D uN Py NQ <L oJ _N 2K bG 4T )K -R GG &M AG nN pJ xJ !H XO fS JR 5T DP 'R )F hS lN AG Ey iS qN lB mB !R 6T kS KD rD vN KP 7T 8T 9T 0T aT bT bT cT dT eT fT gT fT fT hT iT jT kT lT mP mT nT oP cC &B `E Oq oT pT 8a &6 s( _b =8 B; j+ F% q& x$ A' A' s# )# !# q# 5- x= T= x$ W% <* >( 2* J$ %# 2* 2* N_ n: 7. c< 3# _- <# 3# l# v, m# 0{ B& ## v, qT h} q1 C4 ;7 p7 p7 j' U7 rT [; sT *H QS ZC tT uT >Q 0R 9R $Q ZJ 9R 9R WJ $Q $Q YK XK VL TS 3K 0H VM US |E ,S {A pA OF %K %K vB VS ;Q qI >H WS tJ -R fM #M vT 4P XS =L 8K 3P ,K MI wT _L 2K jL XM )H kN 6Q 5s nD ZM UA Ft |A 9u >I eR tM ~S Xp xT yT zT '= W7 n< w, Q$ N} ,$ N~ 9$ %% d' c' 8' 0{ B& w& F' I' ;, ]] |* f* d* 9% c* c* .) .) ~) .* Q% e< !* o- g) g* g) 2& H= p# ** *- -* (& 3' X% p{ /* (% `$ &6 5} W$ :( W| |S hC gB AT BT pE 4Q -K 4Q pJ ;O qO 2K ND lE %L .I ,K .I CT ~H )K >G &D 5K NI -K -T >G 7H 'Q 4B jB mC 4B 5B DT }N 8Q 9Q IB 0K ET FT GT HT IT [J 8N dQ gs 1J JT KT JT {x uF KJ CL LT MT MT MT NT OT PT QT PC wR  R yR .R +R ]' l( c( 8; M> 4$ h@ T) a$ T# r# !# f@ q# :, 9& 4, b! l# %# @# ,# 9' m# C, m# -# h$ L= F{ ",
"8# 2% f* <] g+ i$ T= 3% |* d$ c$ U= e# d% d% h& H# 6, O& V$ :' M= }$ &6 s@ &6 y} 1- RT /K 'D Sy Py VS %L *I _N *L 3B ST &L -R RI MF AG nN pJ xJ !H GG  I JR 5T 5Q 'R )F TT LR DP ix rQ qN lB mB !R Kr JP qx rD vN KP UT VT WT XT YT ZT `T  U .U +U @U #U @U #U $U %U &U *U =U -U ;U >U ,U 'U )U  F Vq FQ >u V7 %# P& R) s7 `! u5 o{ ^* M* l$ ~# M* !( )( O= N* +2 l[ }{ P% q& *3 >^ m7 3* 6* D% A' t, c( @% u4 !3 !3 }2 F% q& =, w% 9} 9} Q& 4# a3 '% 5] m1 s( D& 7} Q$  a A! !U ~U 'D vN {U ]U qI 0R ^U 9R ZJ 9R 9R WJ PN PN YK XK VL iP 3K 0H VM US |E ,S {A pA OF %K %K vB VS ;Q qI >H qO -K -R @I !J IF >R XS =L AG 3P oL MI /U wI 2K jL XM 5K kN vT 0u nD ZM UA Ft 9C (U AJ _U :U <U [U }U |U 1U '& 2U U$ +# P& 3) >. j+ L= ## v% t& I'  * 0& A= %) *) }' b= 4& 7# h- g# h% 6& e% e% 4- H= :{ C& P= c! b{ i& A$ A$ s* 7# 9! n' z) '^ k^ b# h& {- X% #' _* F# F# 3! |# 3U hC gB 4U 5U pE 'K -K 4Q WM ;O cR 2K OD QD %L .I oL .I CT ~H )K >G &D )H NI -K -T VM 7H 'Q 4B jB 4B 4B zB os }N _z 9Q {F oR ^z 6U 7U 8U 9U 0U 0U aU ,D ,D bU Ty cU dU eU fU dU dU 'I BK ZA gU hU Jq MB zL %B iU 6S jU kU 3( v( .% ~' x- k} F% #' o@ J% x$ ~# K& |* 9] `& Z& df g6 g6 )_ 8]  * 9% @] ;- !% -- !* K, ",
"T= R* e6 c} R[ s( '% R* lU e6 p@ A' r@ ~< ~< A# 9< *3 z% Q$ Q$ n< V, s, (/ ]3 ,M :] mU nU vE qx IB VS ,K )H _N *L 3B oU XM pU RI qU sQ nN pJ xJ !H RI ~H !H 5T xH FP ,F KR LR wH Ey CP qL lB mB !R Lr JP qx rD vN KP UT rU WT sU tU uU vU wU xU 3N !O !O 2N yU EQ zU yD AU BU CU DU EU FU GU HU IU JU KU av ,u D# LU |4 F^ !~ 2# T' <# 63 y% u< F# '( 1! R' c} c5 c5 MU >^ 0} m{ !_ !_ J, 0} 0} ML j= q* q[ kt k1 /- <# Q% A% [) C% N_ 1F U$ #3 W' NU B4 ;7 B^ N@ e9 c/ p! '< OU PU QU +Q RU SU qI nI ^U 9R ZJ 9R 9R WJ PN PN YK `J (P iP KI 0H VM >S bR =Q -Q pA OF %K %K vB VS ;Q qI >H qO -K -R @I JG JF TU XS =L sQ 3P oL MI /U wI 2K ~J XM jL dM dG 0u nD `M :A _y 9C (U AJ _U :U <U [U xT UU 8w z6 >% l( $% v@ u! P  !/ @. I@ U@ {$ n} T$ `4 O} s( D& kt VU dP D6 29 O1 29 W9 29 E& 7} 7} Q$ E# g8 h} v4 /- #5 |R 63 &2 WU XU YU ZU `U $5 29 A( x6 j' h5 SO y5 Zb o/ ~M !C gB  V .V QD .I +V 4Q WM [L cR 2K OD pE %L .I oL .I CT ~H )K /G &D )H @I -K -T VM wH @V mC jB 4B 4B zB os }N _z 9Q iG LC #V $V %V &V *V =V -V ;V >V gU ,V 'V )V !V ~V !V {V {V ]V ^V {V /V (V _V :V MT }r gQ <V QH [V M& q[ z< g1 }V h1 Q& Q% F% i$ E% 8* 5- E% _{ F# R' )- @) 3) _* 4} D3 -# m# u, S$ :' 6} k} ",
"1b d; 1> (. e; |V M; d; <~ n; n; @  n; n; @  [~ <~ |.  { :: C/ T! v  T! V; )/ c; {6 1V 2V CC iI IB 3V ,K 5K RI >H |C 4V kM vK XO 5V sQ 3O 6V 7V iL ;O 8V iL 9V 0V aV bV TT XS wH 3D cV qL qz mB dV lv eV @L fV {F !I gV hV iV mG jV GJ QR PP OC kV 2J DJ ev HJ lV RR CN mV |I nV CL <x 9E _R oV pV qV rV sV tV G~ [+ [+ D~ ,' +( U^ .. 2/ +. @( Z| m( y2 ,/ *' o4 fN }Q <+ ~+ .( |V Da |V uV uV vV wV xV T> 91 *@  ( r- }7 :: ;@ r. /@ /@ yV zV AV BV t  ;> CV */ @J ++ DV EV DM =E QS FV GV HV ON XK IV 9R ZJ JV YK uI 9R WL TL XK nI &G /G $L KV %I LV MV OA HB OF {A $K kz NV HI XM GG jL 2K vK 6K ;K *D wJ *L !H dM vK oL tJ 5K 1K *L 6K &L 'J kN `K qz fF [A #C tz |A OV >I PV tM <U QV RV {S SV TV UV :; r: S! =4 ;<  ( P! P! {+ .} G~ |> o> n> B. ^+ #; VV !+ D. '+ M. V- O> .> (+ /+ /+ /+ 99 .> '4 '+ S2 y. @> x. y. y. @> ;/ V^ #F w  R. lQ GA t+ v+ v+ O. /+ WV XV YV ZV `V  W .W lN II .I WM 4Q cR )K 5F +W @W #W oL 'K 7V ~H  K $W &D 5K NI 2K UD %W 8K &W 4B kC mC mC $A os *W 8Q =W ~C ]F -W ;W >W ,W AL 'W )W 7L hK SF #y 7L 4J HN !W ~W {W ~W ]W ^W xU /W (W _W :W <W uA [W }W NJ ~{ |W 1W 5+ @+ 2W Y> ~> 3W 4W 3W 9> 5W 6W 6W H5 7W M+ 8W +{ $  8+ )6 v. B. v. D. 5: v. E. h~ ",
"m- m$ d- Z> 32 (& 0# d$ x= 5- 8* d% x= 5- 5- E% y$ J$ ## I$ ^, ^, (% ^, 9W %6 0W p& aW bW %K uN IB 3V ,K 5K GG >H rE 4V kM vK XO 5V AG 4O cW TM tK ;O 8V iL 9V dW aV bV hS XS wH 3D ZO eW qz mB fW lv eV EI fV {F !I gW hW iW *B jW :I HJ _I 1z IT 1N ~t GJ /I kW IH |I lW zL 4z <x Ew EL FN mW 3t }z nW oW X2 U# I$ i$ =- (& (# x= 5- E% 5- X& ** u& ** f* E% Q& H% A% Q& #' 5# P= m{ A# m{ J, n{ /# l[ z# 9< N* 2) d$ S# F% P& K$ T) u, q( _: ]: 1# 5i B/ A@ y@ 8; w( W| >1 pW qW =F KD rW vI jO XK IV 9R ZJ sW YK 8R 9R WL YK XK nI &G /G $L KV <P tW MV OA /J OF OA $K vB NV HI XM GG jL 2K 3P 6K EG 7F wJ 2K !H $I vK pJ tJ jL 1K *L OI &L 'J kN uW lB nD [A #C tz |A OV >I PV :U ~S QV RV vW wo ,= V{ d} wW 7, E4 Y@ D3 p{ I8 += %2 +# Q) |$ !# s# i$ /* G{ ~- U= j# j# h# c$ f$ 4% 4% 8& L* b{ R# 6, i$ L$ {% {% #' q& Q& P& 6* C% B} w% 8} g' w1 x, U$ U$ C& V$ D[ xW yW zW AW BW CW 4O II .I WM 4Q cR 2K 5F ;G @W #W pJ 'K ,Q ~H  K DW &D 5K NI 2K UD wK 8K aG mC jB mC mC $A os ^J _z [M vB oR XE ~E EW FW 4N GW dK wL HW IW 7N JW wL 7L GO }J !O HO }J !O HO KW LW MW GN NW }z OW }W PW :# G{ v@ v, s& X% ^] _b :b :b QW QW  = h{ i{ c@ @' :% 7- #3 6, !# 8- s# |& U= g# i# s# r# |& ",
"u| 0_ x] M_ @! 2_ RW 8) 6# L# L# >* >, >, >, >, SW ^% Hx (6 G, A% g^ w< TW y% UW Q% VW WW XW *F Py YW oL jL GG >H 6B 4V kM vK XO KR ZW 3O pJ XN tK NI 8V iL 9V `W aV bV hS XS 7H yB ZO eW qz jx dV ov  X EI .X {F &S gW +X @X OB #X FJ GJ $X 5z %X 2J /I GK /I <J |I /O &X 0N MB [x *X =X _R -X 4t XR ;X oW C6 1- #' 8* )( P# 32 L* e$  & 5, T= H# |* >, H# d% 1) >X !( ~# 1@ *- y$ b- _' I< a3 _' !- P# '- A] j$ y$ b- w] ,X 'X 7) >^ H, AR %} n[ )X -n z5 [- h1 f1 b5 6i !X ~X bM .L qx {X ]X jO XK IV 9R ZJ sW YK 8R 9R PN YK `J VL *O 3K $L KV <P tW MV OA [M {F %K $K vB NV HI XM GG jL 2K pU 6K FG 7F DG )K mM iL vK pJ tJ jL 1K 2K OI XM fM dM zI lB nD [A :A tz |A ^X >I PV :U <U QV RV Qu /X ;8 V{ L4 <3 k} ,6 C# m1 m7 0} n: t{ P% p& K% 9} 83 9< y} U$ l{ q@ E$ @] >- E$ E$ @] E$ '_ H# g! g! }& 4, 5, f# f#  & |& 2- L* Jx R' j+ S' !( _{ _{ _{ O4 .# ^, I} G| (X _X :X <X [X CW 3O .I .I WM 4Q cR 2K 6F ;G @W #W pJ 'K ,Q {H >Q DW *D 5K NI 2K 7F wK 8H JI mC jB Ay mC $A os ^J _z |L vB %C EH aK }X |X :I }J 3N 7N tR 5L /V 1X 2X #y ^O uC OB `E `E vD 9N (x 3X xS _q ky uA OW 4X 5X 6X (/ j5 e) s& z( H= s# !# !# s# i# i# f$ c$ 7< q& g} 7X $b *2 q@ K& p@ _] O% _] O% p& p& A] ",
"l{ *8 ~- <& 8X 9X $, d& x% !_ A# !_ J, m{ n1 c} [< u{ +% q( O} =3 f8 s( 8, u6 0X t, aX bX =H cX IB YW pJ jL _N 1K 7B 4V 7O YO 3Q KR ZW dX oL XN KI NI 8V iL eX fX aV gX hS XS 5Q Dy LF hX lB Gy iX ow jX EI @Q {F !I gW kX lX oq mX /I ;w uR %y 3L mx FJ ev DJ <J BN WI nX BN Kq }x *X =X _R -X FL gR oX sV pX '' qX rX D6 =7 && kt s1 H, <# M1  S #5 |R j1 j1 #5 <) #5 63 1R j= *= gD G4 sX sX tX uX jt vX x4 f& w4 wX MU {8 7x h} T7 xX yX +} 9S @7 .5 2# x5 h^ 1a +6 92 >} zX AX Ry BX nA CX ON XK IV 9R ZJ JV YK uI 9R PN YK `J VL *O 3K $L aG  P DX 2O OA [M {F %K $K vB NV HI XM RI jL )K pU OI 8K 7F  I )K kN 0H vK pJ MI jL 1K 2K _N XM qH dM EX qz nD [A :A tz |A ^X >I Hs :U <U QV RV FX GX HX IX JX h' )' 57 D2 d} /$ D& r4 6- [$ L& C# A% 8} w< :] Z# (% J$ ^* B# ^* O4 e, I} e, KX FD n1 I, F# _{ P% F% #' Q% 1) 3) s1 3# 6i S^ p7 p* @6 @6 y6 z6 M@ 27 LX B2 Tf _X ZV /J MX NX 3O 'K 'K WM 4Q cR *L 6F OX @W PX pJ 'K ,Q {H >Q DW *D jL NI 2K 7F 7K nM ZH 4B jB Ay mC $A QX *W 8Q nR RX %C oA SX TX qR FJ !O !O ]O UX xL /V 1X VX %y YQ OB vD OB OB ^O vD hy 3X QP gr fy ]I [W 4X WX |8 i8 XX E4 6}  5 /, m1 z% z% C% 3* 3* 3* 3* P& O& g8 :} H, ~< q& i$ B# B# I$ /% /% }% }% &6 ",
"q. B. x> v/ R2 vP q. I! U- U- g~ M2 h4 @/ $/ YX ;N GA VV ZX `X .J b  T5  Y .Y {~ -1 +Y @Y 9F ;x IB 3V pJ ~J _N *L 7B #Y 1P -R 3Q fS $Y dX oL qO tK NI FG iL %Y &Y aV >E eS LR 5Q Dy 5O fF lB Gy dV }y -S EI @Q {F &S gW *Y =Y `p 7N HJ GK uR *B 3L 1N [I xL <I -Y /O |I ;Y `E 2z gy Ew =X >Y ,Y 'Y )Y !Y ~Y ,> v. ;+ Kp $; v+ (+ ;< e/ e/ [; 7/ '/ $@ R! U; Q! 3/ ~~ 2/ Q! x2 3~ 9/ 8/ }; U^ +} C[ o4 ,+ {Y V- M. V- ]Y ZX ^Y /Y (Y +; _Y :Y <Y => [Y [Y ;> s  ;> }Y ;> b4 7W |Y 1Y {A vy 2Y 3Y ON XK IV 9R ZJ JV YK uI 9R PN YK XK VL >J 3K HR aG  P DX 2O UO [M {F %K $K vB NV HI XM RI ~J )K pU GG 8K *D 8H 2K dM  P ZN pJ MI jL 1K 2K _N ,H qH dM 4Y uz nD [A :A mu |A ^X AJ +t 5Y QF 6Y qV 7Y 8Y 9Y `+ ;N 0Y Z- aY bY cY dY eY |T |T x/ ++ ]> P2 yV fY G/ Y> '@ n8 P+ _> C> Y> W. w  O+ 2+ L  <> 6; +~ r/ L5 y( z^ #.  <  @ !: j/ '/ |; K: d; {~ _+ '+ '+ gY gY W- hY iY _X jY |L [X kY XO 'K 'K WM 'K cR 1K 6F lY kM PX pJ 4Q 7V {H >Q DW *D jL @I 2K *D XH pH ]H 4B jB Ay 4B $A QX mY 8Q 9Q rx %C }M nY 7E |N <I !O oY ]O pY ev qY 1X rY $y mG `E 9N `E uC vD 9N iy sY tY :q uY EQ vY zD wY xY yY zY AY BY CY DY EY tV 21 11 tV tV 21 {> v  O. FY */ GY Lp x. 3+ V~ ;@ -@ ,@ '@ '@ ;@ T! ",
"i# X{ +] $- T| c, 5, @- 1@ E% 6, M* l$ L$ L$ /% p{ R} F, O4 `$ @$ #$ `$ b1 Q$ HY Q& IY JY KY LY IB 3V pJ ~J OI )K 7B MY 1P vK (L fS $Y NY oL cR tK NI FG mM OY PY aV QY eS LR vH 3E mN fF qz jx fW }y -S EI @Q vB RY gW &C DK cC 5M 1J fK ^I {t 1M 1J DJ SY ~t TY WI AL nX OB Kq jy *X =X _R oV UY VY !Y WY Td XY Z$ Y$ ;7 M[ i+ _* Q% j$ k$ i$ L* R& 6, 6, T= _' !- 5# p@ o@ p& !( z( >^ ~< ~< 1) }< &' Y/ U, w1 u5 V@ P9 a, YY Z@ .# *] ZY s7 c, k} 6- ~' c( ~$ {$ c( |# Yb `Y  Z Ny qx .Z VK jO XK JV IV XK sW YK 8R 9R PN YK XK VL /H KI HR aG  P DX 2O UO [M {F %K $K vB NV HI XM GG ~J )K pU GG nM *D 8K +Z @Z  P ZN WM MI 5K >H 2K _N XM ~J {J #Z uz nD [A UA mu |A ^X AJ +t $Z QF 6Y qV %Z IE 9a &$ L4 q{ e) r, :  T@ {$ q, W# Z$ (% w, h$ 2* ~# E% {- '] 2- !# k# j# p# ', L, ,, f@ f@ o* ;. !( 3' H# L# >* ;, g) L# d$ M# R* (# ]= P= P% 3) V$ M= =3 r7 e} v4 u[ &Z *Z ZV /J )J =Z -Z 4Q 4Q WM 'K qO 1K 6F lY kM +V pJ 4Q 7V {H qI DW *D jL @I 2K &D XH {J ]H 4B jB Ay 4B ,A QX *W _z ~F {F LC rC ;Z 7E 2L yL yU RF Pt >Z SY ,Z kV KT @y ^O uC OB uC {t 9N OB hy DQ 'Z )Z !Z >r ~Z  H {Z  5 X, w! B; H2 m; C^ 88 {, +# {, g{ g{ {, +# r# c& 7{ ,] {- S# l$ L* |$ |& |& e$ |& |& 2- o# ",
"I' S# 2& (# `^ _- N( 3' &] Z& h) J# d* d* J# 2& '_ a% K, N* R* F% P& Hx Q% 5} ]Z _{ ^Z /Z (Z *F Py 3V pJ qH OI &L [G MY 1P ZN XO 6O AG _Z 'H cR KI NI FG mM OY 3Q :Z QY hS LR xH 2D hM nD qz mB +P }y <Z @L @Q vB RY gW CK DK $q gK 1N [Z Pt %y 3L 1M }Z SY ~t TY IH ;L nX `E EQ }x Ew uM |Z -X 1Z JU 2Z oW ,= 3Z T# e{ _$ K- [$ ~- 1@ r# r# |$ L* M* S# 3' <& z$ 42 !_ 3' E% =- '- _' $, '( R' 1@ ,] 4Z ,6 3) L% 5) _% w# p& 3* D% e6 X) ~< 5Z z% b1 b1 n: o: o: [) [) j5 =a 6Z bM Yx qx 7Z WK jO XK JV IV XK sW YK 8R 9R PN WL `J VL /H KI HR aG 8Z 9Z MV UO [M {F %K $K vB NV 0Z XM GG jL )K -R GG {J *D 8K +Z aH aZ ZN WM MI 5K >H 2K _N XM qH {J SE uz bZ mB UA mu cZ OV AJ +t $Z dZ eZ fZ gZ wo ez hZ /$ ], F% P& w- #5 3* #' Q% P% Q% z' 4} !( K% 1) ~< ]- 1) R* p@ K% {% A' A' {% p@ =- 5} o< Jx b{ h& h& i& b- b- A$ h& y$ A$ A$ c[ h& 98 22 R} W$ W$ 4} 4} :( W| iZ yW :X NG ^G =Z -Z [L 4Q pJ 'K qO >H SD jZ kM +V pJ 4Q 7V oJ qI kZ *D jL fM 2K &D XH dM PI xy jB Ay 4B ,A QX mY _z =W `C MC lZ YE mZ FW mx yU 'T 5M !T pY gK uR 4M @y ^O uC `E {t {t 9N OB gy nZ tY oZ pZ |r qZ ;X rZ sZ $| <- i+ D# %} 5i a& h# i# c$ U= a& a& U= c* d* f* 0_ ,- @] @] _] R* R* O= =- 2) R* '% q& ",
"m- *- d$ ~* B5 g} n& c- j& l{ l{ j& a3 a3 a3 I< I< 42 Q= :( !3 Z@ S7 S7 e& L7 $5 (* tZ /Z 7C ;x Az 3V pJ qH OI XM [G #Y kL vK (L 6O DP _Z 'H cR KI NI FG mM OY uZ :Z QY hS LR vH 3E dF Fy [y Hy +P lw vZ @L @Q vB RY gV wZ uL `p xZ yZ zZ KO *B mX IH %v HJ FJ kW WI |I *y 5z AZ gy Ew uM |Z oV BZ CZ oX DZ EZ l( |- RO 27 ~  r1 MU !( R* T= 5- (6 m{ <{ /# FZ G8 GZ HZ <{ D% >^ c} MU ]Z %b LL G& a} `4 O} 7) I& 9} G, M, P% _- H, D& !3 tG M@ d} K4 <$ 8, L4 q! ^3 ;# +7 'n IZ JZ KZ BX nA LZ ON XK IV IV XK sW YK uI 9R $Q WL `J (P MZ KI HR aG NZ OZ MV UO [M {F %K $K vB NV 0Z XM GG jL 2K -R GG kN 7F 8V +Z aH PZ WM WM MI 5K RI *L _N XM qH @Z &I wz QZ mB UA mu 4E OV >I +t $Z dZ eZ fZ RZ SZ TZ !P &4 `0 t5 ^: +. 8a r4 :' V{ q( q( 7} V{ #3 #' P% MU iD g} (6 q( 6} c, `6 5} M= u{ S$ 73 w@ W' c5 2! <{ 7) x% MU MU ]8 ]- x% /# k= /# a} S} 7} C# =3 ($ =3  S W| UZ *Z rx rD [X =Z oH [L [L pJ 4Q WS RI SD jZ kM +V pJ 4Q 7V oJ >Q VZ *D jL fM 2K qE XH dM PI zy kC mC 4B ,A QX mY 8Q |L ~C ^z WZ YE 7E FW 1N dK GO 5M !T !T gK ^I XZ ,q YZ pq =C oq oq OC OC fy DQ )s ZZ pZ >r `Z [R Qw  ` @% i' C1 [$ !~ P| #' T% T% #' Q% F% _* _{ E% 6, /% B# L* 1) P% _* !( !( 1) F% !( #' Q% e) ",
"I6 .` $+ +` @` #` _1 $` t> r. U~ W~ -@ ,@ %` yV v  +{ t/ ^+ :+ M. '+ M. &` 17 V; ./ *` =` -` gB Az VS WM qH _N ,H 7B cV ;` >` XO $Y ZW NY ;R 0V KI #M rH :N .I lN 'Q eW hS XO eM BE eW bZ qz ix +P Gu vZ @L ,` {F RY '` LP )` !` ~` Ur }Z KO MH {` ]` ^` }Z DJ /` AL 8N KJ *B Tq gy (R (` _` :` UY >q <` [` K! }` '+ d9 N> h~ )+ O. |+ U. v  +{ 5~ |` u2 1` DS 2` #J +; 3` 4` 4` G/ 6~ -{ }+ t/ 1` ^{ a1 5` 6` 7` ,} +< |` x~ 5~ C/ p. @< (+ L. `. m5 =/ */ @J H. ;N F. y: J  8` 9` {A iI 2Y CX qI nI JV 9R XK 0` TL UK 9R WL TL `J `J YJ ZH iL JI NZ a` )I Ry b` vB OA Az +M fP YJ =O nN c` *L d` [L SM *R FG *L +I e` ,H f` &L 5K >H II 'K <L g` dM ~D wz h` ]D i` j` -z k` l` m` )O TF n` o` p` q` r` Z+ s` t` u` $; P> .> N> /+ _+ o~ <1 o4 L! 1> $@ {~ j  v` ZP [  L. M. .> O> V- V- M. '+ S2 O2 $; w` ;N P. F. O/ b  @J wP Kp Kp x` y` z` M+ A` B` C` VV GA j~ .> D` E` F` ZC G` H` pE 3O 4Q [L ZN jM I` [L J` mJ kM +V WM 'K ,Q oJ >Q K` *R EG 6K 2K qE |G dM PI zy jB Ay xy ,A QX ~I 8Q RS EI MC L` M` N` O` P` HO TR 4M Pt LH dQ ]O hK Rq wU &B pq {t uC 9N `E Q` Mz R` S` ^x T` [W U` aJ V` W` X` Q+ P2 X` Y` W. w  V. v. )@ )@ !@ r. I  n> m9 94 +{ '@ v  V. =+ Y. */ <T Z` `` |T n  ",
"q# h# Y]  & *- (& *- i# r# r# |$ q# K$ %# J$ i$ ^, `$ `$ Y$ p< 0$ <% O9 s( h1 &2 p7   .. .$K KD 0y VS WM 6K _N 'H 7B CP gM + .(L @ .ZW NY # .'J KI !J FG :N 'K LR @V qL eS XO eM BE rJ QZ qz Ey +P nw vZ @L MN {F RY '` $ .% .& .* .~t ;w TG Hq VG <I ~t ~t cK sM ;L 3N KJ 5z = .}x (R UR - .:` nZ Qq <` av Ua r1 @H i+ [$ }$ u5 [$ :' 3) 8{ #' d6 I, 63 [{ 63 k1    U7 b1 g^ n: 8} x, G% e) t{ R$ q1 ; .> .Y8 n1 I% q7 #3 e& e& 3) B& v, hZ [3 9. z@ x!  ~ >$ w( o} , .' .h1 ) .PU `A vN .Z _M qI nI JV 9R XK sW TL UK 9R WL TL `J `J YJ ZH iL aG NZ a` )I -Q RS kz %K Az +M fP YJ =O jM c` 2K ! .4Q $L *R FG *L ~ ..P XM f` &L 5K >H II 'K %L g` dM ~D uz h` ]D i` j` -z k` { .] .oP TF n` ^ ./ .( ._ .w, h+ r{ [$ p& /% J$ g@ 4, b& 3- : .V) 4# g* S# N* O} 1> y% 8{ R& 6, 6, R& R& R& 6, 6, e6 G] n{ e) O* J% Q& G% s( r1 7} 7} Q$ <- _. #4 l( v( l( z@ h' {$ k} T$ }~ ]L < .ZC TQ [ .RN dX [L [L WM jM cR [L } .| .@W PX pJ 4Q ,Q oJ >Q K` *R EG 6K 2K qE |G dM PI zy jB Ay 4B ,A QX ~I 8Q 1 .xG %C L` 2 .$B FK 3 .dK GO 7N IO ^I 4M Pt TF Sq 8E &B pq {t {t 9N `E 4 .RC 5 .S` ^x T` [W U` {Z =8 8@ ~$ _[ @# n1 M* /% |% g{ f, t# t# T# 1% j# !# o{ W& T= K& X& ~# E% L$ I$ [% (% /% I$ M* ",
"+) g) }' 0% l{ p' %]  * 9% 0% f% f% !* _] !* q@ m{ g^ n: m1 A% g^ w< 6* ^% 6 .,X f1 7 .zP eB kz Az VS WM qH _N ,H 7B CP YO + .(L @ .$Y dX # .fM 8 .;K FG pL 'K LR @V qL JR 4O _Z )F hX 9 .lB Ey +P .x 0 .@L MN {F 1O '` a .b . O c .FJ xL TG MB d ./I FJ <I e .BN /O [J KJ 5z = .jy PC f .- .:` g .Kq h .i .j .b1 k .J% J% F% T% %# k$ 5- u& f* l .[< F# $, 1! _{ 2' q( u, h$ }% |% g{ g{ g{ f, q# t# 82 m .c{ G# d& O4 m{ ~< ~< 3* 83 Q4 _- Y/ d> <- q* x{ f1 Q$ R$ h+ [{ %6 n .o .Yx qx p .wI qI nI JV 9R XK sW JM UK 9R WL TL `J `J YJ ZH iL aG NZ q .b` -Q RS kz QJ Az +M G` YJ .K jM r .)K ! .'K HR sH FG 2K vH .P &L s .&L 5K RI II 'K %L g` kN ~D  E bZ ]D =w j` -z t .{ .] .oP TF u .v .w .x .y .z .u{ T* %# o& y% G, 1) O= (# 2) z$ a3 S' >* c{ b{ 7}  @ R' ^* |&  & e$  &  & |& 5, 6' _# g& ~- T= ;, f* 2& x= 0# +) 0# ** N* #' A .g8 _{ _* _{ V$ 3) P% P% x= N@ B .F` vN C .H` PD dX [L [L WM nN cR ;O } .D .@W PX pJ 4Q 7V oJ >Q VZ qE EG OI 2K &D |G dM PI xy zy Ay 4B ,A QX ~I 8Q RS @L E .F .2 .MP G .3 .yU 4L uR IW )T 4M 6L SF Sq wU pq OC uC uC 9N OB Q` RC R` H .ly T` [W I .J .K ._% e} 1) A] 38 I# q@ _] !* q@ !* !* !* _] =- 5# MU ]6 *3 2) _] r@ f* 5- 1@ L$ i$ 1@ 5- >, ",
"b- $- e# h& L .9X N= 3' x= d% d% S# )( '% 1) t, H, i+ P$ 3# s1 S} s1 D& ,: 27 =8 N@ M .bS $K qx Az NQ WM qH OI ,H 7B CP YO ZN (L N .$Y dX 'H @I 8 .vH FG pL 4Q 2K %M qN eS 4O NY )F ;I O .qz ix +P #x P .@L )I {F 1O '` Q .R . O S .DJ ev ]O Hq OP GJ GJ T .jV U .WI 3N KJ {t LB iy -C }t V .W .:V *P <` JN <9 D^ {: X .(S <S ^- %b y{ [{ m{ 2! Y .p1 ~_ o1 ,| Z .` . ..[{ A# <{ 2! k[ b_ 2! 2! KL 1{ <{ .! %5 _< {_ ...@) :# M1 S} H, H,  5 <; A! 2# j5 ^$ f8 ($ m< m< _$ |0 +..PU @..FV #..$..qI 0R JV IV `J sW JM UK 9R WL TL `J `J YJ ZH iL &W NZ q .b` -Q RS kz QJ Az +M G` (M .K jM %..&L ! .'K 0H xI FG 2K &...P )K s .&L )H RI II 'K %L *..$I ;E LG 9 .LG :A =..UE t .{ .] .oP 4L uU -..;..>..,..8} 'P N} 6i v{ K4 7, M= W$ _( p{ *8 }2 y4 (6 ($ b5 '..p;  S NU 1! '( F# 1! R' 1! 1! 1! {< K .28 )..>^ ~< [{ f} 63 iD s1 C# 6i ;7 [. !..0X <S (S ~..~..QO {..'X z- ]..F` IB =T ^..RN fX ;O [L WM jM I` NI /..(..@W PX oL [L 7V oJ >Q VZ qE 5K OI 2K &D +K dM PI xy zy 1B 4B ,A QX ~I 8Q 2Y QJ MC _..:..EW <..[..yU 4L zN XQ }..vD OB 4J 1z YZ OC uD uC {t 9N OB Q` Mz |..1..ly 2..[W I .3..4.. % ^$ 3) F% W' )8 5# )( z( 5# R' Q= @) Q= [< O7 5..{  u{ t{ }% v, /* /* (* ^, }% }% l# l$ ",
"V^ e  z. q> 6..7..V> O> y. !+ @> Kp 5+ S. N/ wP FY @J G> #J =/ =/ #J N/ m> j/ V| T; 8..zP 9..@L Py NQ WM qH OI XM 7B CP YO ZN (L N .$Y NY 'H @I `N 5Q FG pL [L )K =L BG hS 4O dX ,F ;I O .rz ix +P ^w 0..@L CJ ZC iE E .a..R .b..c..;w SY SG 8N d..GJ HJ e..yL JT WI 3N JH uC Sq ~x ly }t V .W .~W Mq f..g..h..J~ {+ i..j..k..fN l..eE  >  Y m..L| +( 4; o; :; W! +/ (. G^ 5> Q@ Q@ b; '' y; b; 1> p> h~ .> %( *{ ;< r9 0I wP @J n..o..M/ H+ p..q..r..G+ I+ H+ I+ m  n  A: s..t..u..Ry vy MC v..qI 0R JV IV `J sW JM UK 9R WL TL `J `J YJ ZH mM aG NZ q .b` Ry b` vB %K Az +M G` (M .K jM %..&L ! .'K %I @K *I 2K -Z .P 2K s .&L )H GG .I 'K %L *..mM w..]D 9 .Hy :A @C UE t .{ .] .)O rR uU x..y..z..2` I5 -@ A..P5 +} 2~ Kp >+ V^ -@ -@ ;@ t/ G~ R4 _~ (~ $@ L. 4> B..~, t: O  s: s: '6 :  P- W! C..>N 9~ 2> 9/ b/ ^~ e/ Q  1/ $@ .} N> /+ D9 D..q9 }Q cI Qv P> |+ a4 E..F..G..ZC H..I..RN PY NI [L WM jM 'S NI J..K..@W PX oL [L 7V oJ >Q VZ qE jL OI 2K &D +K dM PI xy zy 1B 4B ,A QX ~I 8Q 1 .EI MC F .M` yN O` vU dH WQ FK IW gs 3J L..dH Pq GE #q OC uC {t 9N OB <x -B R` 1..ly M..~Z I .N..O..P+ 11 D/ D  P..G[ 0I S5 81 +J N/ b  m5 @J k4 >+ GY GY }+ }7 O! ]~ &@ &@ &@ &@ u/ @< u/ w/ ",
"q# h, e$ A] Q..~a l$ b' K$ i$ l$ /% h$ V$ :{ Q= e, ^, (% &6 s, s, }$ [$ n< g1 y} :$ R... .S..8y Az VS ZN qH OI ,H 7B rQ YO WM >H N .$Y 6K 6V NI `N wH 5Q pL [L &L /G BG hS 4O dX eF ;I O .rz ix +P 5y T..@L CJ ZC =H E .M` % .b..zN HJ QR KH MH OP ;w GJ U..yL JT ;L }J V..uC Sq iy ly }t W..W .'U EQ X..oW Y..M1 'P S$ Z..Z! 3$ S$ T$ -# L= -# Z@ e& e& y} g} y% u< m1 63 y} m1 G, y% y} g} g} #' :' x! Y/ f8 S} s1 s( 2* [% _% u, }% ^* $$ W# ~$ $% 0$ W# =] 9$ 9$ W# q! A- `..yW 8y qx .Z  K qI 0R JV IV `J JV `J UK 9R WL TL `J `J (M ]H mM aG NZ q .)I Ry b` vB %K Az gB  +.(M .K jM r .&L ! .'K %W 7K *I II .+.'R *L s .XM )H GG .I 'K %L ++.mM {D `M O .Gy [y @C UE t .{ .@+.2N #+.$+.%+.&+.*+.=+.L& 29 b, e} 63 `! c, &6 (* a$ o# W% t# 5- d* z_ T= j& R'  * q# 1@ j$ ~# ~# ~# k$ s& M, 9< -+.V@ j3 b- Jx d* 3' L# 2& M# 8) )% G$  6 ;+.<# s1 y4 7x ^- W9 S8 }F 6% >+.,+.Az H..^..;S &Y @I [L WM jM 'S @I '+.sK @W PX pJ 4Q ,Q oJ >Q VZ +K jL ;O 2K &D +K =I !H xy zy 1B 4B ,A QX mY 8Q b` gB E .)+.!+./F ~+.{+.n` #+.KH ]+.tR 6N ^+./+.Pq GE #q `p `E `E ^O vD [x (+.5 .1..ly M..~Z _+.:+.w4 A, q! k: w( G^ i8 D3 F, F, D3 :' 5} 5} M= h@ @' D3 *8 {- 5, b& b& 22 S# X% G# X% L* d% 1@ ",
"a] *- q_ k3 1> 2# )_ d* Y& +) K# n- E$ ,- 8) G( R* p@ {% *3 C% C% C% 3* D% 0< e6 q1 aM bS ]y *F Az VS ZN 6K OI ,H 6B rQ gM WM >H N .@ .6K 6V ;O 4P wH 5Q pL ;O XM 3K zI eS 3O dX dF ;I O .rz WA +P 5y T..@L bO ZC =H PF <+.[+.b..}+.DJ GK Pt Gq |+.HJ DJ xL /I Ks WI 3N V..uC Sq iy -C f .1+.W .nZ *P 2+..G jt (6 3+.L% o{ F{ 4@ x$ w& u& u& {# I% !3 c8 3! X' X' =^ 5] 1! R' 1! 22 Jx d& d& Jx 8* G# &6 %% J$ t& K& j# `a J& p& O% ;- '_ 8< J% v< Q4 v< 6* n: 8} 8} 8} =3 D# OU 4+.'D qx 5+.=O >Q UJ JV IV `J JV `J UK 9R WL TL `J JM (M ]H $I JI NZ a` )I Ry b` vB %K Az gB  +.(M =O nN r .)K d` 4Q 7K %W )H II 3O FP 2K f` ,H )H GG .I 'K %L ++.mM By ZM Iy jx [y @C UE 6+.{ .@+.2N #+.7+.`y 8+.Th 9+.(% r7 `b `4 S} w- x4 _- a} z( 5# '- $, <] >* 0+.R# W) a+.;, .& c& .& &, $- &, %, &, $- )* b+.t7 s_ >* ;] e- m$ 3' {- {- 98 82 l .!= d6 P= $, ]8 ]8 I, ]- J, 7) x6 c+.,+.0y H..^..d+.e+.@I [L pJ nN 'S fM '+.f+.jP PX pJ 4Q ,Q oJ >Q K` +K ~J ;O )K &D +K =I yO xy zy 1B 4B ;A QX mY _z GV xG MC 0Q g+./F h+.rw _D #+.Pt ]+.IW 6L i+./+.*P iF cC _D 9N 9N mG ^O [x (+.R` j+.ly M..~Z _+.k+.l+.c( N@ ^$ ^$ y; ;# j$ ~# E% p@ K, !* !* K, j$ l$ O& '( P% O= N* =- !( 1) K% r@ K% K% r@ o@ ",
",! P7  , 8_ m+.n+.b# #& ,* i- y$ y$ 1* ;* *^ P# o+.[< p+.L7 =8 C4  5 s7 YY x4 iD u6 q+.o .,x QE Py VS WM qH OI XM 7B rQ gM WM >H *I oJ 6K 6V ;O 4P DP 5Q pL ;O XM 3K zI eS dX dX lL ;I O .qz Wy 9O 5y T..EI $P :B r+.PF s+.t+. O u+.HJ ;w uR xA $X <I DJ SY <I Ks WI 3N V..uC LB jy PC v+.1+.tp w+.Nq x+.y+.z+.s1  ..5} W{ ~' M= _* t, P= ~< y} m7 A# x% J8 AC A+.,0 B+.2! b_ 2! P= P= R# R# R# Q# 4# 6} R= '( 1@ 2& e% >^ ]- iD R' P= b- L* (* 5} 7, 6} =3 9, L4 K@ 14 h. d> C+.wG .L BX *W D+.>Q UJ IV IV `J IV XK UK 9R WL TL `J JM (M ]H $I JI NZ E+.CJ Ry b` kz QJ Az gB  +.(M =O nN c` )K F+.4Q XH nJ 5K .I 3O FP 2K f` ,H )H GG .I .I %L ++.iL yH `M Iy jx #C Yw -z G+.{ .@+.2N #+.H+.I+.J+.K+.HA o: -n ^3 27 y5 z- AR L+.' .@) F# R' R' 38 x% M+.N+.z8 O+.BF c8 1! 1! F# 5] 5] :{ 5] t, P+.]Y &' Q+.k^ )8 j3 {& ;0 R+.I( J8 !_ S+.p1 T+.28 (p K .>8 >= !y sZ jt <- U+.V+.Az W+.X+.Y+.Z+.NI [L oL `O I` 'J '+.`+.jP PX pJ 'K ,Q oJ >Q K` +K ~J [L )K &D +K =I yO xy zy 1B 4B ;A QX mY _z RS +M LC L` g+.EW h+.rw eZ  @.KH ]+.sR dQ 3 ..@.*P dH cC GE vD 9N mG vD <x -B R` j+.ly +@.@@.U` #@.$@.I8 D4 r, L& h^ L& %@.%@.M) Q7 Q7 <& b{ R# A$ R# '] )- P# Q# !- !- ~& 1* b- y$ b- 3' {- L* ",
"&1 r. F! ,  4+ v/ t; _} &@.&@.O: O: U/ m;  { W~ @> v  }+ }+ +{ q  ZP M. *@.=@.)a -@.;@.}E eB vN Ny NV ZN NY NI <L [G MY ZN WM GG *I oJ OI MI 'K JR AG FG :N 6K XM :G GP iL 6K dX >@.;I 5P wz `D ,@.3u '@.vN ~F ZC UT UT )@.!@.$+.~@.gs {@.SG =C FO 4N HJ ]@.GJ ^@.WI |I 5z uC #y jy -C |t W../@.(@._@.:@.<@.[@.}@..+ |@.x  D  1@.F> 2@.3@.4@.5@.6@.T/ Q/ F[ 7@.7@.8@.a1 pa u/ p. r. ,  P: T/ S/ 9@.q8 0@.a@.b@.C~ ^@ <: =  I[ ~  /; |. C/ W. GS t+ H. x/ 9  n  m5 #J FY >/ y  t..=E eB c@.d@.e@.IM ZJ IV f@.g@.JV 8R XK 9R TL YK `J VL g` ]H !H JI %I h@.GV Ry rC kz QJ %K vN i@.HI TJ ;O NI -K pU >H oN (G EG 1K NY 'Q 'K j@.,H *I GG 1K 'K %L GG mM jx 5P 9 .jx TA @C pD 9u k@.+t l@.m@.n@.4m o@.q` p@.F  {> q@.r@.s@.+; q9 W- t@.k  fJ i; ^B Qv e; f; Q> _Y H+ u@.21 E. B. B. A. A. U! C. D. =@ C> 8> v@.w@.w@.6+ 5+ >+ x. O2 )+ |+ R. s` =/ x@.y@.dJ z@.A@.B@.C@.D@.#O E@.F@.{A G@.@D !H ;J @I 'J kL ;O I` wT H@.MZ @W PX oL 4Q ,Q *I <L I@.lM 'S ;O )K &D xI {J PI 3D yB 2D yB 4B J@.gV GB K@.@L Dz 0Q L@.M@.<..N@.O@.vU P@.]+.tR 4M KH RF Oq dH Up }J Up 9N vD 9N Q@.HN /@.jr Hz )r R@.S@.T@.U@.J  N. j~ j~ Y. v. #< Y. */ #< S. 5+ GS GS R. A` w+ A` w+ O. q  O2 1+ 1+ #> #> #< V@.n..R2 ",
"** 1% p# X& 4} 36 h% 8- W% o# |% |% +# E, .% @$ W@.;$ Z$ %' Y$ %$ X@.Y@.M= 63 @! =3 Z@.`@.aO @L Ny NV ZN NY NI <L [G MY ZN WM GG *I oJ OI MI 'K JR sQ 8V :N @I XM :G GP tK qH dX 1E ;I 5P uz `D  #.3u '@.vN ~F ZC UT UT .#.% .+#.~@.2S {@.|J pq KH 4N GJ ]@.GJ lV WI ^O 5z {t #y }x -C |t W../@.4t JU @#.##.$#.i: %#.*} q! ]3 3$ 3$ T$ 7} z% y% N= !( Q% 8{ S$ u{ N& G, q& 4) 7* *# s& A' P% >^ R} X$ &#.!& o# _, 1% (* i{ k{ j{ *#.n# V# o} P4 %. .$ 9$ !$ 0$ 0$ `$ ], D4 p7 =#.-#.@..EI d@.;#.IM UK IV f@.g@.JV 8R XK 9R TL YK `J VL g` ]H !H JI %I h@.GV Ry rC vB QJ %K vN i@.HI TJ ;O @I -K -R RI :M VM EG *L 3O %M 4Q >#.,H *I GG >H 'K %L GG iL jx 5P 9 .jx TA @C pD !S { .] .,#.'#.3S 4m )#.!#.~#.k} :- M} /$ s1 /, $- :* h, o{ s& f@ {#.:* g@  & 6, (* 7@ [% K$ o@ K% f* ** u& o& k$ x$ l$ Jx 98 (* l# K$ -# @$ B% =, H' t@ g+ P[ W[ N& c( A; r[ |4 j' x5 2# A( +( ]#.^#.Ry AW DX =I /#.'S I` 1P NI I` wT '+.cM @W PX pJ 4Q TM )H <L >O lM 'J ;O )K &D xI {J PI 3D yB 2D yB 8B J@.gV GB L` @L (#.F ._#.:#.<#.[#.O@.vU P@.}#.cQ gK KH SR Jq !O Up }J Up Up 8N [J |#.1#.jo jr yw op R@.oX 2#.~3 9@ )$  % E, 4} t# .% X# m} q, `$ E, +$ 7@ `, A{ `, 3#.-% ;% U* 8@ @$ @$ 7@ -. 7@ A, A, #$ ",
"E$ I# >- 4#.'X NL n- H# 2& x= 5- 1@ P% F% Q& e) t, V$ _{ >^ 63 5] _* e& >^ hD 5#.&& 6#.7#.`A 8#.Ny 9#.ZN _Z @I <L [G 0#.ZN WM GG *I {H 6K MI 4Q JR 6O 8K :N fM XM =L BG tK ~J dX 1E fF 5P wz `D  #.3u '@.vN ~F ZC CC CC .#.[+.6Y a#.IO }..uR oq uR [Z HJ SY HJ lV ;L ^O *B {t @y }x PC 6z 1+./@.!v b#.c#.d#.e#.C1 N$ r1 ~$ {$  % D, h$ I$ I$ 22 ;+.F& Xa 9} ^% z{ f#.6 .i# i# j# i# f$ a& H# y$ {* SW <{ +2 |* f% f* r@ x= j$ s& 1@ J$ e) #3 8. s, }$ u{ S$ C& u, l# L$ 5# g^ g#.YB -Q +M h#.^P IM UK 9R f@.g@.JV 8R XK 9R TL YK `J VL g` ]H !H aG %I h@.GV Ry rC vB QJ %K vN i@.HI oI ;O @I -K -R RI %D /G EG *L 4O =L [L >#.,H oJ _N >H 'K %L RI iL jx O .9 .jx +C Ft pD !S 1A ] .i#.,#.WQ 4m j#.k#.l#.o} ($ P9 [$ 4) C# N* E% i$ Q% &| ** B# 8* ** u& ;, 8* @# d% f* |$  & 5, a& c$ e$ |& |& q@ R* I# =- !* &| y# K% 6, J$ l# J$ h$ h$ S= S$ u{ n} ~' /$ ($ e} g8 d8 %8 m#.^#.Ry AW @D =I ++.'J 'S 7O NI cR pI H@.MZ @W #W oL [L ,Q *I MI n#.<M 'J [L )K &D xI {J PI gx yB 2D yB 8B QX gV _z 0Q EI Dz L` o#.p#.<#.q#.O@.vU ^+.}#.cQ 6N KH oY Iq HO Up }J Up 8N 8N 7L |#.HN r#.jr yw op hn s#.t#.u#.L= A( s1 [) &2 R* U$ 8{ 8{ V$ /% 2* %# 5- o& X& {# n3 K& f* f* S% 6, 8* 5- E% j$ i$ R& S# ",
"42 v#.1* 0_ #9 w#.(& 82 b- H# x= 5- 1) !( )( '( '- 1) ~< 7) b_ x% J, J, u#.x#.y#.7x z#.A#.B#.iI eB C#.vK _Z fM <L [G .P ZN pJ _N *I {H qH tJ 4Q eS D#.8H :N fM XM YM BG iL qH 3O uH nD 5P 2A rz E#.3u '@.KD NG vN CC CC F#.t+.Xp RG SG G#.]O &q 5M IO /I ev <I ^@.YQ ^O %y 5z @y gy (R yA 1+./@.H#.I#.J#.~Y K#.*~ F9 L#.]S ]S i9 i1 j1 y{ %b 38 x3 _' '( 5] _* 5] w< c} A# m{ n{ a} &= !8  !  ! q' f6 2! x% A$ H# T= $, l{ N= 2) '- !( 5] iD z< O& t, :{ :{ ^* 6, 5, 4, P= u< M#.DF N#.QJ O#.RM IM UK 9R IV XK IV uI XK $Q TL YK `J VL g` ]H !H aG %I h@.GV Ry rC vB QJ QJ KD i@.HI oI ;O @I -K pU >H %D KI EG *L XO YM ;O >#.,H *I _N 1K .I ,K RI tK jx O .9 .jx #C Ft -z P#.Q#.] .,#.i#.R#.Cn S#.T#.U#.+6 >n 8, x5 <- ;& }2 /* N4 *] 1) L* %@.&8 <& ~- <& o{ -% 88 T# 63 63 y} g} y} :{ I% I% 22 V#.U} p{ E% k$ ~# l# <# s1 E& S} A( 6i w- .5 Zb -' I4 W#.3R X#.Y#.vX K| Z#.`#.Ry NG tW :N _L 'K 4Q pU .I 'J wT /..*..@W PX ,K [L ,Q )H MI n#. $.fM [L )K *D xI {J PI gx yB BE yB =D QX gV _z L` xG LC .$.+$.@$.<#.#$.YZ $$.&v }#.tR 6N KH oY %$.&$.*$.HO eK 3N eK [J =$.(@.r#.jr -$.;$.>$.s#.t#.,$./% +6 r, z% /- P& l# (* /* /* L$ l# k$ 8* 8* x= 8* K= 3' b- b# >, V= 6# c- M# L# 3' h& A$ ",
"D9 bI U> v/ G+ '$.)$.!$.t/ !+ @> =+ s` 1+ Y. b  S5 21 AY BY ~$.{$.$> .+ v9 '+ p> }  ]$.^$..M {F eB C#.vK eM 'J <L [G aV ZN pJ _N *I {H qH tJ 4Q eS iM nM pL 'J MI YM mN tK ~J 3O /$.oD 5P =w rz E#.3u )A KD NG vN CC CC F#.($.QV RG |J G#.Pt Lq 5M LH ~t GK FJ TY mG ^O %y 5z @y gy _$.yA 1+.sp :$._r <$.fL [$.U- N. P. G+ h6 m5 S2 O. @> <+ <+ Ca g; h; h; J/ Q> #; H. '+ c9 e  }$.Y  |$.|$.1$.2$.3$.t  4$.U5 N. i; Ca 5$.L/ +J 6$.GY M/ `. 7$.5~ G/ G/ F/ G/ :: m; W~ l} 8$.9$.^$.0$.gB O#.UL IM UK 9R IV XK IV uI XK $Q JM TL `J VL g` ]H !H aG %I h@.GV Ry rC vB QJ QJ KD i@.HI oI NI @I tJ pU RI +K iL EG 1K (L 8 .;O >#.'H *I _N 1K .I ,K RI KI Gy 9 .O .jx #C Ft -z a$.Q#.] .b$.,#.c$.8n d$.e$.f$.g$.w  h$.K. L. i$.eJ A> O2 x. fY =@ z> W. B> T~ '@ S> z. 3. #  S! S! A: A: A: r: Y| @@ m5 H+ _Y J! Da [+ a4 Da <4 ): 6; @~ F@ A[ ]+ o~ l; /d a4 ~+ >{ Da y[ j$.(. k$.l$.N#.9K DX :N wI II II m$.-K NI YJ SD wI 7O +V oL [L TM 5K <L n$.2P fM ;O 2K *D xI {J PI zy yB BE mC aB QX o$.p$.L` xG LC _..+$.@$.<#.q$.YZ $$.~@.]+.sR 6N ^I oY r$.s$.t$.!O 3N }J 3N [J u$.v$.jo :q w$.;$.x$.y$.z$.A$.A  5W v@.T. B$.Kp V~ =@ _> C> '@ p. F> A~ v  z> x. U. q  w. T! z> ~@ |. L; Z~ L6 Q| P: m; ",
"e$ z_ r# d% C$.~$ 1- .= `$ w, &6 r{ <3 Vd U@ U@ q7 4Z <$ 9; .~ ): e. e. z; &a w{ '< D$.E$.F$.+M eB rK 3P eM 'J %L [G G$.ZN pJ _N *I {H qH -K 'K hS 5V pH :N 'J <L 8 .mN KI jL 3O H$.Fy O .=w rz E#.3u )A KD NG vN CC Qy .#.I$.eZ RG |J bQ uR oq uR IO OP GK FJ J$.^O vD %y 5z @y gy _$.K$.1+.rp L$.M$.@#.N$.O$.A! P$.$S S0 [~ F2 y6 4* /$ s( V, .% ^, u# @' @' {, Q$.+= P$ s( D& Q} Q} A( r7 D& %$ j. <; R$.S$.*$ o} x8 6- $% V@ , .%$ _K x8 T$.Z$ M} )$ w( ,6 k} $% !$ E4 i' U$.-#.V$.@L W$.;#. K 8R 9R IV XK IV uI nI PN JM TL XK nI g` ]H !H &W >K h@.GV Ry rC vB QJ QJ KD X$.HI WK NI @I tJ -R RI &D mM rH 1K lN `N NI j@.6V *I _N 1K .I ,K >H 3K Gy 9 .O .Gy #C Ft UE P#.Q#.] .b$.i#.>v 8n [R uO %4 k: b5 Y$.m< i+ Z$.@6 q& -#  % V$ ~# ## h$ %# 7* K$ M) ff %, |& 1@ 5- 5- 1@ j$ ~# i$ l$ W$ 9$ Y$ U} {- d% $- P) L# M# 5' j& J0 f6 7) Q= ]Z %b &2 |R &2 j1 `$.NL d1  %..%.+%./J tW  I oI .I .I m$.tJ NI )S 6F _L kM +V oL [L ,Q 5K <L n#.YN fM NI *L *D xI {J ]H jB 4B [G 4B aB QX ^z p$.0Q EI MC 0Q +$.@$.2s q$.YZ $$.a#.]+.}..6N uR oY Nq u ._D HO eK }J eK xA u$.v$.jo :q NW @%.>$.#%.az $%.c' ~' :% U@ %%.&%.`$ :% <% <% E, (% U# @' K$ K$ L$ X% L$ ## &# v% 1$ $# T) b$ 1$ &# [% D, ",
"*%.L# +) H< o5 b1 ~% ~) y# 7< p@ p@ A' P& q& 4) P& [{ H, /$ +6 j' 2# p7 &' 2# Q} ^: =%.fL Ny kz eB rK 3P -%.'S %L [G pN ZN oL OI *I {H qH -K 'K 5V TU pH :N 'J <L ;%.mN KI 5K 3O >F GC O .=w rz E#.3u >%.qx NG vN CC Qy a..b .$+.~@.LH }..KH &B |J 2S d..ev <I J$.vD vD %y {t @y gy _$.K$.W..rp UY 'r ,%.N..'%.r, >M aP .5 g: R$ _{ l# l$ j$ M, L% K, q@ f% d* g) c- |* T= 3' N= <] I# R* q@ _] P& u< i< T, F# J$ J% (6 z{ P& Q% 4) }% B# V$ F# 6} k} h. y! L4 ^$ y! ^$ 5} l( )%.wG -Q gB O#.^P  K 8R $Q IV XK 9R tI nI PN `J JM XK nI (M ZH !H &W >K |E RS Ry rC vB QJ QJ KD i@.HI WK @I @I tJ -R GG *D $I rH >H lN `N @I >#.6V *I OI >H .I %L >H 3K Gy 9 .5P Hy #C @C zE !S 1A ] .!%.~%.{%.8n ]%.^%./%., .=3 %$ 7, R= X. (%.1{ _* e& 1) r@ '% P% O= I# R* 5# P= T= |* ** ** ** K& h# |$  & &, N= e< r@ N( %] G) 7# ;,  - [& i& X) O0 a3 Q= '( M1 <# iD ' .{8 H, f} c} d1 'f _%.jJ 9Q @D DG lI 4Q .I m$.<L ;O )S 6F _L (N #W oL ;O 7V )H MI :%.xK fM @I 1K 7F xI {J ]H jB =D 2H 8B dx <%.^z p$.L` @L MC [%.}%.|%.2s #$.YZ vU ~@.}#.}..6N Pt nG Nq u .cC iF cC 3N 8N MH 1%.v$.r#.jr 2%.3%.4%.5%.Ed 6%.$| +6 f8 :$ x> @. S$ [$ R= }$ M= 3) V$ h$ `1 ]# K, N( ]* -- t< t< l$ l$ l$ J$ l# F% t, G% ",
"9! g& 32 o+.E^  5 N= $- ** ** K& K& 5- 5- 1@ l$ x= X% S$ 6- ]3 :4 v5 0, 7%.5i `4 ]: 8%.9%.QU 0%.eB rK >#.-%.'S %L [G oM ZN oL OI *I {H qH tJ 'K 5V TU pH :N 'J <L ;%.mN tK 5K 4O >F GC O .:A rz E#.3u >%.qx NG vN CC Qy a .b .l@.a%.gs {@.SG =C SG 2S OP UX b%.J$.vD vD %y {t #y gy _$.K$.W..c%.d%.tU e%.JY f%.g%.V{ Z$ B( s[ q1 Y8 1! ~- d% d% 1! R' a3 y$ i& c[ f= l7 }! !& @, h%.s6 +! a3 I# H# a3 x, g+ <& g- 2& ]* R* 5- S# .& c& c& c& V) o{ /* :' C# C# Q$ i+ 7} 1) g} n .i%.@..+M O#.oI /M uI $Q IV XK 9R tI nI WL `J JM XK nI (M ZH PI xK >K |E RS Ry rC kz QJ QJ KD i@.HI WK @I fM -K pU RI *D $I FG RI (L 8 .@I >#.6V oJ 6K RI 'K %L >H /G Gy 9 .5P Hy #C @C zE )Q j%.] .^t k%.l%.9n nW zT m%.$% [- N} ;7 d> n%.-' J% [% ^, 3) x$ i$ R& L$ j$ x= S# R# 3' X& p@ p@ p@ =- N* =- 1) P% z( 4( Jx !9 1* c= f! 9- C| )8 )8 @, E0 tX qy v4 VU o%.;= o%.p%.o%.w4 uX D2 sf q%.S..oA @D :N vI 'J NI gM -K @I pI RD ;J r%.#W oL [L ,Q )H tJ s%.xK 'J fM 1K 7F xI {J ZH jB =D 2H 8B dx t%.^z p$.F .+M PF u%.v%.w%.x%.q#.O@.{+.i+.y%.}..6N ]O z%.Mq n@.cC iF cC O@.wU &B A%.2t B%.C%.NW 3%.4%.D%.E%.;8 x, ^- n: R$ E- l( #' Q& i$ 6, E% j$ 8* 2& S# R# d& '] R# ~- ~- S# g- g# a& c$ ** L# 3' E% ",
"E5 J~ 3> 6> U! 4; M; D- {. ,1 G- G- [~ F%.,} O: .. .. 7/ |; |; ~+ i; 0I G%.H%.|` )+ I%.J%.K%.L%.OM QK M%.5K _H N%.rE %I VL rI ++.*O O%.*G WK oI dM mM wJ wJ /H P%.jZ ,G ZH qH #I mC 3D mB Q%.R%.S%.T%.U%.gB V%.W%.X%.Ry Y%.Z%.+#.^+.`%. &.d..OC KH 2S LH {@.G#./+.uD YZ .&..&.+&.+y TC ,v @&.#&.$&.uq %&.)L W5 &&.|; $1 VP *&.N8 =&.-&.7` ;&.q. w@.'@ w/ :; q; w/ '@ Q/ U/ Rw >&.,&.]. O: O: '&.)&.Rw w/ M; .< }V D- )< z] _: ^~ K~ J~ [; *' ~B N! F. y+ G> M/ M/ @J T5 !&.O- ~&.{&.!F ]&.W+.vJ ^&./&.NV (&._&.:&.<&.[&.}&.|&.1&.2&.ZJ g` pE RN 3&.4&.5&.6&.7&.8&.9&.0&.]y Sy RU WH a&.*..]X TJ `J b&.@D jZ FG RI 1K $I c&.d&.kO &G ++./#._L _M e&.4&.Jy f&.g&.9C 5y ov hx :w h&.i&.^R j&.k&.l&.m&.+F n&.i/ m5 o&.p&.p&.V. x. !+ }+ :: :; P! B. q  |+ T! ~+ v+ lQ P. O+ U. U. 4+ w. T! T! v  '@ W~ '@ B> -@ '@ -@ :: D~ '  |. $  P! 7+ v  ^d D  +; @; q&.r&.r&.C@.m~ B@.s&.t&.u&.v&.w&.x&.O%.y&.c` z&.jP `O I` A&.B&.lI MI II <L ;O ,Q cR -K s%.xK jL 6K RI 3H lM :N PI C&.D&.,F 3D E&.F&.KP G&.H&.*F I&.J&.K&.L&.M&.PR sO oS a%.N&.O&.qS a%.eZ 'r n@.`p dH GE }J eK xA !x dt P&.ko Q&.R&.S&.;X T&.U&.V&.I/ J. W&.#< K. |+ O2 x. m9 B. 2; {+ z. D~ T> a4 F. q9 M! i; ~+ P> 6$.b  .+ $> `. @J R2 ",
"X&.`% <! g@ <& Y&.*- K& |& 4, 2- g@ 1% f, g{ {, +# i, ^a 0+.,] e, e& d, |F P} _- K[ Z&.`&.-Q gB  *.! ..*.+*.@*.#*.$*.%*.+ .&*.dX N .$Y _Z 3Q uZ **.=*.-*.;*.>*.,*.'*.)*.hS vH oH Dy !*.rL Q%.h&.~*.zE HM zW b` {*.]*.^*./*.(*._*.&v bQ sR 3 .OC 1N 1J mx fK 2M TR vD YZ +q 4J jy (x :*.<*.[*.}*.|*.1*.2*.Qw 3*.i9 4*.w8 5*.6*.cf MU R' R' Jx V#.m1 w< 8{ h$ E, k} n/ <$ D, v, [% h$ &# B& ## 2* #' :{ :( {8 y% 8{ 3) _{ Xa z{ Q& V$ t{ n: s( h: q{ <3 $. 7$ w( g. #: U@ ': z; 7*.8*.N#.9*.H&.0*.a*.b*.c*.d*.d&.d*.e*.f*.g*.h*.h*.h*.i*.`W j*.JR k*.l*.m*.H..qK n*.AP o*.p*.q*.r*.z&.PY s*.t*.u*.;` v*.w*.x*.y*.z*.A*.B*.+*.C*.D*.E*.F*.G*.H*.I*.z*.J*.K*.L*.M*.N*.O*.P*.1y Q*.wz Hs R*.S*.T*.U*.V*.W*.X*.q! n} r4 u{ U$ D& <# e& _{ '% l{ I< _( !( R* I# l{ 8{ u@ F% A] _] K, 7< K, !* !* !* ]* P= $, _* f} g^ 8{ 4) -( _% _% 0$ x( g. #. J[ L@ y4 kt Q} f8 v( i' 5( z@ W- Y*.Z*.+M `*. =..=.+=.fX `W @=.`W eM :N lP GG 2K RI XM GG DG 5K &L BO @V &..xH #=.rF 6Q sQ =L D&.3D 2D ix 8B $=.E .%=.&=.*=.==.G&.g+.-=.;=.>=.6Y ,=.'=.)=.!=.~=.{=.]=.Yp ^=._D dH ^O YQ mG OB =$./=.|Z (=._=.:=.<=.[=.3..LL 8( 0. @% p! U, p< G{ D, L= -# 1- H} H} 1% f@ h@ {, A{ X* += +# +# ,% w, w, [$ u5 s, .% :% ",
"K# h* df t< {* ;2 }=.}| 5' 5' )% |* 5- 1@ E% i$ W$ :' Q$ $3 (- s1 <# S} T@ d} :' p! |=.1=.2=.XW 9F  M 2&./U qO .I 4K RN 0R qI b&.3=.4=.)S 5=.oI =I kP GM GM /U qI %Q 'G l*.7H 6=.3D ix [A [y lB |B 7=.8=.9=.]M Cz Cz 0=.a=.b=.6Y c=.3 .|X :J Yp kV 2J 2J 5L bQ hK O@.O@.d=.Hq xA Pq e=.f=.g=.h=.i=.sq j=.k=.l=.<# m=.}& n=.;b z8 [b :< 2! <{ a3 '_ |* f* |& :* /* 1( S7 8- 0& 0& 0& 5% 5% 0& 4- d% G# Q' X' 5# S# X% 6, )( _{ O4 I} t, t, S7 6$ i+ E& R$ R$ s( v( l( v( #' ,7 o=.p=.FV q=. V 1K r=.s=.t=.u=.1&.t=.v=.w=.x=.XL w=.w=.lJ (M y=.RN SN z=.A=.FH 'D B=.EI :B $K qx :&.#Q C=.XJ %..(N ZJ vI 'G | .oJ GG >H kN /U (P QN 4=.b&.lI 5=.HM )K VM lC ~D GC mB qz 8s rz [y 0u D=.E=.F=.G=.H=.I=.J=.K=.x( V# i, )] L=.`6 5} (% /* :* :* 2- $-  &  & f$ 5, 1% t# b& g- 8# 8# &* &* 4& 4& f- i- e# ~& h& H# x= *- L# U= {, {#.+= ^, b, {$ g. M=.NU S7 ~8 6} R= R= u5 5} Z# N=.O=.P=.Q=.R=.*I S=.oI b&.mI vI *G RN T=.U=.V=.W=.X=.W=.Y=.Z=.U=.4F ;G `=. -..-.+-.@-.K..+W #-.4C xO $-.%-.&-.*-.=-.--.kz ^z ;-.>-.,-.'-.)-.sM !-.}Z ~-.QR {-.OP SR `p rR GE dH O@.z%.YQ 9N _x ]-.cr ^-./-.(-._-.:-.<-.jt M} I4 [) r1 A< 8{ 4) q& #' #' )( W) I_ R* g# d% X% v, h$ B# R& t# L* L* l$ F% P% P& 2* l# ",
"j- [_ H< j& ]= @9 ]= (& k^ {* 8) 5' *- *- H# H# (- <# M1 I, &= :{ t, 3) E6 +S !8 #3 [-.}-.|-.cX !A  M u=.1-.HI tI 2-.Y=.|&.3-.a&.4-.5-.6-.r=.^&.7-.8-.8-.8-.9-.0-.a-.EF b-.c-.d-.e-.f-.f-.g-.g-.h-.i-.j-.ZB WZ k-.l-.m-.n-.o-.p-.q-.Pt r-.s-.`p ^I LH LH bQ 2S vU YZ uD t-.YF |z LB _F 1t u-.v-.w-.x-.y-.0d z-.A-.(- ,| B-.C-.z8 S+.o1 #, b_ k[ D-.E-.3{ ^# l[ x% .6 n=.0_ )* )* 8) 8) 8) 0_ k^ C3 #! F-.W3 X_ G-.G-.%5 _' )8 )- @) I< X' Y8 r[ t{ R' 1! :{ :{ _{ e& $3 H-.B( I-.J-..M KD 7Z K-.OY L-.M-.N-.O-.P-.Q-.R-.S-.T-.U-.w=.V-.W-.X-.Y-.Z-.`-. ;..;.+;.GV {F @;.oO #;.$;.%;.5=.b&.(M oI lJ &;.*;.=;./H ++./#.sK )S SK HM pI g` g` lI >Q -;.;;.>;.,;.YD ';.);.!;.~;.{;.&w rt hK ];.^;./;.(;.Lk _;.O1 u< A( ;7 |0 DR kU y{ J, <{ m{ J, G] @) 3! '- 3! I% 4} @) I< N= _' _' I< z$ z$ !& a+.@! x3 c_ -^ 7) A# <{ !_ n{ c} 63 63 j= W9 :;.+R jt jt sZ D6 -n ,M f& 28 G6 <;.[;.+;.};.|;.GM S=.jM @I <L [L cR AO -T 1K [L NI >H 6K =I {H OI <M JI )H *I qH -T BO qJ &W 1;.2;.2H `v qF 3;.*W PF GB 8y 4;.5;.v%.6;.7;.Vr lq '#.8;.9;.0;.~=.a;.b;.Yp dH #q cC #q [J `E %y (x c;.c%.tp %B I+.d;.D%.Lk e;.+= #3 %# J$ F, HQ P% #' R& L* y$ ;* ~& y$ f- V= H} i$ 6, .& H} b& }& }& |& 4, 3' *- d% T= ",
"<7 pa pa D9 P> Qv g; q> -{ -{ 6~ 8> Kp |+ y. !+ yV w@.y~ Q/ u2 @< @< >@ K: {+ k5 K~ f;.o .`A zW g;.h;.8T i;.F$.-` -Q Ny F$.{A -Q Ry 4;.Ry -Q -` Ry j;.j;.4;.4;.$K >x DC k;.l;.l;.m;.UT UT n;.iE o;.LC %K %K AW @L UO p;.q;.r;.s;.t;.u;.v;.s;.w;.x;.y;.z;.A;.A;.B;.C;.D;.E;.F;.G;.H;.I;.J;.K;.L;.M;._r f..N;.O;.0@.P;.q&.Q;.R;.S;.T;.U;.V;.X5 W5 #~ Pv b4 =< #@ '/ `; f~ 1/ '/ '/ '/ '/ 7/ e/ 2/ 6; 7/ W  W;.1~ >a $8 %( Z| G@ E^ @. 14 14 F@ d. X;.lt p/ C/ :: u/ N: oa ,' E. Y;.Z;.`;. >..>.+>.!I iE 1O OA 1O UO &S iE @>.RL RL j;.j;.RL %=.QA )E DC #>.$>.%>.&>.*>.=>.$>.->.{A hI CC UT UT Qy {A >x WE >x RY 1O UT PF n;.1O RY ;>.n;.!I !I n;.`B }M CI pA >>.,>.,>.'>.)>.!>.~>.{>.]>.^>./>.(>._>.:>.<>.W! $  t/ h; e  [>.:+ T; V| /~ f: `/ K> J~ ^~  @ r/ 5/ =' >/ ^~ 5> o/ 9/ 6; +. 5; B2 7; }>.*' *< C2 =4 C2 d. 4/ S  E9 2/ R  %( t9 y8 |>.)$.U0 )$.&@ S> k; #1 1>.2>.[f 3>.4>.5>.6>.7>.8>.9>.9>.0>.a>.b>.Bz c>.d>.e>.f>.g>.n*.h>.i>.g>.j>.d>.;>.qA ;>.k>.l>.G@.d>.j>.m>.n>.n>.o>.p>.q>.r>.p$.9&.@>.s>.t>.u>.v>.w>.x>.y>.y>.z>.x>.A>.B>.C>.D>.E>.D>.D>.F>.G>.H>.I>.J>.K>.L>.M>.N>.O>.P>.Q>.R>.S>.~@ ={ U~ S: T>.'+ q. W~ 1. :; (. '' y; /. L; /@ w/ U~ U~  { :; :; 8~ <. /@ /@ [. [. ,} ,} ",
"}&  & x= G# =. >% ], +# &6 &6 w, E, `$ w, (% F, d& 98 B# F, `$ $$ ^, `$ @$ :] _{ D4 U>.V>.W>.X>.vy gB KD KD @L EI :B {F KC KC Y>.Y>.^A ^A ^A .B ZC ZC {F rx Z>.Z>.rx jY xG ZC Ny Sy Sy IC `A Sy `>.QE DI +;..;. ,..,.Ry +,.@,.#,.$,.#,.$,.%,.#,.&,.*,.)@..#.a .$ .=,.-,.;,.>,.,,.',.),.!,..O ~,.{,.+@.],.^,./,.(,._,.<E b; W! _: K@ 9, K4 d} d} i8 :,.V@ k} T$ M= t, u@ u{ S$ M= S$ u{ u{ u{ u{ y, u5 k: n< d8 (- $3 q1 [b ...j= _< _< ^<  ! <,.v3 c8 *] ^, ^, I} &6 M= |R y5 [,.TH },.|,.gL 1,.8y ZB Ny Yx IC IC 8y IC kz {F @;.KC KC ^A zW jY rx kz qx {F LC nR 2,..B Py 7C Z>.zW rx @;.rx @;.KC VH jY rx KC KC 2,.zW zW @;.rx rx rx zW jY @;.vy vy vy FV +Q @..@...L vN _z 3,.4,.5,.6,.7,.9n 8,.9,.0,.j1 m7 t, I8 %@.4: <$ 8{ i$ (* /* i$ K% j$ u& o& d% <& R# *- |* p@ K% P& T% Q% P% F% F% 6, O* _{ R' '- '- 2) d% }2 '( Q= ' .(- a,.b,.c,.T+.d,.*= 1R y{ |R (< _< ZR e,.f,.g,.h,.i,.Vw KD N#.]y j,..L 'D IC 8y 'D Az vN :B :B vN {F vB vB OF OF OF !F QE ZB OF ZB qx ZC `C vN qx qx vN 9Q qC 2,.1O k,.l,.m,.&,.V%.n,.o,.p,.q,.r,.s,.t,.u,.v,.=,.w,.x,.y,.z,.y,.A,.B,.C,.D,.E,.F,.Mm G,.H,.I,.x#.o@ @6 U, o: 4: J,.88 |% g{ I{ 3Z L=.K,..= $- K_ 22 22 p{ /* f, 88 2- .& g@ 1% 1% g@ X% J$ ",
"r6 || || m& s@ p@ |* E' ** ** ** ** !* q@ O= N* 5# Q# 5] 3) S$ }$ ~8 r4 ;% 3$ r4 33 L,.M,.N,.O,.0y Py ~C 'D .L .L Az 9F Py Py !A !A 7C 9F Py IB !A !A 9F P,.XW (Z P,.Q,.R,.S,.S,.S,.R,.T,.VH VH @;.o*.U,.q*.V,.W,.qK f>.+B X,.DH Cz Y,.g>.Z,.`,. '. '. '. '..'..'.0>.0>.+'.@'.#'.$'.%'.&'.*'.='.-'.;'.>'.,'.''.)'.!'.~'.{'.D6  ..|R m7 *3 Hx =, /% M* 1) r@ N* N* h& ~# g- g- g# U= e$  &  & e$ f% H# 4) t, P# j[ /# P# i= ]8 @, @, f6 ]'.)= ^'.T+.sX Y8 !3 }2 d8 v4 x4 W' iH /'.('._'.iI 7C ]A IC ;x $K Yx 8y IC `A oO :'.Q,.<'.Z>.VH VH @;.VH vN @B MC !A iG `C :B 0y iG ~C ~C @;.VH VH 0y 0y 2,.VH VH ['.}'.p*.qK Z>.9F 9F !A !A 7C 7C 9F 9F IB CC CC 1O IB IB Qy Qy |'.1'.2'.3'.4'.(n 5'.6'.7'.8'.9'.S7 N4 *] Jx :* 7/ _$ )( }& 78 ~L L* ;, T= y$ M# 1* :& R# d% ;, x= x= 5- 1@ x= d% 8* 5- 2& e* >* H< {* C$ a# a# b{ A$ N# !- !8 0'.<,.b,.a'.b'.a,.sG uX Y) c'.d'.e'.PL f'.g'.h'.j;.UT ['.QS DC m-..,..,.+;..,.OM !A ~C [H (Z P,.P,.XW XW i'. ,. ,.j'.j'.j'.k'.j'.P,.l'.#;.l'.P,.XW m'.n'.o'.p'.q'.%C r'.s'.t'.FH +B ay ay DH !I n;.rM wN u'.v'.w'.r>.x'.x'.r>.y'.z'.A'.B'.C'.D'.E'.F'.:@.G'.H'.J% h5 :- 03 ;@ 6i S# l$ M* G# S# L* M* G# ~- G# $, Q# $, P= R# {- <] b- d% G# G# R# I< Q& ",
"&^ := _= L8 e) X$ 98 3' 4& 4& 4& f- i- c- M# >, d# 4^ 1* x= '% '( F# F# M1 && iD  7 I'.J'.K'.L'.M'.M'.N'.eP O'.P'.3U Q'.aw aw R'.S'.R'.R'.jf jf T'.U'.V'.V'.W'.X'.Y'.U'.Z'.W'.`'. )..)..).+).@).#).$).%).&).*).=).-).;).>).,).').>).)).yo !).~).aw aw {).aw ]).^)./).>+.()._).:).<).[).}).|).1).2).3).4).5).6).U#.7).8).9).;8 0'.c_ I_ a% =- )( *2 W_ a_ 0).0).#! /= /# d# k- {& c- b# ~& /& /& '0 p' G, 1R a).b).c).V3 F] h= Ix k= l3 o= d).e).f).y#.~_ -^ &= MU ]'.j= g).>& h).i).j).-).k).l).m).n).o).o).p).q).r).s).t).u).v).v).w).w). %.x).y).hh hh z).A).z).B).B).C).D).E).>f F).G).D).H).I).J).rf K).L).M).E).N).O).P).Q).R).Q).S).R).R).T).U).T).T).T).V).W).X).Y).Z).`).|Y  !..!.+!.@!.#!.$!.t5 v3 W' B8 g).1R p/ %!.3{ $] b- 32 0_ 8G f6 a_ d5 @! &!.*!.c_ #! 32 ~& ~& ~& c[ ^& k- {& !8 P$ N+.=!.W3 *!.h= k= u^ s6 s6 ;b -!.;!.>!.,!.'!.)!.!!.~!.{!.]!.^!./!.(!._!.:!.k$.<!.[!.<;.}!.{f |!.1!.2!.1!.3!.4!.>m 5!.6!.7!.5!.6!.8!.9!.0!.a!.b!.c!.b!.c!.a!.d!.e!.f!.g!.h!.h!.a!.i!.j!.k!.l!.m!.n!.#z o!.p!.q!.!).+f r!.s!.8'.t!.u!.v!.w!.x!.x!.y!.x!.z!.A!.A!.B!.C!.D!.E!.F!.G!.H!.I!.J!.K!.Y$.}R L!.M!.d$ 8; 8* g) 7# ]& a# g) C( C( 7# ]& ]& [_ r' Y' ]& Y' Y' d= Y' 3= z* 3= Y' s' _# ",
"y! h' z@ g. w( d, ~8 7, E, w, r{ <% <% N!., .;$ ': r/ I| (~ (~ 5/ x: %~ %~ V  {B O!.P!.Q!.R!.S!.T!.U!.V!.W!.V!.X!.Y!.Z!.`!. ~..~.+~.@~.#~.$~.%~.&~.*~.=~.-~.;~.>~.,~.'~.)~.!~.~~.{~.]~.^~.-~./~.)~.)~.(~._~.:~._~.(~.<~.[~.:~.:~.}~.|~.1~.1~.1~.2~.^~.^~.3~.3~.4~.5~.1~.}~.6~.|~.Ch 7~.Bh ik wj 8~.Ei '~.9~.0~.a~.b~.c~.d~.e~.f~.Q0 g~.h~.!. g: i~.'M lc )M 59 )M j~.F; ^/ M& 8. i: i< w@ ^/ ^/ H2 F; G- G- =} >1 T^ N[ W^ %} %{ r- 4; %{ `2 81 Ca P^ 2$.>{ F/ 6~ 7v k~.*&.l~.m~.n~.o~.p~.rj {i tj q~.r~.s~.s~.r~.t~.u~.v~.sj w~.x~.y~.x~.z~.A~.B~.B~.z~.A~.A~.C~.D~.E~.F~.A~.z~.G~.H~.I~.J~.K~.L~.M~.N~.M~.O~.P~.K~.Q~.R~.R~.S~.R~.S~.S~.T~.U~.xh V~.W~.X~.W~.Y~.Ei 0j Z~.`~. {..{.+{.@{.#{.${.%{.&{.*{.y[ -< r9 wP ={.q/ $1 -{.$} Q@ #{ b; 4; ;{.;{.a1 >{.,{.11 >{.'{.K! |V &< |` oa na oa 1` 5> /. p/ N^ u; *} @{ 1b )< >} Q@ U> <+ 6$.S5 ){.Sz V0 !{.~{.{{.]{.^{..8 /{.:~.({.yh _{.:{.<{.[{.}{.|{.1{.2{.3{.Wh 4{.5{.6{.7{.8{.sj 9{.0{.a{.b{.c{.q~.3{.q~.d{.e{.f{.0{.F~.Wh sj sj sj sj g{.7{.3{.A~.Wh E~.C~.x~.C~.h{.i{.j{.j{.i{.Ig k{.ik (g l{.l{.m{.n{.({.({.o{.p{.q{.q{.r{.[g s{.t{.u{.v{.j~ w{.E^ >: x{.~9 Y| &  6> O! P! ]+ I! :+ K: h~ q> <+ q> P. f; &< a4 [+ [+ T> }+ 5~ F/ D/ y{.8@.",
"d5 d5 l[ W_ o' l3 D( '0 n' {* 0_ 0_ j& l{ l{ (# !_ Q4 c} c} &= &= MU ]- H# I# '- Y8 o[ {] p/ |` -{ 5~ 6~ X> K/ ;+ Kp ;+ #J F+ p..z{.9  A{.n..a  B{.C{.D{.E{.F{.K+ n9 =N |T K6 G{.H{.I{.J{.T2 K{.L{.M{.N{.O{.P{.Q{.R{.S{.T{.U{.V{.W{.X{.Y{.Y{.X{.Z{.`{. ]..].+].+].P{.@].#].$].%].&].`f *].=].-].;].>].,].w  }4 >& '].NO )].!].~].Mk sX ]- &= !& !8 ]8 I, -^ I, ]- Hx 5# m{ J, a} u< 63 a} <{ x% z$ a3 #, c5 &= &= 1! _* ^* .# KX {]./a /a ]].k. h^ NU _- <# u< n{ {_ ]'.^# +R ^]./].(].6@._].l8 :].:].<].[].z{.}].F{.F{.|].1].eY 2].3].%; X. T+ xP xP #> #< o..)+ )+ 4+ P+ P+ W. Mp L2 L2 T+ L2 E/ 4].5].#> 3+ V. N+ 2+ >+ 3+ O+ W. W. >+ >+ K/ 6].~> 7].#> 8].l8 l8 9].#> */ aI 0].a].b].c].d].e].f].g].J8 I< [< ]- Y_ h].48 c5 ]8 $, a3 @) ]- <{ G] _< S+.29 <) ]'.i].x% 7) Ia Ia J( J( KL KL )8 c5 0'.38 [{ '% 7) {_ l7 R# _( S' L7 X@ x! K4 28 j].Mk d'.k].4..,$.l].m].x[ 8v `2 a4 V^ w. P+ b  =/ M/ b  G> m  q&.n].o].dY p].h6 A{.q].h6 h6 $< A{.:T <T CV r].s].t].u].v].w].x].M{.y].z].A].B].C].D].E].F].G].H].G].I].J].K].L].M].N].O].P].Q].R].S].S].T].S].U].V].W].X].Y].Z].`]. ^..^.h{.W: [{ K, K& j$ M* <] J( ~# k$ j$ i$ L$ L$ K$ [% @' ,% (% 9{ W# N4 I8 /* U# @' L= I$ u, G{ j+ 8{ ",
"&^ L8 c_ k& +^.87 h= @^.q^ 42 P# 42 P# !- !- 42 s6 w< -^ -^ -^ /# 2! 2! (# A$ h& c[ Y&.#^.$^./, }2 L7 u4 t4 O7 O7 `@ %^.@) &^.<$ d8 *^.I, ]8 )8 !8 ]8 I, $& -^ k= F] o= {= @! W) N# ]= 42 X) k^ g! !9 #^.5] x, #) z$ [! C| D| @= '] }! <& 32 l7 =^.-^.)- 4# [< [< 4# X$ $3 a} MU c} :# R$ c5 /# yX ;^.>^.,^.yX -& uP '^.!!.)^.!^.~^.{^.tX b} ]^.N+.Gx #9 !8 ]8 s6 U$ )- 2! k[ @, !8 $& !8 f6 c_ p' h= Ix Ix h= c_ c_ c_ 2! I, ]8 a} 7) 7) .! :- 5} ^^.v3 X' =^ )- a+.!& n' #, /^.#h cf p+.(^._^.gh U' s7 s7 s7 _$ xX L+.:^.u[ 5..<^.@) 3! _' '- &= &= ]8 !8 &= =^.d_ )8 l .l .o+.N+.W' W' 0P <^.Y8 L+.i' L .v#.)- c8 [^.3! )- )- !& )8 =^ c5 h%.!& =^ )8 v3 !3 !3 {8 $3 X% X% R} u5 q( u4 }^.~8 |^.1^.#, q^ P( 2^.7G F] +^.h= c_ z$ j& X) I_ (& 36 36 !& 3^.v4 /$ 4^.42 *^ P# W) (& =* &^ &^ ]= 4^.u^ @z ;b @! b_ v^ 5^.p1 6^.d'.1^.7^.8^.[F 9^.H4 0^.~^.s^ k].a^.a^.b^.c^.d^.e^.f^.c'.g^.gD +5 _' 5# I< z$ 2! I, t^ [/ y} !8 k[ /# /# a3 !- !- c_ 42 )8 @, 5^.F-.c5 -^.32 <& 32 <& R# c{ 98 D| h^.<% i^.U} N4 N4 N4 *8 78 P) N) P) j^.b8 22 22 W$ 5} 5} .# O4 O4 .# hZ #3 7, `# h8 t7 6} 3) <& '- I_ a# 7& e# 4, 6# )* ,* ,* i- m$ m$ i- i- m$ L# 2& N= M% p& X) l{ N( L# >* 6# 6# ~* q@ )% )* ",
"n= )! o' k& Ix >0 k^.k^.k= k= h= c_ p' 2_ o' W_ .! }F Y_ /= /= o' p' #! i= K8 K8 K8 @! *!.Gx S} 7} =3 e} D4 ;7 k' 27 B( l^.m^.-4 Sz n^.C@ 19 *4 19 ez iH LX LX C6 !y o^.;& !' 6i A( 73 +7 6i W9 +7 +7 0w #4 H] !y A6 sZ p^.p^.p^.p^.p^.{a V7 B4 q^.r^.`U s^.t^.u^.Y#.X#.%4 }# :a E2 }# u- }# 9S `U v^.%!.w^.;!.x^.y^.z^.A^.B^.C^.D^.E^.F^.G^.H^.I^.J^.K^.G^.f).L^.PO M^.{= o= Ix }= }= 1_ }= Ix N^.O^.O^.P^.O^.Q^.R^.S^.l3 o= o= /= <= #! 5#.}F g].T^.W3 ;b U^.;b W3 ;b ;b 68 68 V^.a,.e} n! z2 JA 92 JA w[ v[ F@ 5i C@ |~ 6> 26 d1 73 A( f& A( V7 B4 dP x4 dP Z) K .W^.#5 $5 $5 ^- F4 <S <S <S d1 X^.G^ X^.D2 K4 g9 dz P} U' =8 =8 C4 B4 Y^.Z^.tG _$ :$ w6 ,& L@ &' g9 B( iH (7 z[ +( 77 e8 +H _ .,$./s a'.$@.`^. /.V^../.O+.+/.@/.o1 y#.;b y#.k].s^ d'.#/.$/.%/.&/.*/.p1 6^.6^.p1 =/../../.-/.;/.>/.,/.'/.)/.!/.~/.{/.V^.]/.]/.58 ^/.b'.== -/.//.(/._/.:/.</.[/.}/.|/.1/.{/.2/.3/.4/.X0 f~.HA B( LX LX LX p^.5/.=& L[ }9 A6 B6 !' B4 !' 6/.I7 *& I7 7/.8/.9/.0/.>^.6/.p^.p^.!' V' C6 C6 %/.A6 j5 '< kt ($ ($ r7 e} =3 .7 7, q( =3 E& M1 D& s( O} O} O} /$ n< {$ 3$ $% N$ 1a }. !< B^ +6 m1 J8 m= d# m' [@ :@ 3= r' 3| &^ _= H< k^ H< $! s' 8_ o^ 6= f= %# l$ !9 ]] ]] m[ ;* c[ c[ c[ c[ c[ c[ ",
"r, 4* A; h' w- !< w5 N@ K@ ;# ^$ L4 L4 n< c1 v@ !] H^ B- c/ 14 i' i' i' 57 P@ p[ E6 57 ${ h~ a/.gN [  &; &; J. I. b/.4  J/ Qv a9 +0 P> @> <+ i; W- }$.Qv bI bI Rv c/.s~ d/.vV |V *{ [1 e/.[1 +} o4 J! R> f/.+J W8 J/ M! L: L: j; .> .> .> .> O> g/.s@.h/.i/.j/.k/.l/.j/.m/.!; n/.o/.41 XP p/.q/.V^ +{ V2 Y5 r~ r/.s/.t/.u/.v/.w/.x/.y/.]{.U8 x[ z/.y8 t9 z/.A/.Sz o~ B/.*: C/.C/.-: Y2 Y2 rT D/.+H E/.Tz F/.p~ G/.H/.c. I/.J/.7@.M8 K/.q8 L/.M/.v/ P! q; #  #  /. ]~ 8/ $~ C2 1; U^ z. `; N/.O/ $; $; $; $; $; !4 !4 !4 J+ J+ p9 JS O/.P/.w` w` w` Q/.W&.W&.O/.p9 R/.S/.T/.i  Q> Q> Y- }Q Y- +0 W~ u/ V^ }7 :; #  3. P! #  q; :; 1. w> :: &@ }+ O! t- O! S! j/ Q  z. z. +{ k4 K/ >+ +J 81 wP U5 U/.L#.V/.C7 w7 vV y8 W/.X/.c9 l..Y/.Pv Z/.#} #} %( A[ A[ L| |V ;} V/.e8 e8 c. L| L| `/.U0 t9 y8  (.X6 .; y7 .(.+(.@(.#(.$(.%(.&(.*(.=(.-(.;(.;(.^{ r8 Q/ +a +o ZR [9 [9 0w !u 1# 0/ S4 =' =' U  r9 L! r9 r9 e; cI VP >(.^{.9Y t9 y8 p~ <1 <1 <1 J! o~ *{ ,(.'(.q&.C7 f/ f; e; f; g; h; i; S2 J/ o  `. r  2W 2W GY b  G> L/ Lp )> )(.!(.~(.6].6].); ); k4 8> V^ V^ ;/ t/ x> w> I! N> C. x2 v- h' ~$ 3$ :% @$ @$ q, k: 6$ `/ u! H@ H@ 9. 9. x! h: g/ r- U^ v  @> U> z. E. <+ q  q  q> *@ ~+ T> U> ",
"{(.;+.3{ j[ 1{ )..6G G-.d5 W_ p' o' 4_ '0 D( E( F-.](.o1 X_ X_ h= #! p' (& 0_ 3{ G$ B+.%b Q; S^ ($ /$ c1 x5 2# x5 t5 t5 @6 y6 %/.p%._p )X x6 z6 y6 z6 j5 .5 9S h9 (%.[- x- AR /- LL  S v4 d8 {8 u4 p+.[^.^(.[D *^.c8 }2 j7 /(.KX /a e, .# D3 ^, e} h' C4 _$ xX _$ xX `@ ((.[# kt %3 W^.,$.K .&& |0 B4 NO )= sG j].sG uX -= _(.-' +S c'.gD W' b} ' .(- Y8 W' (- b} Y8 ' .NU M1 :# a} n{ g} g} n{ S' #3 NU i' j: d8 }2 _* _( N4 X$ }2 O& 5] ,( [^.*= H, y} _{ 3) _* F# R' d& F# n1 n{ o: (/ tX :(.D2 k' k' ;7 +7 P} |0 V7 <(.[(.]< FD %b k1 W9 29 F4 #5 k1 i1 F4 f& h~.D6 && 7x A( f& 7x x4 J4 J4 $5 kU (p (p %3 +5 && dP x4 x4 y4 dP V7 p^.%/.4a B- .5 .5 `4 K4 d} ;7 k' /$ l( <- f& }(.c'.NU s7 Q= )8 ]^. S F4 |R c} ]8 ZY u5 X$ 22 _( F# '( 3! !_ 7) ^# f6 W3 h].#, 2! ]8 ]8 I, &= MU $3 LL +5 '- M1    kU N+.%& gD g^.wa d8 NU MK |(.1(.s^ 4..2(.3(./- B8 Y8 W' W' $& 48 A8 gD w{ v( e} W@ t7 /- $5  S g^.kU 4(.5(.8^.6(.== 7(.8(.G4 3(.N1 28 %3 u< 63 /- %/.>} Y) m{ :( I% X$ 5} #3 4} 5} 4} C4 xX ]].H7 c, W@ W@ W@ T@ <$ K4 K4 n< m< i< L4 r{ p< q{ p< :% E, `$ `$ ,% H{ O4 O4 V# 9' a$ T# ,- a% N( _# '_ >- !* Q& v, B# L$ L$ R& R& M* 1@ :, |$ j$ 4! P# ~- T# f@ (* I$ /% L$ J$ l# L$ R& ",
"c_ k[ k[ +! u< n1 u^ +! f6 f6 h= @! h= f6 h= /= 9(.0(.6^.a(.;m u^ +! !8 42 42 W) I_ ]= X' i< L4 X$ 5} S$ M= #3 #3 c, q( #3 f8 :$ v4 q1 M1 g8 b(.D& s1 D& H, M1 :# u< g^ /  %& _* !( _* W$ e, p{ u< ]'.z8 c(.Z_ Y_ i= -^ &= &= MU n1 [{ [{ >^ m7 /- 7% k1 $5 /- d(.r^.e(.%3 #5 1R ,| |R gD *= }F U' U' Z) K .sG }(.a,.28 ]- !8 D% _< c_ d5 SW (# I_ (# X) ]= x3 k= k& 1_ t^ x3 /= l3 2_ W_ j[ j[ =* I< O0 _{ j+ L8 X) N( )* N= k[ W_ l[ ^# b_ +! f(.N+.c8 @) d& d& 98 D| D| !- _' )( R} }% )8 [{ _{ V$ 8{ 3) g} g} u< n1 n1 +! )- 3! R' 1! '( F# e& 5] 5] _* :{ :# 8. gh z( )( 1) 1) z( [{ ~< n{ [{ n{ Y8 N+.]- A# n1 {8 n1 n{ y} H, _- q1 v4 x5 U[ 7x S} E& z% G, <# <# W{ `6 `6 u4 g(.t4 p+.s4 MU N+.Gx !& I< z$ b_ -^ I< A' (& ;* k- 8) 8) n' !- 42 o' k= t^ h(.w#.w#.p8 36 c5 -^ !8 $& N+.b} N( b_ 69 i= u^ ]= /= %5 <^.<^.N1 }(.1(.i(.j(.k(.l(.m(.n(.0P &^.&^.l .7G o(.p(.q(.k .k .hD y{ %b n{ 63 n{ Q= 1! a} %& d6 h%.(- iD a} a} 63 _- iD v4 :{ 1) I% LX !~ v4 F% &2 %b &2 %b y{ g} *3 C% Q% z( z( r@ 1@ i$ i$ L$ hZ (% `$ u{ S$ M= ({ u{ +# u# u# +# o# i$ i$ i$ l$ P& O= N* {% A] N* (# Y' b# h& c- ]& 7# <] t, 1%  ^ -9 H} ;] 3- I) ;] B] o- G$ D-.,0 -0 G( ~* a% 8) 8) '_ n- ,- '_ df ",
"k& r(.s(.'! I, c5 +^.'! Ix o= F] k& {= Ix }= '! t(.u(.q= v(.v(.r(.~= +! @/. ! c).b).k& !8 f8 Z..Q= 1! F# :{ u< 63 y} 63 >^ n1 ' .W' n1 a} _- C4 r7 q1 3# q1 T' NU d8 =3 H@ M+.<# 4} Z@ Z..Z..KX s4 ~3 v3 ]^.%r U3 c8 w(.w(.w(.U} N4 /, /, /, /, (8 z^ b(.W{ Z@ t4 4# &= W^.j].*= A8 @/.d'.j].#5 |R %b d,.-!.H8 x(.y(.z(.]'.A(.WU q^.GZ M^.`_ N^.k^.)0 >0 B(.T^.C(.D(.E(.F(.G(.H(.K0 I(.I(.1_ &!.J(.K(.L(.{_ y{ K(.0).M(.4' q^ Ix F] ~[ Ix &!.N(.O(.*0 c).k= #! ^# a_ <= b).b).c).!8 I% _( O0 W_ $, 5# P= G] ^# G] G] d5 *^.r^ P(.&#.)- I< (# N= @) 1! '- z( a} $3 i: s7 :( :( I% I% L+.T7 v4 L+.wa '& 5..m(.sG %3 w4 AR T' NU T' C4 D4 M@ p^.]: E2 *7 P} && && kt y4 && && B8 +5 Q(.L^.;b v^ z8 R(.^/.48 U^.-0 S(.c).=!.6(.B8 E0 W3 5^.F-.L^.E8 F-.5^.T(.U(.V(.W(.X(.Y(.Z(.d^.Y .E0 */.`(. _.b'.;m /s ._.+_.~].@_.#_.$_.-^ *!.#, @/.@/.%_.j(.&_.@_.]/.^/./s {^. _.+/.+/.*_.=_.-_.M$ s1 $3 !3 S' %3 <^.v4 d8 MK L+.`@ ;_.>_.,_.'_.'= B4 P} +7 73 )_.H7 |F !_.L#.X; ]7 d, q( 6} q( 7, 6} b, D3 .# X$ X$ S' F# F# X$ 4} M= e, /* I$ (* /% t{ o< I% &, S# G# T= d% x= O= I# `% 6' m$ 7# a# g) h& /& [[ T3 w^ 1= -_ -_ ^& M* n& p) t0 t0 p) u) 9| 3| O0 s(.Y .90 ~_.-/.E0 Os 60 M0 M0 {_.^[ |! d! 6] ",
"}~ K[ q2 Yb Q@ o; @{ G- Rw >< Rw @  (. Q@ c; Q@ )$.T8 D9 )$.U0 )$..3 &< ]_.'(.y8 p~ ^_.W8 W8 vP g; e; M! i; i; vP vP u  Ca }1 FY FY U2 +J vP K/ F/ F/ %` %` y~ /_.R/ (_.w/ M; |} 8/ 6> P! >@ u/ /. :~ '' @1 v@.[7 _: 6. 5> o/ a/ a/ a/ M> M> M> 2> K; O! P! :: t/ k; J/.z[ z[ 8/ <7 @1 ={ 6~ k4 u. 7+ @< %} __.:_.:_.<_.[_.}_.K^ |_.=a :;.1_.*a 2_.2_.3_.4_.5_.>n 6_.TV 7_.8_.|_.|_.j~.F; -a 1_.|4 l9 G6 9_.]. k2 n[ 34 H^ k5 !] }~ G^ B2 +. e/ 0_.m4 I| r/ K~ K~ 2/ E[ |~ ${ ${ t- |; [1 1~  ( <+ @> N/ 6$.K/ L/ L/ y. Ca S. G[ y~ w/  { u/ :: $  $  $  v> V! )@ ;@ :: x> O! P! d; d; |; N> N> Ov a_.fN Y- .(.VP c/.f/.b_.T/..; @; @; => c_.;> d_.d_.e_.-} -} s@.s@.f_.z@.z@.A@.A@.H+ U5 M! i; S2 J/ S5 vP FY }1 r  R5 g_.,{ g_.*&.*&.~{ `2 x[ h_.i_.j_.k_.ZS n2 ~u l_.[7 -{.-{.[7 @1 1b 1b 1b J[ 5> 0/ ${ }4 `9 G| D[ @( z[ t- V2 [+ .( m_.n_.o_.p_.ZX a9 !4 Qv cI Y- Y  n4 R  P5 gY 4  kQ !4 N/ +J wP S. N/ 6$.GY s` eY X> ,@ -@ F  m9 m9 gN u` kQ y+ m  m~ q_.<T */ Q. v+ O2 )+ O2 |+ q  q  S2 x+ ~+ T> [+ S> (+ M. ;/ +{ O2 3+ V+ V+ U! 3. (  h> (  C! [> V| R4 J: _} J^ /@ p; <~ n; *} o[ 2# j5 z6 j5 y6 x5 N| H] F2 X2 67 g5 g5 P@ P@ 57 o( 77 r_.s_.t_.u_.J/.v_.v_.q~ v_.DS $1 l; pa }} ",
"_' 2) *2 j[ h= u^ A# z' 22 _( 22 o{ p{ p{ R} z_ O4 _% Y# O4 I8 /, /, O4 _{ a} J, 7) x% 7) I, MU P% !( 1) Q% m1 m1 f} 63 f} y% z% .6 &2 y% y} (6 :# M1 M1 $3 (- ]8 +! s(.*!.h= b_ z$ a3 @) R' @) R' c{ Q= iD n/ _- S# v= .& %, %, %, &, &, &, &, I) ;] g@ R& L* P% _{ :{ Jx d& d& @) '( u@ u5 }$ T$ 3) f} y} {_ o1 v^ ;m Gx w_.> .,( 5# '- X% ^* 1@ E% 5- E% !( R' :' T$ M1 g} y% t, O& t, '% z( X% 5# Q# @, -^ '- !( i$ ~# k$ j$ ~# M, &# 2* [% x_.Q} f} (6 m7 n1 MU {_ $& k[ k= c5 #9 b} &= (6 t7 .7 ^$ ^$ <$ K4 <$ 9, t5 }> i+ f} A% Q& _* e) /* B# 88 f, j^.Jx }! d& z_ z_ z_ j^.h, y_.Q$.z_.I{ 88 v, u, F# _{ :{ p{ e& M1 :# iD iD LL g^.sX %3 x4 =8 3# r7 e} S} s1 s1 3# 3# /$ !B S} 3) Q% M= S$ 5} s1 S} e} f& && b_ f6 A# A# !_ /# ^# <] A# *2 +2 l{ l{ |) 4) _* F& |{ *2 e6 1{ 9< |{ G& NL NL q(.G8 c(.A_.]'.{_ F# :{ V$ g} _- d8 m< h: E& u{ x, -# ## K$ J$ L$ i$ 1@ 2& x= 6, 3) U$ 4) r{ V{ V{ r{ r{ V{ :% 0$ =1 N} `$ }% T* wW j, wW ^8 h$ h$ I$ O4 O4 /* l# |% g{ t# W% W% t# t# W% (* B, o# e$  & e$ q# T# 1% t# 1- h@ W% $- 4, |$ W% T# L$ J$ i$ L$ K$ J$ R) X{ 9@ B_.L=.K_ $- 2- 1* /& m6 m[ 1* i& 1* g& p{ R} ^* (* B# B# I$ L= &6 I} b, V@ ,$ 3$ r, s, j+ L& x, O* y, %# %# &# ",
"=^.O# /= ~= f^.e^.W3 &5 o' #! W_ W_ a_ W_ d5 H( !8 n{ f} @, c} $& -^ ]8 ~& ;* /& N# N# *^ q^ -^.A$ i& 4! G# ~- ~- G# ~- 4! _' _* u@ )8 Q= 3! &8 ,( !3 1! Q= 3! @) =^ >[ h= j& N= j& W) (# l{ l{ a3 l7 Q' v#.W[ ' .R# m$ l{ l{ l{ l{ l{ l{ l{ N= J8 #! J8 H$ P+.C_.D_.C_.b_ {< :< NL E_.(< hD /< W$ }2 {8 MU +! p1 6^.@z F_.G_.H_.A(.`_ [(.X_ S+.A+.G-.B+.B+.G-.c).FD 29 O# P# g& g& g& g& P# P# c[ &^ _= Ix 1_ _= X) A$ i& h& i& 1* y$ 3' ~- G# 0> }(.&= h= =^.#, #, t^ d_ L8 O0 ^= I_.J_.-^.$, H} X% l$ t, 5] :{ p{ B# p+.S= V$ )( 2) H# 8* 4! ~< J, $, <] <] Ia b_ 2! SW Ia +2 +2 *2 *2 +2 Ia J, <{ w% z% ]- m{ J, 5# G# G# ~- P= 5# P= Q# ]= !- $, P= 4! ~- G# G# z( S# R} R} _{ '. Q' ~- S# }& T= b- 1* 1* i& {* m= Rs Rs L8 O0 O# =* /& c[ '] l7 l7 <& [! B& ^* c{ ^# a_ c_ k[ -^ !8 !8 #, L^.`(. _.+/.~^.^/. _.@z v3 v#.S' !3 ,( l .L7 c, {< J, 1{ _] _] K& f* 2& e- }' J* 4& V= 2- l$ j$ Q% Q% F% F% Q% F% #' O* R4 T' m1 Q& 8{ t{ 3) t, l$ l$ 5- '% 5] F# )( p@ /% /* l$ i$ i$ l$ R& l$ R' u@ L* b- >* >, f* *- |* K& ** d$ >, b# {& >* b& f- e# g- f# f# g- a& e# [& '# e@ h& 6# >* 6# B) ;[ a= [@ 8= 7= K] F) K_.45 }^ <_ G* W] F* i_ L_.L( 7& f# M_.4% O' W1 T& 9# m% m% w$ B= u' B= ",
"U(.N_.O_.C(.P_.Q_.R_.S_.C0 Ts ![ )[ A) '[ 9_ 5_ 1_ /# m{ o= q^ ^= O# O# E_.c).b).b).=!.0(.T_.T_.#, c5 I, W' d6 d6 g^.qy 3(.G4 && D# }(.qy 28 %3 c'.uX 28 *= gD *=  ! p1 U_.T+.q^.V_.W_.X_.V_.Y_.+R 3(.B8 4(.'&.Y#.2R !_ ]8 ]8 ]8 $& ]8 ]8 $& !8 Gx %r h%.S+.38 ^< [b _< g^. ! a(.@/.;m g^.*= d6 C8 Z_.`_.o(. :..:.+:.@:.#:.$:.%:.T^.B(.a).&5 V3 a).)0 &:.*:.&5 v(.*= #5 =:.*:.-:.;:.>:.k^.,:.,:.':.):.V(.!:.V(.~:.':.;/.;:.&:.&:.;:.-:.;:.5#.NL ;  E0 }= P3 '9 >[ 1_ }= L^.S^.,:.{:.]:.^:./:.(:.C3 G( SW !_ _< _< ,| )| jt g: y4 sX 38 {_ ......_:.v3 o+.)8 X' @) w#.r^ -^.a+.)8 3! '- '- $, _' (- W' H, _- Y8 ,( ,( U} I, ]- &= ]'.]'.]'.~_ 5#.48  ! gD I, &= I, ]8 &= MU MU 3(.N1 H2 T7 %& b} x% !_ 2! f6 #! p' 2_ ![ ::.<:.[:.t(.Y .h].V3 '! 1_ k& x3 {= )0 /< %5 =!.}:.t(.t(.]/.|:.1:.2:.Y(.3:.4:.5:.~^.~:.6:.-/.6:.7:.8:.9:.d,.9(. _.0:. ..)- Q= )( X% x= |& 6' [& 8) )* n' X) I, W' a} 63 D3 F, .# e, D3 I} I} E, 5$ a:.}2 R} /, e, e, p{ I} p{ p{ .# /(.KX I% t, w8 /a e, .# I} I} D3 F, w8 p< N4 &8 ~- R# 4! ~- 6& e% h% e- f- b# j- b# [& #& [& m$ ,* j_ 4= x* e- g% e% &* m' ]& d= g| /= [= Z8 ![ Z8 Ix `8 b:.c:.w) v) '[ z) 9_ 5_ t) d:.z) o= !8 G2 x% 8) `5 (& (& W) X) W) H< q' s' ",
"%8 37 K| e:.f:.!{ 8v r_.g:.g:.2` DS F[ x~ x~ %1 T/ 6@.^1 ES /_.h:.3@.4@.J; {; @  (. Q@ 4; {+ h~ 6; 3/ g/ 6; 2/ e/ 7/ 2/ 1/  ( d; /+ $( ;< *{ *< e/.o4 o4 o4 n4 W;._5  (.X- Qv K! i:.r9 i:.R> n~ J! e/.L! bI +; z7 s9 o~ j:.j:.j:.j:.61 k:.61 j:.l:.m:.8  n:.u@.u@.2W 2W o  41 o:.p:.q:.r:.V;.s:.+< 7~ /_.9@.t:.__.u:.rX v:.w:.x:.y:.z:.7v W> 2$.={.A:.B:.C:.B:.'{ 3$.R5 &4 [4 o( o( Z6 Z6 D:.g2 W#.E:.4/.4/.I; k_.#S %#.q2 4a w; *} q2 q2 H] <~ ba ~] x! 6$ 2a 2a :4 5( !] ~] y- a; v[ 5; k5 e9 d. d/ .. R  *' Ov f4 Ov Z  B+ ,+ e  '+ O> j; P5 ZX }1 Y- M! e; S5 U5 #J e; M! i; y. @> ;/ ;/ t/ yV yV 1@.5~ ={ :: >@ w> 43 4> K; 1> 1> J; (: q- [  1/ e/ 9/ ~~ [; ~~ Q! K; J> Q! $@ v. V; V; Q  c4 h/ c4 =< #@ e/ e/ T  >a +} {+ }; 8/ @( g/ @~ K[ A- v- a; '' :; I] P@ |9 %4 F:.n^.G:.E/.E/.G:.H:.G:.Sz |; I:.J:.K:.K:.8v j$.A9 1>..a 1>.@1 D~ }} D~ w/ 1. /@ J; L> A- >$ z@ x! .~ 2: i4 j> ]j I. K. F. y+ ;N #; N! ;N Q6 Q> ~+ ^+ ^+ /+ (+ {+ }+ u/ u/ t/ &< w+ =+ -{ t/ ;/ ;/ V^ ,@ ,@ +{ +{ O2 V. }+ u/ q. q. ,} Q| _. }. }. '  L:..< >< H6 8@.5$.)> )(.z:.M:.Q/ u2 ,< ,<  { ^. 1b |} K^ L^ x{ </ i+ P$ i+ N$ g1 <- x; ]d ]d M^ N:.k2 9_.N:.*} F2 ,' 3; W+ 3. L> N[ H2 d> d> l1 :/ g1 w{ p* ",
"I% F# _{ <# e} /  T' $3 O:.O:.I8 /, W$ 5} 4} W$ X$ v#.)- 5] 5] o{ L* M* !* K, _] I& |{ *3 y] P:.'% z( 5# 5# P= P= 5# P= P= A# &= c5 @, ]8 I, 3! <{ 7) <{ !_ 7) 7) <{ <{ c> @6 %& c} &= MU N+.Y8 S+.7) _' I, E0 Q:.~_ A# !3 :( S' S' I% X$ X$ X$ tG y! h' L+.d8 NU S' !3 X$ W$ E& ' .#9 ;^ != P( i= n=....n=.R:.A_.S:.S:.J8 Q# v3 o< ^, (* /, F, d, `6 5} I% X$ u4 t4 8X s6 !8 I, &= MU c} MU MU n1 M1 {8 d8 v( 7} :# g} 0} D% ~< [{ ~< (6 >^ J, {^..! d5 SW )( #' >^ Ia '( )( 1) V$ S$ k: :] 1! W$ W$ /a /a Y@ H7 `6 Z@ iD (- W' ' .]- n{ m1 g} /, O4 22 22 d& *8 :' +: h$ h$ }% l# L$ j$ j$ ~# j$ j$ 6, 4! X% g@  & |$ E% u& X& X& o& t& K' f% _6 D& '( z( )( !( )( )( _# <] P= x% t^ s6 /# 1) :{ !( !( P% 1) )( '% '% Q= // T:.D% m7 A' A] I# r@ P% P% y} _- G4 @z sX ^# l[ /# k[ -^ $& I, I, == vX z6 X^ x6 f& kU F4 NU d8 {8 a} u< n1 &= $& R# H# |& h# 0& +* o% F= h% 4& f% 1@ @R }% t# r# g{ {, f, 88 I{ B# o{ R} d& .& }& |& +] #- 5, e# M* x= d% 6, *] O, Y# 22 L$ L$ L$ j$ 1@ 5- 8* L* L* L* 4! h& }& f$ g- 2% 5,  & r# |$ 1% p{ w, U:.$% r, .%  % -# L= h$ u# K$ a$ W% e$ s# !# |$ 1- l# L$ i$ J$ &# B& 5) U$ y- D2 D2 w5 y6 y6 j5 y6 q* p7 27 X^.ez K@ 8, 7, /$ f8 r7 g8 _- iD $3 %& ",
"7G -^.)8 -^.[< $$ C| :& (& (& W) d5 W_ a_ W_ d5 48 48 48 0'.w#.c5 !8 -^ W) X) (& (& *^ !& 8{ ({ }! }! 98 )- P# P# Q# I< !- a+.-^.~= *!.42 !- z$ {* k^ {* {* n' k^ {* k^ n: u< (& 8) )* <] X) Q# (# {* k- I_ k= k= a_ H< 2! x% 7) <{ <{ !_ A# A# ...>M Qa @^.Y_ NL NL f6 j[ J8 V:.:< X_ 5#.)0 5#.d6 d6 b} #9 Gx s6 #, k[ W:.X:.X_ 8} /# (# Q# $, I< Q# j& j[ ^# ^# h= F] }= x3 42 42 =* =* N# W) I_ j& Q# !- P% '- W) W) )8 a3 !- *^ 42 42 O# z3 58 T^.&5 c_ -^ =^ c5 2! 32 g& g& D| Y:.Y$ V{ #= '% L* X% Jx d& 4! $, I< )* 8) N# N# N= 0_ k^ N( (# N= N( )% ~* SW [{ P[ !* !* !* q@ >- >- ;- 8] 8* R* 2) z$ _' 2) d% d% 4, 4, 5, g- g# g# g# e# i< ,( )- P= $, '- a3 a+.l{ Q# z$ !8 s6 #, k[ 2! D$ a# C( >* >* 6# >* M# =^ t{ Q% Q# I< I_ i& 1* &^ I< I, Gx WC Z:.b,.#/.h= /# f6 t^ t^ *!.*!.#,  _.a(.N1 z< H, M1 -^ s6 `:.#= @= =^ *^ ]= *^ P# l[ J8 ~* E$ 0# 0# +) g* 0* s* e- h& (2 W%  & H= 6& 6& 6& 0# 0# 0# +) '_ 8) 9! G) h* g* L# K# Z& b- 2& |* I# )- C1 C& P= 1) p@ r@ =- N* N* N* O= *- H# 1* 1* i& ;, >, g) }& d% 8* T= S# t, s, Z! s# q# i# :, 9& :, H=  <.f* |* g) C$ +) d* J# U= g- 8# 4& 6& 3% c$ g# 2& Q4 k[ f6 2! 2! x% j[ ^# z$ W) I_ J8 ^# I_ W) I< b} #9 +! #, s6 s6 s6 t^ ",
"a).=:..<.+<.@! (6 )[ x) x) }_ }_ J0 ~[ ~[ y3 ~[ 40 L(.@<.40 a).o= F] F] F] {= o= c).;b @/.LL A( h} 0P d6 N+.~_ z8 i= %5 .! a(.a(. _.E8 o1 Y_ Y_ tX A8 gD sX A8 *= G4 A8 M@ B4 j].d6 $& %& MK c'.}(.#9 o+.|(.#<.$<.%<.Gx ^(.9X $%.$%.$%.$%.&^.&^.Mk w4 x4 &<.WC p1 != != J_.lF |(.}(.d'./^.*<./^.c^.40 40 V3 F-.>0 )0 -:.=<.a).p1 F4 t^ ~= ~= T} _0 -<.!^ ;<.{[ )[  9 ><.,<.'<.::.](.87 87 1_ }= ![ K0 Ix ~= !8 o= K0 )<.=:.+<.=:.!<.~<.{<.r0 ]<.u(.^<./<.00 }= ~= o= )<.!<.(<.M(.;:.5^.$5 }F y#.c_ c5 c5 36 #, x3 5#.c).=!.V3 40 0(.p1 W3 .! ~_ &#.)8 =^ !- =^ b} wX :4 Jx 22 o{ o{ X% S# S# X% R& ~- P= z$ z$ I< 5# <& P= 5# z( 5# H# H# x= E% |a )= v^ K8 k^.b).;b ;b c).y#._<.:<.t(.90 L^.%:.c).c).>:.{= {= '! *!.'! Os c} S+.c^.c).{= [= l3 <<.*:.[<.Q:.}<.|<.1<.,/.C(.J^.D(.2<.>/.>/.3<.4<./<./<.h= T% := X) 0_ ;2 J0 )! 4' |_ 5_ 5_ 5<..<.-:.o' E( s' ,[ 8_ 8_ )^ (= e= H< #! r} P% b- m$ D< X= .- V= b! V= b- h& =^ O# l7 <& 98 V#.}! R# b- M# >* 3' d& $$ }% L* M* L* X% H# b- b- b- b- p^ m[ B_ m[ m[ p^ b! ,* g% 3= `> g% [_ ~& L* L= M# >, >* c- ,* t* o^ a- m6 5= d| 6<.f0 '* '* 7<.r' 4| r' m' [_ e= s' q' D& != s6 u^ '! #, u^ #, s6 +! @! @! k[ /# -^ #, @z U^.W3 W3 D8 f).D8 E8 ",
"#{ b; y; y; K^ L6 9_.|_.l1 +6 D# q* c1 m< E4 V@ !P G@ !/ %~ %~ %~ 4/ 8<.9<.!a 0<.]: ]: ~: z[ 2; +~ ): D^ x- B- K[ K[ Yb g: z! H^ o/ x5 v@ m* U, I@ j! 6$ #: I@ 0. 9; B@ c; Q@ c; Q@ Q@ '' H^ 5> w- A- a; /. A. 3/ 0/ M> 8/ ]~ s- }7 }} v/ /d  3 a<.;{.b<.Ua ~u ~u S0 n2 ~: m2 }_.]d Mv |} T0 [a g2 l_.c<.l2 {: #{ b; u- 59 -a j~.d<.N:.I; 9_.I; #( <7 {] e<.f<.G; f<.__.-n SO W#.#S W#.g<.E:.g<.bA W#.h<.H; I; W#.i<.I4 2# x5 j' |4 U7 p7 2# y6 j5 {a ;' E6 g5 w5 v5 L@ J@ x8 t! c2 +4 C2 M2 =< .J .J o8 W8 P^ j<.DS k<.J/.q/ L[ j2 1b J^ +  [~ /. T; 1> R! j/ .. 1/ o> <+ ~+ q> /+ /+ |; o~ N> v/ /d )+ C[ |~ F2 q2 Yb a; A- _: B- c/ #{ r- <7 91 D9 )$.)$.D9 D9 )$.|V %@ Da V8 u  u  l<.7v 7v q9 g; f/.S5 S5 m<.'$.c/.n<.o<.G[ j<.v_.p<.p<.b<.|b q<.r<.s<.t<.N8 u<.u<.(_.[_.G; Jp Jp 6_.j_.v<.w<.Jp p<.T/ %#.x<.y<.z<.!. h~.F; F; $S Q^ ,} |b N[ N[ 2} q- q- o/ 4; 4; e/ C[ r- t- !@ O! 3. 6> 0/ (: @  [~ @  p; N^ U~ %  v- X^ J- 7. I- H- 7. c< j: -  !~ 0/ %  U; S! R$.R$.H~ I~ (~ J~ K~ >/ 5/ S6 %~ x: w2 1/ w2 $@ Ov .1 A<.=' f~ P5 f~ Y; 0/ 3> 0/ a/ q- q- _: x- A- }~ [; }; d; {~ O! O! ,< %} +< ,< M; #  p; :~ '6 e. v5 ^3 y! i' 4* i: r[ i' z@ w! h' h. y! v@ 1# 1# |# C@ 5i 19 iH 1# ",
"$, 5# MU ]- h= 2! ,| (< /< ]Z {_ S+.$& !8 !8 I, !8 s1 S} L+.wa d8 %& d6 d6 ]^.o1 y#.=!.Q:.-/.~^.s6 k= h= K8 K8 K8 K8 K8 e5 c).j1 S8 E_.d5 '0 )* W_ W_ j[ d5 a_ Y_ @^.b).{= @! f6 k[ !- 42 P# z$ I_ X) _' f} g' I, X' 3! ]- MU c} &= n=....tX ;m '<.Q:.v^ i= NL {< ]'.i= b_ b_ x% 7) <{ $F &2 ]Z #9 I, MU MU A# [{ [{ '- )8 w#.3^.W' ' .%& u< f} _- H, <# W9 W9 y4 x@ ]3 J% A] p@ (6 D% 0} m7 >^ 63 y% _- (- {8 <# g} u< g8 kt k1 k1 k1 M$ e1 D# 6* m{ &2 %b &2 n{ n{ Q= x% ]8 &= tX -_.&<.W^.dP U' T' T' M1 :# a} c} c} H, n* a} a} [{ P= '- '- l{ <] Q# Q# !& p8 =^.X' W) I_ I_ I_ j& j& j& l{ 98 %= <% *] +& p^ g= ]] A8 ~_ o1 U^.F-._<.V^.B<.;^ #, $& ]8 &= MU ]- ]- {8 v4 '& D^ H@ C4 3# 5} G, f} y% y% g} M1 $3 W' C<.K .28 d6 I, ]- {_ 38 ' .Y8  ! Mk uX x1 #6 #6 u5 s, T$ t, _{ V$ V$ _* 7x AR gh 8, C# [) C# 7} l# 2* T% y, C& L& f+ C1 b@ c@ e@ 1- L$ /* /* /* p{ 22 22 98 22 o{ M* 6, 5- 1@ 1@ 8* 8* 5- 8* N, L& M* 5- 1@ 2& 2& >, *- F= 9* f# [& p^ V= $- .& I# O= O= !( 1) !( z( 5# o@ __ =- K% {% r@ p@ r@ C% A] o& E% F% n1 (6 A] e@ d@ d@ e@ e@ b@ c@ e@ 5) G% z1 B; O$ z< ~( $| =] #$ Y# q, Y# !$ :% b, D& S} R$ h+ s( }$ u{ T$ _% &6 r{ 2( d+ Y$ (% ^, }% [% /% O4 ^,  % E, .# ",
"=^.mF D<.!= Os E<.p1 h].b).b).c).5#.;b ;b y#.U^.5#.:< FZ c).E_.b).*:.6G -:.;:.;:.F<.N^.{:.G<. :.f^.W3 U^.t^ u^ s6 s6 u^ /= &!.x4 =3 |= -^ p8 36 @, #, +! c5 o1 ;b U^._<.&!.u^ @, @, -^.-^.-^.-^.!- h= c5 %& b5 ;m @/.b} b} N+.b} @, A8 A8 6^.0(.5:.5:.-!.G4 sX ]'.n=.0'.u^ s6 #, U^.;m M$ B8 sX H<.h%.]^.!8 $& !& a+.p8 r^ Os E<.3^.h%.u^ k= := 2_ p' #! f6 h= ~= u5 }^.k^ n' n' k^ {* I_ W) (& 42 =^.~= %r ;^ *!.=^.42 a_ W_ A+.G-.6G G-.t6 I<.(# )! [= <= 2_ l3 2_ <= o' J<.c).B(.K<.L^.A(.G8 m .b3 F0 '] Q' !- P# !- v3 u5 ^^.p8 a+.36 =^ !& 42 42 *^ P# s6 ~= +^.u^ := (& W) N# ;* /& /& A$ Q# ^^.3# #9 s6 h= /= @, K8 E_.S(.J<.,0 b).T^.L<.4^.d_ 42 q^ -* c[ ;* ;* q' j& q^ e) (* 32 y$ i- c- b# k- ;* N# ]= ^= M<.N<.O<.3^.U3 p8 36 @, c5 #, s6 u^ &!.#) G% R& i$ ~- M* 6, S# G# d% b- c[ 4_ -* O0 42 I_ 8) W) I_ I) %, *- d% x= 3' W& l$ F= F= F= F= &* e# f# h- y* 3= s* z* y* &* 3& }' P<..-  - l) M< +] `%  ' l$ 1* y$ L# 6# 6# i& l{ (# <] l{ N= X) I_ l{ I_ h& h& i& h& b- 3' b- <& _] t1 8) ;, 0# +) 0# h) C( 5& d- e- L# W) M# h% e! e! e! Z% Z% `% Z% `= g- ,* |( j$ |& e# c$ 6& v$ C= w$ $) $) f# c= n^ h* B] B$ g% t* V= b&  ^ 1* b- 1* j$ 1@ A$ *- b- b- h& 1* g& b{ R# }! F0 ",
"N_.N_.90 '<.Q<.R<.S<.S<.00 00 T<.U<.U<.T<.b:.b:.V<.-_.-_.80 d^.40 W<.*0 ](.*0 N_.N_.'<.X<.Y<.Z<.L(.`<.`<.I(.K0 `8 1_ Rs 1_ 87 MK <^. [.s(.T} .[.t^ ~= *!.*!.'! s(.h].+[.%:.}:.E8 D8 D8 f).f).@[.Z_ #[.#[.$[.%[.&[.[/.*[.U_.=[.o(.-[.p(.;[.>[.,[.'[.)[.![.~[.![.{[.][.{[.^[./[./[.([.I^._[.:[.<[.=/.=/._<.F8 E8 L^.%:.%:.C(.[[.}[.|[.1[.U(.2[.=:.3[.4[.5[.4[.p= /<.FD o1 0(.Y .f^.f^.f^.Y .0(.h].a).,:.L<.6[.K<.L<.2[.p= +^.r(.V3 F-.V3 V3 F-.5^.> .7[.8[.E<.h].::.d^.d^.80 [:.~_.3:.9[.0[.~:.:<.a[.J(.*:.;:.&5 k^.a).a).W3 &2 V3 c^.5^.T^.E8 E8 k^.S^.T(.L^.}:.b[.b[.G<.,:.-b G8 f).;b o1 .! ~_ _= 4^.4# |= '! {= }= &!.p1 f^.V3 V3 c^.::.c[.0[.d[.e[.N^.F<.5<.f[.g[.h[.*:.>:.40 3(.sX E<.r(.O0 F-.=!.V3 v(.h]./^.i[.j[.k[.}[.l[.%:.m[.m[.n[.^:.Z<.o[.o[.p[.-/.28 *^.^^.Gx ]^.#9 w#.!= h%.h%.!= >0 *0 Z(.::.v(.40 ](.0(.I(.[= 2_ E( C3 q[.r[.s[.P# !- z$ Q# Q# !- 42 ]= := <= ~[ Z8 ~[ <= s' n= n' q' n= m& b# 6# b# x= 38 s6 @, c5 v^ v^ @[.GZ h= c_ @! O# k& c_ f6 b_ l[ I_ X) X) j& N= N= I_ d8 M1 P( l .'] [! l7 l7 !- /& S3 m .^^.t[.>] 52 o- m& p- H< $! q' q' =* c! u_ B# }! <& @& [& u[.d# q' s' '^ l3 o' k& >:.{= k& /= O# @9 @9 #) mF &5 b).V3 ]'.z8 *0 &5 &5 #, ~= *!.;^ |= Os d).d).",
"5/.!u (7 v[.49 w[.x[.D:.Y2 -: L#.D7 y[.%E z[.H:.}9 E6 E2 -' e1 :- @6 O1 :;.:;.z5 'n i5 >7 }b n2 B( LX [# <$ 8, <$  a J@ ^3 G@ y2 m( t[ E^ t[ *~ G9 k. k! l. r! m! n. A[.,' `9 `9 }4 &4 &4 }4 &4 Q0 ~u B[.C[.D[.E[.F[.G[.ZR H[.H[.R@ q<.I[.J[.K[.L[.M[.N[.TZ O[.:_.+o P[.n2 X0 7a Q[.dN aa zM aa D:.ZR }4 }9 g5 O@ O@ g5 R[.<9 f:.f; ;} o4 W;.S[.y8 W;._5 T[.U[.W/.[1 `/.x5 2# 27 M@ D2 27 27 D2 c~.z[.I:.V[.W[.H/.$8 Sz b. !] /: F^ 5i 5i ^: JA }9 iH k' D2 SO I4 SO SO p7 y5 y5 SO D6 n[ o[ 8% !< K[ q2 q2 Yb y; y; b; a; 3> B2 #( z[ ,' C^ 57 J| P@ J| }4 ZR <E $} <7 n2 M^ [7 -{.${ %{ z[ ${ k2 e<.na X[.Y[.Z[.Y[.`[.d> x{ N$ g1 h1 w{ D# z5 L^ |b k2 k2 p2 *a 'n @6 <s !X |- $S h<.|- w{ R$ Qa DD  }..}..}.:;.}- |- U&.[_.M^ N^ j2 M^ {] n2 6_.v<.j_.N:.T^ =} Q[ r[ U[ x1 x1 x1 x1 x1 U[ 1a 8a >& D@ 92 *4 C@ *4 +}.Z7 Z2 Z6 ,' ,' |~ t- 47 x1 U[ 1a </ :/ :/ 69 5Z N$ :/ g1 l1 V[ S8 o: M4 E# E# v@ r[ ~$ $% 3$ 4$ V  T[.S  E9 =4 C2 $8 $8 p<.[_.lt t:.[_.@}.#}.$}.y; H^ o/ a/ M> 0/ a/ }~ c> 6% h1 g1 [) w< e) q& w% P& #' f} W9 kt i+ _[ (/ z< A; w@ i< 8. j: j: B; e> _6 O$ (/ U$ x, x, x5 x5 j' n[ )' w; {] x; I/.k<.+a ]{ %}.e<.t:.q<.B@ B@ N@ z- y- B^ !< w5 h1 h1 g1 <- f8 f8 <$ D4 ",
"&= ]- ]- N+.M1 D& %& {8 3(.LL /- #5 +S @5 bq 4(.>= #_.68 2(.48 ;m tX sX v^ v^ Q(.9:.x#.&}.@7 @7 G-.6G A+.l[ ^# W_ f6 k[ W_ c5 ;b v^ ,| _< 7) !8 MU MU @) 3! )8 )- N+.Gx y% c5 +! @, +! #, t^ s6 s6 u^ h].]/.1:.*}.=}.-}.s^ ;m @/.0'.T+.d,.*/._<.&/.o%.v^.G4 g^.gD gD g^.j= ;b 6^.d'.s^ b'.68 /s %& W' W' ]- ]- &= ]- MU u< W' y4 z! 73 9, L4 8, w6 dz  5 YY S7 NU uX }(.<^.'& tG wX wX a:.]].4Z L+.wa _$ 8, h: :$ g8 r7 +7 P} V7 '= vX vX ;= jt ;}.+_._(.%!.>}.Y_.4(.5(.B8 0X bq 7(.4(.]S (S B8 m7 y% y} n1 MU ]Z ...]'.]^.*^.#9 cf ^(.Gx c5 @, ;^ ]^.Gx h%.#9 ;^ D& <# 0).%5 X_ K8 h= h= s6 t^ u_ d_ ,}.%r u^ #, X' )- i= i= %5 f6 f6 Y_ S+.]Z %b i= i= 2! k[ j[ j[ d5 ]= c_ @/./^.T_.@z +! -^.!8 $& ]8 $& N+.Y8 <^.<^.'}.|/ mc mc O6 N$ 29 p* [F 9S D6 z6 D# && iD :# H, :# ' .(- (- ' .M1 H, r4 W{ 0, &' s7 '_.)}.QQ w4 v4 NU iD $3 M1 $3 d6 T7 $3 $3 }2 e& _{ _* 5] @) S' ' .r4 C1 R' M* d% <] )% ;, f* d$ *- y$ 3' X) !- $, _' _' 5# '- !_ X' Q' &8 98 Q= :# #h a^.)/.|/.!}.x(.b'.R(.{^.*/.~}.i(.{}.~^.~^.V^.6^.6^. _.y#.;m 68 ]}.!^.0'.n{ c- ;, 2& 3' *- E% j$ 5- &2 }F FD {_ n=.{_ ]Z u< iD :# _- _- f& e1 ;7 x5 A: 0; (j 0, t5 z! <- f& `6 q( q( }^.Z@ ~' k} q( 5} u{ [$ M= I} (% `$ `$ ",
"s6 h%.;^ != cf h} lF Gx ;b y#.D8 F8 F8 F8 D8 `(.~].@_.68 {^.;m o1 tX @z @^.E_.v^ ;b 48 p1 g^.g).3^.~= t^ y#.U^.E0 f^.f^.F-.p1 &<.Y .=!.>:.5^.48 ;b y#.s6 #, s6 ;^ 48 @z %& 3^.3^.|= r^ |= r^ |= ^}.%r -_.&/./}.(}._}.:}.Z:.$<.s^ d'.<}.0^.68 ././}.[}.}}.1^.sG j].A8 G4 gD ;m s^ i(.c,.|}.#_.1}.a,.a,.0'.#9 #9 #9 #9 ]^.-^ c5 LL #5 a,.A8 A8 @/.a(.h%.;^ h%.w#.Mk ./.=}.2}.%<.a,.a,.Mk Mk 1(.; .]^.H9 1(.Z) dP s^ f(.w#.f).f).f).D8 D8 f).F8 T^.3}.!^.^/.p1 U^.U^.@z @z =!.=!.W3 -!.+/.S+.5^.V3 3^.!= != 3^.r^ 6^.p1 f^.V^.@_.4}.i[.$<.-_.r^ *!.r^ |= w#.|= 3^.5}.c8 &#.Ix k& t^ *!.t^ t^ |= 3^.E0 #h &/.@_.%_.0(.E0 3^.F-.W3 b).{= {= k^.k^.;b v3 6}.@9 p8 =^.d_ d_ @9 ^= /= p1 58 6:.6:.Y .+! .[.U3 U3 w#.lF > .e;.; .s^ e1 28 h} L+.M+.m(.7}.,$.a^.8}.l].(p K .1(.d'.cf cf |(.cf H9 H9 H9 H9 J, $& ^- g^. ! S+.A8 j].qy qy G4 W' W' %& ]^.#9 N+.N+.d6 (- !3 !3 @) )- X' v#.*^.[^.u{ a+.<& i& '] Q# P# z$ !- )8 !& =^ E( s' W) (& (& {* n' e] 7) _' Q# a+.]^.H4 9}.0}.a}.a}.b}.b}.#_.7^.c}.a'.'^.!!.d}.e}.f}.f}.g}.g}.-}.i(.a'.f}.h}.i}.a'.Y8 j}.C| D| m .V} g& g& [! u^ t^ W3 U^.;b v^ ;b #, k[ f6 c_ @! h= h= +! I, {#.k}.N) D| m .@= C| m .@, Gx ]^.Gx ;^ h%.Gx -^ ^(.MK 0P MK l}.v3 4# }2 ",
"^[./[. :.G^.=/.A(.}:.}:.]/.]/.]/.B<.B<.6:.5:.m}.n}.o}.p}.6:.q}.q}.T_./^.c^.d^.h].T_./^.m}.1(.s^ r}.E<.h(.d^.d^.d^./^.B<.+[.s}.-/.t}.N_.B(.b:.40 2[.n[.2[.a).K(.p= U(.U(.u}.[<.%:./[.1[.G<.1[.G<.[<.'<.>/.1<.v}.w}.x}.y}.Q<.z}.A}.B}.C}.E^.D}.E}.F}.G}.H}.S<.G_.G_.G_.8:.I}.B}.J}.K}.L}.M}.N}.'[.O}.I^.([.C(.C(.C(.G<.G<.i(.P}.a}.Q}.R}.O}.F^.S}.T}./[.U}.~/.V}.W}.X}.Y}.Z}.`}. |..|.{/.+|.@|.+|.#|.$|.h}.%|.&|.*|.=|.$|.-|.-|.{}.b,.<,.@_.3}.)^.;|.>|.2:.q}. [.,|.5G 5G ](.h].d^.80 q}.Mk 0(.r}.l[.N_.N_.N_.'|.b[.[[.)|.!|.~|.{|.]|.P_.,[.[[.^|.^|./|.^|.e[.O(.q= 5^.F-.,<.'<.t(.):.5:.(|.D0 (|.[:.3:.X(._|.:|.]:.<|.,|.q}.s}.80 [|.,|.G(.e^.T_.5#.T<.T<.b:.}|./<.b:.T<.||.::.1|.2|.3|.]|.*}.4|.40 ](.`<.n[.[<.}:.}:.T^.5|.6|.58 b'.58 #_.g}./}.7|.8|.9|.0|.,!.a|.b|.a|.3}.:}.:}.:}.>!.c|.c|.>!.d|.e|.IL f|.'!.+|.g|.h|.$|.a}.#|.i|.c,.j|.k|.l|.{}.~].~].&/.#_.WC s^ &<.;/.V^.58 #/.N1 d^.s(.o= 87 b).&5 c).k^.L^.T^.%:.U}.t(.-/.%_./^.0(.40 =!.x) m= }_ !^ s(.*/.1|.a|.V}.=}.]}.{}.<,.~].-_.s}.2:.p[.1:.|:.Z<.o[.m|.Z<.n|.~_.!:.o[.o|.|<.):.{= H(.p|.+^.r(.}= `8 1_ Ix q|.r|.s|.D<.r}.d).O<.t|.#<.#<.#<.#h s^ #<.=_.4..Y) #h ~^.i(.a'.u|.c,.v|.w|.x|.w|.0|.y|.z|.x|.w|.9|.!!.9|.A|.|}.g}.B|.#/.",
"W6 '(.;} R> J! 99 _5 b9 C|.9Y D|.9Y V5 51 P^ 51 E|.F|.G|.,{.TP %0 H|.H|.[+ }+ !+ <+ >{ W8 Kp I|.J|.n%.T>.n..0  K6 :T p].K|.L|.M|.:].N|.N|.O|.K|.O|.cY aI 7$.7$.aI aI aI P|.Q|.R|.S|.S|.T|..T U|.V|.W|.X|.q/.Y|.Z|.`|. 1..1.+1.@1.v8 #1.$1.#1.%1.&1.*1.=1.-1.=1.;1.v~ >1.,1.=1.'1.)1.l:.!1.!1.~1.BV {1.]1.71 [Y ^1./1.(1.N|._1.:1.B@.<1.c/.@0 @0 [1.s:.x/.}1.}1.|1.11.21.31.31.41.51.51.41.41.41.61.f$.71.V5  8 @8 81.91.[a 01.B[.G[.a1.pX b1.b1.c1.d1.V` =(.e1.t8 f1.g1.o; M; }} pa M; @{ E6 j5 h1.i1.j1.j1.k1.l1.m1.A[.U% E@ n1.o1.@F p1.q1.q1.r1.j_.j_.s1.=&.Z[.t1.u1.v1.3@.h:.w1.x1.&} ;&.]. ;{.;{.;{.p<.p<.;{.1` na ~+ q> q> q> [+ [+ T> T> y1.z1.A1.B1.C1.D1.E1.E1.[7 L[ L[ .a c<.L[ k; V2 &@ U> U> T> [+ S> t/ }+ w>  ( L| c. H/.$8 c. +H F1.F1.G1.H1.I1.J1.J1.K1.L1.M1.M1.N1.o_.O1.P1.P1.:Y Q1.>> Q1.Q1.R1.D@.S1.^Y :Y T1.&1.&1.*1.U1.U;.V1.T;.T;.3$.W1.XP X1.{1.p/.Y1.Z1.H|.)> 6~ F/ 6~ GY s` G> ;N F. N! P. P> }1 }1 Ca }1 +J 6$.GY 5+ .+ $> `1. 2..2.+2.@2.#2.`{.$2.`{.$2.%2.&2.l~.+T q..O|.-> u@.2W 8@.*2.uV /]./].q8 1` 1` F[ %1 k~.o; G- E- @{ =} =2.-a K| -2.g~.P0 J4 :(.}- #S W#.;2.LU E:.CD @S X#.@S >2.S0 ,2.'2.X0 <a X0 X0 [9 o1.`9 5/.O@ )2.!2.~2.}4 {2.#a {2.]2.^2.@(.'(./2.",
"(2._2.:2.<2.[2.}2.}2.}2.|2.|2.12.12.22.12.|2.12.32.32.32.42.52.62.72.82.92.02.a2.b2.c2.d2.e2.f2.g2.h2.i2.j2.k2.l2.m2.l2.n2.o2.o2.p2.q2.p2.r2.s2.t2.u2.u2.v2.v2.w2.w2.w2.x2.y2.x2.z2.22.A2.B2.C2.D2.E2.F2.G2.H2.I2.J2.K2.L2.M2.N2.O2.P2.Q2.R2.S2.T2.T2.v2.U2.V2.W2.v2.u2.X2.w2.u2.Y2.Z2.`2. 3..3.+3.@3.d1.#3.$3.%3.&3.iQ *3.=3.-3.;3.>3.,3.'3.'3.)3.;3.!3.!3.!3.;3.~3.{3.+!.]3.)3.)3.)3.;3.]3.]3.^3./3.:2.(3.}2._3._3.:3.:3.<3.<3.[3.}3.}3.2T 2T 12.12.|3.13.23.33.43.53.63.63.1V 73.83.93.03.a3.b3.c3.d3.d3.e3.f3.e3.g3.h3.i3.j3.k3.l3.l3.m3.n3.o3.o3.p3.q3.q3.r3.s3.t3.u3.r3.v3.~3.~3.w3.x3.y3.}3.z3.z3.[3.c2.[3.}3.z3.c2.c2.RT RT D!.D!.D!.A3.B3.C3.C3.D3.C3.C3.D3.E3.c2.A3.F3.A3.G3.RT }3.}3.H3.I3.H3.J3.I3.H3.K3.I3.L3.M3.N3.O3.P3.Q3.M3.O3.R3.S3.s2.T3.a2.d2.T3.02.c2.c2.U3.V3.13.V3.V3.V3.W3.X3.S2.Z2.Z2.Z2.Y3.Y3.Z3.O..`3. 4. 4..4. 4.+4. 3.@4.`2.#4.+3.I!.$4.%4.&4.*4.=4.-4.;4.>4.,4.'4.)4.!4.!4.~4.{4.]4.)4.)4.P3.^4./4.(4.(4._4._4._4.:4.<4.u2.[4.[4.r2.r2.}4.[4.|4.W3.14.g2.<4.24.34.T3.44.<4.<4.54.64.74.84.94.84.04.a4.a4.a4.b4.c4.d4.e4.f4.g4.h4.i4.j4.k4.l4.m4.n4.o4.p4.q4.r4.s4.d4.t4.u4.r4.v4.w4.v4.x4.y4.s4.v4.$#.u4.O$.z4.A4.92.B4.C4.D4.B4.E4.Q3.Q3.F4.:_.}a 0a :_.P[.t_.D:.",
"G4.G4.H4.I4.I4.J4.>h K4.L4.M4.N4.O4.P4.Q4.R4.S4.T4.U4.V4.W4.W4.W4.W4.X4.Y4.Z4.Z4.`4._{. 5.l{._{..5.+5.@5.@5.#5.$5.%5.$5.&5.*5.*5.=5.*5.-5.;5.cj >5.,5.:~._~.'5._~.:~._~.]~.)5.!5.!5.~5.{5.]5.+~.^5./5.(5.{~.,~._5.Kg Ri :5.n{.U4.U4.T4.M~.<5.[5.(g p{._l }5.}5.|5.15.25.|5.25.35.vh 45.(g ^g ^g 55.65.sh sh 75.75.15.85.95.05.,g a5.Yh b5.c5.d5.@i @i e5.e5.f5.xg xg  i &{. i xg @i @i &{.g5.g5.h5.i5.i5.j5.k5.l5.m5.n5.og o5.sg sg o5.p5.nh mh q5.r5.s5.t5.u5.v5.w5.v5.x5.Tk Uk Zj Qk y5.[j Oi q{.}g s{.z5.3g A5.ui Di '~.B5.C5.!5.$~.D5.E5.F5.G5.H5.I5.J5.J5.J5.&~./5.=~.)5.K5.K5.)5.L5.^~.<~.M5.N5.N5.O5.M5.P5.P5.P5.Q5.Q5.Q5.R5.R5.R5.S5.T5.({.M~.U5.V5.W5.L~.L~.({.S~.X5.J~.J~.O~.R~.R~.Y5.Z5.`5.`5. 6.`5..6.Z5.+6.@6.#6.$6.%6.&6.&6.$6.*6.=6.-6.;6.>6.,6.'6.)6.)6.!6.~6.{6.{6.]6.^6./6.(6._6.:6.<6.[6.!i !i ,i 'i }6.}6.|6.16.16.26.36.46.ei di ei Bg di 56.66.I~.V~._{.76. 5.K~.86.96.K~.06.a6.a6.b6.c6..5..5.#5.d6.d6.e6.e6.s{.t{.f6.f6.U5.yh zh Bh g6.Y~.X~.Y~.h6.:i i6.i6.:{.:j j6.j6.W5.k6.l6.m6.I~.n6.o6.o6.86.96.p6.p6.q6.p6.r6.s6.t6.Q~.O~.R~.X4.66.u6.v6.@j w6.-5.*5.*5.w6.x6.y6.z6.Gh Fh Eh Dh Dh A6.B6.C6.D6.D6.E6.D6.F6.G6.H6.I6.J6.K6.L6.K6.M6.L6.`h ,i N6.O6.N6.16.P6.Q6.36."};
