/* XPM */
static char * fire_hydrant_xpm[] = {
"303 497 24591 3",
"   	c None",
".  	c #8C5D4F",
"+  	c #9B5D42",
"@  	c #95472D",
"#  	c #944024",
"$  	c #963F26",
"%  	c #9A452C",
"&  	c #9C452C",
"*  	c #A0462D",
"=  	c #9D4126",
"-  	c #9A4428",
";  	c #9A4329",
">  	c #974029",
",  	c #91432A",
"'  	c #925E4F",
")  	c #381208",
"!  	c #763723",
"~  	c #803C2A",
"{  	c #884130",
"]  	c #8B4534",
"^  	c #8A4330",
"/  	c #8D4630",
"(  	c #904732",
"_  	c #8D4530",
":  	c #8F4933",
"<  	c #8B4833",
"[  	c #8D4834",
"}  	c #8D4633",
"|  	c #85422C",
"1  	c #833E2A",
"2  	c #833E2B",
"3  	c #853420",
"4  	c #722A16",
"5  	c #4D170B",
"6  	c #3B1408",
"7  	c #642919",
"8  	c #6F301F",
"9  	c #843D29",
"0  	c #7A3725",
"a  	c #83402E",
"b  	c #833F2E",
"c  	c #86442F",
"d  	c #83412E",
"e  	c #7D3D2A",
"f  	c #854430",
"g  	c #83422E",
"h  	c #803B29",
"i  	c #85412E",
"j  	c #7F3B29",
"k  	c #793422",
"l  	c #753020",
"m  	c #75301B",
"n  	c #5E1E09",
"o  	c #44150E",
"p  	c #5D2917",
"q  	c #5C2A18",
"r  	c #7B3B2A",
"s  	c #7C3B29",
"t  	c #743827",
"u  	c #773A29",
"v  	c #763826",
"w  	c #79392A",
"x  	c #763927",
"y  	c #763726",
"z  	c #793A28",
"A  	c #7A3B29",
"B  	c #7D3D2B",
"C  	c #783725",
"D  	c #773728",
"E  	c #682D1B",
"F  	c #702F1E",
"G  	c #531B0E",
"H  	c #4B1D13",
"I  	c #582416",
"J  	c #562518",
"K  	c #6F3627",
"L  	c #703525",
"M  	c #6A2F20",
"N  	c #713928",
"O  	c #6C3523",
"P  	c #703726",
"Q  	c #6E3725",
"R  	c #6D3322",
"S  	c #723A28",
"T  	c #723928",
"U  	c #6F3926",
"V  	c #6F3927",
"W  	c #612C1D",
"X  	c #642C1D",
"Y  	c #672B1B",
"Z  	c #562519",
"`  	c #4E251D",
" . 	c #522619",
".. 	c #4E2618",
"+. 	c #592D1E",
"@. 	c #5E3122",
"#. 	c #653425",
"$. 	c #602F21",
"%. 	c #5A2C1F",
"&. 	c #5E3323",
"*. 	c #5D2F22",
"=. 	c #613023",
"-. 	c #603022",
";. 	c #613322",
">. 	c #5A2E1F",
",. 	c #502517",
"'. 	c #5C2A1B",
"). 	c #612D1E",
"!. 	c #502215",
"~. 	c #2D120C",
"{. 	c #4D241E",
"]. 	c #733C2F",
"^. 	c #904A39",
"/. 	c #994F3C",
"(. 	c #924937",
"_. 	c #964838",
":. 	c #99493A",
"<. 	c #924436",
"[. 	c #964639",
"}. 	c #954435",
"|. 	c #944336",
"1. 	c #904233",
"2. 	c #944738",
"3. 	c #984D3B",
"4. 	c #723624",
"5. 	c #633122",
"6. 	c #562A1A",
"7. 	c #3F170E",
"8. 	c #642318",
"9. 	c #934938",
"0. 	c #8C4331",
"a. 	c #6E2516",
"b. 	c #99402C",
"c. 	c #983E29",
"d. 	c #913825",
"e. 	c #953C29",
"f. 	c #933925",
"g. 	c #9C402C",
"h. 	c #9D402C",
"i. 	c #9A3C28",
"j. 	c #9B3B27",
"k. 	c #A6432F",
"l. 	c #A94230",
"m. 	c #A5432F",
"n. 	c #862D1D",
"o. 	c #943726",
"p. 	c #943C28",
"q. 	c #994434",
"r. 	c #856053",
"s. 	c #511407",
"t. 	c #6B2516",
"u. 	c #6C2314",
"v. 	c #6E2819",
"w. 	c #672517",
"x. 	c #8F3B2A",
"y. 	c #923827",
"z. 	c #8E3725",
"A. 	c #8E3927",
"B. 	c #8F3927",
"C. 	c #933C2C",
"D. 	c #933B2B",
"E. 	c #943B29",
"F. 	c #963B2B",
"G. 	c #983A29",
"H. 	c #A94835",
"I. 	c #9C3E2C",
"J. 	c #842E1D",
"K. 	c #8B3325",
"L. 	c #883121",
"M. 	c #812B1A",
"N. 	c #7F2D1E",
"O. 	c #632E23",
"P. 	c #4C1307",
"Q. 	c #6C261A",
"R. 	c #6C2513",
"S. 	c #6A2313",
"T. 	c #6B2519",
"U. 	c #652014",
"V. 	c #8C3728",
"W. 	c #913928",
"X. 	c #8D3625",
"Y. 	c #8C3323",
"Z. 	c #903523",
"`. 	c #963928",
" + 	c #913525",
".+ 	c #913425",
"++ 	c #8E3423",
"@+ 	c #903421",
"#+ 	c #872F1F",
"$+ 	c #872E21",
"%+ 	c #812B1B",
"&+ 	c #7F2C19",
"*+ 	c #7F2C1A",
"=+ 	c #8C3727",
"-+ 	c #671F18",
";+ 	c #5F1E10",
">+ 	c #6C2414",
",+ 	c #6D2819",
"'+ 	c #6C2819",
")+ 	c #6B2717",
"!+ 	c #8B3727",
"~+ 	c #8F3625",
"{+ 	c #8C3423",
"]+ 	c #8F3624",
"^+ 	c #8B3220",
"/+ 	c #933625",
"(+ 	c #8F3222",
"_+ 	c #953725",
":+ 	c #963827",
"<+ 	c #8E3221",
"[+ 	c #8F3321",
"}+ 	c #7F2A19",
"|+ 	c #852D1E",
"1+ 	c #862F1D",
"2+ 	c #7F2A18",
"3+ 	c #812D19",
"4+ 	c #8B331F",
"5+ 	c #691C0E",
"6+ 	c #5A1C0F",
"7+ 	c #6D2415",
"8+ 	c #6B2414",
"9+ 	c #6A2415",
"0+ 	c #692616",
"a+ 	c #6D2617",
"b+ 	c #8F3929",
"c+ 	c #8B301F",
"d+ 	c #8E3321",
"e+ 	c #903422",
"f+ 	c #923624",
"g+ 	c #943624",
"h+ 	c #8D301F",
"i+ 	c #923523",
"j+ 	c #973928",
"k+ 	c #993826",
"l+ 	c #973725",
"m+ 	c #842A19",
"n+ 	c #882D1C",
"o+ 	c #872E1C",
"p+ 	c #812A18",
"q+ 	c #822D1A",
"r+ 	c #84311E",
"s+ 	c #66180B",
"t+ 	c #591909",
"u+ 	c #692515",
"v+ 	c #662113",
"w+ 	c #692617",
"x+ 	c #6A2315",
"y+ 	c #8A3424",
"z+ 	c #903525",
"A+ 	c #8A3220",
"B+ 	c #8C3221",
"C+ 	c #8D3221",
"D+ 	c #903322",
"E+ 	c #8F3322",
"F+ 	c #8A2F1E",
"G+ 	c #8C3120",
"H+ 	c #8D311F",
"I+ 	c #842918",
"J+ 	c #872C1A",
"K+ 	c #822918",
"L+ 	c #7E2917",
"M+ 	c #822F1D",
"N+ 	c #66170B",
"O+ 	c #5D1D0C",
"P+ 	c #6A2615",
"Q+ 	c #672313",
"R+ 	c #672515",
"S+ 	c #632113",
"T+ 	c #8A3524",
"U+ 	c #872D1E",
"V+ 	c #87301F",
"W+ 	c #842D1C",
"X+ 	c #8B3222",
"Y+ 	c #8A3121",
"Z+ 	c #88301F",
"`+ 	c #8D3424",
" @ 	c #8F3626",
".@ 	c #8A3322",
"+@ 	c #873120",
"@@ 	c #812718",
"#@ 	c #842B1A",
"$@ 	c #882C1A",
"%@ 	c #832B18",
"&@ 	c #802918",
"*@ 	c #822E1B",
"=@ 	c #6B1A0B",
"-@ 	c #5B1D0A",
";@ 	c #672415",
">@ 	c #632213",
",@ 	c #5E1F10",
"'@ 	c #622415",
")@ 	c #612112",
"!@ 	c #803224",
"~@ 	c #832E1E",
"{@ 	c #842F20",
"]@ 	c #843221",
"^@ 	c #84301F",
"/@ 	c #833020",
"(@ 	c #812F1E",
"_@ 	c #812F1F",
":@ 	c #833221",
"<@ 	c #82321F",
"[@ 	c #833422",
"}@ 	c #873525",
"|@ 	c #802A1A",
"1@ 	c #852C1C",
"2@ 	c #872B1B",
"3@ 	c #842D1B",
"4@ 	c #852E1B",
"5@ 	c #87311F",
"6@ 	c #671909",
"7@ 	c #561E10",
"8@ 	c #632215",
"9@ 	c #602113",
"0@ 	c #5E2214",
"a@ 	c #5C1F14",
"b@ 	c #6E2C1E",
"c@ 	c #7C3323",
"d@ 	c #7B3421",
"e@ 	c #7C3222",
"f@ 	c #76291C",
"g@ 	c #833523",
"h@ 	c #7C2F1C",
"i@ 	c #7F3120",
"j@ 	c #803423",
"k@ 	c #883927",
"l@ 	c #782F1C",
"m@ 	c #7E3223",
"n@ 	c #7E2C1C",
"o@ 	c #812C1E",
"p@ 	c #832B1B",
"q@ 	c #832E1D",
"r@ 	c #862E1B",
"s@ 	c #681C11",
"t@ 	c #571C0F",
"u@ 	c #601F11",
"v@ 	c #612214",
"w@ 	c #5E2212",
"x@ 	c #571E0F",
"y@ 	c #531C0E",
"z@ 	c #66281A",
"A@ 	c #712E1E",
"B@ 	c #722D1F",
"C@ 	c #722A1C",
"D@ 	c #742C1B",
"E@ 	c #762A1B",
"F@ 	c #782F20",
"G@ 	c #762D1D",
"H@ 	c #732D1C",
"I@ 	c #783423",
"J@ 	c #6F2B1E",
"K@ 	c #773021",
"L@ 	c #792B1B",
"M@ 	c #7B291B",
"N@ 	c #7E2B1A",
"O@ 	c #7C2C1A",
"P@ 	c #83301D",
"Q@ 	c #88331E",
"R@ 	c #66180C",
"S@ 	c #62241B",
"T@ 	c #642619",
"U@ 	c #612216",
"V@ 	c #581E10",
"W@ 	c #581F13",
"X@ 	c #4C1A0E",
"Y@ 	c #632919",
"Z@ 	c #6C2A17",
"`@ 	c #6C2A19",
" # 	c #6B2817",
".# 	c #6D2A19",
"+# 	c #722A1A",
"@# 	c #702B1D",
"## 	c #6E2A1C",
"$# 	c #702D1F",
"%# 	c #733324",
"&# 	c #783629",
"*# 	c #773828",
"=# 	c #752F20",
"-# 	c #813627",
";# 	c #843628",
"># 	c #833424",
",# 	c #873727",
"'# 	c #8C3A27",
")# 	c #6A1D10",
"!# 	c #5D3C30",
"~# 	c #8A6D55",
"{# 	c #A6906E",
"]# 	c #A89374",
"^# 	c #A89276",
"/# 	c #A38165",
"(# 	c #9E785E",
"_# 	c #A2785E",
":# 	c #AA8065",
"<# 	c #B49678",
"[# 	c #B29479",
"}# 	c #B69678",
"|# 	c #B29675",
"1# 	c #B29371",
"2# 	c #B18F71",
"3# 	c #AD8A6B",
"4# 	c #A7846A",
"5# 	c #9C725B",
"6# 	c #976E56",
"7# 	c #875A44",
"8# 	c #743E2B",
"9# 	c #723C29",
"0# 	c #73331E",
"a# 	c #6C2514",
"b# 	c #440502",
"c# 	c #B07E68",
"d# 	c #A57057",
"e# 	c #996246",
"f# 	c #956141",
"g# 	c #A67656",
"h# 	c #A97657",
"i# 	c #925D40",
"j# 	c #885332",
"k# 	c #8A5231",
"l# 	c #905939",
"m# 	c #8E5335",
"n# 	c #8F5538",
"o# 	c #8B5133",
"p# 	c #854526",
"q# 	c #8B492B",
"r# 	c #8E4D30",
"s# 	c #9C5C3A",
"t# 	c #A46447",
"u# 	c #9C5F40",
"v# 	c #AE6E4C",
"w# 	c #AD6D4D",
"x# 	c #BE805A",
"y# 	c #C99067",
"z# 	c #D1986D",
"A# 	c #CF9871",
"B# 	c #C48561",
"C# 	c #7B5245",
"D# 	c #5B240B",
"E# 	c #51220D",
"F# 	c #5D2C16",
"G# 	c #62351A",
"H# 	c #633720",
"I# 	c #663923",
"J# 	c #653A22",
"K# 	c #663821",
"L# 	c #663720",
"M# 	c #693C27",
"N# 	c #6A3B24",
"O# 	c #6B3925",
"P# 	c #703D2A",
"Q# 	c #714028",
"R# 	c #74412A",
"S# 	c #77432A",
"T# 	c #724027",
"U# 	c #76462D",
"V# 	c #75442B",
"W# 	c #7B4830",
"X# 	c #7B492F",
"Y# 	c #79452C",
"Z# 	c #7E472E",
"`# 	c #7D452B",
" $ 	c #82492D",
".$ 	c #884D31",
"+$ 	c #864A2C",
"@$ 	c #8A4C2D",
"#$ 	c #8D4C31",
"$$ 	c #8C4B2F",
"%$ 	c #8C4D2F",
"&$ 	c #894C2E",
"*$ 	c #894C2F",
"=$ 	c #945133",
"-$ 	c #944E2E",
";$ 	c #914725",
">$ 	c #8F4724",
",$ 	c #934723",
"'$ 	c #96553C",
")$ 	c #946456",
"!$ 	c #351100",
"~$ 	c #613521",
"{$ 	c #552E1A",
"]$ 	c #542D18",
"^$ 	c #5C301D",
"/$ 	c #5F311D",
"($ 	c #5E311D",
"_$ 	c #633320",
":$ 	c #653823",
"<$ 	c #6C3C28",
"[$ 	c #6E3E2C",
"}$ 	c #78442C",
"|$ 	c #733E29",
"1$ 	c #75412C",
"2$ 	c #753F2A",
"3$ 	c #7A452E",
"4$ 	c #7F462F",
"5$ 	c #834B34",
"6$ 	c #834A33",
"7$ 	c #804831",
"8$ 	c #824A33",
"9$ 	c #8A4F39",
"0$ 	c #895138",
"a$ 	c #834931",
"b$ 	c #8A5037",
"c$ 	c #8F5339",
"d$ 	c #96563B",
"e$ 	c #925335",
"f$ 	c #975438",
"g$ 	c #99543A",
"h$ 	c #924E33",
"i$ 	c #8F4F32",
"j$ 	c #884B30",
"k$ 	c #81442A",
"l$ 	c #81442B",
"m$ 	c #86472C",
"n$ 	c #804226",
"o$ 	c #864828",
"p$ 	c #854527",
"q$ 	c #7D3F20",
"r$ 	c #85452B",
"s$ 	c #7F462C",
"t$ 	c #784227",
"u$ 	c #683116",
"v$ 	c #6D4F44",
"w$ 	c #482015",
"x$ 	c #613726",
"y$ 	c #5A3320",
"z$ 	c #5C3725",
"A$ 	c #5A3728",
"B$ 	c #552F1F",
"C$ 	c #48291A",
"D$ 	c #311910",
"E$ 	c #1B0C05",
"F$ 	c #130604",
"G$ 	c #060300",
"H$ 	c #130400",
"I$ 	c #2C0F09",
"J$ 	c #35140C",
"K$ 	c #331007",
"L$ 	c #340E07",
"M$ 	c #310D09",
"N$ 	c #34130C",
"O$ 	c #36140C",
"P$ 	c #321008",
"Q$ 	c #340F08",
"R$ 	c #2F0D07",
"S$ 	c #2A0802",
"T$ 	c #240704",
"U$ 	c #200606",
"V$ 	c #250F0D",
"W$ 	c #301812",
"X$ 	c #3E1C14",
"Y$ 	c #49271E",
"Z$ 	c #603425",
"`$ 	c #724030",
" % 	c #7F4A30",
".% 	c #8D5139",
"+% 	c #8F573C",
"@% 	c #925639",
"#% 	c #8E5238",
"$% 	c #84452F",
"%% 	c #854830",
"&% 	c #86482D",
"*% 	c #814128",
"=% 	c #7C3D24",
"-% 	c #70331C",
";% 	c #643117",
">% 	c #4D1E0D",
",% 	c #2C1207",
"'% 	c #602F25",
")% 	c #854439",
"!% 	c #853C2F",
"~% 	c #9F4939",
"{% 	c #A84D3B",
"]% 	c #A84B39",
"^% 	c #B95441",
"/% 	c #BD5644",
"(% 	c #BB5644",
"_% 	c #C95C4B",
":% 	c #C65846",
"<% 	c #C15441",
"[% 	c #BC523D",
"}% 	c #BB5542",
"|% 	c #BC5843",
"1% 	c #BD5744",
"2% 	c #BB5241",
"3% 	c #C55B46",
"4% 	c #C45944",
"5% 	c #BF5742",
"6% 	c #BF5944",
"7% 	c #C55A44",
"8% 	c #CB5D49",
"9% 	c #C95A45",
"0% 	c #C75944",
"a% 	c #C5543D",
"b% 	c #C95941",
"c% 	c #C05039",
"d% 	c #C0513C",
"e% 	c #BE4E3A",
"f% 	c #B14934",
"g% 	c #9F4330",
"h% 	c #913C2A",
"i% 	c #923E2E",
"j% 	c #893A2E",
"k% 	c #80382A",
"l% 	c #692F23",
"m% 	c #501B14",
"n% 	c #38110D",
"o% 	c #3C2118",
"p% 	c #603A2A",
"q% 	c #6E3C2A",
"r% 	c #4F2D21",
"s% 	c #8F554A",
"t% 	c #B25A4A",
"u% 	c #AA4F3F",
"v% 	c #A24232",
"w% 	c #9A4230",
"x% 	c #97402C",
"y% 	c #9C3F2E",
"z% 	c #A44434",
"A% 	c #A44132",
"B% 	c #A13F2C",
"C% 	c #A64332",
"D% 	c #A54330",
"E% 	c #A44633",
"F% 	c #A04330",
"G% 	c #9C4431",
"H% 	c #9F4835",
"I% 	c #98432F",
"J% 	c #90402D",
"K% 	c #94402C",
"L% 	c #9E4632",
"M% 	c #9F422E",
"N% 	c #A74533",
"O% 	c #A84231",
"P% 	c #AA4634",
"Q% 	c #A84734",
"R% 	c #A44331",
"S% 	c #AA4632",
"T% 	c #A94631",
"U% 	c #A7432F",
"V% 	c #A8432E",
"W% 	c #AE4631",
"X% 	c #AF4531",
"Y% 	c #AF4834",
"Z% 	c #AF4731",
"`% 	c #A94532",
" & 	c #A7412E",
".& 	c #A5422E",
"+& 	c #A74431",
"@& 	c #AF4934",
"#& 	c #B14A34",
"$& 	c #B54E3A",
"%& 	c #BC533C",
"&& 	c #BA5640",
"*& 	c #A9543C",
"=& 	c #9B4631",
"-& 	c #813A2E",
";& 	c #9A6658",
">& 	c #8E3C2B",
",& 	c #8D3B26",
"'& 	c #9A4634",
")& 	c #8D4330",
"!& 	c #91432F",
"~& 	c #934231",
"{& 	c #943F30",
"]& 	c #973F2E",
"^& 	c #9D4031",
"/& 	c #9E4130",
"(& 	c #9F3F2E",
"_& 	c #A0422F",
":& 	c #A84735",
"<& 	c #A13F2E",
"[& 	c #A34230",
"}& 	c #9C3E2D",
"|& 	c #973F2D",
"1& 	c #9B4634",
"2& 	c #94412F",
"3& 	c #964432",
"4& 	c #873C2A",
"5& 	c #8F3F2C",
"6& 	c #953F2A",
"7& 	c #9F4332",
"8& 	c #A14130",
"9& 	c #A84535",
"0& 	c #A24230",
"a& 	c #9D402D",
"b& 	c #A1442E",
"c& 	c #A4432E",
"d& 	c #A6412D",
"e& 	c #AB4431",
"f& 	c #AC4531",
"g& 	c #AE4733",
"h& 	c #A53F2B",
"i& 	c #AB4430",
"j& 	c #AE4530",
"k& 	c #AC4733",
"l& 	c #A4412F",
"m& 	c #9E3D2D",
"n& 	c #A5402F",
"o& 	c #A94331",
"p& 	c #A23E2A",
"q& 	c #A63F2E",
"r& 	c #A33F2D",
"s& 	c #9B412E",
"t& 	c #9E3F2E",
"u& 	c #933525",
"v& 	c #89392A",
"w& 	c #914F45",
"x& 	c #964530",
"y& 	c #8D422D",
"z& 	c #91412F",
"A& 	c #88402B",
"B& 	c #843A29",
"C& 	c #8B3F2C",
"D& 	c #93402D",
"E& 	c #994231",
"F& 	c #9A402D",
"G& 	c #9A3F2D",
"H& 	c #9A3E2E",
"I& 	c #9A3D2F",
"J& 	c #9A3E2C",
"K& 	c #953B29",
"L& 	c #933828",
"M& 	c #933A2A",
"N& 	c #8C3A28",
"O& 	c #833927",
"P& 	c #863D2A",
"Q& 	c #7D3422",
"R& 	c #803B28",
"S& 	c #833A27",
"T& 	c #923D2B",
"U& 	c #8F3A27",
"V& 	c #903B29",
"W& 	c #903A28",
"X& 	c #933C29",
"Y& 	c #8A3926",
"Z& 	c #953D2B",
"`& 	c #9B3F2E",
" * 	c #9C3E2B",
".* 	c #A03F2A",
"+* 	c #9F3A28",
"@* 	c #A8422E",
"#* 	c #A23E2B",
"$* 	c #A63E2D",
"%* 	c #A43C2A",
"&* 	c #A43E2D",
"** 	c #A13B2A",
"=* 	c #9F3C28",
"-* 	c #A03E2B",
";* 	c #9B3B28",
">* 	c #993A24",
",* 	c #9E3E2A",
"'* 	c #A03C2A",
")* 	c #9D3B28",
"!* 	c #9F3C2B",
"~* 	c #963B26",
"{* 	c #9B3D2A",
"]* 	c #9D4530",
"^* 	c #98442D",
"/* 	c #893225",
"(* 	c #A77165",
"_* 	c #80483E",
":* 	c #863E2D",
"<* 	c #762E1C",
"[* 	c #7F3423",
"}* 	c #873C2D",
"|* 	c #8A3D2D",
"1* 	c #984334",
"2* 	c #9D4938",
"3* 	c #9F4533",
"4* 	c #9F4736",
"5* 	c #984433",
"6* 	c #974533",
"7* 	c #9B4434",
"8* 	c #924131",
"9* 	c #914230",
"0* 	c #974736",
"a* 	c #984937",
"b* 	c #964736",
"c* 	c #934634",
"d* 	c #9B4B37",
"e* 	c #A04F3B",
"f* 	c #AA5242",
"g* 	c #A64F3C",
"h* 	c #A14C39",
"i* 	c #A34E39",
"j* 	c #A5523D",
"k* 	c #A14D39",
"l* 	c #A44D3B",
"m* 	c #9C4936",
"n* 	c #A14D3B",
"o* 	c #A64D39",
"p* 	c #A64D38",
"q* 	c #B15740",
"r* 	c #A9513C",
"s* 	c #A94C38",
"t* 	c #B15440",
"u* 	c #A54B36",
"v* 	c #A94E3A",
"w* 	c #A84836",
"x* 	c #A74935",
"y* 	c #A34833",
"z* 	c #A54733",
"A* 	c #A84933",
"B* 	c #A54632",
"C* 	c #9F442F",
"D* 	c #9D412E",
"E* 	c #9A3F2C",
"F* 	c #9B3D28",
"G* 	c #9C3A27",
"H* 	c #9A3C2B",
"I* 	c #8E3827",
"J* 	c #883523",
"K* 	c #923B28",
"L* 	c #903C28",
"M* 	c #8E3A28",
"N* 	c #8D3626",
"O* 	c #8B4436",
"P* 	c #642116",
"Q* 	c #8F4E40",
"R* 	c #A35A49",
"S* 	c #AB6150",
"T* 	c #AB5D4B",
"U* 	c #A95743",
"V* 	c #A6523F",
"W* 	c #9D4C3E",
"X* 	c #974537",
"Y* 	c #A64C3D",
"Z* 	c #A34939",
"`* 	c #A44735",
" = 	c #A64936",
".= 	c #B3503D",
"+= 	c #AF4F3B",
"@= 	c #B55645",
"#= 	c #B55444",
"$= 	c #A84C3B",
"%= 	c #A64F3E",
"&= 	c #A04836",
"*= 	c #A64A3A",
"== 	c #A24535",
"-= 	c #A64E3B",
";= 	c #9D4430",
">= 	c #9B3F2D",
",= 	c #B0503D",
"'= 	c #B3533E",
")= 	c #A9503C",
"!= 	c #B45845",
"~= 	c #B95B47",
"{= 	c #BA5C47",
"]= 	c #AD513F",
"^= 	c #BA5946",
"/= 	c #B75742",
"(= 	c #B9533F",
"_= 	c #CA6652",
":= 	c #BB5E4A",
"<= 	c #B35742",
"[= 	c #CB6954",
"}= 	c #BC5842",
"|= 	c #BF5B44",
"1= 	c #C25D48",
"2= 	c #C05F4A",
"3= 	c #C1634D",
"4= 	c #B85540",
"5= 	c #C05D48",
"6= 	c #B9563F",
"7= 	c #C15844",
"8= 	c #B04C39",
"9= 	c #B6503D",
"0= 	c #BA503E",
"a= 	c #B34F3B",
"b= 	c #B24D3C",
"c= 	c #B14E3B",
"d= 	c #B0513E",
"e= 	c #B2533D",
"f= 	c #AC4F3C",
"g= 	c #A34A37",
"h= 	c #97422F",
"i= 	c #78473D",
"j= 	c #9A5540",
"k= 	c #94513F",
"l= 	c #803725",
"m= 	c #773222",
"n= 	c #7A3322",
"o= 	c #7B3021",
"p= 	c #7F3323",
"q= 	c #7A3222",
"r= 	c #7B3124",
"s= 	c #7C2F21",
"t= 	c #803323",
"u= 	c #7F3020",
"v= 	c #802F1F",
"w= 	c #82301F",
"x= 	c #7D2C1C",
"y= 	c #732C1C",
"z= 	c #6D2716",
"A= 	c #732B1A",
"B= 	c #6F2B19",
"C= 	c #672615",
"D= 	c #662412",
"E= 	c #682312",
"F= 	c #6C2716",
"G= 	c #6C2515",
"H= 	c #702B1B",
"I= 	c #6B2616",
"J= 	c #6C2211",
"K= 	c #722714",
"L= 	c #76291A",
"M= 	c #762715",
"N= 	c #7F311D",
"O= 	c #83321E",
"P= 	c #762A16",
"Q= 	c #782614",
"R= 	c #7E2715",
"S= 	c #7D2614",
"T= 	c #852F1C",
"U= 	c #903623",
"V= 	c #8D331E",
"W= 	c #8D321D",
"X= 	c #933C27",
"Y= 	c #983F2B",
"Z= 	c #9E412D",
"`= 	c #9D402B",
" - 	c #8E3B27",
".- 	c #943B28",
"+- 	c #A6422F",
"@- 	c #A53F2A",
"#- 	c #9D3E29",
"$- 	c #943C27",
"%- 	c #A14530",
"&- 	c #AB533E",
"*- 	c #983C2C",
"=- 	c #631D0E",
"-- 	c #7A3B27",
";- 	c #753120",
">- 	c #66291B",
",- 	c #662818",
"'- 	c #642617",
")- 	c #5E2010",
"!- 	c #642A16",
"~- 	c #642A19",
"{- 	c #713223",
"]- 	c #773626",
"^- 	c #833E2E",
"/- 	c #863D2D",
"(- 	c #8B4130",
"_- 	c #8E4634",
":- 	c #8D4431",
"<- 	c #8E422F",
"[- 	c #904533",
"}- 	c #8F4533",
"|- 	c #964B37",
"1- 	c #9E4C3A",
"2- 	c #A04E3C",
"3- 	c #9E4A39",
"4- 	c #A24A39",
"5- 	c #A04A38",
"6- 	c #9E4A38",
"7- 	c #9F4C3A",
"8- 	c #9D4D3A",
"9- 	c #A14E3A",
"0- 	c #9A4B35",
"a- 	c #9A4B37",
"b- 	c #A04D39",
"c- 	c #A94E3C",
"d- 	c #A84F3C",
"e- 	c #A94C39",
"f- 	c #A74B39",
"g- 	c #A94A36",
"h- 	c #A44B34",
"i- 	c #A14834",
"j- 	c #9C432F",
"k- 	c #9A4530",
"l- 	c #93412D",
"m- 	c #91402C",
"n- 	c #8E3C29",
"o- 	c #893926",
"p- 	c #843623",
"q- 	c #7D301E",
"r- 	c #7A2E1B",
"s- 	c #7C311D",
"t- 	c #772E1B",
"u- 	c #772E1C",
"v- 	c #6E2413",
"w- 	c #863220",
"x- 	c #8B3422",
"y- 	c #873320",
"z- 	c #87321E",
"A- 	c #8D3624",
"B- 	c #8D2F1C",
"C- 	c #7E4844",
"D- 	c #602219",
"E- 	c #5D2111",
"F- 	c #602518",
"G- 	c #6C3224",
"H- 	c #7C3F30",
"I- 	c #8D4435",
"J- 	c #9E5240",
"K- 	c #A15541",
"L- 	c #A25544",
"M- 	c #9E4F3C",
"N- 	c #9F4D3A",
"O- 	c #9F4A38",
"P- 	c #9C4533",
"Q- 	c #9D4635",
"R- 	c #9D4433",
"S- 	c #9E4533",
"T- 	c #A04531",
"U- 	c #A74A37",
"V- 	c #A54533",
"W- 	c #AB4936",
"X- 	c #A74633",
"Y- 	c #AF4B37",
"Z- 	c #AE4A37",
"`- 	c #AE4C38",
" ; 	c #AA4C38",
".; 	c #AA4D38",
"+; 	c #A84A37",
"@; 	c #A74836",
"#; 	c #AE4E3B",
"$; 	c #B04D3A",
"%; 	c #B24D39",
"&; 	c #AE4C37",
"*; 	c #A44631",
"=; 	c #B14835",
"-; 	c #B94C39",
";; 	c #BB4E39",
">; 	c #B94C38",
",; 	c #B34935",
"'; 	c #B34936",
"); 	c #B14B37",
"!; 	c #A9442E",
"~; 	c #AD4A34",
"{; 	c #B04A36",
"]; 	c #B24F3B",
"^; 	c #B04D39",
"/; 	c #AB4D39",
"(; 	c #AA4D3A",
"_; 	c #A64C37",
":; 	c #A14735",
"<; 	c #9A4532",
"[; 	c #974431",
"}; 	c #8C3D2B",
"|; 	c #843424",
"1; 	c #762B1A",
"2; 	c #6A2716",
"3; 	c #641F0C",
"4; 	c #6E2312",
"5; 	c #411009",
"6; 	c #864D3E",
"7; 	c #9D5A49",
"8; 	c #9A5341",
"9; 	c #994F3E",
"0; 	c #984734",
"a; 	c #9F4937",
"b; 	c #A14A37",
"c; 	c #A24735",
"d; 	c #A34935",
"e; 	c #A64B37",
"f; 	c #A84C38",
"g; 	c #A74B37",
"h; 	c #AB4E39",
"i; 	c #AC4D3A",
"j; 	c #AB4E3A",
"k; 	c #AE4E3A",
"l; 	c #B2503C",
"m; 	c #B44E3B",
"n; 	c #B04C38",
"o; 	c #B74F3C",
"p; 	c #B5503B",
"q; 	c #B7503C",
"r; 	c #B8533E",
"s; 	c #B8503C",
"t; 	c #B9503B",
"u; 	c #BA503C",
"v; 	c #B44F3C",
"w; 	c #AD503B",
"x; 	c #AD503D",
"y; 	c #AF523E",
"z; 	c #B3513E",
"A; 	c #B54C37",
"B; 	c #B44D38",
"C; 	c #B54B37",
"D; 	c #BE503B",
"E; 	c #C1513C",
"F; 	c #BC4C38",
"G; 	c #BD4F3A",
"H; 	c #C1523E",
"I; 	c #BA513B",
"J; 	c #B74F3A",
"K; 	c #B34E38",
"L; 	c #B14D37",
"M; 	c #AE4B36",
"N; 	c #A94832",
"O; 	c #AF4B36",
"P; 	c #AE4936",
"Q; 	c #AB4A34",
"R; 	c #AF4A36",
"S; 	c #AA4734",
"T; 	c #A64430",
"U; 	c #A94B38",
"V; 	c #A94E3B",
"W; 	c #A7503C",
"X; 	c #9F4F3B",
"Y; 	c #914436",
"Z; 	c #833A2B",
"`; 	c #704B41",
" > 	c #964738",
".> 	c #A0543F",
"+> 	c #A45240",
"@> 	c #AC5744",
"#> 	c #AC5540",
"$> 	c #AC5440",
"%> 	c #AC543F",
"&> 	c #AF5443",
"*> 	c #B35443",
"=> 	c #B25642",
"-> 	c #AB4E3B",
";> 	c #B8513D",
">> 	c #B74F3B",
",> 	c #BA513F",
"'> 	c #B4503D",
")> 	c #BA533E",
"!> 	c #BB533E",
"~> 	c #C15741",
"{> 	c #BB513D",
"]> 	c #B74D39",
"^> 	c #B94F3B",
"/> 	c #BA4F3A",
"(> 	c #C05540",
"_> 	c #C05641",
":> 	c #B6503B",
"<> 	c #B9523E",
"[> 	c #B55641",
"}> 	c #A74D39",
"|> 	c #AE4F3A",
"1> 	c #B44D39",
"2> 	c #B94E3A",
"3> 	c #B44E38",
"4> 	c #B94E39",
"5> 	c #BE533E",
"6> 	c #BE533D",
"7> 	c #C0523B",
"8> 	c #C1513B",
"9> 	c #C3543F",
"0> 	c #C5553F",
"a> 	c #C1523C",
"b> 	c #BF513B",
"c> 	c #BC4E39",
"d> 	c #BE513B",
"e> 	c #BF543E",
"f> 	c #B8503B",
"g> 	c #B9523D",
"h> 	c #B64E3A",
"i> 	c #B44C36",
"j> 	c #BB5340",
"k> 	c #B44C38",
"l> 	c #BA4E3A",
"m> 	c #B64B36",
"n> 	c #B14937",
"o> 	c #B04B38",
"p> 	c #A74734",
"q> 	c #A34B37",
"r> 	c #A65040",
"s> 	c #984D42",
"t> 	c #873A28",
"u> 	c #9E4937",
"v> 	c #AC5C4A",
"w> 	c #AF5A44",
"x> 	c #AD5744",
"y> 	c #B15644",
"z> 	c #B15341",
"A> 	c #AF5240",
"B> 	c #B15442",
"C> 	c #B25845",
"D> 	c #B45844",
"E> 	c #A84E3A",
"F> 	c #AE513C",
"G> 	c #B75640",
"H> 	c #B95541",
"I> 	c #BC5541",
"J> 	c #BB5540",
"K> 	c #B6533D",
"L> 	c #B6523D",
"M> 	c #C1513D",
"N> 	c #C0503B",
"O> 	c #BF533E",
"P> 	c #C45641",
"Q> 	c #C1533D",
"R> 	c #C0533E",
"S> 	c #BF523E",
"T> 	c #BD533E",
"U> 	c #B9533C",
"V> 	c #AF4D38",
"W> 	c #BC4F3A",
"X> 	c #C0543E",
"Y> 	c #BF523A",
"Z> 	c #C3533C",
"`> 	c #C6553E",
" , 	c #C65640",
"., 	c #C5563F",
"+, 	c #C0513A",
"@, 	c #C2523C",
"#, 	c #C0513B",
"$, 	c #BF503A",
"%, 	c #C1523D",
"&, 	c #BD513C",
"*, 	c #BE523D",
"=, 	c #BC4E3A",
"-, 	c #BC4E3B",
";, 	c #BE523E",
">, 	c #BA4E39",
",, 	c #BA4F3B",
"', 	c #BA4D37",
"), 	c #BC4F3B",
"!, 	c #B24F3A",
"~, 	c #AD523E",
"{, 	c #9A4B41",
"], 	c #996A5D",
"^, 	c #964733",
"/, 	c #B45E4A",
"(, 	c #B35A46",
"_, 	c #B25743",
":, 	c #B35642",
"<, 	c #B25440",
"[, 	c #B55642",
"}, 	c #B55845",
"|, 	c #B35A44",
"1, 	c #AB5540",
"2, 	c #AC5541",
"3, 	c #B35440",
"4, 	c #B95741",
"5, 	c #B8523F",
"6, 	c #B7553F",
"7, 	c #B75440",
"8, 	c #B6543E",
"9, 	c #BA533F",
"0, 	c #BF543F",
"a, 	c #BD4F3B",
"b, 	c #BF513D",
"c, 	c #BF513C",
"d, 	c #BA4F38",
"e, 	c #BD503C",
"f, 	c #C25641",
"g, 	c #C35540",
"h, 	c #C75741",
"i, 	c #C4543F",
"j, 	c #C1503A",
"k, 	c #C6543F",
"l, 	c #C2533F",
"m, 	c #C2523D",
"n, 	c #C1523B",
"o, 	c #C3523D",
"p, 	c #C5533D",
"q, 	c #C6543D",
"r, 	c #C2513C",
"s, 	c #C1503B",
"t, 	c #C4553D",
"u, 	c #C05139",
"v, 	c #BD503A",
"w, 	c #C35441",
"x, 	c #C2503B",
"y, 	c #BE4E39",
"z, 	c #BE513C",
"A, 	c #C0523D",
"B, 	c #BE4F3B",
"C, 	c #BC4F39",
"D, 	c #B94C37",
"E, 	c #BE5240",
"F, 	c #B64F3D",
"G, 	c #B1553F",
"H, 	c #A14A36",
"I, 	c #97544A",
"J, 	c #9B4636",
"K, 	c #B35C4A",
"L, 	c #B45E4C",
"M, 	c #B15843",
"N, 	c #B35743",
"O, 	c #B05642",
"P, 	c #B45543",
"Q, 	c #B45340",
"R, 	c #B85744",
"S, 	c #B65742",
"T, 	c #B35641",
"U, 	c #B15742",
"V, 	c #B0543F",
"W, 	c #B45540",
"X, 	c #B6543F",
"Y, 	c #B6523C",
"Z, 	c #B7523C",
"`, 	c #BB5440",
" ' 	c #BB543F",
".' 	c #BC5641",
"+' 	c #BB553F",
"@' 	c #BD553F",
"#' 	c #BE543F",
"$' 	c #C0533F",
"%' 	c #BF503E",
"&' 	c #C25440",
"*' 	c #BF4F3C",
"=' 	c #BE513D",
"-' 	c #C15440",
";' 	c #C3553F",
">' 	c #BD513D",
",' 	c #C25640",
"'' 	c #BF523D",
")' 	c #C14F39",
"!' 	c #C1513A",
"~' 	c #C0503A",
"{' 	c #C0523C",
"]' 	c #B9503A",
"^' 	c #BC513C",
"/' 	c #BF4F39",
"(' 	c #C2503A",
"_' 	c #C85841",
":' 	c #C4533C",
"<' 	c #C4523C",
"[' 	c #C14F3A",
"}' 	c #C7533E",
"|' 	c #C6553F",
"1' 	c #C2513D",
"2' 	c #BA4A35",
"3' 	c #C4543E",
"4' 	c #C3523E",
"5' 	c #C55541",
"6' 	c #C2543E",
"7' 	c #BE503C",
"8' 	c #BE533F",
"9' 	c #B54F3B",
"0' 	c #B5533D",
"a' 	c #B2503E",
"b' 	c #B45944",
"c' 	c #9F4531",
"d' 	c #893A2B",
"e' 	c #8D3529",
"f' 	c #A8503F",
"g' 	c #B05D4A",
"h' 	c #B25543",
"i' 	c #B55644",
"j' 	c #B45441",
"k' 	c #B85644",
"l' 	c #B4543F",
"m' 	c #B85643",
"n' 	c #B85542",
"o' 	c #B75643",
"p' 	c #B45642",
"q' 	c #B85844",
"r' 	c #B1503C",
"s' 	c #B95240",
"t' 	c #BA5340",
"u' 	c #B8513E",
"v' 	c #BA5540",
"w' 	c #BC5640",
"x' 	c #BC553F",
"y' 	c #BD5440",
"z' 	c #C75842",
"A' 	c #C55742",
"B' 	c #BC513B",
"C' 	c #BE503D",
"D' 	c #C0503C",
"E' 	c #BB4B37",
"F' 	c #C2563F",
"G' 	c #C75641",
"H' 	c #C65340",
"I' 	c #C14F3B",
"J' 	c #BF513A",
"K' 	c #C4533D",
"L' 	c #BC4D37",
"M' 	c #C6573F",
"N' 	c #C85740",
"O' 	c #BE503A",
"P' 	c #BF4D38",
"Q' 	c #BC4B36",
"R' 	c #C2533C",
"S' 	c #C3533F",
"T' 	c #C2503D",
"U' 	c #BF4E3B",
"V' 	c #BA4C37",
"W' 	c #BD5541",
"X' 	c #B54D39",
"Y' 	c #B54E3E",
"Z' 	c #B2513F",
"`' 	c #B1533F",
" ) 	c #B65947",
".) 	c #973C2B",
"+) 	c #9A4331",
"@) 	c #AE5C46",
"#) 	c #AD5441",
"$) 	c #B65846",
"%) 	c #B95644",
"&) 	c #B65541",
"*) 	c #B75543",
"=) 	c #B85543",
"-) 	c #B75542",
";) 	c #B65340",
">) 	c #B55440",
",) 	c #B6523E",
"') 	c #B6523F",
")) 	c #B95643",
"!) 	c #B04E3C",
"~) 	c #BC5340",
"{) 	c #B24E39",
"]) 	c #B9523F",
"^) 	c #B85640",
"/) 	c #BD5642",
"() 	c #BC5540",
"_) 	c #B44D37",
":) 	c #B8513B",
"<) 	c #BD523C",
"[) 	c #BE5540",
"}) 	c #B24D35",
"|) 	c #BC523B",
"1) 	c #BB5039",
"2) 	c #BF523C",
"3) 	c #C5543F",
"4) 	c #B24C36",
"5) 	c #B74E3B",
"6) 	c #BD5038",
"7) 	c #BC4F38",
"8) 	c #C04F3A",
"9) 	c #C6523C",
"0) 	c #C8563E",
"a) 	c #C9553E",
"b) 	c #C85641",
"c) 	c #C5553E",
"d) 	c #B8513C",
"e) 	c #C2543F",
"f) 	c #BA4D3A",
"g) 	c #BE4F39",
"h) 	c #BD4D38",
"i) 	c #BF4E39",
"j) 	c #C3523C",
"k) 	c #C15039",
"l) 	c #C3513A",
"m) 	c #C3523B",
"n) 	c #C4523D",
"o) 	c #C3503B",
"p) 	c #C14E3A",
"q) 	c #C4513C",
"r) 	c #C3503D",
"s) 	c #BB4C38",
"t) 	c #BC523E",
"u) 	c #B9503E",
"v) 	c #B5503D",
"w) 	c #B55141",
"x) 	c #B55541",
"y) 	c #B05944",
"z) 	c #A54A38",
"A) 	c #8F3623",
"B) 	c #8E3727",
"C) 	c #A3503D",
"D) 	c #AC604A",
"E) 	c #A95942",
"F) 	c #AE5742",
"G) 	c #B45743",
"H) 	c #B3503E",
"I) 	c #B85340",
"J) 	c #B85442",
"K) 	c #B65642",
"L) 	c #BA5744",
"M) 	c #B6513C",
"N) 	c #B3523D",
"O) 	c #AF4E3B",
"P) 	c #B5523E",
"Q) 	c #BA5440",
"R) 	c #B2533C",
"S) 	c #B7543E",
"T) 	c #BF5741",
"U) 	c #BC543E",
"V) 	c #BA543F",
"W) 	c #B9543F",
"X) 	c #BD5742",
"Y) 	c #C65A44",
"Z) 	c #BD523D",
"`) 	c #BE523C",
" ! 	c #C0553F",
".! 	c #BB4F3B",
"+! 	c #BC533E",
"@! 	c #BE5039",
"#! 	c #C05F48",
"$! 	c #B85942",
"%! 	c #BD5741",
"&! 	c #BD4C36",
"*! 	c #C14F38",
"=! 	c #AC4F39",
"-! 	c #AF4D39",
";! 	c #BB4E37",
">! 	c #C35139",
",! 	c #C3533D",
"'! 	c #BD4E37",
")! 	c #BD4E38",
"!! 	c #C35440",
"~! 	c #C2513B",
"{! 	c #BE4C39",
"]! 	c #BD4A36",
"^! 	c #C24E3A",
"/! 	c #C8543E",
"(! 	c #C3513D",
"_! 	c #C14F3C",
":! 	c #C2523E",
"<! 	c #BA513D",
"[! 	c #B4503A",
"}! 	c #B1523D",
"|! 	c #B2543E",
"1! 	c #B05643",
"2! 	c #AD5B45",
"3! 	c #963C27",
"4! 	c #984B3C",
"5! 	c #AF5E49",
"6! 	c #AA5947",
"7! 	c #B35540",
"8! 	c #B95442",
"9! 	c #BE5645",
"0! 	c #AE533B",
"a! 	c #B0523E",
"b! 	c #B1503B",
"c! 	c #B85440",
"d! 	c #B14E3A",
"e! 	c #B6533E",
"f! 	c #B7533E",
"g! 	c #BF5641",
"h! 	c #BF553F",
"i! 	c #BC543F",
"j! 	c #BC543D",
"k! 	c #C25841",
"l! 	c #C1553F",
"m! 	c #C1543E",
"n! 	c #BA4F39",
"o! 	c #C05741",
"p! 	c #A94C36",
"q! 	c #AE4F39",
"r! 	c #C3533E",
"s! 	c #C5533C",
"t! 	c #C2533D",
"u! 	c #B04E39",
"v! 	c #AF4D37",
"w! 	c #C55740",
"x! 	c #BF4E38",
"y! 	c #BF4E3A",
"z! 	c #BC4E38",
"A! 	c #BD4F39",
"B! 	c #C3513B",
"C! 	c #C3513C",
"D! 	c #C34F3A",
"E! 	c #C14E3B",
"F! 	c #C24F3A",
"G! 	c #C04F3B",
"H! 	c #C15541",
"I! 	c #B94F3C",
"J! 	c #B15B46",
"K! 	c #A34936",
"L! 	c #9C6153",
"M! 	c #993F2C",
"N! 	c #AB5C46",
"O! 	c #AC5A46",
"P! 	c #A95541",
"Q! 	c #AF5544",
"R! 	c #B2533F",
"S! 	c #B7513E",
"T! 	c #B8503E",
"U! 	c #BB5642",
"V! 	c #AF523D",
"W! 	c #B4533F",
"X! 	c #B14F3B",
"Y! 	c #B4513D",
"Z! 	c #B24E3C",
"`! 	c #B64F3B",
" ~ 	c #B9533E",
".~ 	c #C05743",
"+~ 	c #BB523D",
"@~ 	c #BE523F",
"#~ 	c #C35742",
"$~ 	c #C2533E",
"%~ 	c #C35741",
"&~ 	c #C15540",
"*~ 	c #B84D39",
"=~ 	c #BD513B",
"-~ 	c #C2523F",
";~ 	c #B14E39",
">~ 	c #BC533D",
",~ 	c #C2523B",
"'~ 	c #C7543D",
")~ 	c #C3503A",
"!~ 	c #BB4F3C",
"~~ 	c #C04E38",
"{~ 	c #BF4D37",
"]~ 	c #C04F39",
"^~ 	c #BC4E37",
"/~ 	c #BF5039",
"(~ 	c #BF4C35",
"_~ 	c #BD4D39",
":~ 	c #C3503C",
"<~ 	c #BF4D39",
"[~ 	c #BF4D3A",
"}~ 	c #C4523F",
"|~ 	c #B84F3C",
"1~ 	c #B3523E",
"2~ 	c #B25641",
"3~ 	c #AB4F3B",
"4~ 	c #852413",
"5~ 	c #9B4A3A",
"6~ 	c #AE5C4A",
"7~ 	c #AB5644",
"8~ 	c #AA5240",
"9~ 	c #B25644",
"0~ 	c #B35441",
"a~ 	c #BA5442",
"b~ 	c #BA523F",
"c~ 	c #BC5542",
"d~ 	c #B0523D",
"e~ 	c #AE4F3B",
"f~ 	c #B24D3A",
"g~ 	c #B8523E",
"h~ 	c #C05440",
"i~ 	c #C35943",
"j~ 	c #BD543F",
"k~ 	c #BF533D",
"l~ 	c #AF503A",
"m~ 	c #A04932",
"n~ 	c #B94F39",
"o~ 	c #BB533D",
"p~ 	c #B54E37",
"q~ 	c #BE533C",
"r~ 	c #B84F39",
"s~ 	c #BA503A",
"t~ 	c #C0533D",
"u~ 	c #C6543E",
"v~ 	c #C15238",
"w~ 	c #BD4F38",
"x~ 	c #C25139",
"y~ 	c #C15139",
"z~ 	c #C4533E",
"A~ 	c #C5543E",
"B~ 	c #C75541",
"C~ 	c #C25039",
"D~ 	c #BF4F3B",
"E~ 	c #BB4E3A",
"F~ 	c #BE4E3C",
"G~ 	c #BA533D",
"H~ 	c #B34D39",
"I~ 	c #AF543C",
"J~ 	c #B35442",
"K~ 	c #903D32",
"L~ 	c #996255",
"M~ 	c #9B503F",
"N~ 	c #AD5945",
"O~ 	c #AD5644",
"P~ 	c #B55341",
"Q~ 	c #B5513D",
"R~ 	c #B7523E",
"S~ 	c #B3513D",
"T~ 	c #B2513D",
"U~ 	c #B64F3A",
"V~ 	c #B44D3A",
"W~ 	c #B6503C",
"X~ 	c #B4513E",
"Y~ 	c #B34E39",
"Z~ 	c #BA513E",
"`~ 	c #B84F3A",
" { 	c #B74D3A",
".{ 	c #BF5640",
"+{ 	c #AC503A",
"@{ 	c #974936",
"#{ 	c #A24D39",
"${ 	c #BB533F",
"%{ 	c #B44C37",
"&{ 	c #B74D36",
"*{ 	c #BC523C",
"={ 	c #C0543F",
"-{ 	c #AD4A35",
";{ 	c #C55641",
">{ 	c #BC4D38",
",{ 	c #C1503C",
"'{ 	c #C3523A",
"){ 	c #C5523B",
"!{ 	c #C6533C",
"~{ 	c #C35039",
"{{ 	c #C55239",
"]{ 	c #B94A33",
"^{ 	c #BE4C37",
"/{ 	c #C24F3B",
"({ 	c #C5523E",
"_{ 	c #C5513C",
":{ 	c #BF503B",
"<{ 	c #C3513E",
"[{ 	c #B9513D",
"}{ 	c #AE4E39",
"|{ 	c #AD503A",
"1{ 	c #B15A42",
"2{ 	c #9F5141",
"3{ 	c #944F43",
"4{ 	c #A35342",
"5{ 	c #AB5845",
"6{ 	c #AC5843",
"7{ 	c #B05440",
"8{ 	c #B25340",
"9{ 	c #B3523F",
"0{ 	c #B85341",
"a{ 	c #B44E3C",
"b{ 	c #B5503C",
"c{ 	c #B54D3B",
"d{ 	c #B44E3A",
"e{ 	c #B0513D",
"f{ 	c #AF4B38",
"g{ 	c #B14C39",
"h{ 	c #B04C37",
"i{ 	c #C05340",
"j{ 	c #A3543F",
"k{ 	c #994A36",
"l{ 	c #B75241",
"m{ 	c #AB503A",
"n{ 	c #B14D38",
"o{ 	c #C1533E",
"p{ 	c #B34F39",
"q{ 	c #A74D37",
"r{ 	c #BC5942",
"s{ 	c #B94E37",
"t{ 	c #C1553E",
"u{ 	c #BA4D36",
"v{ 	c #BE4D37",
"w{ 	c #C6523B",
"x{ 	c #C5543C",
"y{ 	c #C5543B",
"z{ 	c #BA4C34",
"A{ 	c #B94B35",
"B{ 	c #C2553D",
"C{ 	c #C5523D",
"D{ 	c #C4503B",
"E{ 	c #C7543E",
"F{ 	c #B74934",
"G{ 	c #B44936",
"H{ 	c #B84F3B",
"I{ 	c #AD4F39",
"J{ 	c #B35845",
"K{ 	c #973E2D",
"L{ 	c #9D554B",
"M{ 	c #A4503F",
"N{ 	c #AB5A45",
"O{ 	c #AC553F",
"P{ 	c #B25742",
"Q{ 	c #AF553F",
"R{ 	c #B5513F",
"S{ 	c #B6533F",
"T{ 	c #B8523D",
"U{ 	c #B6513D",
"V{ 	c #B65441",
"W{ 	c #B5533F",
"X{ 	c #B9503D",
"Y{ 	c #B7513C",
"Z{ 	c #C65641",
"`{ 	c #C25642",
" ] 	c #B0573F",
".] 	c #A5523C",
"+] 	c #C8553F",
"@] 	c #BC533F",
"#] 	c #B5543E",
"$] 	c #B65741",
"%] 	c #BD4E36",
"&] 	c #C3543C",
"*] 	c #B64E39",
"=] 	c #B2513C",
"-] 	c #B55039",
";] 	c #B94F38",
">] 	c #BE5139",
",] 	c #B84B34",
"'] 	c #BA4D35",
")] 	c #BD4D37",
"!] 	c #BA4B36",
"~] 	c #BE4F3A",
"{] 	c #C1543F",
"]] 	c #BE5038",
"^] 	c #BE4E38",
"/] 	c #B84A34",
"(] 	c #BE4D38",
"_] 	c #C24E38",
":] 	c #C34F39",
"<] 	c #C54F3A",
"[] 	c #C44F3B",
"}] 	c #C6533D",
"|] 	c #BB4A36",
"1] 	c #BD4C38",
"2] 	c #BA4C38",
"3] 	c #B84E3A",
"4] 	c #B34F3C",
"5] 	c #B1513C",
"6] 	c #AC5842",
"7] 	c #9D3D2A",
"8] 	c #A4675C",
"9] 	c #A45241",
"0] 	c #A95544",
"a] 	c #AB5342",
"b] 	c #B15240",
"c] 	c #B0503C",
"d] 	c #B14D3B",
"e] 	c #B4503E",
"f] 	c #AD4C39",
"g] 	c #B04D3B",
"h] 	c #BB523F",
"i] 	c #BE5541",
"j] 	c #B8543F",
"k] 	c #AD4C38",
"l] 	c #B65C46",
"m] 	c #BB513C",
"n] 	c #BD4F3D",
"o] 	c #BD4E39",
"p] 	c #BF5541",
"q] 	c #C75640",
"r] 	c #C8553E",
"s] 	c #C6533E",
"t] 	c #BF503C",
"u] 	c #B2503A",
"v] 	c #A64F3A",
"w] 	c #B5523D",
"x] 	c #BF523B",
"y] 	c #B44F3B",
"z] 	c #BB4F39",
"A] 	c #A44A35",
"B] 	c #C1533C",
"C] 	c #C4543D",
"D] 	c #BD5039",
"E] 	c #BB4C35",
"F] 	c #C2523A",
"G] 	c #B04832",
"H] 	c #B34B34",
"I] 	c #C14E38",
"J] 	c #C5513B",
"K] 	c #C5513A",
"L] 	c #C5503B",
"M] 	c #BE4C36",
"N] 	c #B54833",
"O] 	c #B74B37",
"P] 	c #BC4D39",
"Q] 	c #B74D38",
"R] 	c #AC4A35",
"S] 	c #AF513D",
"T] 	c #AD513D",
"U] 	c #9A3525",
"V] 	c #9F4F41",
"W] 	c #A95742",
"X] 	c #AC5645",
"Y] 	c #AF5340",
"Z] 	c #AE513E",
"`] 	c #B04E3B",
" ^ 	c #B5513E",
".^ 	c #AD4D3B",
"+^ 	c #AD4B37",
"@^ 	c #BB503C",
"#^ 	c #BB5541",
"$^ 	c #A74F3A",
"%^ 	c #AA4F3C",
"&^ 	c #C25340",
"*^ 	c #C15038",
"=^ 	c #C5533E",
"-^ 	c #C95842",
";^ 	c #C85640",
">^ 	c #C55540",
",^ 	c #C55944",
"'^ 	c #B3523C",
")^ 	c #C25843",
"!^ 	c #B94C36",
"~^ 	c #B54F3A",
"{^ 	c #B24C37",
"]^ 	c #BB523E",
"^^ 	c #BC5038",
"/^ 	c #C65944",
"(^ 	c #AA4B36",
"_^ 	c #A84C36",
":^ 	c #C35740",
"<^ 	c #C1543D",
"[^ 	c #C5553C",
"}^ 	c #BD4C35",
"|^ 	c #C6543C",
"1^ 	c #C8563F",
"2^ 	c #C15239",
"3^ 	c #B04B36",
"4^ 	c #C7523E",
"5^ 	c #C45039",
"6^ 	c #C8533C",
"7^ 	c #B84934",
"8^ 	c #B84C36",
"9^ 	c #B94D38",
"0^ 	c #BA513C",
"a^ 	c #AF4C36",
"b^ 	c #B0513A",
"c^ 	c #B1543F",
"d^ 	c #9D4734",
"e^ 	c #994837",
"f^ 	c #A75845",
"g^ 	c #A24F3C",
"h^ 	c #AA503D",
"i^ 	c #AC4F3B",
"j^ 	c #B14F3E",
"k^ 	c #B34F3D",
"l^ 	c #B14C3A",
"m^ 	c #B24A37",
"n^ 	c #B34E3B",
"o^ 	c #AD4A38",
"p^ 	c #B84D3A",
"q^ 	c #B24E3B",
"r^ 	c #A94F3B",
"s^ 	c #BC503A",
"t^ 	c #C3543E",
"u^ 	c #C7553F",
"v^ 	c #CB5840",
"w^ 	c #C65C42",
"x^ 	c #BF5C44",
"y^ 	c #C06751",
"z^ 	c #AE523C",
"A^ 	c #BF563F",
"B^ 	c #C2553F",
"C^ 	c #BD503B",
"D^ 	c #C0523E",
"E^ 	c #B3503C",
"F^ 	c #B74E3A",
"G^ 	c #BC533A",
"H^ 	c #C55842",
"I^ 	c #BF533C",
"J^ 	c #BE4F38",
"K^ 	c #B85039",
"L^ 	c #BD4D35",
"M^ 	c #C4503A",
"N^ 	c #BF4C37",
"O^ 	c #B54E38",
"P^ 	c #C14D38",
"Q^ 	c #C14C37",
"R^ 	c #C24D37",
"S^ 	c #BE4B35",
"T^ 	c #BC4C36",
"U^ 	c #BA4B37",
"V^ 	c #AF4E38",
"W^ 	c #AE5036",
"X^ 	c #AE5741",
"Y^ 	c #A15E4C",
"Z^ 	c #933F30",
"`^ 	c #A85842",
" / 	c #A85241",
"./ 	c #AE5441",
"+/ 	c #AF503F",
"@/ 	c #B04F3D",
"#/ 	c #B9513F",
"$/ 	c #B34B39",
"%/ 	c #B54D3A",
"&/ 	c #B64E3B",
"*/ 	c #AE4937",
"=/ 	c #AD4937",
"-/ 	c #B14B38",
";/ 	c #B24936",
">/ 	c #AC4934",
",/ 	c #B24D37",
"'/ 	c #BB4C37",
")/ 	c #B94B38",
"!/ 	c #C0513E",
"~/ 	c #C3553E",
"{/ 	c #C4533F",
"]/ 	c #C1573F",
"^/ 	c #BA5E48",
"// 	c #BC6D56",
"(/ 	c #B4644C",
"_/ 	c #AD4F38",
":/ 	c #AA4932",
"</ 	c #AC4B37",
"[/ 	c #B14C38",
"}/ 	c #C45742",
"|/ 	c #C3533B",
"1/ 	c #BB533C",
"2/ 	c #BF543D",
"3/ 	c #C4513B",
"4/ 	c #C4513A",
"5/ 	c #C24E37",
"6/ 	c #C24E35",
"7/ 	c #BF4D36",
"8/ 	c #B64C35",
"9/ 	c #AA4A35",
"0/ 	c #C04C37",
"a/ 	c #C54F39",
"b/ 	c #C04D39",
"c/ 	c #BB4B36",
"d/ 	c #BE4D39",
"e/ 	c #B94B36",
"f/ 	c #BA4E3B",
"g/ 	c #B54C39",
"h/ 	c #AF4F3A",
"i/ 	c #AB4D38",
"j/ 	c #AB543C",
"k/ 	c #8E2A17",
"l/ 	c #965849",
"m/ 	c #A75949",
"n/ 	c #A55142",
"o/ 	c #A84D3F",
"p/ 	c #AE503E",
"q/ 	c #B04D3C",
"r/ 	c #B24E3D",
"s/ 	c #B24D3B",
"t/ 	c #B64E3C",
"u/ 	c #B44A38",
"v/ 	c #B54A36",
"w/ 	c #B04936",
"x/ 	c #AC4836",
"y/ 	c #B64D3A",
"z/ 	c #BC503C",
"A/ 	c #BF4F3A",
"B/ 	c #C34F3B",
"C/ 	c #C85B44",
"D/ 	c #C4634A",
"E/ 	c #BC6046",
"F/ 	c #B55840",
"G/ 	c #C95641",
"H/ 	c #CB5641",
"I/ 	c #BD513A",
"J/ 	c #B34D37",
"K/ 	c #B04F3B",
"L/ 	c #A84B35",
"M/ 	c #C4523B",
"N/ 	c #C4523A",
"O/ 	c #CA5740",
"P/ 	c #C3543D",
"Q/ 	c #C45741",
"R/ 	c #C1563D",
"S/ 	c #CD5942",
"T/ 	c #C24F39",
"U/ 	c #C5523C",
"V/ 	c #C7523B",
"W/ 	c #C9533B",
"X/ 	c #C9543C",
"Y/ 	c #B94D37",
"Z/ 	c #BC4832",
"`/ 	c #BC4933",
" ( 	c #C04D36",
".( 	c #BD4B37",
"+( 	c #B94A36",
"@( 	c #BA4A36",
"#( 	c #BC4D3A",
"$( 	c #AE4D39",
"%( 	c #AD4D38",
"&( 	c #A84B38",
"*( 	c #813020",
"=( 	c #A0503F",
"-( 	c #A24F40",
";( 	c #A8503E",
">( 	c #AD4D3A",
",( 	c #B44F3E",
"'( 	c #B14B39",
")( 	c #B14735",
"!( 	c #B14834",
"~( 	c #B34B38",
"{( 	c #B34C38",
"]( 	c #B24935",
"^( 	c #B84C38",
"/( 	c #B74937",
"(( 	c #B74C37",
"_( 	c #B34937",
":( 	c #C05640",
"<( 	c #C66149",
"[( 	c #C06249",
"}( 	c #C15640",
"|( 	c #C7563F",
"1( 	c #C45640",
"2( 	c #B54E39",
"3( 	c #AB4E38",
"4( 	c #BB5840",
"5( 	c #C9573F",
"6( 	c #C7553D",
"7( 	c #CA5840",
"8( 	c #C95840",
"9( 	c #C95740",
"0( 	c #C7553E",
"a( 	c #BF553D",
"b( 	c #C65740",
"c( 	c #BE4F37",
"d( 	c #CB5943",
"e( 	c #C24F38",
"f( 	c #C04D35",
"g( 	c #CA553E",
"h( 	c #C44E36",
"i( 	c #C54F36",
"j( 	c #C04B34",
"k( 	c #B64F39",
"l( 	c #BB523A",
"m( 	c #BE513A",
"n( 	c #B64730",
"o( 	c #BF4C36",
"p( 	c #C04C36",
"q( 	c #BD4B35",
"r( 	c #BC4B35",
"s( 	c #BE4A35",
"t( 	c #B14831",
"u( 	c #B04A34",
"v( 	c #BA4D39",
"w( 	c #B64B37",
"x( 	c #B24A35",
"y( 	c #AB5039",
"z( 	c #A44A36",
"A( 	c #A46553",
"B( 	c #94554B",
"C( 	c #9E4E3B",
"D( 	c #A05040",
"E( 	c #A44F3D",
"F( 	c #A74D3A",
"G( 	c #AC4E3A",
"H( 	c #AF4835",
"I( 	c #B34A38",
"J( 	c #B84B39",
"K( 	c #B44B37",
"L( 	c #B64B38",
"M( 	c #B64A37",
"N( 	c #B54935",
"O( 	c #BA4B38",
"P( 	c #B84937",
"Q( 	c #BB4D3B",
"R( 	c #C6533F",
"S( 	c #BB4D37",
"T( 	c #BA503B",
"U( 	c #B64D38",
"V( 	c #AE4B34",
"W( 	c #B44F38",
"X( 	c #C3563F",
"Y( 	c #C1533B",
"Z( 	c #C2513A",
"`( 	c #C4553E",
" _ 	c #BD523A",
"._ 	c #BE523B",
"+_ 	c #C6553D",
"@_ 	c #C9543D",
"#_ 	c #C6543B",
"$_ 	c #C5523A",
"%_ 	c #C8523A",
"&_ 	c #BD4C37",
"*_ 	c #C14F37",
"=_ 	c #C44F38",
"-_ 	c #BF4E36",
";_ 	c #BC4A34",
">_ 	c #BC4B34",
",_ 	c #A94730",
"'_ 	c #B54B38",
")_ 	c #B94A35",
"!_ 	c #BC4C37",
"~_ 	c #B34A36",
"{_ 	c #AE4A34",
"]_ 	c #AB4E37",
"^_ 	c #A03F29",
"/_ 	c #934531",
"(_ 	c #A2513D",
"__ 	c #A64C39",
":_ 	c #AC4A38",
"<_ 	c #B24C3B",
"[_ 	c #B24A38",
"}_ 	c #B14836",
"|_ 	c #B74B38",
"1_ 	c #B24835",
"2_ 	c #B54A37",
"3_ 	c #B54734",
"4_ 	c #B74A37",
"5_ 	c #B64934",
"6_ 	c #B94B37",
"7_ 	c #B84A35",
"8_ 	c #B74935",
"9_ 	c #B64935",
"0_ 	c #BA4A37",
"a_ 	c #C04D38",
"b_ 	c #C25540",
"c_ 	c #C75841",
"d_ 	c #BE543C",
"e_ 	c #C85741",
"f_ 	c #BA4E37",
"g_ 	c #BA523C",
"h_ 	c #AD4833",
"i_ 	c #B04D37",
"j_ 	c #AA4731",
"k_ 	c #C2543C",
"l_ 	c #C7563E",
"m_ 	c #CA5A42",
"n_ 	c #C3563D",
"o_ 	c #C65941",
"p_ 	c #C8583F",
"q_ 	c #C7543C",
"r_ 	c #C7533D",
"s_ 	c #CC5841",
"t_ 	c #CF5841",
"u_ 	c #C9533C",
"v_ 	c #CA543E",
"w_ 	c #B94933",
"x_ 	c #B14E38",
"y_ 	c #C34F38",
"z_ 	c #BE4933",
"A_ 	c #C44F39",
"B_ 	c #BF4A35",
"C_ 	c #C04D37",
"D_ 	c #BE4B36",
"E_ 	c #B64933",
"F_ 	c #B04532",
"G_ 	c #B84832",
"H_ 	c #B74B36",
"I_ 	c #B44A35",
"J_ 	c #AE4932",
"K_ 	c #B04E3A",
"L_ 	c #9B4331",
"M_ 	c #944636",
"N_ 	c #A4543F",
"O_ 	c #A4523E",
"P_ 	c #A54C39",
"Q_ 	c #AC4C39",
"R_ 	c #B04C3B",
"S_ 	c #AE4735",
"T_ 	c #B24B39",
"U_ 	c #B14936",
"V_ 	c #B34833",
"W_ 	c #B44836",
"X_ 	c #B44735",
"Y_ 	c #B94A38",
"Z_ 	c #B84A36",
"`_ 	c #B94936",
" : 	c #BB4D38",
".: 	c #C04E39",
"+: 	c #B55841",
"@: 	c #C95841",
"#: 	c #C8573F",
"$: 	c #C95A44",
"%: 	c #CB5942",
"&: 	c #C8553D",
"*: 	c #CD5A43",
"=: 	c #BC5039",
"-: 	c #B34B36",
";: 	c #B24E38",
">: 	c #C35640",
",: 	c #CA5A43",
"': 	c #C75740",
"): 	c #CC5B43",
"!: 	c #CB5A42",
"~: 	c #C6553C",
"{: 	c #C4553C",
"]: 	c #C85840",
"^: 	c #CA573D",
"/: 	c #CB553E",
"(: 	c #CB543E",
"_: 	c #C55038",
":: 	c #C9523A",
"<: 	c #C14B35",
"[: 	c #C54F38",
"}: 	c #C6513C",
"|: 	c #A24A37",
"1: 	c #BF4E37",
"2: 	c #C14E37",
"3: 	c #C8523D",
"4: 	c #C34E39",
"5: 	c #C04C38",
"6: 	c #BC4934",
"7: 	c #B54834",
"8: 	c #B34632",
"9: 	c #B74933",
"0: 	c #B74835",
"a: 	c #B84835",
"b: 	c #B14731",
"c: 	c #B34C35",
"d: 	c #AB4835",
"e: 	c #AA4A32",
"f: 	c #822612",
"g: 	c #7A2F1E",
"h: 	c #A04F3E",
"i: 	c #AD5140",
"j: 	c #A84937",
"k: 	c #AB4A36",
"l: 	c #AD4837",
"m: 	c #B04736",
"n: 	c #AE4634",
"o: 	c #B04734",
"p: 	c #B44A37",
"q: 	c #B44A36",
"r: 	c #B44935",
"s: 	c #B34734",
"t: 	c #B64835",
"u: 	c #B84935",
"v: 	c #BC4C39",
"w: 	c #BA4A34",
"x: 	c #C2503C",
"y: 	c #B7533F",
"z: 	c #8E452E",
"A: 	c #994733",
"B: 	c #C85440",
"C: 	c #BF4F37",
"D: 	c #BB4F38",
"E: 	c #BE543E",
"F: 	c #BD543C",
"G: 	c #BD553E",
"H: 	c #BA523B",
"I: 	c #B2533B",
"J: 	c #B5513A",
"K: 	c #C45943",
"L: 	c #C2553E",
"M: 	c #C0533C",
"N: 	c #C55841",
"O: 	c #C5553D",
"P: 	c #C7583F",
"Q: 	c #C5573F",
"R: 	c #C4573D",
"S: 	c #C85B42",
"T: 	c #CB5B44",
"U: 	c #C2543D",
"V: 	c #C95A43",
"W: 	c #CA5940",
"X: 	c #CC5C43",
"Y: 	c #C5563E",
"Z: 	c #CE5B43",
"`: 	c #CD5840",
" < 	c #CC5940",
".< 	c #CE5A41",
"+< 	c #C9563D",
"@< 	c #C9553C",
"#< 	c #CA563E",
"$< 	c #C4543C",
"%< 	c #AE4935",
"&< 	c #B25037",
"*< 	c #C6563D",
"=< 	c #BD4B33",
"-< 	c #BE4C34",
";< 	c #C04C35",
">< 	c #C34D37",
",< 	c #BF4A34",
"'< 	c #C04B35",
")< 	c #B74834",
"!< 	c #B44835",
"~< 	c #B64A33",
"{< 	c #B64C38",
"]< 	c #B24733",
"^< 	c #AD4933",
"/< 	c #A64837",
"(< 	c #974C39",
"_< 	c #A24D3B",
":< 	c #A54D3B",
"<< 	c #A64B3A",
"[< 	c #A74735",
"}< 	c #AE4A39",
"|< 	c #AB4736",
"1< 	c #AD4635",
"2< 	c #B14837",
"3< 	c #B04533",
"4< 	c #AF4532",
"5< 	c #B14632",
"6< 	c #B34634",
"7< 	c #B74C38",
"8< 	c #B54735",
"9< 	c #B94935",
"0< 	c #B74A34",
"a< 	c #B64833",
"b< 	c #C55843",
"c< 	c #9F4D39",
"d< 	c #8A4833",
"e< 	c #9A4833",
"f< 	c #C35641",
"g< 	c #B74E38",
"h< 	c #BB503B",
"i< 	c #C0563F",
"j< 	c #BC533B",
"k< 	c #BB543D",
"l< 	c #B75039",
"m< 	c #B44F3A",
"n< 	c #AE4D38",
"o< 	c #AF503B",
"p< 	c #B14F38",
"q< 	c #BD543E",
"r< 	c #C15740",
"s< 	c #BB533A",
"t< 	c #C1553D",
"u< 	c #C85B41",
"v< 	c #CA5E45",
"w< 	c #CB5F45",
"x< 	c #C95B41",
"y< 	c #C95A41",
"z< 	c #C7573D",
"A< 	c #CC5D41",
"B< 	c #CA5A41",
"C< 	c #C85C42",
"D< 	c #CB5D44",
"E< 	c #CE5E45",
"F< 	c #CA593F",
"G< 	c #C9573E",
"H< 	c #C7563D",
"I< 	c #D05D44",
"J< 	c #CC593F",
"K< 	c #C65139",
"L< 	c #C8533A",
"M< 	c #AF4E36",
"N< 	c #BA4E38",
"O< 	c #BA4832",
"P< 	c #BF4F38",
"Q< 	c #BF4A33",
"R< 	c #C45038",
"S< 	c #BD4832",
"T< 	c #C14C35",
"U< 	c #C14D36",
"V< 	c #BE4834",
"W< 	c #B84933",
"X< 	c #B64732",
"Y< 	c #B14A35",
"Z< 	c #983926",
"`< 	c #8C4635",
" [ 	c #9C4F3D",
".[ 	c #A64D3A",
"+[ 	c #AA4A38",
"@[ 	c #AC4736",
"#[ 	c #AD4735",
"$[ 	c #B04735",
"%[ 	c #AC4430",
"&[ 	c #B24633",
"*[ 	c #B14634",
"=[ 	c #B14633",
"-[ 	c #AF4430",
";[ 	c #AF4330",
">[ 	c #B34633",
",[ 	c #B84936",
"'[ 	c #B74A36",
")[ 	c #BC4A38",
"![ 	c #B14530",
"~[ 	c #B74A35",
"{[ 	c #B64C37",
"][ 	c #AD4F3D",
"^[ 	c #A14934",
"/[ 	c #C05943",
"([ 	c #C05541",
"_[ 	c #A74B35",
":[ 	c #CA5942",
"<[ 	c #B74E37",
"[[ 	c #BB513A",
"}[ 	c #BA513A",
"|[ 	c #B64E38",
"1[ 	c #A24733",
"2[ 	c #B3533C",
"3[ 	c #C0543C",
"4[ 	c #CC5D45",
"5[ 	c #CF5F46",
"6[ 	c #CA5C43",
"7[ 	c #C25A42",
"8[ 	c #C0563E",
"9[ 	c #CC6048",
"0[ 	c #C1543B",
"a[ 	c #C3553C",
"b[ 	c #CC5E44",
"c[ 	c #CE5E47",
"d[ 	c #C4563C",
"e[ 	c #C95940",
"f[ 	c #C4553F",
"g[ 	c #B8523A",
"h[ 	c #C0553E",
"i[ 	c #CB573E",
"j[ 	c #C44F36",
"k[ 	c #CC573E",
"l[ 	c #CF5A41",
"m[ 	c #C9533A",
"n[ 	c #CB583F",
"o[ 	c #CB563E",
"p[ 	c #C24F36",
"q[ 	c #C04F38",
"r[ 	c #B24C35",
"s[ 	c #BD533C",
"t[ 	c #BC4932",
"u[ 	c #BF4B35",
"v[ 	c #C24C36",
"w[ 	c #C8513B",
"x[ 	c #C24B35",
"y[ 	c #C34C36",
"z[ 	c #BE4733",
"A[ 	c #BE4934",
"B[ 	c #BD4A34",
"C[ 	c #BD4A35",
"D[ 	c #BA4A33",
"E[ 	c #B94934",
"F[ 	c #B74733",
"G[ 	c #AF4C37",
"H[ 	c #892D1E",
"I[ 	c #8D5042",
"J[ 	c #984733",
"K[ 	c #A04A39",
"L[ 	c #A14837",
"M[ 	c #A74936",
"N[ 	c #A84332",
"O[ 	c #AA4534",
"P[ 	c #A74231",
"Q[ 	c #AC4634",
"R[ 	c #AC4532",
"S[ 	c #AE4331",
"T[ 	c #AE4533",
"U[ 	c #B24735",
"V[ 	c #B14533",
"W[ 	c #B04531",
"X[ 	c #B04632",
"Y[ 	c #B14431",
"Z[ 	c #B74B35",
"`[ 	c #BA4934",
" } 	c #B64733",
".} 	c #BB4C39",
"+} 	c #BA5642",
"@} 	c #B25D45",
"#} 	c #BE4E3B",
"$} 	c #C2513E",
"%} 	c #B95039",
"&} 	c #B64E37",
"*} 	c #C95742",
"=} 	c #C25741",
"-} 	c #CB5A41",
";} 	c #B9513A",
">} 	c #B14F39",
",} 	c #AF5039",
"'} 	c #A64B34",
")} 	c #B5553E",
"!} 	c #C75941",
"~} 	c #C75A41",
"{} 	c #C65840",
"]} 	c #C2583F",
"^} 	c #B9553D",
"/} 	c #C65E45",
"(} 	c #C85C44",
"_} 	c #C75A40",
":} 	c #C7573E",
"<} 	c #CD5C44",
"[} 	c #BB583F",
"}} 	c #B3513A",
"|} 	c #C85A42",
"1} 	c #D05C43",
"2} 	c #CC5A41",
"3} 	c #CE5A42",
"4} 	c #C9553B",
"5} 	c #C5533B",
"6} 	c #BF4D35",
"7} 	c #C04A34",
"8} 	c #C24B36",
"9} 	c #C14A34",
"0} 	c #BC4631",
"a} 	c #BF4B36",
"b} 	c #BC4834",
"c} 	c #BC4735",
"d} 	c #BB4934",
"e} 	c #B34C36",
"f} 	c #AB4C36",
"g} 	c #A4432F",
"h} 	c #8A3E2E",
"i} 	c #9C4D3B",
"j} 	c #A44A37",
"k} 	c #A64532",
"l} 	c #A94533",
"m} 	c #AB4533",
"n} 	c #A74230",
"o} 	c #A74331",
"p} 	c #A64432",
"q} 	c #AA4532",
"r} 	c #AD4533",
"s} 	c #AD4332",
"t} 	c #AE4632",
"u} 	c #AC4431",
"v} 	c #A7412C",
"w} 	c #B44631",
"x} 	c #B75941",
"y} 	c #C4654E",
"z} 	c #BB4F3A",
"A} 	c #C05138",
"B} 	c #BF5F49",
"C} 	c #C45740",
"D} 	c #BC503B",
"E} 	c #BB523C",
"F} 	c #B54F38",
"G} 	c #A74A35",
"H} 	c #AC4C37",
"I} 	c #B15039",
"J} 	c #B9523C",
"K} 	c #C25942",
"L} 	c #BE553E",
"M} 	c #BD533A",
"N} 	c #C4573E",
"O} 	c #C4573F",
"P} 	c #BA4F37",
"Q} 	c #B7533B",
"R} 	c #A44833",
"S} 	c #B7533D",
"T} 	c #C35840",
"U} 	c #CE6147",
"V} 	c #CD5E44",
"W} 	c #D26148",
"X} 	c #CD5D46",
"Y} 	c #CD5C43",
"Z} 	c #BD563F",
"`} 	c #C35941",
" | 	c #CB5C43",
".| 	c #CE5C44",
"+| 	c #D25D44",
"@| 	c #CD563C",
"#| 	c #CE5740",
"$| 	c #C8543A",
"%| 	c #C04F36",
"&| 	c #C25038",
"*| 	c #C14E36",
"=| 	c #BD4831",
"-| 	c #C34E38",
";| 	c #C04833",
">| 	c #C14933",
",| 	c #C14A33",
"'| 	c #BB4732",
")| 	c #B94531",
"!| 	c #BA4834",
"~| 	c #B74833",
"{| 	c #B44834",
"]| 	c #AD4832",
"^| 	c #AD4E3B",
"/| 	c #A2594D",
"(| 	c #7A2C1D",
"_| 	c #9D4E3A",
":| 	c #9F4837",
"<| 	c #A04534",
"[| 	c #A44635",
"}| 	c #A64231",
"|| 	c #AB4534",
"1| 	c #AD4534",
"2| 	c #A9412E",
"3| 	c #A54030",
"4| 	c #9F3E2C",
"5| 	c #A74834",
"6| 	c #A74432",
"7| 	c #A7412F",
"8| 	c #AC4331",
"9| 	c #AA4430",
"0| 	c #AF4633",
"a| 	c #AD422E",
"b| 	c #B34430",
"c| 	c #B74732",
"d| 	c #B64832",
"e| 	c #BB4E38",
"f| 	c #C25A44",
"g| 	c #B8523B",
"h| 	c #BF5A43",
"i| 	c #A04935",
"j| 	c #B04F38",
"k| 	c #C6563F",
"l| 	c #C9563E",
"m| 	c #CA563F",
"n| 	c #C8543D",
"o| 	c #BB4C34",
"p| 	c #B94F37",
"q| 	c #AF503C",
"r| 	c #BF553C",
"s| 	c #C95C43",
"t| 	c #BF543B",
"u| 	c #C0573E",
"v| 	c #B85038",
"w| 	c #A64C36",
"x| 	c #A7533D",
"y| 	c #B75841",
"z| 	c #C65C44",
"A| 	c #CA5B42",
"B| 	c #CD5B42",
"C| 	c #C6563E",
"D| 	c #CD5F44",
"E| 	c #C6563B",
"F| 	c #B84E35",
"G| 	c #CC5E45",
"H| 	c #D05F45",
"I| 	c #D05A43",
"J| 	c #C8543B",
"K| 	c #CD563D",
"L| 	c #CE573E",
"M| 	c #CE593F",
"N| 	c #C3533A",
"O| 	c #BD533D",
"P| 	c #C04E37",
"Q| 	c #C14F36",
"R| 	c #C14D35",
"S| 	c #BE4731",
"T| 	c #C04932",
"U| 	c #BE462F",
"V| 	c #BC4732",
"W| 	c #BC4833",
"X| 	c #B84631",
"Y| 	c #B94732",
"Z| 	c #B54631",
"`| 	c #A84935",
" 1 	c #8F4332",
".1 	c #9D4B38",
"+1 	c #9F4836",
"@1 	c #A34836",
"#1 	c #A74636",
"$1 	c #A84432",
"%1 	c #AA4433",
"&1 	c #A84030",
"*1 	c #A34232",
"=1 	c #A34431",
"-1 	c #9A3D2A",
";1 	c #A74534",
">1 	c #A73F2D",
",1 	c #A84330",
"'1 	c #A63E2C",
")1 	c #B04530",
"!1 	c #B64734",
"~1 	c #B94834",
"{1 	c #B84D36",
"]1 	c #BB513B",
"^1 	c #C85A44",
"/1 	c #C2563E",
"(1 	c #BF5740",
"_1 	c #B74F38",
":1 	c #B14D36",
"<1 	c #B4523D",
"[1 	c #B8533A",
"}1 	c #C35A42",
"|1 	c #C55940",
"11 	c #C85941",
"21 	c #C3563E",
"31 	c #C55A43",
"41 	c #A95039",
"51 	c #BD553C",
"61 	c #CE5F45",
"71 	c #D4664D",
"81 	c #D16349",
"91 	c #D06146",
"01 	c #D05E45",
"a1 	c #D5664A",
"b1 	c #CC5C42",
"c1 	c #CA5B43",
"d1 	c #C2543A",
"e1 	c #CF5B41",
"f1 	c #D05C41",
"g1 	c #D0573F",
"h1 	c #CE563E",
"i1 	c #CC563D",
"j1 	c #C7543A",
"k1 	c #AA452F",
"l1 	c #C35038",
"m1 	c #C55138",
"n1 	c #BF4D34",
"o1 	c #BD4A33",
"p1 	c #C24D35",
"q1 	c #C34A35",
"r1 	c #C24B34",
"s1 	c #BA442F",
"t1 	c #BA4731",
"u1 	c #B84632",
"v1 	c #B2422F",
"w1 	c #B04630",
"x1 	c #AE4D32",
"y1 	c #963826",
"z1 	c #915A50",
"A1 	c #9E4C3C",
"B1 	c #9D4735",
"C1 	c #9F4635",
"D1 	c #A14434",
"E1 	c #A54433",
"F1 	c #A74130",
"G1 	c #A6412F",
"H1 	c #9F422F",
"I1 	c #9C4130",
"J1 	c #9E3C29",
"K1 	c #AA4331",
"L1 	c #AC412F",
"M1 	c #AD4431",
"N1 	c #AF4630",
"O1 	c #BB4B35",
"P1 	c #C65A41",
"Q1 	c #BE4D36",
"R1 	c #BA5139",
"S1 	c #BD563E",
"T1 	c #B5523C",
"U1 	c #B85842",
"V1 	c #BB5742",
"W1 	c #B7523B",
"X1 	c #C1553B",
"Y1 	c #C5573E",
"Z1 	c #BE563D",
"`1 	c #C35C44",
" 2 	c #BD553D",
".2 	c #C65B44",
"+2 	c #CC5F45",
"@2 	c #CF6046",
"#2 	c #D16348",
"$2 	c #CF5F45",
"%2 	c #D26249",
"&2 	c #CB5B41",
"*2 	c #CF5E43",
"=2 	c #CD5D43",
"-2 	c #BF5138",
";2 	c #C5573D",
">2 	c #C5563D",
",2 	c #CB5940",
"'2 	c #C65339",
")2 	c #C65238",
"!2 	c #C85138",
"~2 	c #CC563E",
"{2 	c #CE5A40",
"]2 	c #BF4F36",
"^2 	c #C14D37",
"/2 	c #C24D36",
"(2 	c #C6513A",
"_2 	c #C34D35",
":2 	c #C34C34",
"<2 	c #C04933",
"[2 	c #BE4832",
"}2 	c #BD4732",
"|2 	c #BF4935",
"12 	c #BA4833",
"22 	c #B54430",
"32 	c #B04631",
"42 	c #A84834",
"52 	c #8C3D30",
"62 	c #9E4735",
"72 	c #A14936",
"82 	c #A34433",
"92 	c #A34332",
"02 	c #A64431",
"a2 	c #A64230",
"b2 	c #A94431",
"c2 	c #963E2D",
"d2 	c #A24431",
"e2 	c #A8412F",
"f2 	c #AD4430",
"g2 	c #AE4532",
"h2 	c #AF432F",
"i2 	c #B34631",
"j2 	c #B44632",
"k2 	c #B4432F",
"l2 	c #B2432F",
"m2 	c #B2422D",
"n2 	c #B3442F",
"o2 	c #B94A34",
"p2 	c #BB4C36",
"q2 	c #C2533A",
"r2 	c #C2533B",
"s2 	c #B2523C",
"t2 	c #BF5941",
"u2 	c #B54F37",
"v2 	c #AC4B34",
"w2 	c #AF4C35",
"x2 	c #BD5842",
"y2 	c #BE5840",
"z2 	c #C1543C",
"A2 	c #C45A40",
"B2 	c #BC553B",
"C2 	c #CA5E46",
"D2 	c #C2543B",
"E2 	c #D0654A",
"F2 	c #CD5F47",
"G2 	c #D06046",
"H2 	c #C8573E",
"I2 	c #CD5D44",
"J2 	c #C9593E",
"K2 	c #C7573F",
"L2 	c #C4543B",
"M2 	c #C45139",
"N2 	c #CA553C",
"O2 	c #BF4E35",
"P2 	c #BE4B34",
"Q2 	c #C34F37",
"R2 	c #BE4932",
"S2 	c #C14B34",
"T2 	c #C14B33",
"U2 	c #C34B35",
"V2 	c #BF4832",
"W2 	c #BF4833",
"X2 	c #B8432D",
"Y2 	c #B94530",
"Z2 	c #B54431",
"`2 	c #AC422D",
" 3 	c #AF4632",
".3 	c #91331E",
"+3 	c #71261A",
"@3 	c #9B4C3B",
"#3 	c #9D4737",
"$3 	c #9E4534",
"%3 	c #993F2D",
"&3 	c #A1412F",
"*3 	c #A2402E",
"=3 	c #A33E2C",
"-3 	c #A54532",
";3 	c #A3402E",
">3 	c #AB412F",
",3 	c #AF4432",
"'3 	c #AD402D",
")3 	c #B34733",
"!3 	c #B1432F",
"~3 	c #B54732",
"{3 	c #BA4B35",
"]3 	c #BB4936",
"^3 	c #A54833",
"/3 	c #AD4E39",
"(3 	c #BB553D",
"_3 	c #A94E39",
":3 	c #AC513A",
"<3 	c #B75138",
"[3 	c #B64F38",
"}3 	c #B65139",
"|3 	c #B44E37",
"13 	c #B04A33",
"23 	c #BA563E",
"33 	c #C0523A",
"43 	c #CB5C44",
"53 	c #C05239",
"63 	c #BE5339",
"73 	c #CF6047",
"83 	c #C5593E",
"93 	c #D5684F",
"03 	c #D06148",
"a3 	c #D06047",
"b3 	c #CE5D43",
"c3 	c #CA5A40",
"d3 	c #C05038",
"e3 	c #C5563C",
"f3 	c #C6563C",
"g3 	c #C35138",
"h3 	c #C45036",
"i3 	c #C55339",
"j3 	c #C55137",
"k3 	c #C34F36",
"l3 	c #C7543B",
"m3 	c #BD4A30",
"n3 	c #C14C33",
"o3 	c #C14D34",
"p3 	c #C24C34",
"q3 	c #BE4A33",
"r3 	c #BF4830",
"s3 	c #BF4931",
"t3 	c #BA4631",
"u3 	c #B94731",
"v3 	c #B4442F",
"w3 	c #B54632",
"x3 	c #AC432D",
"y3 	c #AB442E",
"z3 	c #A7442F",
"A3 	c #8C3F32",
"B3 	c #9B4838",
"C3 	c #9C4232",
"D3 	c #9D4231",
"E3 	c #9E402F",
"F3 	c #A54332",
"G3 	c #A2412F",
"H3 	c #A3412E",
"I3 	c #AB4331",
"J3 	c #AA4332",
"K3 	c #A6402D",
"L3 	c #A84130",
"M3 	c #AA422E",
"N3 	c #AB412E",
"O3 	c #A8402D",
"P3 	c #AD422F",
"Q3 	c #B54835",
"R3 	c #AE412E",
"S3 	c #B34531",
"T3 	c #B0422F",
"U3 	c #B64631",
"V3 	c #B54531",
"W3 	c #9D5743",
"X3 	c #A75641",
"Y3 	c #BB4A35",
"Z3 	c #A14732",
"`3 	c #A34932",
" 4 	c #BB5740",
".4 	c #C15942",
"+4 	c #B34A34",
"@4 	c #B54B34",
"#4 	c #CD5B44",
"$4 	c #C15138",
"%4 	c #C6573E",
"&4 	c #C6593F",
"*4 	c #C05339",
"=4 	c #BB4E34",
"-4 	c #D16249",
";4 	c #C65841",
">4 	c #C95C44",
",4 	c #C0553C",
"'4 	c #C0563C",
")4 	c #CF6348",
"!4 	c #C8593F",
"~4 	c #D05F46",
"{4 	c #CE5C43",
"]4 	c #CC5B42",
"^4 	c #C75840",
"/4 	c #C7553C",
"(4 	c #CA553B",
"_4 	c #C04E35",
":4 	c #C7533B",
"<4 	c #CA563D",
"[4 	c #CA533C",
"}4 	c #C04B33",
"|4 	c #C04832",
"14 	c #C14932",
"24 	c #C24A33",
"34 	c #C34A34",
"44 	c #BA432C",
"54 	c #BC452F",
"64 	c #B64530",
"74 	c #AF4832",
"84 	c #AE553E",
"94 	c #AA4C35",
"04 	c #AD4530",
"a4 	c #B24934",
"b4 	c #963926",
"c4 	c #7A3224",
"d4 	c #9A4A38",
"e4 	c #9C4937",
"f4 	c #9D4332",
"g4 	c #9B402F",
"h4 	c #A14231",
"i4 	c #A3402F",
"j4 	c #9B3C2A",
"k4 	c #A43F2E",
"l4 	c #A53F2C",
"m4 	c #AB4330",
"n4 	c #A73E2D",
"o4 	c #A93F2D",
"p4 	c #A9402D",
"q4 	c #AA402D",
"r4 	c #AC412D",
"s4 	c #B24330",
"t4 	c #B0402D",
"u4 	c #B54733",
"v4 	c #B14330",
"w4 	c #B24530",
"x4 	c #B0412D",
"y4 	c #B94833",
"z4 	c #BA4936",
"A4 	c #8A3D2A",
"B4 	c #8E4935",
"C4 	c #9F4633",
"D4 	c #BB4935",
"E4 	c #B75641",
"F4 	c #A44832",
"G4 	c #C05A43",
"H4 	c #B64A34",
"I4 	c #B74C36",
"J4 	c #B24D36",
"K4 	c #A64B36",
"L4 	c #AC513C",
"M4 	c #B54E36",
"N4 	c #AD462F",
"O4 	c #B24E36",
"P4 	c #CD5A42",
"Q4 	c #C15339",
"R4 	c #CA5B41",
"S4 	c #D3674C",
"T4 	c #CB5E44",
"U4 	c #CC6047",
"V4 	c #CB5E46",
"W4 	c #B75239",
"X4 	c #C15D42",
"Y4 	c #C65B40",
"Z4 	c #CB5B40",
"`4 	c #C9583E",
" 5 	c #C9573D",
".5 	c #CA583F",
"+5 	c #CB593F",
"@5 	c #CD5940",
"#5 	c #C24F37",
"$5 	c #BC4A32",
"%5 	c #C8553C",
"&5 	c #C95238",
"*5 	c #C65137",
"=5 	c #CB543C",
"-5 	c #C44F37",
";5 	c #C04C34",
">5 	c #C34E36",
",5 	c #C54E36",
"'5 	c #C54D34",
")5 	c #C04831",
"!5 	c #C34D36",
"~5 	c #BE4931",
"{5 	c #C34934",
"]5 	c #B8452F",
"^5 	c #AE4A33",
"/5 	c #B56047",
"(5 	c #AD513B",
"_5 	c #AD452F",
":5 	c #AF442F",
"<5 	c #AC432F",
"[5 	c #893A28",
"}5 	c #9F402D",
"|5 	c #9D3F2D",
"15 	c #993A29",
"25 	c #A9412F",
"35 	c #A33C29",
"45 	c #A9402E",
"55 	c #AC422F",
"65 	c #A83E29",
"75 	c #B14430",
"85 	c #B24431",
"95 	c #AE402C",
"05 	c #B44531",
"a5 	c #B03F2B",
"b5 	c #BE4A36",
"c5 	c #AB4733",
"d5 	c #94402B",
"e5 	c #AB4833",
"f5 	c #B24630",
"g5 	c #B84732",
"h5 	c #C14E39",
"i5 	c #B34A35",
"j5 	c #A85541",
"k5 	c #A44D38",
"l5 	c #B34B37",
"m5 	c #C1523A",
"n5 	c #BF533A",
"o5 	c #B84C35",
"p5 	c #B54C35",
"q5 	c #AD4C37",
"r5 	c #AC4A34",
"s5 	c #BA543D",
"t5 	c #BD573F",
"u5 	c #C95D46",
"v5 	c #C95942",
"w5 	c #C7593F",
"x5 	c #CA5D46",
"y5 	c #CE6048",
"z5 	c #CB6046",
"A5 	c #AC4E36",
"B5 	c #C45E44",
"C5 	c #D4664B",
"D5 	c #D26146",
"E5 	c #D56349",
"F5 	c #BB4B32",
"G5 	c #C55139",
"H5 	c #CB573F",
"I5 	c #C14E35",
"J5 	c #CE583F",
"K5 	c #C45239",
"L5 	c #BE4B33",
"M5 	c #BF4C33",
"N5 	c #C6533B",
"O5 	c #B5472F",
"P5 	c #BC482F",
"Q5 	c #C34D34",
"R5 	c #C64E35",
"S5 	c #C64C34",
"T5 	c #C14830",
"U5 	c #C14931",
"V5 	c #BF462F",
"W5 	c #C24934",
"X5 	c #B7442E",
"Y5 	c #AE5038",
"Z5 	c #AE442E",
"`5 	c #B4422D",
" 6 	c #B3432F",
".6 	c #AE4934",
"+6 	c #A35F53",
"@6 	c #702213",
"#6 	c #964232",
"$6 	c #974231",
"%6 	c #9C4030",
"&6 	c #9E3D2C",
"*6 	c #953927",
"=6 	c #A33D2B",
"-6 	c #A73F2B",
";6 	c #A9402F",
">6 	c #A23D2C",
",6 	c #9F3D29",
"'6 	c #A23F2D",
")6 	c #A9422E",
"!6 	c #AC442F",
"~6 	c #AF422E",
"{6 	c #AF432E",
"]6 	c #B1422F",
"^6 	c #AE402D",
"/6 	c #AD402C",
"(6 	c #B44430",
"_6 	c #B44633",
":6 	c #B0412C",
"<6 	c #B84833",
"[6 	c #B2412D",
"}6 	c #B6432F",
"|6 	c #BA4935",
"16 	c #A8402C",
"26 	c #A13D2B",
"36 	c #BE4C38",
"46 	c #C4513D",
"56 	c #95412D",
"66 	c #A85240",
"76 	c #AE523F",
"86 	c #B44B35",
"96 	c #BC4C35",
"06 	c #B54933",
"a6 	c #AC4833",
"b6 	c #B14B36",
"c6 	c #B4513C",
"d6 	c #B4513B",
"e6 	c #BD5139",
"f6 	c #BF5038",
"g6 	c #BE5740",
"h6 	c #B9543B",
"i6 	c #C0553B",
"j6 	c #BE5239",
"k6 	c #C4563E",
"l6 	c #CC5D43",
"m6 	c #C0573D",
"n6 	c #AC4D35",
"o6 	c #BE543A",
"p6 	c #CF6249",
"q6 	c #C9583D",
"r6 	c #C3543A",
"s6 	c #BE5037",
"t6 	c #BE4F36",
"u6 	c #C04E36",
"v6 	c #C25036",
"w6 	c #C65039",
"x6 	c #CC583F",
"y6 	c #C6523A",
"z6 	c #C6533A",
"A6 	c #C45138",
"B6 	c #C14B32",
"C6 	c #B84A33",
"D6 	c #B6452E",
"E6 	c #C44C34",
"F6 	c #C14630",
"G6 	c #C24932",
"H6 	c #BF4630",
"I6 	c #C04732",
"J6 	c #C14531",
"K6 	c #C04731",
"L6 	c #BD4630",
"M6 	c #B44630",
"N6 	c #AD3E29",
"O6 	c #AA422C",
"P6 	c #A03727",
"Q6 	c #994735",
"R6 	c #9A4332",
"S6 	c #9C4231",
"T6 	c #9B3E2E",
"U6 	c #9D3E2D",
"V6 	c #A03D2D",
"W6 	c #9E3C2B",
"X6 	c #9C3B2A",
"Y6 	c #A03B28",
"Z6 	c #A83E2C",
"`6 	c #A53E2D",
" 7 	c #A2402F",
".7 	c #AA402C",
"+7 	c #AA3E2A",
"@7 	c #AE422E",
"#7 	c #AD412D",
"$7 	c #AA402B",
"%7 	c #B2442F",
"&7 	c #AF402C",
"*7 	c #B34530",
"=7 	c #B74632",
"-7 	c #B74633",
";7 	c #AD442E",
">7 	c #B84733",
",7 	c #AD4935",
"'7 	c #A44B35",
")7 	c #AC4834",
"!7 	c #BB4D39",
"~7 	c #B84D37",
"{7 	c #AD4731",
"]7 	c #AA4833",
"^7 	c #A94731",
"/7 	c #A3412B",
"(7 	c #BB5038",
"_7 	c #B34C34",
":7 	c #AC4A32",
"<7 	c #BE523A",
"[7 	c #BC4E35",
"}7 	c #BD4F36",
"|7 	c #CD5E45",
"17 	c #C75C44",
"27 	c #C35E49",
"37 	c #B34933",
"47 	c #CD5C42",
"57 	c #C4533B",
"67 	c #BB4F37",
"77 	c #BE5036",
"87 	c #C25138",
"97 	c #CB563D",
"07 	c #C65038",
"a7 	c #C65138",
"b7 	c #C75138",
"c7 	c #C7523A",
"d7 	c #BF4B34",
"e7 	c #B64A32",
"f7 	c #C24931",
"g7 	c #C44A32",
"h7 	c #C34831",
"i7 	c #C64B34",
"j7 	c #C44933",
"k7 	c #C24831",
"l7 	c #BF452F",
"m7 	c #C14831",
"n7 	c #B04831",
"o7 	c #BA4C35",
"p7 	c #B5432D",
"q7 	c #B3422C",
"r7 	c #AE442D",
"s7 	c #AF4230",
"t7 	c #873A31",
"u7 	c #924230",
"v7 	c #974432",
"w7 	c #994330",
"x7 	c #9D412F",
"y7 	c #9B3B2C",
"z7 	c #9B3A29",
"A7 	c #9E3B29",
"B7 	c #9B3928",
"C7 	c #A43D2C",
"D7 	c #A33C2A",
"E7 	c #953826",
"F7 	c #9D3E2B",
"G7 	c #A14230",
"H7 	c #A73E2B",
"I7 	c #AF402E",
"J7 	c #B0412F",
"K7 	c #AD432F",
"L7 	c #A7402C",
"M7 	c #A63D2A",
"N7 	c #AE412C",
"O7 	c #B0422E",
"P7 	c #B24430",
"Q7 	c #B54331",
"R7 	c #B44530",
"S7 	c #B54530",
"T7 	c #B54934",
"U7 	c #AF412D",
"V7 	c #B74A33",
"W7 	c #B14C36",
"X7 	c #B7513D",
"Y7 	c #B74630",
"Z7 	c #B24833",
"`7 	c #B34934",
" 8 	c #B34D38",
".8 	c #AC4933",
"+8 	c #B04933",
"@8 	c #B04732",
"#8 	c #B0462F",
"$8 	c #B44932",
"%8 	c #B44731",
"&8 	c #B1472F",
"*8 	c #BA5239",
"=8 	c #BF573F",
"-8 	c #CD5D45",
";8 	c #C85A40",
">8 	c #B7543D",
",8 	c #AD4B35",
"'8 	c #C25941",
")8 	c #D36349",
"!8 	c #C2563D",
"~8 	c #B3472F",
"{8 	c #C65037",
"]8 	c #D05B43",
"^8 	c #C75037",
"/8 	c #CA563C",
"(8 	c #CE5940",
"_8 	c #C45037",
":8 	c #B24831",
"<8 	c #AC4730",
"[8 	c #BD482F",
"}8 	c #C24832",
"|8 	c #C24A31",
"18 	c #BE432B",
"28 	c #C14730",
"38 	c #C0462F",
"48 	c #BF442F",
"58 	c #BA442E",
"68 	c #B4422C",
"78 	c #B44832",
"88 	c #B2442E",
"98 	c #B7442F",
"08 	c #B3412C",
"a8 	c #B4412E",
"b8 	c #B0432C",
"c8 	c #B1452F",
"d8 	c #9A3121",
"e8 	c #7D2C1F",
"f8 	c #9A4A36",
"g8 	c #964331",
"h8 	c #973D2C",
"i8 	c #9F3F2D",
"j8 	c #9A3928",
"k8 	c #9C3C2B",
"l8 	c #983726",
"m8 	c #9F3B29",
"n8 	c #A53C2B",
"o8 	c #A13A28",
"p8 	c #9C3B29",
"q8 	c #9B3C29",
"r8 	c #9C3D2B",
"s8 	c #993926",
"t8 	c #A53C2A",
"u8 	c #AF402D",
"v8 	c #B34230",
"w8 	c #B34A37",
"x8 	c #A84632",
"y8 	c #A23A26",
"z8 	c #AE3F2C",
"A8 	c #AE402A",
"B8 	c #AF3F2D",
"C8 	c #B0402B",
"D8 	c #B0412E",
"E8 	c #B74734",
"F8 	c #B64834",
"G8 	c #B44734",
"H8 	c #B54832",
"I8 	c #BA4C36",
"J8 	c #B54C36",
"K8 	c #B9513B",
"L8 	c #B24732",
"M8 	c #BA4B34",
"N8 	c #B94E36",
"O8 	c #B34C37",
"P8 	c #AC4C36",
"Q8 	c #B1513A",
"R8 	c #B4523C",
"S8 	c #AC4A33",
"T8 	c #B24932",
"U8 	c #C45941",
"V8 	c #BB503A",
"W8 	c #BC5139",
"X8 	c #BB5138",
"Y8 	c #B94B34",
"Z8 	c #C6583E",
"`8 	c #CB5D45",
" 9 	c #C85C43",
".9 	c #C85A41",
"+9 	c #D36247",
"@9 	c #C5553B",
"#9 	c #CE5D45",
"$9 	c #C1533A",
"%9 	c #A93F27",
"&9 	c #C7533A",
"*9 	c #CA553A",
"=9 	c #C85239",
"-9 	c #C65239",
";9 	c #C8553A",
">9 	c #C04B31",
",9 	c #C04730",
"'9 	c #C24B33",
")9 	c #C64C36",
"!9 	c #C64B35",
"~9 	c #C1462F",
"{9 	c #C1442E",
"]9 	c #BF452E",
"^9 	c #BD452F",
"/9 	c #BC4731",
"(9 	c #B3412B",
"_9 	c #BB4833",
":9 	c #BB4530",
"<9 	c #B6402C",
"[9 	c #B2402B",
"}9 	c #AF4130",
"|9 	c #AC442D",
"19 	c #A13F2B",
"29 	c #7F3324",
"39 	c #974835",
"49 	c #98422F",
"59 	c #A03E2C",
"69 	c #9D3C2B",
"79 	c #983625",
"89 	c #9E3A29",
"99 	c #A43B2A",
"09 	c #A43B29",
"a9 	c #9F3826",
"b9 	c #9A3926",
"c9 	c #A03C29",
"d9 	c #A33B2A",
"e9 	c #A63A27",
"f9 	c #AC3E2A",
"g9 	c #A63F2B",
"h9 	c #A1402B",
"i9 	c #9A412D",
"j9 	c #A13D2A",
"k9 	c #9F3A25",
"l9 	c #A73C28",
"m9 	c #A93A28",
"n9 	c #B44331",
"o9 	c #AE3D2B",
"p9 	c #B64632",
"q9 	c #AE422D",
"r9 	c #B24631",
"s9 	c #B0442E",
"t9 	c #B44733",
"u9 	c #B94F3A",
"v9 	c #BB4D36",
"w9 	c #AE4C36",
"x9 	c #BA543E",
"y9 	c #B7553E",
"z9 	c #B34F38",
"A9 	c #B44D35",
"B9 	c #B94D36",
"C9 	c #B64D36",
"D9 	c #B8533C",
"E9 	c #B14833",
"F9 	c #B64A35",
"G9 	c #C0543B",
"H9 	c #D16148",
"I9 	c #CD5F46",
"J9 	c #C55941",
"K9 	c #C5593F",
"L9 	c #CE6046",
"M9 	c #D6674D",
"N9 	c #D26048",
"O9 	c #CB593E",
"P9 	c #C8573D",
"Q9 	c #C6593E",
"R9 	c #C05037",
"S9 	c #C05036",
"T9 	c #CA573E",
"U9 	c #BD4931",
"V9 	c #C04A33",
"W9 	c #B24B35",
"X9 	c #B94A32",
"Y9 	c #C34B34",
"Z9 	c #C64D36",
"`9 	c #C84E38",
" 0 	c #C0472F",
".0 	c #BE462E",
"+0 	c #C34731",
"@0 	c #BB432D",
"#0 	c #B8432E",
"$0 	c #BA422E",
"%0 	c #B6402B",
"&0 	c #B3402B",
"*0 	c #AF422C",
"=0 	c #AE442F",
"-0 	c #8C2618",
";0 	c #8F412E",
">0 	c #95412E",
",0 	c #953E2B",
"'0 	c #9E3D2B",
")0 	c #9F3C2A",
"!0 	c #993A28",
"~0 	c #9A3625",
"{0 	c #A23B29",
"]0 	c #A23927",
"^0 	c #A23926",
"/0 	c #A23E2D",
"(0 	c #9B3929",
"_0 	c #A53B29",
":0 	c #AA3E2C",
"<0 	c #AC3F2C",
"[0 	c #AA3B28",
"}0 	c #A83E2B",
"|0 	c #9C3825",
"10 	c #9B402D",
"20 	c #A24835",
"30 	c #AC4632",
"40 	c #AB402E",
"50 	c #AB3D2A",
"60 	c #AC3D2B",
"70 	c #A83925",
"80 	c #AC3E2B",
"90 	c #AA3F2B",
"00 	c #B14230",
"a0 	c #B1402D",
"b0 	c #AE412D",
"c0 	c #B5533E",
"d0 	c #98412C",
"e0 	c #A24B37",
"f0 	c #AD4632",
"g0 	c #C55A42",
"h0 	c #A3402A",
"i0 	c #B04B35",
"j0 	c #B84E37",
"k0 	c #B5462F",
"l0 	c #CB5E45",
"m0 	c #CA5D44",
"n0 	c #CE5F47",
"o0 	c #C75A3E",
"p0 	c #D06449",
"q0 	c #CB604A",
"r0 	c #C4563D",
"s0 	c #CD5A3F",
"t0 	c #D05E44",
"u0 	c #D6684D",
"v0 	c #C8583D",
"w0 	c #C45238",
"x0 	c #CB5A40",
"y0 	c #CE5942",
"z0 	c #C6553B",
"A0 	c #BB4B33",
"B0 	c #C44E37",
"C0 	c #C8513A",
"D0 	c #BD4932",
"E0 	c #BB452D",
"F0 	c #C34A33",
"G0 	c #C34932",
"H0 	c #C24933",
"I0 	c #BE452E",
"J0 	c #BE442D",
"K0 	c #C24730",
"L0 	c #C04630",
"M0 	c #B43F29",
"N0 	c #B6442F",
"O0 	c #B9412E",
"P0 	c #BB432F",
"Q0 	c #B5402D",
"R0 	c #B4422E",
"S0 	c #AF422D",
"T0 	c #98311F",
"U0 	c #762E24",
"V0 	c #994B37",
"W0 	c #9A3C29",
"X0 	c #9D3C2A",
"Y0 	c #983725",
"Z0 	c #9D3828",
"`0 	c #A13927",
" a 	c #A43928",
".a 	c #AE4330",
"+a 	c #A53B2A",
"@a 	c #A23D2B",
"#a 	c #9C3B28",
"$a 	c #9E3725",
"%a 	c #A13725",
"&a 	c #AA3C29",
"*a 	c #A53826",
"=a 	c #A13623",
"-a 	c #A14635",
";a 	c #963B27",
">a 	c #9A3B27",
",a 	c #A5402B",
"'a 	c #A63E2A",
")a 	c #AC412E",
"!a 	c #B04331",
"~a 	c #AD3F2C",
"{a 	c #A93B28",
"]a 	c #A93F2B",
"^a 	c #B24533",
"/a 	c #B2422E",
"(a 	c #B0432D",
"_a 	c #B04934",
":a 	c #98422E",
"<a 	c #9C513D",
"[a 	c #904431",
"}a 	c #A54A36",
"|a 	c #BC513D",
"1a 	c #AD442F",
"2a 	c #B54630",
"3a 	c #B64A31",
"4a 	c #B04B34",
"5a 	c #C0533A",
"6a 	c #D0644B",
"7a 	c #CC5D46",
"8a 	c #D06248",
"9a 	c #CB5941",
"0a 	c #D05C42",
"aa 	c #CE5C41",
"ba 	c #CC5A40",
"ca 	c #CD5A41",
"da 	c #C15036",
"ea 	c #BE4D34",
"fa 	c #C15035",
"ga 	c #BE4E36",
"ha 	c #BB472F",
"ia 	c #C64E36",
"ja 	c #BD452D",
"ka 	c #C34933",
"la 	c #BE452F",
"ma 	c #BB432B",
"na 	c #BA412B",
"oa 	c #C24731",
"pa 	c #BF432D",
"qa 	c #C1452E",
"ra 	c #BE442E",
"sa 	c #BA442C",
"ta 	c #B6442E",
"ua 	c #B4432D",
"va 	c #B9422D",
"wa 	c #B8412B",
"xa 	c #B5402B",
"ya 	c #B3402C",
"za 	c #AD412C",
"Aa 	c #AB3E29",
"Ba 	c #883024",
"Ca 	c #944231",
"Da 	c #953F2D",
"Ea 	c #983E2C",
"Fa 	c #963927",
"Ga 	c #9A3826",
"Ha 	c #A03927",
"Ia 	c #A03825",
"Ja 	c #A23A28",
"Ka 	c #A13826",
"La 	c #A63C2A",
"Ma 	c #A33927",
"Na 	c #A13928",
"Oa 	c #993624",
"Pa 	c #A33726",
"Qa 	c #A43A28",
"Ra 	c #9E3624",
"Sa 	c #A83E2D",
"Ta 	c #983927",
"Ua 	c #8D3523",
"Va 	c #933624",
"Wa 	c #A1402D",
"Xa 	c #9B3322",
"Ya 	c #A73D2A",
"Za 	c #A53925",
"`a 	c #A03623",
" b 	c #AD3F2D",
".b 	c #A93E2C",
"+b 	c #AA3E2B",
"@b 	c #A93E2B",
"#b 	c #AB3E2B",
"$b 	c #AC3F2B",
"%b 	c #AB3D29",
"&b 	c #AF412C",
"*b 	c #B6462F",
"=b 	c #B64C34",
"-b 	c #9C4732",
";b 	c #87422F",
">b 	c #914634",
",b 	c #B3513B",
"'b 	c #BC4C34",
")b 	c #C55741",
"!b 	c #B64932",
"~b 	c #C2573E",
"{b 	c #C4583F",
"]b 	c #BD4F35",
"^b 	c #C75940",
"/b 	c #CF6147",
"(b 	c #CA5F46",
"_b 	c #CD6046",
":b 	c #CB5E43",
"<b 	c #C8573C",
"[b 	c #D46146",
"}b 	c #C4553B",
"|b 	c #C14F34",
"1b 	c #C75539",
"2b 	c #BF4B31",
"3b 	c #BE4E34",
"4b 	c #B84B2F",
"5b 	c #CA5A3F",
"6b 	c #C04E34",
"7b 	c #BD4C32",
"8b 	c #C55037",
"9b 	c #C64F37",
"0b 	c #BF4A32",
"ab 	c #BE432D",
"bb 	c #BF4730",
"cb 	c #BD432F",
"db 	c #C24732",
"eb 	c #BE422B",
"fb 	c #BF422C",
"gb 	c #C1452F",
"hb 	c #BD422C",
"ib 	c #BB422C",
"jb 	c #B3432D",
"kb 	c #BA432D",
"lb 	c #B7412B",
"mb 	c #B23F2A",
"nb 	c #B43F2B",
"ob 	c #B03E29",
"pb 	c #912B21",
"qb 	c #8F4334",
"rb 	c #964230",
"sb 	c #903927",
"tb 	c #8A3523",
"ub 	c #983C2A",
"vb 	c #9B3726",
"wb 	c #9C3424",
"xb 	c #9D3523",
"yb 	c #9F3725",
"zb 	c #9F3523",
"Ab 	c #A13824",
"Bb 	c #A23624",
"Cb 	c #A03624",
"Db 	c #9C3422",
"Eb 	c #A33826",
"Fb 	c #A33928",
"Gb 	c #A03926",
"Hb 	c #9B3523",
"Ib 	c #9E3825",
"Jb 	c #9C3A29",
"Kb 	c #973624",
"Lb 	c #9B3725",
"Mb 	c #A9402C",
"Nb 	c #A73B29",
"Ob 	c #AA3D2A",
"Pb 	c #AD3E2C",
"Qb 	c #A93D2B",
"Rb 	c #AB3F2C",
"Sb 	c #A93E29",
"Tb 	c #A73B27",
"Ub 	c #B0422D",
"Vb 	c #AE3F2B",
"Wb 	c #B84834",
"Xb 	c #AD432D",
"Yb 	c #BA4D38",
"Zb 	c #BA5039",
"`b 	c #A3432F",
" c 	c #994630",
".c 	c #A9442F",
"+c 	c #B84730",
"@c 	c #B84831",
"#c 	c #BB4B34",
"$c 	c #B64B34",
"%c 	c #B54A31",
"&c 	c #C45840",
"*c 	c #CF6048",
"=c 	c #D16149",
"-c 	c #C6583F",
";c 	c #D26248",
">c 	c #D06247",
",c 	c #C05136",
"'c 	c #CB5A3F",
")c 	c #D26348",
"!c 	c #C6543A",
"~c 	c #C25136",
"{c 	c #BD4B31",
"]c 	c #BA4A31",
"^c 	c #BB4830",
"/c 	c #BD4B34",
"(c 	c #BF6146",
"_c 	c #BB5438",
":c 	c #BF4C34",
"<c 	c #C55136",
"[c 	c #C44E35",
"}c 	c #BC472F",
"|c 	c #C24C33",
"1c 	c #B6442C",
"2c 	c #B9442D",
"3c 	c #BC432D",
"4c 	c #BF442D",
"5c 	c #C0442D",
"6c 	c #BE412A",
"7c 	c #BE422C",
"8c 	c #BE432E",
"9c 	c #B9412C",
"0c 	c #AF3D28",
"ac 	c #BA452E",
"bc 	c #B63F2B",
"cc 	c #B8412C",
"dc 	c #B4402B",
"ec 	c #B13E29",
"fc 	c #AD402B",
"gc 	c #952B1B",
"hc 	c #67160A",
"ic 	c #934632",
"jc 	c #933E2B",
"kc 	c #8D3724",
"lc 	c #933928",
"mc 	c #983727",
"nc 	c #9C3725",
"oc 	c #9B301F",
"pc 	c #A33727",
"qc 	c #9E3322",
"rc 	c #A03826",
"sc 	c #9D3624",
"tc 	c #A03A27",
"uc 	c #9C3624",
"vc 	c #A53E2C",
"wc 	c #A63F2C",
"xc 	c #A03827",
"yc 	c #A33724",
"zc 	c #AB3E2C",
"Ac 	c #B24531",
"Bc 	c #B34532",
"Cc 	c #B3442E",
"Dc 	c #AB412B",
"Ec 	c #B24731",
"Fc 	c #B24A33",
"Gc 	c #B44B33",
"Hc 	c #AE4731",
"Ic 	c #A03D29",
"Jc 	c #B7462F",
"Kc 	c #C45C43",
"Lc 	c #C85D45",
"Mc 	c #B4472F",
"Nc 	c #B74831",
"Oc 	c #B84B33",
"Pc 	c #BF5239",
"Qc 	c #CC5D44",
"Rc 	c #BD4C34",
"Sc 	c #C7583E",
"Tc 	c #D4654B",
"Uc 	c #C8563D",
"Vc 	c #CF5D44",
"Wc 	c #CA583E",
"Xc 	c #D36047",
"Yc 	c #C4533A",
"Zc 	c #BC4B31",
"`c 	c #B64830",
" d 	c #A6472F",
".d 	c #91472E",
"+d 	c #A6573B",
"@d 	c #B54C31",
"#d 	c #C04A32",
"$d 	c #BB4730",
"%d 	c #B0422B",
"&d 	c #C44B36",
"*d 	c #BF4732",
"=d 	c #BD442C",
"-d 	c #BD412A",
";d 	c #C0432D",
">d 	c #BA3F29",
",d 	c #B9422C",
"'d 	c #AD3C26",
")d 	c #BD4530",
"!d 	c #B8422B",
"~d 	c #B33F27",
"{d 	c #B33E2A",
"]d 	c #AB3C28",
"^d 	c #81382C",
"/d 	c #93422F",
"(d 	c #8E3E2B",
"_d 	c #963C29",
":d 	c #973A28",
"<d 	c #9A3726",
"[d 	c #9B3223",
"}d 	c #A13625",
"|d 	c #A23726",
"1d 	c #A23826",
"2d 	c #A03423",
"3d 	c #A13523",
"4d 	c #A63B28",
"5d 	c #A23725",
"6d 	c #9F3925",
"7d 	c #A53D2A",
"8d 	c #A23B28",
"9d 	c #A73D2B",
"0d 	c #A03725",
"ad 	c #A73C2A",
"bd 	c #A23A27",
"cd 	c #A13624",
"dd 	c #A53A27",
"ed 	c #A73A27",
"fd 	c #A73A26",
"gd 	c #A83B28",
"hd 	c #AE3F2A",
"id 	c #B1442F",
"jd 	c #B54A35",
"kd 	c #AE422C",
"ld 	c #AE432E",
"md 	c #B14732",
"nd 	c #B2432E",
"od 	c #B3432E",
"pd 	c #B5442D",
"qd 	c #BB4A34",
"rd 	c #B1412A",
"sd 	c #B4452E",
"td 	c #B1432D",
"ud 	c #BF5139",
"vd 	c #BD4F37",
"wd 	c #BC4D34",
"xd 	c #BF4F35",
"yd 	c #D35E45",
"zd 	c #C05137",
"Ad 	c #C9583C",
"Bd 	c #CF5B42",
"Cd 	c #CE5B41",
"Dd 	c #B7472D",
"Ed 	c #BC4A31",
"Fd 	c #BA492F",
"Gd 	c #BB4A30",
"Hd 	c #AF4931",
"Id 	c #9E5438",
"Jd 	c #BF7255",
"Kd 	c #B34E35",
"Ld 	c #C25237",
"Md 	c #BD472E",
"Nd 	c #C95239",
"Od 	c #C04930",
"Pd 	c #C04931",
"Qd 	c #BD4730",
"Rd 	c #B0452C",
"Sd 	c #B5462E",
"Td 	c #BA452F",
"Ud 	c #BC432E",
"Vd 	c #C2452F",
"Wd 	c #C0422D",
"Xd 	c #B63F28",
"Yd 	c #B7432B",
"Zd 	c #BD432C",
"`d 	c #BA422C",
" e 	c #B53F29",
".e 	c #B03C28",
"+e 	c #B13F2A",
"@e 	c #B23E29",
"#e 	c #821706",
"$e 	c #813524",
"%e 	c #8C4030",
"&e 	c #92402E",
"*e 	c #923C2A",
"=e 	c #963623",
"-e 	c #963420",
";e 	c #9A3320",
">e 	c #9F3423",
",e 	c #A03525",
"'e 	c #A03724",
")e 	c #A53A28",
"!e 	c #A03422",
"~e 	c #9E3622",
"{e 	c #9F3522",
"]e 	c #9F3422",
"^e 	c #A33827",
"/e 	c #A03421",
"(e 	c #A53926",
"_e 	c #A13726",
":e 	c #A43624",
"<e 	c #AC3C2A",
"[e 	c #A93A29",
"}e 	c #B24432",
"|e 	c #AB3F2B",
"1e 	c #AA3C2A",
"2e 	c #AD3E2A",
"3e 	c #B1422D",
"4e 	c #A93D29",
"5e 	c #AD422C",
"6e 	c #AE432C",
"7e 	c #B54F39",
"8e 	c #B74832",
"9e 	c #B84630",
"0e 	c #B4432C",
"ae 	c #AD3F29",
"be 	c #B1442E",
"ce 	c #B84B35",
"de 	c #C25239",
"ee 	c #BC4B33",
"fe 	c #BA4932",
"ge 	c #C5583E",
"he 	c #CD5B41",
"ie 	c #C65237",
"je 	c #C34E35",
"ke 	c #D25E46",
"le 	c #D45F46",
"me 	c #CB583E",
"ne 	c #BF4E34",
"oe 	c #BE4B32",
"pe 	c #B94630",
"qe 	c #AB4D34",
"re 	c #A74C35",
"se 	c #BE4E35",
"te 	c #BF482F",
"ue 	c #C04830",
"ve 	c #BE4830",
"we 	c #BC4A33",
"xe 	c #AF4730",
"ye 	c #B2442D",
"ze 	c #BD442D",
"Ae 	c #C0462E",
"Be 	c #C0442E",
"Ce 	c #B84229",
"De 	c #BA442D",
"Ee 	c #B73E27",
"Fe 	c #BB412B",
"Ge 	c #B83F2A",
"He 	c #B73F28",
"Ie 	c #B43C28",
"Je 	c #B03B27",
"Ke 	c #AD3E28",
"Le 	c #AD442B",
"Me 	c #984938",
"Ne 	c #863E2B",
"Oe 	c #883A27",
"Pe 	c #8F3C2A",
"Qe 	c #8C3624",
"Re 	c #943421",
"Se 	c #993623",
"Te 	c #9B3422",
"Ue 	c #A03625",
"Ve 	c #A23724",
"We 	c #9E3321",
"Xe 	c #A03522",
"Ye 	c #9E3421",
"Ze 	c #A43927",
"`e 	c #9E3420",
" f 	c #A63C29",
".f 	c #A73B28",
"+f 	c #A53825",
"@f 	c #A43825",
"#f 	c #A53A26",
"$f 	c #A43A27",
"%f 	c #9D3724",
"&f 	c #A33B29",
"*f 	c #A73A28",
"=f 	c #A43724",
"-f 	c #AA3C27",
";f 	c #AE3F2D",
">f 	c #AC3D2A",
",f 	c #A83B27",
"'f 	c #B0402E",
")f 	c #AD3C2A",
"!f 	c #B2402D",
"~f 	c #B1402C",
"{f 	c #AE4832",
"]f 	c #B34730",
"^f 	c #B94832",
"/f 	c #B03F29",
"(f 	c #BB4932",
"_f 	c #B5432E",
":f 	c #B2422B",
"<f 	c #B2462F",
"[f 	c #B0442F",
"}f 	c #B44730",
"|f 	c #C04F37",
"1f 	c #C8583E",
"2f 	c #C85940",
"3f 	c #BA4F34",
"4f 	c #B54A32",
"5f 	c #C04C33",
"6f 	c #C95439",
"7f 	c #BE492F",
"8f 	c #B34229",
"9f 	c #B7462C",
"0f 	c #BF4B32",
"af 	c #BA482F",
"bf 	c #C44C33",
"cf 	c #BC462E",
"df 	c #BF4932",
"ef 	c #AF402A",
"ff 	c #B3412A",
"gf 	c #B7412C",
"hf 	c #B93E27",
"if 	c #B73E28",
"jf 	c #B53E29",
"kf 	c #AF3C28",
"lf 	c #A83F27",
"mf 	c #9A3423",
"nf 	c #67170A",
"of 	c #8E412D",
"pf 	c #8A3A28",
"qf 	c #8D3827",
"rf 	c #903827",
"sf 	c #933724",
"tf 	c #953522",
"uf 	c #933020",
"vf 	c #9C3421",
"wf 	c #9E3524",
"xf 	c #9F3322",
"yf 	c #9E3320",
"zf 	c #99301F",
"Af 	c #A23827",
"Bf 	c #A83D2B",
"Cf 	c #A63927",
"Df 	c #A13422",
"Ef 	c #A53C29",
"Ff 	c #9A2F1E",
"Gf 	c #952F1D",
"Hf 	c #A83C29",
"If 	c #AC402D",
"Jf 	c #A63926",
"Kf 	c #AF412E",
"Lf 	c #B4422F",
"Mf 	c #AF3D2A",
"Nf 	c #92412D",
"Of 	c #914029",
"Pf 	c #A7442E",
"Qf 	c #B6452F",
"Rf 	c #B8442E",
"Sf 	c #BA4732",
"Tf 	c #B54730",
"Uf 	c #AF402B",
"Vf 	c #B2452E",
"Wf 	c #B44830",
"Xf 	c #AD452E",
"Yf 	c #A9422B",
"Zf 	c #BA4D34",
"`f 	c #B7472E",
" g 	c #BD4D34",
".g 	c #B5442C",
"+g 	c #C3573E",
"@g 	c #C0553D",
"#g 	c #BF5238",
"$g 	c #BE4C31",
"%g 	c #C55036",
"&g 	c #BD4830",
"*g 	c #CB563B",
"=g 	c #CD5B3F",
"-g 	c #CB553C",
";g 	c #C65136",
">g 	c #C5533A",
",g 	c #C04D34",
"'g 	c #BE4A31",
")g 	c #BB482E",
"!g 	c #BB472E",
"~g 	c #B8422C",
"{g 	c #BE472F",
"]g 	c #C44B32",
"^g 	c #C44B33",
"/g 	c #BF4831",
"(g 	c #B94830",
"_g 	c #C14832",
":g 	c #BB422A",
"<g 	c #BA402A",
"[g 	c #BC422C",
"}g 	c #A93926",
"|g 	c #B33F2A",
"1g 	c #B73D26",
"2g 	c #BB402A",
"3g 	c #B53E28",
"4g 	c #B23A25",
"5g 	c #B33B26",
"6g 	c #AE3B26",
"7g 	c #A63C27",
"8g 	c #A23F2C",
"9g 	c #8D5E56",
"0g 	c #8F412F",
"ag 	c #8E3926",
"bg 	c #913A29",
"cg 	c #8F3424",
"dg 	c #903321",
"eg 	c #933220",
"fg 	c #963221",
"gg 	c #983321",
"hg 	c #993321",
"ig 	c #9A311F",
"jg 	c #9D3221",
"kg 	c #972F1C",
"lg 	c #A13827",
"mg 	c #9E3422",
"ng 	c #A23623",
"og 	c #A13524",
"pg 	c #A13423",
"qg 	c #A03523",
"rg 	c #9D3320",
"sg 	c #9E3523",
"tg 	c #9F3827",
"ug 	c #A23523",
"vg 	c #A63B26",
"wg 	c #AC402B",
"xg 	c #A93A27",
"yg 	c #AC3D29",
"zg 	c #A73C27",
"Ag 	c #A63D27",
"Bg 	c #AB4C39",
"Cg 	c #904230",
"Dg 	c #823622",
"Eg 	c #9C3F29",
"Fg 	c #A83D28",
"Gg 	c #B84530",
"Hg 	c #BB4832",
"Ig 	c #AB3D28",
"Jg 	c #B64931",
"Kg 	c #B54932",
"Lg 	c #B94930",
"Mg 	c #B74730",
"Ng 	c #B4412A",
"Og 	c #C8543C",
"Pg 	c #BD4A31",
"Qg 	c #C7533C",
"Rg 	c #C7553B",
"Sg 	c #B9462D",
"Tg 	c #C8553B",
"Ug 	c #C45137",
"Vg 	c #C85338",
"Wg 	c #B9422A",
"Xg 	c #BC452D",
"Yg 	c #B53E26",
"Zg 	c #BA412A",
"`g 	c #BC422B",
" h 	c #AF4029",
".h 	c #AB3A24",
"+h 	c #BB412A",
"@h 	c #BC412B",
"#h 	c #AB3B26",
"$h 	c #B83E29",
"%h 	c #B53C28",
"&h 	c #B13B26",
"*h 	c #B33B28",
"=h 	c #AA3C26",
"-h 	c #7D170C",
";h 	c #782C1A",
">h 	c #903D2B",
",h 	c #8D3727",
"'h 	c #933321",
")h 	c #943423",
"!h 	c #953120",
"~h 	c #983322",
"{h 	c #92301E",
"]h 	c #9B311E",
"^h 	c #9E3220",
"/h 	c #9D311F",
"(h 	c #9D321F",
"_h 	c #A23525",
":h 	c #A63928",
"<h 	c #A73A29",
"[h 	c #A13724",
"}h 	c #9E311F",
"|h 	c #A83A29",
"1h 	c #A93D2A",
"2h 	c #A93C29",
"3h 	c #A33824",
"4h 	c #AD3E2B",
"5h 	c #AF3E2B",
"6h 	c #A54932",
"7h 	c #9D4631",
"8h 	c #AD4934",
"9h 	c #B5452F",
"0h 	c #B5442E",
"ah 	c #B6422D",
"bh 	c #B74631",
"ch 	c #B2452F",
"dh 	c #A73C25",
"eh 	c #B3442D",
"fh 	c #B0412A",
"gh 	c #B6472E",
"hh 	c #B34129",
"ih 	c #BF4B33",
"jh 	c #C7523C",
"kh 	c #C35137",
"lh 	c #C25137",
"mh 	c #BF533B",
"nh 	c #BD4930",
"oh 	c #BB482D",
"ph 	c #C24D34",
"qh 	c #C04D32",
"rh 	c #B9452C",
"sh 	c #BF472E",
"th 	c #BA422B",
"uh 	c #C95139",
"vh 	c #C44B34",
"wh 	c #C54B33",
"xh 	c #BE442C",
"yh 	c #B83E26",
"zh 	c #BF452C",
"Ah 	c #B83F27",
"Bh 	c #AE3B27",
"Ch 	c #AA3B24",
"Dh 	c #B93F28",
"Eh 	c #B93E28",
"Fh 	c #B13B25",
"Gh 	c #AD3822",
"Hh 	c #B33B27",
"Ih 	c #AF3B24",
"Jh 	c #AE432D",
"Kh 	c #913D34",
"Lh 	c #813526",
"Mh 	c #8B3A27",
"Nh 	c #8E3724",
"Oh 	c #8F3423",
"Ph 	c #913322",
"Qh 	c #923120",
"Rh 	c #922F20",
"Sh 	c #973322",
"Th 	c #913120",
"Uh 	c #963120",
"Vh 	c #98301F",
"Wh 	c #9D3423",
"Xh 	c #9A2F1D",
"Yh 	c #A23824",
"Zh 	c #A13522",
"`h 	c #9D3220",
" i 	c #9C311E",
".i 	c #A13322",
"+i 	c #9F3321",
"@i 	c #A73C29",
"#i 	c #A23522",
"$i 	c #B3422E",
"%i 	c #A83C28",
"&i 	c #B14630",
"*i 	c #AC4130",
"=i 	c #AA412C",
"-i 	c #B03F2A",
";i 	c #B1412C",
">i 	c #B84932",
",i 	c #B8462F",
"'i 	c #B3422D",
")i 	c #B2412C",
"!i 	c #B1452E",
"~i 	c #A13E29",
"{i 	c #A44630",
"]i 	c #B4442D",
"^i 	c #BA4831",
"/i 	c #B0462E",
"(i 	c #B34E37",
"_i 	c #BC4931",
":i 	c #B3523B",
"<i 	c #AD5138",
"[i 	c #C4543A",
"}i 	c #C14D33",
"|i 	c #C24E34",
"1i 	c #B64329",
"2i 	c #BB492F",
"3i 	c #BB462C",
"4i 	c #BB452E",
"5i 	c #B6412A",
"6i 	c #B6422A",
"7i 	c #BE4A32",
"8i 	c #C14C34",
"9i 	c #BD452C",
"0i 	c #BD432B",
"ai 	c #C24830",
"bi 	c #C0452F",
"ci 	c #BE4730",
"di 	c #BC412A",
"ei 	c #C1472F",
"fi 	c #BD422B",
"gi 	c #BB422B",
"hi 	c #BB3F28",
"ii 	c #BA4029",
"ji 	c #B7402A",
"ki 	c #B93D27",
"li 	c #B63D27",
"mi 	c #B63D28",
"ni 	c #B13C27",
"oi 	c #B13D28",
"pi 	c #AF3924",
"qi 	c #B03C27",
"ri 	c #AC3B24",
"si 	c #AC422A",
"ti 	c #912F1E",
"ui 	c #873928",
"vi 	c #8D3A29",
"wi 	c #8D2F1F",
"xi 	c #923220",
"yi 	c #91301F",
"zi 	c #912E1D",
"Ai 	c #933320",
"Bi 	c #902C1A",
"Ci 	c #952D1C",
"Di 	c #993020",
"Ei 	c #9C3221",
"Fi 	c #9C3220",
"Gi 	c #A33725",
"Hi 	c #A43827",
"Ii 	c #9F3421",
"Ji 	c #A43725",
"Ki 	c #AA412D",
"Li 	c #AA3B27",
"Mi 	c #AE3E28",
"Ni 	c #AD3F2A",
"Oi 	c #B03E2A",
"Pi 	c #B3402A",
"Qi 	c #B23F29",
"Ri 	c #AB3A25",
"Si 	c #B4402C",
"Ti 	c #BD4C33",
"Ui 	c #B74731",
"Vi 	c #A9402B",
"Wi 	c #A7402A",
"Xi 	c #B4462E",
"Yi 	c #BD5036",
"Zi 	c #B8462C",
"`i 	c #973E28",
" j 	c #8F3E27",
".j 	c #C65E49",
"+j 	c #BB482F",
"@j 	c #AB4832",
"#j 	c #933924",
"$j 	c #BE4C35",
"%j 	c #C04D33",
"&j 	c #C45035",
"*j 	c #BB452C",
"=j 	c #B33E28",
"-j 	c #B5422B",
";j 	c #B4432B",
">j 	c #B6432A",
",j 	c #BB432C",
"'j 	c #BA422A",
")j 	c #BD432D",
"!j 	c #B73F29",
"~j 	c #C24630",
"{j 	c #B63D25",
"]j 	c #BA3F28",
"^j 	c #B9412A",
"/j 	c #B83F29",
"(j 	c #B03B25",
"_j 	c #AD3A25",
":j 	c #AC3823",
"<j 	c #AF3D25",
"[j 	c #AD3723",
"}j 	c #661C10",
"|j 	c #873624",
"1j 	c #8B3827",
"2j 	c #8C3523",
"3j 	c #8A301E",
"4j 	c #90301F",
"5j 	c #8E2E1D",
"6j 	c #90311F",
"7j 	c #902F1D",
"8j 	c #943120",
"9j 	c #942F1E",
"0j 	c #992F1E",
"aj 	c #A33524",
"bj 	c #992F1C",
"cj 	c #9B321F",
"dj 	c #9A3020",
"ej 	c #9E3221",
"fj 	c #A03322",
"gj 	c #A63A28",
"hj 	c #A63A25",
"ij 	c #A33423",
"jj 	c #A73926",
"kj 	c #AD3D2A",
"lj 	c #B1412D",
"mj 	c #B34330",
"nj 	c #A53622",
"oj 	c #AD3D28",
"pj 	c #AB3C27",
"qj 	c #A63724",
"rj 	c #A93924",
"sj 	c #AF3F2B",
"tj 	c #B0412B",
"uj 	c #B4412B",
"vj 	c #B1402B",
"wj 	c #AE3D28",
"xj 	c #B5452E",
"yj 	c #B84731",
"zj 	c #AE3A26",
"Aj 	c #AD3B25",
"Bj 	c #B6432D",
"Cj 	c #B1422C",
"Dj 	c #B74931",
"Ej 	c #AC4028",
"Fj 	c #C0533B",
"Gj 	c #A84936",
"Hj 	c #AB4D37",
"Ij 	c #B8442D",
"Jj 	c #BF4A31",
"Kj 	c #B8442B",
"Lj 	c #C44F35",
"Mj 	c #D05941",
"Nj 	c #C24C35",
"Oj 	c #B9432C",
"Pj 	c #B03E26",
"Qj 	c #B8462D",
"Rj 	c #BC4830",
"Sj 	c #BC4930",
"Tj 	c #B64028",
"Uj 	c #BA402B",
"Vj 	c #B53D27",
"Wj 	c #B73F2A",
"Xj 	c #B83E27",
"Yj 	c #BD412B",
"Zj 	c #BC402A",
"`j 	c #B03822",
" k 	c #B13A25",
".k 	c #B03D27",
"+k 	c #AB3924",
"@k 	c #A93822",
"#k 	c #AD3A26",
"$k 	c #AD3923",
"%k 	c #AF3822",
"&k 	c #AE3B24",
"*k 	c #A33B2B",
"=k 	c #5F1008",
"-k 	c #8F3D2C",
";k 	c #873422",
">k 	c #893321",
",k 	c #8E2F1D",
"'k 	c #8F2F1E",
")k 	c #8E2E1C",
"!k 	c #8F2E1C",
"~k 	c #8F2C1B",
"{k 	c #922D1C",
"]k 	c #973120",
"^k 	c #983021",
"/k 	c #972E1D",
"(k 	c #972F1D",
"_k 	c #9A301F",
":k 	c #9A2E1C",
"<k 	c #A03524",
"[k 	c #9C301E",
"}k 	c #982E1D",
"|k 	c #9D3321",
"1k 	c #A73925",
"2k 	c #AD3F2B",
"3k 	c #AB3F2D",
"4k 	c #AB3A26",
"5k 	c #A83723",
"6k 	c #A83623",
"7k 	c #B03E2B",
"8k 	c #AB3825",
"9k 	c #A0321F",
"0k 	c #A73825",
"ak 	c #AC3F29",
"bk 	c #A83F2A",
"ck 	c #AA4834",
"dk 	c #B05037",
"ek 	c #B0442C",
"fk 	c #AE3E29",
"gk 	c #B24029",
"hk 	c #BE4A34",
"ik 	c #BA4630",
"jk 	c #A63E28",
"kk 	c #B24931",
"lk 	c #B6442D",
"mk 	c #B23F27",
"nk 	c #AA402A",
"ok 	c #B3442C",
"pk 	c #BD462F",
"qk 	c #C8533B",
"rk 	c #CB5740",
"sk 	c #B34328",
"tk 	c #BE4930",
"uk 	c #BC432C",
"vk 	c #BB442A",
"wk 	c #B43E27",
"xk 	c #B6432B",
"yk 	c #B9452D",
"zk 	c #BB442C",
"Ak 	c #C14731",
"Bk 	c #B93F29",
"Ck 	c #B53D26",
"Dk 	c #BC432B",
"Ek 	c #B23A24",
"Fk 	c #B23B25",
"Gk 	c #B03821",
"Hk 	c #B73C26",
"Ik 	c #B43D27",
"Jk 	c #B03824",
"Kk 	c #B43C26",
"Lk 	c #AC3722",
"Mk 	c #A93D27",
"Nk 	c #AF3D27",
"Ok 	c #AD3C27",
"Pk 	c #B03C25",
"Qk 	c #A93721",
"Rk 	c #A63422",
"Sk 	c #842E1C",
"Tk 	c #8E6056",
"Uk 	c #893E2C",
"Vk 	c #853221",
"Wk 	c #862E1E",
"Xk 	c #8B2F1E",
"Yk 	c #8E2F1E",
"Zk 	c #92311F",
"`k 	c #912F1D",
" l 	c #902A1A",
".l 	c #942E1E",
"+l 	c #972D1C",
"@l 	c #952D1B",
"#l 	c #982F1C",
"$l 	c #9A301E",
"%l 	c #A13525",
"&l 	c #9F3121",
"*l 	c #9F3524",
"=l 	c #9B3020",
"-l 	c #962F1F",
";l 	c #9E3121",
">l 	c #A33522",
",l 	c #AA412E",
"'l 	c #A73F2C",
")l 	c #AE412B",
"!l 	c #B03C29",
"~l 	c #BD4834",
"{l 	c #BA4531",
"]l 	c #AA3826",
"^l 	c #A6402C",
"/l 	c #9F3E2B",
"(l 	c #8E412A",
"_l 	c #9B4C35",
":l 	c #A34D35",
"<l 	c #B6432E",
"[l 	c #B74530",
"}l 	c #AF3C26",
"|l 	c #AF3C25",
"1l 	c #B7442D",
"2l 	c #B03E27",
"3l 	c #B6452D",
"4l 	c #A63924",
"5l 	c #AB3C26",
"6l 	c #AD3C25",
"7l 	c #BC4831",
"8l 	c #A83B24",
"9l 	c #B8432C",
"0l 	c #B33E26",
"al 	c #C85139",
"bl 	c #B8422A",
"cl 	c #C04F34",
"dl 	c #C35037",
"el 	c #B23F26",
"fl 	c #B53C26",
"gl 	c #BE452D",
"hl 	c #B84129",
"il 	c #BA472D",
"jl 	c #B8412A",
"kl 	c #B23A23",
"ll 	c #B93F2B",
"ml 	c #B63E28",
"nl 	c #B73D27",
"ol 	c #B53B24",
"pl 	c #B84029",
"ql 	c #B13A24",
"rl 	c #B63D26",
"sl 	c #B53A25",
"tl 	c #AD3824",
"ul 	c #A53620",
"vl 	c #AB3925",
"wl 	c #A4351F",
"xl 	c #A4331D",
"yl 	c #AA3822",
"zl 	c #AA3A24",
"Al 	c #A93821",
"Bl 	c #A93824",
"Cl 	c #7D1207",
"Dl 	c #7A3123",
"El 	c #8A3C2A",
"Fl 	c #843120",
"Gl 	c #85301D",
"Hl 	c #8A3020",
"Il 	c #8A2C1A",
"Jl 	c #902F1E",
"Kl 	c #912D1D",
"Ll 	c #902C1B",
"Ml 	c #94301F",
"Nl 	c #922E1E",
"Ol 	c #952E1E",
"Pl 	c #972F1F",
"Ql 	c #932B1A",
"Rl 	c #99321E",
"Sl 	c #9E3324",
"Tl 	c #9D3222",
"Ul 	c #992E1E",
"Vl 	c #9C3120",
"Wl 	c #9A3120",
"Xl 	c #962C1B",
"Yl 	c #992F1D",
"Zl 	c #982D1B",
"`l 	c #9C301F",
" m 	c #9B2F1E",
".m 	c #9C311F",
"+m 	c #9D3421",
"@m 	c #AA3C28",
"#m 	c #A5402D",
"$m 	c #A03A28",
"%m 	c #A23421",
"&m 	c #A02E1B",
"*m 	c #C45542",
"=m 	c #AB3A27",
"-m 	c #A7432D",
";m 	c #A0513A",
">m 	c #8A442C",
",m 	c #965139",
"'m 	c #B4664C",
")m 	c #A6422C",
"!m 	c #B43E29",
"~m 	c #B33F29",
"{m 	c #B7422D",
"]m 	c #BC4B32",
"^m 	c #BB4930",
"/m 	c #B94831",
"(m 	c #C55039",
"_m 	c #BB442D",
":m 	c #BC452E",
"<m 	c #BC482E",
"[m 	c #C34D32",
"}m 	c #BA472E",
"|m 	c #B9442B",
"1m 	c #BD492F",
"2m 	c #B33B25",
"3m 	c #B7412A",
"4m 	c #B13D26",
"5m 	c #B74027",
"6m 	c #B9432D",
"7m 	c #A83721",
"8m 	c #A6321D",
"9m 	c #AD3821",
"0m 	c #B63B26",
"am 	c #B63B24",
"bm 	c #B43924",
"cm 	c #B33A24",
"dm 	c #B23924",
"em 	c #B93F2A",
"fm 	c #B23923",
"gm 	c #AB3320",
"hm 	c #B13D27",
"im 	c #A2351F",
"jm 	c #A43421",
"km 	c #A73822",
"lm 	c #A6351F",
"mm 	c #A93720",
"nm 	c #AA351F",
"om 	c #89352F",
"pm 	c #732413",
"qm 	c #843A27",
"rm 	c #8B2E1C",
"sm 	c #8F301E",
"tm 	c #8E2D1D",
"um 	c #8C2A1B",
"vm 	c #8D2B1B",
"wm 	c #8A2616",
"xm 	c #952F20",
"ym 	c #922B1B",
"zm 	c #982F1E",
"Am 	c #952C1A",
"Bm 	c #962D1D",
"Cm 	c #942B1A",
"Dm 	c #962D1B",
"Em 	c #962D1C",
"Fm 	c #992E1D",
"Gm 	c #9B3120",
"Hm 	c #982E1C",
"Im 	c #9A2E1F",
"Jm 	c #962B1C",
"Km 	c #9A3221",
"Lm 	c #9B3121",
"Mm 	c #A83826",
"Nm 	c #B5402F",
"Om 	c #B74531",
"Pm 	c #B03F2D",
"Qm 	c #A53320",
"Rm 	c #A53723",
"Sm 	c #B04330",
"Tm 	c #B04A35",
"Um 	c #9F3C27",
"Vm 	c #9B3D29",
"Wm 	c #9C4733",
"Xm 	c #9C4532",
"Ym 	c #AA523D",
"Zm 	c #A54630",
"`m 	c #B33C27",
" n 	c #AD3823",
".n 	c #B5412B",
"+n 	c #B33E29",
"@n 	c #BC4530",
"#n 	c #AF3B25",
"$n 	c #AD3B24",
"%n 	c #B13F28",
"&n 	c #C7543F",
"*n 	c #AE3E27",
"=n 	c #BA4830",
"-n 	c #BA472F",
";n 	c #BA452C",
">n 	c #B5432C",
",n 	c #BB4831",
"'n 	c #BF4930",
")n 	c #C34F35",
"!n 	c #B44028",
"~n 	c #B54128",
"{n 	c #B53D25",
"]n 	c #B8442C",
"^n 	c #B84028",
"/n 	c #B7422B",
"(n 	c #B74129",
"_n 	c #B84128",
":n 	c #A63520",
"<n 	c #A83A26",
"[n 	c #B33923",
"}n 	c #B13B24",
"|n 	c #B03923",
"1n 	c #AC351E",
"2n 	c #AD3622",
"3n 	c #B03A26",
"4n 	c #AE3722",
"5n 	c #AB3B25",
"6n 	c #9E321E",
"7n 	c #97301D",
"8n 	c #A43521",
"9n 	c #A43520",
"0n 	c #A8371F",
"an 	c #AE3C24",
"bn 	c #9A4F44",
"cn 	c #7D3623",
"dn 	c #81321F",
"en 	c #852F1D",
"fn 	c #852B1B",
"gn 	c #892D1C",
"hn 	c #8C2D1D",
"in 	c #892F1F",
"jn 	c #922D1E",
"kn 	c #8B2818",
"ln 	c #8C2819",
"mn 	c #932C1B",
"nn 	c #902919",
"on 	c #932E1C",
"pn 	c #97311F",
"qn 	c #932C1A",
"rn 	c #942C1B",
"sn 	c #992E1F",
"tn 	c #922919",
"un 	c #9D3120",
"vn 	c #9C3121",
"wn 	c #A03626",
"xn 	c #98301E",
"yn 	c #982C1C",
"zn 	c #9E311E",
"An 	c #A63524",
"Bn 	c #9E3926",
"Cn 	c #A33525",
"Dn 	c #9A2C1A",
"En 	c #AB3B28",
"Fn 	c #B13F2B",
"Gn 	c #AC3927",
"Hn 	c #A33C28",
"In 	c #A53E28",
"Jn 	c #A43D29",
"Kn 	c #9D3622",
"Ln 	c #A13C27",
"Mn 	c #9F3A24",
"Nn 	c #B13E28",
"On 	c #B4402A",
"Pn 	c #B43F2A",
"Qn 	c #B9442E",
"Rn 	c #B7432E",
"Sn 	c #BB462F",
"Tn 	c #AA3923",
"Un 	c #B33F28",
"Vn 	c #B5412D",
"Wn 	c #A93522",
"Xn 	c #AF3A25",
"Yn 	c #B7432D",
"Zn 	c #B5422D",
"`n 	c #AF3D26",
" o 	c #B44029",
".o 	c #B23F28",
"+o 	c #B6412B",
"@o 	c #9D331B",
"#o 	c #B9442C",
"$o 	c #BB462D",
"%o 	c #B53F27",
"&o 	c #B13D25",
"*o 	c #B9432A",
"=o 	c #BE4630",
"-o 	c #B23B23",
";o 	c #B33C24",
">o 	c #AF3A23",
",o 	c #B03823",
"'o 	c #AE3A25",
")o 	c #A83924",
"!o 	c #AD3C28",
"~o 	c #B23D27",
"{o 	c #AF3723",
"]o 	c #B53B26",
"^o 	c #B23723",
"/o 	c #AC321D",
"(o 	c #AF3821",
"_o 	c #B43E28",
":o 	c #B43B26",
"<o 	c #B13923",
"[o 	c #AD3620",
"}o 	c #AC3924",
"|o 	c #A5341F",
"1o 	c #A83B25",
"2o 	c #9D3621",
"3o 	c #A63623",
"4o 	c #A6341F",
"5o 	c #A53621",
"6o 	c #A33420",
"7o 	c #A93A26",
"8o 	c #90291D",
"9o 	c #723124",
"0o 	c #7B3321",
"ao 	c #81301F",
"bo 	c #812C1A",
"co 	c #872E1D",
"do 	c #852A19",
"eo 	c #852C1B",
"fo 	c #81291A",
"go 	c #782616",
"ho 	c #8B2C1C",
"io 	c #8B2919",
"jo 	c #8D2A1B",
"ko 	c #8D2918",
"lo 	c #922C1B",
"mo 	c #932C1C",
"no 	c #972F1E",
"oo 	c #92291A",
"po 	c #952C1C",
"qo 	c #952D1D",
"ro 	c #962E1E",
"so 	c #902817",
"to 	c #972E1E",
"uo 	c #9E3423",
"vo 	c #99311E",
"wo 	c #9D3726",
"xo 	c #7C2B1C",
"yo 	c #A53624",
"zo 	c #A43622",
"Ao 	c #A83825",
"Bo 	c #96301C",
"Co 	c #96301E",
"Do 	c #B24837",
"Eo 	c #AA3E29",
"Fo 	c #AF3E29",
"Go 	c #AC3822",
"Ho 	c #B03A27",
"Io 	c #B23D29",
"Jo 	c #C04A35",
"Ko 	c #B53F2A",
"Lo 	c #AE3C26",
"Mo 	c #A73824",
"No 	c #B94730",
"Oo 	c #BD4933",
"Po 	c #AB3922",
"Qo 	c #B14029",
"Ro 	c #AB3E26",
"So 	c #B5432B",
"To 	c #C14B31",
"Uo 	c #B43F26",
"Vo 	c #B7432C",
"Wo 	c #B23C25",
"Xo 	c #B43B24",
"Yo 	c #B43B25",
"Zo 	c #AB3621",
"`o 	c #AF3A24",
" p 	c #AD3924",
".p 	c #AC3D27",
"+p 	c #B03B24",
"@p 	c #B03924",
"#p 	c #A7321D",
"$p 	c #A7311C",
"%p 	c #AF3824",
"&p 	c #AD3721",
"*p 	c #AA3722",
"=p 	c #A2341D",
"-p 	c #A23721",
";p 	c #95321C",
">p 	c #A23521",
",p 	c #A43522",
"'p 	c #A43721",
")p 	c #A0341F",
"!p 	c #8C2613",
"~p 	c #77372B",
"{p 	c #7D3320",
"]p 	c #80301F",
"^p 	c #812D1C",
"/p 	c #832C1C",
"(p 	c #822A19",
"_p 	c #7E2919",
":p 	c #782B1B",
"<p 	c #792C1A",
"[p 	c #892919",
"}p 	c #892818",
"|p 	c #8A281A",
"1p 	c #882516",
"2p 	c #943020",
"3p 	c #963020",
"4p 	c #902819",
"5p 	c #8B2514",
"6p 	c #8F2918",
"7p 	c #922B1A",
"8p 	c #8E2816",
"9p 	c #942B1C",
"0p 	c #952E1D",
"ap 	c #97301F",
"bp 	c #9B3424",
"cp 	c #97301E",
"dp 	c #9C3320",
"ep 	c #8E2817",
"fp 	c #9D301E",
"gp 	c #A23526",
"hp 	c #A53828",
"ip 	c #A13325",
"jp 	c #9F2F1F",
"kp 	c #A53421",
"lp 	c #AD3C29",
"mp 	c #B2412F",
"np 	c #AA3F2D",
"op 	c #A13622",
"pp 	c #A93D28",
"qp 	c #A53520",
"rp 	c #A93623",
"sp 	c #AC3825",
"tp 	c #B7402D",
"up 	c #A8331F",
"vp 	c #B63E29",
"wp 	c #B23C26",
"xp 	c #AF3823",
"yp 	c #B33D28",
"zp 	c #BB4630",
"Ap 	c #B9452F",
"Bp 	c #CA5441",
"Cp 	c #CE5945",
"Dp 	c #C6503B",
"Ep 	c #A83A24",
"Fp 	c #AE3D26",
"Gp 	c #B03D26",
"Hp 	c #AD3D26",
"Ip 	c #CD563E",
"Jp 	c #B9422B",
"Kp 	c #B53B27",
"Lp 	c #B93E29",
"Mp 	c #B33D26",
"Np 	c #B94631",
"Op 	c #AE3A24",
"Pp 	c #B13924",
"Qp 	c #AE3823",
"Rp 	c #AC3923",
"Sp 	c #AA3621",
"Tp 	c #A93420",
"Up 	c #AF3722",
"Vp 	c #B33C26",
"Wp 	c #AD3521",
"Xp 	c #AC3621",
"Yp 	c #AC3420",
"Zp 	c #B13824",
"`p 	c #AE3721",
" q 	c #A93621",
".q 	c #A53824",
"+q 	c #99321D",
"@q 	c #9E331F",
"#q 	c #9D321E",
"$q 	c #8D2919",
"%q 	c #7D514A",
"&q 	c #783323",
"*q 	c #7C311E",
"=q 	c #812D1B",
"-q 	c #832C1B",
";q 	c #792A19",
">q 	c #6F2818",
",q 	c #742B19",
"'q 	c #7D2918",
")q 	c #822516",
"!q 	c #89291A",
"~q 	c #8C2B1A",
"{q 	c #8E2D1B",
"]q 	c #8F2A1A",
"^q 	c #932C1D",
"/q 	c #912A1B",
"(q 	c #942D1C",
"_q 	c #973121",
":q 	c #912B1A",
"<q 	c #9A3425",
"[q 	c #993120",
"}q 	c #993021",
"|q 	c #952B1C",
"1q 	c #9B3221",
"2q 	c #9C3423",
"3q 	c #912918",
"4q 	c #9E301E",
"5q 	c #99301D",
"6q 	c #A03321",
"7q 	c #AF3E2C",
"8q 	c #A43723",
"9q 	c #A0331F",
"0q 	c #A93A24",
"aq 	c #AA3A25",
"bq 	c #A63723",
"cq 	c #A43320",
"dq 	c #B13D29",
"eq 	c #BA4530",
"fq 	c #B03925",
"gq 	c #BC4630",
"hq 	c #BB4631",
"iq 	c #BB4632",
"jq 	c #AE3C27",
"kq 	c #AE3D27",
"lq 	c #BF4A36",
"mq 	c #C04631",
"nq 	c #BA4229",
"oq 	c #B53E27",
"pq 	c #BC442E",
"qq 	c #AA3520",
"rq 	c #AC3620",
"sq 	c #A5301A",
"tq 	c #AB3823",
"uq 	c #AE3924",
"vq 	c #B03C26",
"wq 	c #A8351F",
"xq 	c #A5301C",
"yq 	c #A9331E",
"zq 	c #A8321D",
"Aq 	c #A2321E",
"Bq 	c #9F3521",
"Cq 	c #99301B",
"Dq 	c #9C311D",
"Eq 	c #8F3223",
"Fq 	c #612413",
"Gq 	c #7B3121",
"Hq 	c #7B3220",
"Iq 	c #792C1B",
"Jq 	c #843423",
"Kq 	c #802C1B",
"Lq 	c #7D291A",
"Mq 	c #732718",
"Nq 	c #6B2315",
"Oq 	c #6C2213",
"Pq 	c #792314",
"Qq 	c #812616",
"Rq 	c #802213",
"Sq 	c #8C2A1A",
"Tq 	c #882619",
"Uq 	c #862819",
"Vq 	c #8C2919",
"Wq 	c #8B2717",
"Xq 	c #8E2616",
"Yq 	c #8E2819",
"Zq 	c #8C2717",
"`q 	c #8B2616",
" r 	c #8F2819",
".r 	c #912A1A",
"+r 	c #912B19",
"@r 	c #993322",
"#r 	c #942E1D",
"$r 	c #952D1A",
"%r 	c #A83927",
"&r 	c #A83625",
"*r 	c #9D301F",
"=r 	c #A73623",
"-r 	c #A83522",
";r 	c #A33321",
">r 	c #A83926",
",r 	c #A63824",
"'r 	c #B0402A",
")r 	c #A63823",
"!r 	c #AF3C29",
"~r 	c #A6321F",
"{r 	c #AD3925",
"]r 	c #AB3620",
"^r 	c #B03B26",
"/r 	c #AE3923",
"(r 	c #A93723",
"_r 	c #BB4430",
":r 	c #AF3B26",
"<r 	c #BB452F",
"[r 	c #C04B36",
"}r 	c #C9553F",
"|r 	c #AB3923",
"1r 	c #B8452E",
"2r 	c #BB4933",
"3r 	c #BA462E",
"4r 	c #B8432B",
"5r 	c #B74029",
"6r 	c #B54029",
"7r 	c #A7341D",
"8r 	c #B53E2A",
"9r 	c #B43D29",
"0r 	c #AE3B25",
"ar 	c #AC3922",
"br 	c #B23B24",
"cr 	c #AC3723",
"dr 	c #A7321E",
"er 	c #A9341D",
"fr 	c #A9321F",
"gr 	c #A9311C",
"hr 	c #A8321E",
"ir 	c #AB3522",
"jr 	c #A7311F",
"kr 	c #9E311C",
"lr 	c #9F3420",
"mr 	c #9E351E",
"nr 	c #A33823",
"or 	c #943828",
"pr 	c #4D1205",
"qr 	c #773221",
"rr 	c #79321F",
"sr 	c #752A19",
"tr 	c #762718",
"ur 	c #782718",
"vr 	c #7B2A1A",
"wr 	c #702516",
"xr 	c #712A1B",
"yr 	c #752A1A",
"zr 	c #772516",
"Ar 	c #84291A",
"Br 	c #842618",
"Cr 	c #8C2A1C",
"Dr 	c #8C2A19",
"Er 	c #892718",
"Fr 	c #8D2C1D",
"Gr 	c #8E2D1E",
"Hr 	c #872414",
"Ir 	c #8C271A",
"Jr 	c #973123",
"Kr 	c #922D1D",
"Lr 	c #8E2C1D",
"Mr 	c #8A2818",
"Nr 	c #8D2818",
"Or 	c #942F1D",
"Pr 	c #973222",
"Qr 	c #902B1C",
"Rr 	c #902B1A",
"Sr 	c #9E3829",
"Tr 	c #9A3422",
"Ur 	c #A03220",
"Vr 	c #9E301D",
"Wr 	c #93301E",
"Xr 	c #8D2716",
"Yr 	c #A23422",
"Zr 	c #9F2F1D",
"`r 	c #A53423",
" s 	c #A93927",
".s 	c #9C2C1B",
"+s 	c #992D1B",
"@s 	c #AA3A26",
"#s 	c #AE3E2A",
"$s 	c #AA3824",
"%s 	c #B13E2B",
"&s 	c #B6422F",
"*s 	c #A4321E",
"=s 	c #B13A26",
"-s 	c #B6412C",
";s 	c #AB3723",
">s 	c #A13822",
",s 	c #B84430",
"'s 	c #AD3922",
")s 	c #B4422A",
"!s 	c #B2412A",
"~s 	c #AF3E28",
"{s 	c #AA3922",
"]s 	c #972B17",
"^s 	c #AF412A",
"/s 	c #BA432B",
"(s 	c #B94029",
"_s 	c #B13C26",
":s 	c #AA3622",
"<s 	c #AB3822",
"[s 	c #AE3922",
"}s 	c #A7331D",
"|s 	c #A73520",
"1s 	c #AC3824",
"2s 	c #AB3622",
"3s 	c #A93520",
"4s 	c #AE3925",
"5s 	c #A9331F",
"6s 	c #A8321F",
"7s 	c #AC3720",
"8s 	c #AE3622",
"9s 	c #B13724",
"0s 	c #A7331E",
"as 	c #A93722",
"bs 	c #A1301A",
"cs 	c #9D2F19",
"ds 	c #9C2D18",
"es 	c #9B2E1C",
"fs 	c #9B321E",
"gs 	c #9C331E",
"hs 	c #903728",
"is 	c #A4786B",
"js 	c #4C0D05",
"ks 	c #7D3423",
"ls 	c #78311E",
"ms 	c #722717",
"ns 	c #752817",
"os 	c #7A2B1B",
"ps 	c #782717",
"qs 	c #742819",
"rs 	c #6C2717",
"ss 	c #752213",
"ts 	c #812617",
"us 	c #832314",
"vs 	c #8C2B1C",
"ws 	c #872718",
"xs 	c #882B1A",
"ys 	c #862717",
"zs 	c #882818",
"As 	c #8D291A",
"Bs 	c #852617",
"Cs 	c #832517",
"Ds 	c #852516",
"Es 	c #862414",
"Fs 	c #922F1F",
"Gs 	c #922E1D",
"Hs 	c #902D1C",
"Is 	c #862516",
"Js 	c #912D1A",
"Ks 	c #96301D",
"Ls 	c #912C1B",
"Ms 	c #8D2717",
"Ns 	c #9D3422",
"Os 	c #9B2F1D",
"Ps 	c #A03320",
"Qs 	c #9A2F1C",
"Rs 	c #972D1D",
"Ss 	c #9B311F",
"Ts 	c #9B2F1C",
"Us 	c #9D2E1C",
"Vs 	c #A73724",
"Ws 	c #A83824",
"Xs 	c #AF3D2B",
"Ys 	c #A83725",
"Zs 	c #A53522",
"`s 	c #AA3723",
" t 	c #A63622",
".t 	c #A6331F",
"+t 	c #AE3A27",
"@t 	c #B9432F",
"#t 	c #B63F2A",
"$t 	c #B53C29",
"%t 	c #AE3926",
"&t 	c #B23C28",
"*t 	c #AC3C27",
"=t 	c #A63725",
"-t 	c #B5412C",
";t 	c #B7452E",
">t 	c #B7452D",
",t 	c #B4432E",
"'t 	c #AF3E27",
")t 	c #A8341E",
"!t 	c #B43F28",
"~t 	c #BC4430",
"{t 	c #BD4631",
"]t 	c #B73C25",
"^t 	c #B73E29",
"/t 	c #A9341F",
"(t 	c #A7341F",
"_t 	c #A4321D",
":t 	c #AA371F",
"<t 	c #A5311E",
"[t 	c #A1311B",
"}t 	c #A83621",
"|t 	c #A3301C",
"1t 	c #AC3724",
"2t 	c #A83520",
"3t 	c #A8341F",
"4t 	c #A52F1C",
"5t 	c #A4331E",
"6t 	c #A2311D",
"7t 	c #A5321E",
"8t 	c #A0301B",
"9t 	c #992C18",
"0t 	c #A1301D",
"at 	c #98301B",
"bt 	c #9B301D",
"ct 	c #9A311E",
"dt 	c #943224",
"et 	c #9E594B",
"ft 	c #460B06",
"gt 	c #7E3427",
"ht 	c #76301E",
"it 	c #772C1C",
"jt 	c #762919",
"kt 	c #742717",
"lt 	c #7B2B1D",
"mt 	c #752A1B",
"nt 	c #6B2615",
"ot 	c #732617",
"pt 	c #7C2314",
"qt 	c #7E2315",
"rt 	c #862619",
"st 	c #882719",
"tt 	c #872918",
"ut 	c #862618",
"vt 	c #852415",
"wt 	c #872517",
"xt 	c #842316",
"yt 	c #7F2413",
"zt 	c #8A281B",
"At 	c #8B291B",
"Bt 	c #852416",
"Ct 	c #8B291A",
"Dt 	c #8E2A1B",
"Et 	c #923020",
"Ft 	c #912E1C",
"Gt 	c #942C1C",
"Ht 	c #902616",
"It 	c #982C1B",
"Jt 	c #982C1A",
"Kt 	c #9B301E",
"Lt 	c #9A2C1B",
"Mt 	c #A1321F",
"Nt 	c #A53623",
"Ot 	c #A33523",
"Pt 	c #A43625",
"Qt 	c #A13421",
"Rt 	c #9E2E1C",
"St 	c #A1311F",
"Tt 	c #A2321F",
"Ut 	c #9F301D",
"Vt 	c #A63522",
"Wt 	c #A73723",
"Xt 	c #A63521",
"Yt 	c #AD3B28",
"Zt 	c #B73F2B",
"`t 	c #AE3521",
" u 	c #B84531",
".u 	c #A83622",
"+u 	c #AA3E28",
"@u 	c #B5422C",
"#u 	c #B2412B",
"$u 	c #A93C25",
"%u 	c #A63822",
"&u 	c #AA3A23",
"*u 	c #B6402A",
"=u 	c #B53F28",
"-u 	c #BA422D",
";u 	c #B63E2A",
">u 	c #AF3721",
",u 	c #B03A25",
"'u 	c #AF3921",
")u 	c #A83521",
"!u 	c #A12F1A",
"~u 	c #A22D1B",
"{u 	c #A3321E",
"]u 	c #A4311D",
"^u 	c #A1311C",
"/u 	c #A73421",
"(u 	c #A83420",
"_u 	c #A43420",
":u 	c #A3331F",
"<u 	c #9F2F1C",
"[u 	c #9B2C19",
"}u 	c #9D2F1B",
"|u 	c #9D2F1C",
"1u 	c #982D1A",
"2u 	c #972E1B",
"3u 	c #9A301C",
"4u 	c #942D1E",
"5u 	c #8A3F2A",
"6u 	c #420F08",
"7u 	c #7C3725",
"8u 	c #6F2A19",
"9u 	c #712818",
"0u 	c #6D2213",
"au 	c #752818",
"bu 	c #6C2212",
"cu 	c #732C1D",
"du 	c #6A2A1D",
"eu 	c #6F2515",
"fu 	c #7E2817",
"gu 	c #812518",
"hu 	c #842719",
"iu 	c #842617",
"ju 	c #812416",
"ku 	c #7D1E10",
"lu 	c #872418",
"mu 	c #872616",
"nu 	c #8C2B1B",
"ou 	c #8B2B1C",
"pu 	c #8B2A1B",
"qu 	c #822618",
"ru 	c #882819",
"su 	c #822113",
"tu 	c #882A1A",
"uu 	c #892B1B",
"vu 	c #8A2917",
"wu 	c #912D1B",
"xu 	c #932B1C",
"yu 	c #972D1E",
"zu 	c #942919",
"Au 	c #972C1D",
"Bu 	c #952B1A",
"Cu 	c #962D1A",
"Du 	c #942A19",
"Eu 	c #9D3323",
"Fu 	c #A03222",
"Gu 	c #9B2E1D",
"Hu 	c #982B1C",
"Iu 	c #A23625",
"Ju 	c #9E301F",
"Ku 	c #982B19",
"Lu 	c #A73622",
"Mu 	c #A93826",
"Nu 	c #9F2E1C",
"Ou 	c #A53521",
"Pu 	c #AF3A26",
"Qu 	c #AC3622",
"Ru 	c #AA3522",
"Su 	c #A93622",
"Tu 	c #A73924",
"Uu 	c #A83421",
"Vu 	c #A5341E",
"Wu 	c #A0331D",
"Xu 	c #AE3F29",
"Yu 	c #B5442F",
"Zu 	c #A0351F",
"`u 	c #AA3D26",
" v 	c #AD3B26",
".v 	c #B43D26",
"+v 	c #AB371F",
"@v 	c #AB351F",
"#v 	c #AC3A23",
"$v 	c #AF3925",
"%v 	c #AC3721",
"&v 	c #AD3A23",
"*v 	c #A5311D",
"=v 	c #A02D19",
"-v 	c #A3301E",
";v 	c #A32F1B",
">v 	c #A8331E",
",v 	c #A53420",
"'v 	c #A43321",
")v 	c #A0311C",
"!v 	c #A23723",
"~v 	c #952815",
"{v 	c #A02F1A",
"]v 	c #A22F1C",
"^v 	c #992C19",
"/v 	c #A23520",
"(v 	c #9B2F1B",
"_v 	c #9F311D",
":v 	c #992B18",
"<v 	c #9D2E1B",
"[v 	c #9F321F",
"}v 	c #992E1B",
"|v 	c #962E1C",
"1v 	c #95311E",
"2v 	c #801E0C",
"3v 	c #360B05",
"4v 	c #75301E",
"5v 	c #702B1C",
"6v 	c #6C2315",
"7v 	c #6E2719",
"8v 	c #6A2617",
"9v 	c #652717",
"0v 	c #6C271A",
"av 	c #712112",
"bv 	c #7C2416",
"cv 	c #812517",
"dv 	c #7F2316",
"ev 	c #7F2314",
"fv 	c #7E2215",
"gv 	c #842516",
"hv 	c #862719",
"iv 	c #822515",
"jv 	c #832616",
"kv 	c #852618",
"lv 	c #832718",
"mv 	c #862A1B",
"nv 	c #892B1C",
"ov 	c #89291B",
"pv 	c #892C1D",
"qv 	c #8A2A19",
"rv 	c #882514",
"sv 	c #912C1C",
"tv 	c #8B2615",
"uv 	c #993123",
"vv 	c #962C1C",
"wv 	c #9E3525",
"xv 	c #932D1D",
"yv 	c #A53725",
"zv 	c #9C2E1C",
"Av 	c #A02F1E",
"Bv 	c #A73523",
"Cv 	c #AA3928",
"Dv 	c #A33320",
"Ev 	c #A1301E",
"Fv 	c #A43422",
"Gv 	c #982D1C",
"Hv 	c #A63825",
"Iv 	c #9C2E1A",
"Jv 	c #A0311D",
"Kv 	c #A63722",
"Lv 	c #AA341F",
"Mv 	c #A12F1B",
"Nv 	c #A13722",
"Ov 	c #A43623",
"Pv 	c #A63621",
"Qv 	c #A43621",
"Rv 	c #A83C27",
"Sv 	c #A33521",
"Tv 	c #A53823",
"Uv 	c #A53A25",
"Vv 	c #B0432F",
"Wv 	c #B34731",
"Xv 	c #AD3C24",
"Yv 	c #B03A24",
"Zv 	c #B4412C",
"`v 	c #AC3C26",
" w 	c #AD3724",
".w 	c #A93521",
"+w 	c #A02D1B",
"@w 	c #A5321F",
"#w 	c #9E301C",
"$w 	c #9E2F1C",
"%w 	c #982C18",
"&w 	c #9F3622",
"*w 	c #9C2E1D",
"=w 	c #962B19",
"-w 	c #9B301C",
";w 	c #9A2E1A",
">w 	c #942A18",
",w 	c #9A2D1C",
"'w 	c #932716",
")w 	c #952B19",
"!w 	c #932B19",
"~w 	c #93301A",
"{w 	c #7E1B08",
"]w 	c #360A05",
"^w 	c #743322",
"/w 	c #6C2B1D",
"(w 	c #6A2819",
"_w 	c #682417",
":w 	c #6C2517",
"<w 	c #6A2316",
"[w 	c #652416",
"}w 	c #672717",
"|w 	c #6D2417",
"1w 	c #792719",
"2w 	c #782215",
"3w 	c #7B2214",
"4w 	c #802719",
"5w 	c #7F2516",
"6w 	c #852B1C",
"7w 	c #792112",
"8w 	c #771E0F",
"9w 	c #802616",
"0w 	c #812818",
"aw 	c #7C2013",
"bw 	c #872C1E",
"cw 	c #882D1F",
"dw 	c #822718",
"ew 	c #852818",
"fw 	c #842A1B",
"gw 	c #732012",
"hw 	c #7F2B1C",
"iw 	c #8F2919",
"jw 	c #932B1B",
"kw 	c #8D2A1A",
"lw 	c #90281A",
"mw 	c #952E1F",
"nw 	c #94301D",
"ow 	c #982E1B",
"pw 	c #A23424",
"qw 	c #9F311E",
"rw 	c #A13220",
"sw 	c #A0311F",
"tw 	c #992D1C",
"uw 	c #A33926",
"vw 	c #912E1A",
"ww 	c #A53B26",
"xw 	c #A23622",
"yw 	c #AC3A26",
"zw 	c #A73B25",
"Aw 	c #AD422D",
"Bw 	c #A83E27",
"Cw 	c #A33520",
"Dw 	c #A33620",
"Ew 	c #A53722",
"Fw 	c #AC3B25",
"Gw 	c #A8361E",
"Hw 	c #B13B28",
"Iw 	c #A02E1A",
"Jw 	c #AB3521",
"Kw 	c #AC3521",
"Lw 	c #A4331F",
"Mw 	c #A73522",
"Nw 	c #AA3B26",
"Ow 	c #9E301B",
"Pw 	c #A4311E",
"Qw 	c #9F2D1A",
"Rw 	c #9F2E1A",
"Sw 	c #A3321F",
"Tw 	c #9E2F1D",
"Uw 	c #A13320",
"Vw 	c #962F1C",
"Ww 	c #8F2613",
"Xw 	c #972A18",
"Yw 	c #952E1B",
"Zw 	c #9A3220",
"`w 	c #8F2716",
" x 	c #932A19",
".x 	c #942D1B",
"+x 	c #8E2615",
"@x 	c #902917",
"#x 	c #922A19",
"$x 	c #932E1D",
"%x 	c #952F1C",
"&x 	c #6F1104",
"*x 	c #5A4A47",
"=x 	c #6F2F21",
"-x 	c #682B1E",
";x 	c #662616",
">x 	c #662416",
",x 	c #652013",
"'x 	c #672416",
")x 	c #642115",
"!x 	c #662316",
"~x 	c #6F2115",
"{x 	c #6F2011",
"]x 	c #752013",
"^x 	c #721E10",
"/x 	c #711D11",
"(x 	c #772214",
"_x 	c #7E2516",
":x 	c #862C1E",
"<x 	c #7D2717",
"[x 	c #7A2315",
"}x 	c #7A2415",
"|x 	c #7E2519",
"1x 	c #7D2314",
"2x 	c #7C2213",
"3x 	c #812719",
"4x 	c #691D0F",
"5x 	c #682C1E",
"6x 	c #632211",
"7x 	c #802718",
"8x 	c #842717",
"9x 	c #8A291A",
"0x 	c #892717",
"ax 	c #892415",
"bx 	c #8F2C1C",
"cx 	c #8C2615",
"dx 	c #962D1E",
"ex 	c #9B3222",
"fx 	c #983221",
"gx 	c #9F3120",
"hx 	c #A03221",
"ix 	c #A33825",
"jx 	c #A43A26",
"kx 	c #A43726",
"lx 	c #9F3221",
"mx 	c #992E1C",
"nx 	c #A33722",
"ox 	c #9B3421",
"px 	c #8E2F1C",
"qx 	c #952E1C",
"rx 	c #A83B26",
"sx 	c #A93925",
"tx 	c #AC3E28",
"ux 	c #AA3D28",
"vx 	c #AA3F29",
"wx 	c #AB402C",
"xx 	c #AF3F2A",
"yx 	c #AB3D27",
"zx 	c #A23822",
"Ax 	c #A93823",
"Bx 	c #AD3A28",
"Cx 	c #A43722",
"Dx 	c #A83620",
"Ex 	c #B23D28",
"Fx 	c #A93825",
"Gx 	c #AA3925",
"Hx 	c #B03D29",
"Ix 	c #A23320",
"Jx 	c #9E2E1A",
"Kx 	c #9C2E19",
"Lx 	c #9F2C1A",
"Mx 	c #9A2F1A",
"Nx 	c #8A2817",
"Ox 	c #962F1D",
"Px 	c #932C19",
"Qx 	c #892816",
"Rx 	c #902C19",
"Sx 	c #8E2917",
"Tx 	c #8B2A17",
"Ux 	c #8D2D1A",
"Vx 	c #8F2F1D",
"Wx 	c #952E19",
"Xx 	c #660903",
"Yx 	c #72605B",
"Zx 	c #6C2E1E",
"`x 	c #632918",
" y 	c #682A1B",
".y 	c #602112",
"+y 	c #622014",
"@y 	c #652314",
"#y 	c #652113",
"$y 	c #682316",
"%y 	c #692014",
"&y 	c #6D2316",
"*y 	c #6E2013",
"=y 	c #6E1D0F",
"-y 	c #792316",
";y 	c #7A2517",
">y 	c #792215",
",y 	c #7B2316",
"'y 	c #772012",
")y 	c #822A1A",
"!y 	c #782719",
"~y 	c #822F22",
"{y 	c #722415",
"]y 	c #752616",
"^y 	c #7B2719",
"/y 	c #782516",
"(y 	c #7A2615",
"_y 	c #7C2A1A",
":y 	c #572113",
"<y 	c #5F2317",
"[y 	c #802C1D",
"}y 	c #87291A",
"|y 	c #812213",
"1y 	c #972E1C",
"2y 	c #9A2E1E",
"3y 	c #9A2E1D",
"4y 	c #9F3320",
"5y 	c #9C2D1C",
"6y 	c #A43423",
"7y 	c #99311F",
"8y 	c #99301E",
"9y 	c #882E1B",
"0y 	c #9C3D27",
"ay 	c #A2331F",
"by 	c #953220",
"cy 	c #922F1C",
"dy 	c #9A341E",
"ey 	c #A33923",
"fy 	c #A83A25",
"gy 	c #A23C25",
"hy 	c #A33B27",
"iy 	c #B34732",
"jy 	c #AB402B",
"ky 	c #9C321D",
"ly 	c #A33723",
"my 	c #A73923",
"ny 	c #AB3F2A",
"oy 	c #9D301B",
"py 	c #AC3D28",
"qy 	c #AA3825",
"ry 	c #A23621",
"sy 	c #AD3D29",
"ty 	c #A02F1C",
"uy 	c #9E2D1B",
"vy 	c #9F301C",
"wy 	c #9D301D",
"xy 	c #9C2E1B",
"yy 	c #9B2D1B",
"zy 	c #992D1D",
"Ay 	c #922A18",
"By 	c #852714",
"Cy 	c #8D2F1B",
"Dy 	c #90321E",
"Ey 	c #922E1C",
"Fy 	c #962C1A",
"Gy 	c #972D1B",
"Hy 	c #821F0E",
"Iy 	c #8A2815",
"Jy 	c #862816",
"Ky 	c #8A2A18",
"Ly 	c #8F2A1B",
"My 	c #862413",
"Ny 	c #8C2A17",
"Oy 	c #8E2B19",
"Py 	c #8B2D1A",
"Qy 	c #8D2E1C",
"Ry 	c #892C19",
"Sy 	c #91301A",
"Ty 	c #5F0E04",
"Uy 	c #7A655C",
"Vy 	c #682D1E",
"Wy 	c #5D2719",
"Xy 	c #602516",
"Yy 	c #5F2213",
"Zy 	c #622115",
"`y 	c #622214",
" z 	c #622114",
".z 	c #5E1E12",
"+z 	c #682113",
"@z 	c #6A2012",
"#z 	c #702214",
"$z 	c #722013",
"%z 	c #772215",
"&z 	c #701F12",
"*z 	c #721F13",
"=z 	c #711F12",
"-z 	c #701E10",
";z 	c #77291D",
">z 	c #692016",
",z 	c #602013",
"'z 	c #72291D",
")z 	c #742517",
"!z 	c #741F11",
"~z 	c #7B2416",
"{z 	c #7D3123",
"]z 	c #5D2012",
"^z 	c #6F2617",
"/z 	c #862F1F",
"(z 	c #842B1D",
"_z 	c #812819",
":z 	c #802415",
"<z 	c #903021",
"[z 	c #882716",
"}z 	c #912F1F",
"|z 	c #8B2B1A",
"1z 	c #942A1A",
"2z 	c #8F2816",
"3z 	c #993121",
"4z 	c #A73928",
"5z 	c #9A3321",
"6z 	c #932F1D",
"7z 	c #9B3623",
"8z 	c #963320",
"9z 	c #953523",
"0z 	c #8F3523",
"az 	c #973925",
"bz 	c #A73828",
"cz 	c #9E3C28",
"dz 	c #983521",
"ez 	c #A33A27",
"fz 	c #9D311D",
"gz 	c #942E1C",
"hz 	c #99351F",
"iz 	c #A43C27",
"jz 	c #AB432E",
"kz 	c #A63C26",
"lz 	c #AB422C",
"mz 	c #9F3822",
"nz 	c #A03923",
"oz 	c #B04935",
"pz 	c #8E2C19",
"qz 	c #A23C28",
"rz 	c #A13924",
"sz 	c #9A3520",
"tz 	c #A33D28",
"uz 	c #9E3A26",
"vz 	c #A33622",
"wz 	c #9A331D",
"xz 	c #9C341F",
"yz 	c #A2341E",
"zz 	c #A73624",
"Az 	c #A53724",
"Bz 	c #A43523",
"Cz 	c #A13221",
"Dz 	c #9E331E",
"Ez 	c #972D19",
"Fz 	c #9C321E",
"Gz 	c #9B2E1A",
"Hz 	c #982D19",
"Iz 	c #9B311D",
"Jz 	c #902916",
"Kz 	c #8F2B19",
"Lz 	c #892A1A",
"Mz 	c #802412",
"Nz 	c #8D2715",
"Oz 	c #8D2615",
"Pz 	c #8D2614",
"Qz 	c #892716",
"Rz 	c #812614",
"Sz 	c #882C1B",
"Tz 	c #802515",
"Uz 	c #872716",
"Vz 	c #872C18",
"Wz 	c #842A17",
"Xz 	c #872E1B",
"Yz 	c #8F321E",
"Zz 	c #5C0F04",
"`z 	c #6F5B55",
" A 	c #662D20",
".A 	c #5B281A",
"+A 	c #5C2416",
"@A 	c #5A2012",
"#A 	c #63271A",
"$A 	c #5F2113",
"%A 	c #612114",
"&A 	c #5E1D11",
"*A 	c #5D1C10",
"=A 	c #632114",
"-A 	c #662014",
";A 	c #6D2216",
">A 	c #75261B",
",A 	c #752418",
"'A 	c #77271C",
")A 	c #6E2114",
"!A 	c #681F13",
"~A 	c #6C2215",
"{A 	c #6F261B",
"]A 	c #6C2116",
"^A 	c #73291E",
"/A 	c #6B2419",
"(A 	c #631B0E",
"_A 	c #6B2014",
":A 	c #76271A",
"<A 	c #7A2719",
"[A 	c #782617",
"}A 	c #7D2E22",
"|A 	c #631D10",
"1A 	c #6A2011",
"2A 	c #7A2316",
"3A 	c #8B3124",
"4A 	c #7D2719",
"5A 	c #832819",
"6A 	c #822818",
"7A 	c #822416",
"8A 	c #882A19",
"9A 	c #8F3120",
"0A 	c #8D3121",
"aA 	c #953122",
"bA 	c #9D3524",
"cA 	c #A03928",
"dA 	c #9B3423",
"eA 	c #9E3424",
"fA 	c #9D3625",
"gA 	c #963523",
"hA 	c #903221",
"iA 	c #8B3120",
"jA 	c #8E3524",
"kA 	c #893222",
"lA 	c #88311F",
"mA 	c #943220",
"nA 	c #8D321E",
"oA 	c #8F3422",
"pA 	c #983824",
"qA 	c #953422",
"rA 	c #8D2A19",
"sA 	c #8B2B18",
"tA 	c #923421",
"uA 	c #8D2E1B",
"vA 	c #A5432D",
"wA 	c #AC4C35",
"xA 	c #A8442D",
"yA 	c #A8402B",
"zA 	c #93311E",
"AA 	c #9D3C29",
"BA 	c #9A3722",
"CA 	c #A83F2B",
"DA 	c #A5402C",
"EA 	c #9D3B26",
"FA 	c #9C412E",
"GA 	c #AC4A37",
"HA 	c #A03723",
"IA 	c #9E3722",
"JA 	c #9B3420",
"KA 	c #A23925",
"LA 	c #9E3B27",
"MA 	c #9B341F",
"NA 	c #A33924",
"OA 	c #9F3823",
"PA 	c #9C3521",
"QA 	c #9D341E",
"RA 	c #A03722",
"SA 	c #972E1A",
"TA 	c #992F1B",
"UA 	c #96301B",
"VA 	c #942E1B",
"WA 	c #922C1C",
"XA 	c #8D2B19",
"YA 	c #8F2C19",
"ZA 	c #932E1E",
"`A 	c #85291A",
" B 	c #902B1B",
".B 	c #882817",
"+B 	c #862616",
"@B 	c #7F2313",
"#B 	c #7E2819",
"$B 	c #822919",
"%B 	c #7C2715",
"&B 	c #742110",
"*B 	c #842B1C",
"=B 	c #802A18",
"-B 	c #7D2A19",
";B 	c #7C2916",
">B 	c #85321D",
",B 	c #560F04",
"'B 	c #6A5852",
")B 	c #643123",
"!B 	c #562416",
"~B 	c #552216",
"{B 	c #532113",
"]B 	c #501A0E",
"^B 	c #541E13",
"/B 	c #511C0F",
"(B 	c #511B0F",
"_B 	c #4B1509",
":B 	c #591D13",
"<B 	c #56180D",
"[B 	c #57190E",
"}B 	c #56160B",
"|B 	c #541409",
"1B 	c #5C1A0F",
"2B 	c #5C190F",
"3B 	c #57170C",
"4B 	c #5C1C0F",
"5B 	c #5E1C11",
"6B 	c #621F15",
"7B 	c #5E1D12",
"8B 	c #602114",
"9B 	c #662418",
"0B 	c #692518",
"aB 	c #672213",
"bB 	c #712B1B",
"cB 	c #5E190C",
"dB 	c #661D11",
"eB 	c #5F180B",
"fB 	c #752618",
"gB 	c #78281B",
"hB 	c #7B271B",
"iB 	c #711D10",
"jB 	c #7B2514",
"kB 	c #7F2E1D",
"lB 	c #792616",
"mB 	c #7B2414",
"nB 	c #8A2B1C",
"oB 	c #882B1B",
"pB 	c #862C1C",
"qB 	c #832412",
"rB 	c #923021",
"sB 	c #953222",
"tB 	c #902E1E",
"uB 	c #8B2B1B",
"vB 	c #7D2413",
"wB 	c #812917",
"xB 	c #782413",
"yB 	c #7C2919",
"zB 	c #732514",
"AB 	c #732818",
"BB 	c #833624",
"CB 	c #7F2D1C",
"DB 	c #832D1C",
"EB 	c #7F2816",
"FB 	c #872C1B",
"GB 	c #8A2D1A",
"HB 	c #8D311E",
"IB 	c #852917",
"JB 	c #7F2917",
"KB 	c #842F1F",
"LB 	c #812C19",
"MB 	c #88311D",
"NB 	c #89301F",
"OB 	c #812A19",
"PB 	c #82291A",
"QB 	c #8D3020",
"RB 	c #943521",
"SB 	c #973A23",
"TB 	c #8B2C18",
"UB 	c #9A3827",
"VB 	c #9D3927",
"WB 	c #912E1B",
"XB 	c #88301E",
"YB 	c #6C2110",
"ZB 	c #822815",
"`B 	c #8A2D1B",
" C 	c #8E2D1A",
".C 	c #90301D",
"+C 	c #8D301D",
"@C 	c #8C3320",
"#C 	c #862918",
"$C 	c #852B19",
"%C 	c #8A2C1B",
"&C 	c #862B1A",
"*C 	c #812918",
"=C 	c #822715",
"-C 	c #92321E",
";C 	c #8F2E1D",
">C 	c #943321",
",C 	c #852918",
"'C 	c #7A2211",
")C 	c #782414",
"!C 	c #862A19",
"~C 	c #822717",
"{C 	c #772514",
"]C 	c #762717",
"^C 	c #762313",
"/C 	c #7A2518",
"(C 	c #7D2518",
"_C 	c #772315",
":C 	c #7B2718",
"<C 	c #702313",
"[C 	c #7E2E20",
"}C 	c #762819",
"|C 	c #752515",
"1C 	c #6F2613",
"2C 	c #6F2514",
"3C 	c #742918",
"4C 	c #7D2F1C",
"5C 	c #540B04",
"6C 	c #60463E",
"7C 	c #5C2A1C",
"8C 	c #552414",
"9C 	c #4E1D0F",
"0C 	c #4A190C",
"aC 	c #45170A",
"bC 	c #4D1C10",
"cC 	c #4E1C12",
"dC 	c #4E1B0F",
"eC 	c #4D160A",
"fC 	c #50140A",
"gC 	c #491106",
"hC 	c #4B170C",
"iC 	c #4F170C",
"jC 	c #53160C",
"kC 	c #5C1C12",
"lC 	c #612012",
"mC 	c #612013",
"nC 	c #59170C",
"oC 	c #5F1E11",
"pC 	c #631E13",
"qC 	c #5E1A0F",
"rC 	c #57180D",
"sC 	c #51180C",
"tC 	c #511A10",
"uC 	c #4B150A",
"vC 	c #541A0D",
"wC 	c #51180B",
"xC 	c #4F160A",
"yC 	c #5F2013",
"zC 	c #631F13",
"AC 	c #642014",
"BC 	c #5F1C10",
"CC 	c #712619",
"DC 	c #702113",
"EC 	c #7A2416",
"FC 	c #7A2515",
"GC 	c #722214",
"HC 	c #722315",
"IC 	c #7C2718",
"JC 	c #792313",
"KC 	c #762315",
"LC 	c #742213",
"MC 	c #832F1F",
"NC 	c #872E1E",
"OC 	c #892D1B",
"PC 	c #8B2D1D",
"QC 	c #8E2E1F",
"RC 	c #872919",
"SC 	c #8B3020",
"TC 	c #852E1E",
"UC 	c #873020",
"VC 	c #842E1E",
"WC 	c #80291A",
"XC 	c #7C2A19",
"YC 	c #782C1C",
"ZC 	c #712F1D",
"`C 	c #722B1B",
" D 	c #7F3122",
".D 	c #843524",
"+D 	c #7F301D",
"@D 	c #863020",
"#D 	c #873021",
"$D 	c #7B2817",
"%D 	c #8D3525",
"&D 	c #8E3525",
"*D 	c #903726",
"=D 	c #8E3624",
"-D 	c #903225",
";D 	c #913625",
">D 	c #913728",
",D 	c #842A1A",
"'D 	c #862D1C",
")D 	c #953928",
"!D 	c #993928",
"~D 	c #A2422D",
"{D 	c #923420",
"]D 	c #973B27",
"^D 	c #8B311E",
"/D 	c #963824",
"(D 	c #9C3D29",
"_D 	c #8F3622",
":D 	c #832B19",
"<D 	c #7E2916",
"[D 	c #822D1C",
"}D 	c #86301F",
"|D 	c #883222",
"1D 	c #84301E",
"2D 	c #893121",
"3D 	c #8B3525",
"4D 	c #7C2616",
"5D 	c #872F1C",
"6D 	c #872D1D",
"7D 	c #802B1A",
"8D 	c #832D1D",
"9D 	c #7F2A1C",
"0D 	c #7F2C1C",
"aD 	c #762515",
"bD 	c #7B2919",
"cD 	c #812F20",
"dD 	c #7A2A1A",
"eD 	c #772818",
"fD 	c #7D2A1C",
"gD 	c #7E2A1D",
"hD 	c #7B2B1A",
"iD 	c #792A1B",
"jD 	c #762918",
"kD 	c #732816",
"lD 	c #752917",
"mD 	c #6F2413",
"nD 	c #6A2010",
"oD 	c #671F0E",
"pD 	c #6B2212",
"qD 	c #682111",
"rD 	c #682413",
"sD 	c #430804",
"tD 	c #957A6A",
"uD 	c #563025",
"vD 	c #501707",
"wD 	c #692C1B",
"xD 	c #6D3723",
"yD 	c #763921",
"zD 	c #7E3D24",
"AD 	c #814027",
"BD 	c #824024",
"CD 	c #803E24",
"DD 	c #763824",
"ED 	c #602D21",
"FD 	c #411509",
"GD 	c #28150F",
"HD 	c #5D3E36",
"ID 	c #592617",
"JD 	c #542215",
"KD 	c #4B1A0E",
"LD 	c #4C1C11",
"MD 	c #4C1D10",
"ND 	c #4B1A0F",
"OD 	c #4F1B10",
"PD 	c #531B0F",
"QD 	c #531809",
"RD 	c #5A2215",
"SD 	c #672D1D",
"TD 	c #733521",
"UD 	c #803A25",
"VD 	c #873F27",
"WD 	c #8F4129",
"XD 	c #93442C",
"YD 	c #8B3E26",
"ZD 	c #8B3D25",
"`D 	c #853722",
" E 	c #7C301C",
".E 	c #521B0D",
"+E 	c #49150A",
"@E 	c #541C11",
"#E 	c #581E12",
"$E 	c #5F2318",
"%E 	c #5E1F13",
"&E 	c #5D1B0F",
"*E 	c #642015",
"=E 	c #70271E",
"-E 	c #6F2317",
";E 	c #6E1F11",
">E 	c #6F2012",
",E 	c #742113",
"'E 	c #822E20",
")E 	c #7B2B1E",
"!E 	c #752518",
"~E 	c #752212",
"{E 	c #7D2718",
"]E 	c #81291B",
"^E 	c #93392A",
"/E 	c #872E1F",
"(E 	c #8E3122",
"_E 	c #872B1C",
":E 	c #8A2E1E",
"<E 	c #8B2E1E",
"[E 	c #882E1F",
"}E 	c #7A2516",
"|E 	c #7D2A1A",
"1E 	c #8C3524",
"2E 	c #883221",
"3E 	c #802F1D",
"4E 	c #762B19",
"5E 	c #6E2214",
"6E 	c #803020",
"7E 	c #82301E",
"8E 	c #843525",
"9E 	c #833521",
"0E 	c #7F2E1E",
"aE 	c #83301F",
"bE 	c #8F3B27",
"cE 	c #903F28",
"dE 	c #934128",
"eE 	c #943F27",
"fE 	c #98462B",
"gE 	c #A54D32",
"hE 	c #A54C31",
"iE 	c #A54E32",
"jE 	c #994227",
"kE 	c #8E3A22",
"lE 	c #84301A",
"mE 	c #83321B",
"nE 	c #822816",
"oE 	c #882D18",
"pE 	c #943522",
"qE 	c #943623",
"rE 	c #963724",
"sE 	c #973724",
"tE 	c #8B2F1C",
"uE 	c #8E3320",
"vE 	c #933826",
"wE 	c #872D1B",
"xE 	c #8A2F1D",
"yE 	c #89321E",
"zE 	c #86301E",
"AE 	c #802817",
"BE 	c #883220",
"CE 	c #853120",
"DE 	c #822F1F",
"EE 	c #862F1E",
"FE 	c #852E1D",
"GE 	c #852D1C",
"HE 	c #7F2718",
"IE 	c #822B1A",
"JE 	c #822E1D",
"KE 	c #7B2616",
"LE 	c #7D2819",
"ME 	c #7D2818",
"NE 	c #7B2717",
"OE 	c #752514",
"PE 	c #762618",
"QE 	c #8F452E",
"RE 	c #9F4E35",
"SE 	c #9A4A33",
"TE 	c #A15138",
"UE 	c #A45438",
"VE 	c #A7563A",
"WE 	c #A05337",
"XE 	c #9B5034",
"YE 	c #9D5036",
"ZE 	c #954930",
"`E 	c #93462E",
" F 	c #8B3F27",
".F 	c #732E19",
"+F 	c #75301D",
"@F 	c #4F0F05",
"#F 	c #745952",
"$F 	c #4F210F",
"%F 	c #551E0C",
"&F 	c #652412",
"*F 	c #742D19",
"=F 	c #803722",
"-F 	c #7E3822",
";F 	c #82381E",
">F 	c #7D3216",
",F 	c #7F3419",
"'F 	c #823A24",
")F 	c #925642",
"!F 	c #9E7970",
"~F 	c #4B2B1C",
"{F 	c #5C311C",
"]F 	c #5F2F19",
"^F 	c #643520",
"/F 	c #67361F",
"(F 	c #713C24",
"_F 	c #763F27",
":F 	c #743E26",
"<F 	c #6B3721",
"[F 	c #60301C",
"}F 	c #4C2514",
"|F 	c #3C1B0F",
"1F 	c #311207",
"2F 	c #22110A",
"3F 	c #231E1C",
"4F 	c #541F17",
"5F 	c #663123",
"6F 	c #602C1E",
"7F 	c #5E2719",
"8F 	c #5D2618",
"9F 	c #5A2216",
"0F 	c #5A2518",
"aF 	c #592317",
"bF 	c #582016",
"cF 	c #592114",
"dF 	c #8E543C",
"eF 	c #8E513A",
"fF 	c #85452E",
"gF 	c #87472F",
"hF 	c #8E4E35",
"iF 	c #965339",
"jF 	c #A15B3E",
"kF 	c #A76345",
"lF 	c #A56244",
"mF 	c #A35F42",
"nF 	c #9F593B",
"oF 	c #9A5538",
"pF 	c #8E472C",
"qF 	c #793924",
"rF 	c #552012",
"sF 	c #531C10",
"tF 	c #531A0E",
"uF 	c #581D11",
"vF 	c #5C2116",
"wF 	c #5F1D12",
"xF 	c #6D281A",
"yF 	c #682618",
"zF 	c #6B2618",
"AF 	c #732719",
"BF 	c #7D2B1E",
"CF 	c #7A281A",
"DF 	c #7E2A1C",
"EF 	c #802B1D",
"FF 	c #802B1E",
"GF 	c #7B2617",
"HF 	c #882F1F",
"IF 	c #812615",
"JF 	c #892E1D",
"KF 	c #842917",
"LF 	c #903423",
"MF 	c #8C3322",
"NF 	c #8A3223",
"OF 	c #8C3424",
"PF 	c #7D2D1E",
"QF 	c #7E2E1E",
"RF 	c #7A2D1C",
"SF 	c #833526",
"TF 	c #803726",
"UF 	c #843B28",
"VF 	c #954E36",
"WF 	c #A05D40",
"XF 	c #A76547",
"YF 	c #B2704F",
"ZF 	c #B2704D",
"`F 	c #B26F49",
" G 	c #BA734C",
".G 	c #C2784F",
"+G 	c #C37A50",
"@G 	c #BB7045",
"#G 	c #A35B36",
"$G 	c #985330",
"%G 	c #925132",
"&G 	c #803D23",
"*G 	c #79321E",
"=G 	c #7C2D1A",
"-G 	c #802D1B",
";G 	c #933D2B",
">G 	c #903C29",
",G 	c #943A28",
"'G 	c #9A3E29",
")G 	c #973C29",
"!G 	c #973F2B",
"~G 	c #8F3621",
"{G 	c #842B1B",
"]G 	c #822F1C",
"^G 	c #7E2D1B",
"/G 	c #802E1E",
"(G 	c #842F1D",
"_G 	c #842C1D",
":G 	c #883321",
"<G 	c #8A3725",
"[G 	c #7A2C19",
"}G 	c #803120",
"|G 	c #873122",
"1G 	c #872D1C",
"2G 	c #8C301F",
"3G 	c #862E1C",
"4G 	c #8A3321",
"5G 	c #812C1D",
"6G 	c #7D2C1B",
"7G 	c #7B2E1E",
"8G 	c #63291B",
"9G 	c #51210E",
"0G 	c #6A301C",
"aG 	c #794028",
"bG 	c #844830",
"cG 	c #9B5C41",
"dG 	c #965338",
"eG 	c #9F5A3D",
"fG 	c #A45E40",
"gG 	c #975638",
"hG 	c #935238",
"iG 	c #8E4B2F",
"jG 	c #8C482C",
"kG 	c #87482C",
"lG 	c #86472D",
"mG 	c #7B4944",
"nG 	c #514747",
"oG 	c #532715",
"pG 	c #562919",
"qG 	c #572B15",
"rG 	c #63311B",
"sG 	c #6F3D25",
"tG 	c #7A432C",
"uG 	c #884B33",
"vG 	c #894D36",
"wG 	c #935A3D",
"xG 	c #8F5338",
"yG 	c #955A44",
"zG 	c #8F533B",
"AG 	c #7F462A",
"BG 	c #321209",
"CG 	c #491F10",
"DG 	c #572A17",
"EG 	c #5E2E19",
"FG 	c #5E3018",
"GG 	c #663320",
"HG 	c #703924",
"IG 	c #763A25",
"JG 	c #753923",
"KG 	c #62321E",
"LG 	c #4E2313",
"MG 	c #38150A",
"NG 	c #2B0D06",
"OG 	c #150502",
"PG 	c #050102",
"QG 	c #6D372E",
"RG 	c #703629",
"SG 	c #71372B",
"TG 	c #6F3426",
"UG 	c #6B2D21",
"VG 	c #692D22",
"WG 	c #64291B",
"XG 	c #65291C",
"YG 	c #672A1D",
"ZG 	c #62281A",
"`G 	c #642E1F",
" H 	c #6A3624",
".H 	c #67331E",
"+H 	c #773C27",
"@H 	c #6D321C",
"#H 	c #753822",
"$H 	c #7C3F27",
"%H 	c #7A3C25",
"&H 	c #763A22",
"*H 	c #7C412C",
"=H 	c #6C3722",
"-H 	c #572616",
";H 	c #44170B",
">H 	c #5D281E",
",H 	c #662A1E",
"'H 	c #6E2F21",
")H 	c #6D291A",
"!H 	c #72291E",
"~H 	c #73291B",
"{H 	c #752C1B",
"]H 	c #752617",
"^H 	c #873223",
"/H 	c #832E20",
"(H 	c #802B1C",
"_H 	c #802818",
":H 	c #8C3422",
"<H 	c #8D3223",
"[H 	c #8A3021",
"}H 	c #993C2B",
"|H 	c #933424",
"1H 	c #8A2D1D",
"2H 	c #893221",
"3H 	c #903826",
"4H 	c #862E1D",
"5H 	c #903625",
"6H 	c #843020",
"7H 	c #893424",
"8H 	c #883827",
"9H 	c #7E301F",
"0H 	c #753423",
"aH 	c #4B1F0E",
"bH 	c #582A15",
"cH 	c #68331D",
"dH 	c #6C351E",
"eH 	c #713A20",
"fH 	c #743F23",
"gH 	c #7E4529",
"hH 	c #8A4F2F",
"iH 	c #824628",
"jH 	c #8E4C2D",
"kH 	c #8E4A2B",
"lH 	c #934F30",
"mH 	c #854729",
"nH 	c #743C23",
"oH 	c #753E26",
"pH 	c #713521",
"qH 	c #7D3223",
"rH 	c #964433",
"sH 	c #883423",
"tH 	c #994431",
"uH 	c #AD5742",
"vH 	c #903624",
"wH 	c #993D2A",
"xH 	c #A14733",
"yH 	c #943D29",
"zH 	c #963F2B",
"AH 	c #8F3723",
"BH 	c #97402D",
"CH 	c #943F2B",
"DH 	c #963F2C",
"EH 	c #943C2A",
"FH 	c #96402F",
"GH 	c #8C3725",
"HH 	c #8A3422",
"IH 	c #8E3928",
"JH 	c #933D2A",
"KH 	c #883521",
"LH 	c #8A3723",
"MH 	c #94402D",
"NH 	c #943E2D",
"OH 	c #8F3725",
"PH 	c #8A301F",
"QH 	c #923627",
"RH 	c #913725",
"SH 	c #8B3522",
"TH 	c #832C1D",
"UH 	c #883322",
"VH 	c #802E1C",
"WH 	c #853321",
"XH 	c #823221",
"YH 	c #792E1C",
"ZH 	c #742A19",
"`H 	c #6C2C1D",
" I 	c #481A0D",
".I 	c #451B0C",
"+I 	c #552110",
"@I 	c #602815",
"#I 	c #6E3520",
"$I 	c #743822",
"%I 	c #74371F",
"&I 	c #7A3D25",
"*I 	c #7B3A22",
"=I 	c #7E4025",
"-I 	c #804126",
";I 	c #85452A",
">I 	c #8A4B30",
",I 	c #723820",
"'I 	c #6D381F",
")I 	c #803322",
"!I 	c #3F3B3B",
"~I 	c #461E0E",
"{I 	c #491E0D",
"]I 	c #4B2112",
"^I 	c #522417",
"/I 	c #5E281B",
"(I 	c #673121",
"_I 	c #69321F",
":I 	c #713621",
"<I 	c #783D27",
"[I 	c #6F3320",
"}I 	c #713822",
"|I 	c #682F19",
"1I 	c #6D3622",
"2I 	c #300E07",
"3I 	c #461C0C",
"4I 	c #532613",
"5I 	c #542614",
"6I 	c #5E2E1A",
"7I 	c #632F1B",
"8I 	c #66321D",
"9I 	c #6D3721",
"0I 	c #6D3520",
"aI 	c #6F3823",
"bI 	c #5D2B18",
"cI 	c #502214",
"dI 	c #3F170B",
"eI 	c #270A05",
"fI 	c #120502",
"gI 	c #090505",
"hI 	c #572419",
"iI 	c #753C2F",
"jI 	c #753A2D",
"kI 	c #753B2C",
"lI 	c #753C2E",
"mI 	c #733829",
"nI 	c #733728",
"oI 	c #6F3324",
"pI 	c #703426",
"qI 	c #6D3225",
"rI 	c #6A3324",
"sI 	c #5B2D1C",
"tI 	c #5C2D1A",
"uI 	c #602F1A",
"vI 	c #683620",
"wI 	c #67321E",
"xI 	c #6D351F",
"yI 	c #733B23",
"zI 	c #733A23",
"AI 	c #753D24",
"BI 	c #723923",
"CI 	c #723822",
"DI 	c #723925",
"EI 	c #562611",
"FI 	c #481B0C",
"GI 	c #391308",
"HI 	c #532317",
"II 	c #64251A",
"JI 	c #722D20",
"KI 	c #752E21",
"LI 	c #762F22",
"MI 	c #722A1E",
"NI 	c #7B3123",
"OI 	c #782D1F",
"PI 	c #7C3020",
"QI 	c #843425",
"RI 	c #823120",
"SI 	c #823220",
"TI 	c #883626",
"UI 	c #893927",
"VI 	c #8B3928",
"WI 	c #903D2C",
"XI 	c #933E30",
"YI 	c #8E3A2A",
"ZI 	c #8D3A28",
"`I 	c #903B2B",
" J 	c #943D2C",
".J 	c #933D2D",
"+J 	c #8C3B29",
"@J 	c #833324",
"#J 	c #8B3C2B",
"$J 	c #8B3C2A",
"%J 	c #873927",
"&J 	c #823525",
"*J 	c #7C3525",
"=J 	c #7E3728",
"-J 	c #743021",
";J 	c #763526",
">J 	c #6F3427",
",J 	c #411D0E",
"'J 	c #4C2413",
")J 	c #612E1A",
"!J 	c #65331E",
"~J 	c #6A351F",
"{J 	c #753D26",
"]J 	c #7C4129",
"^J 	c #814428",
"/J 	c #824229",
"(J 	c #854329",
"_J 	c #874327",
":J 	c #955033",
"<J 	c #8B492C",
"[J 	c #6E351B",
"}J 	c #66301A",
"|J 	c #6C2F1C",
"1J 	c #77321F",
"2J 	c #7F3221",
"3J 	c #903D2E",
"4J 	c #8D3D2A",
"5J 	c #863524",
"6J 	c #954330",
"7J 	c #943E2B",
"8J 	c #9B4633",
"9J 	c #933F2D",
"0J 	c #964131",
"aJ 	c #8B3927",
"bJ 	c #8C3B28",
"cJ 	c #8D3E2C",
"dJ 	c #8A3B29",
"eJ 	c #873B28",
"fJ 	c #8C3F2D",
"gJ 	c #903D2A",
"hJ 	c #863421",
"iJ 	c #8C3927",
"jJ 	c #903A27",
"kJ 	c #943D2A",
"lJ 	c #983F2E",
"mJ 	c #933B2A",
"nJ 	c #913929",
"oJ 	c #943F2E",
"pJ 	c #893827",
"qJ 	c #8A3726",
"rJ 	c #893A29",
"sJ 	c #813625",
"tJ 	c #6C2E1F",
"uJ 	c #59281D",
"vJ 	c #371105",
"wJ 	c #431508",
"xJ 	c #4A1809",
"yJ 	c #552212",
"zJ 	c #68311E",
"AJ 	c #743922",
"BJ 	c #784127",
"CJ 	c #81452B",
"DJ 	c #7C3F28",
"EJ 	c #783E27",
"FJ 	c #773F23",
"GJ 	c #773B25",
"HJ 	c #783C25",
"IJ 	c #66311A",
"JJ 	c #5E2D17",
"KJ 	c #87452E",
"LJ 	c #753728",
"MJ 	c #A07D6E",
"NJ 	c #3D342C",
"OJ 	c #3E1C0F",
"PJ 	c #321305",
"QJ 	c #371408",
"RJ 	c #40180A",
"SJ 	c #502515",
"TJ 	c #5A2916",
"UJ 	c #67301C",
"VJ 	c #6A301B",
"WJ 	c #6B321D",
"XJ 	c #6C331C",
"YJ 	c #642F17",
"ZJ 	c #66311C",
"`J 	c #64321C",
" K 	c #280C05",
".K 	c #401B08",
"+K 	c #542B14",
"@K 	c #542C17",
"#K 	c #613421",
"$K 	c #5E301E",
"%K 	c #693724",
"&K 	c #6E3C28",
"*K 	c #6E3C27",
"=K 	c #673922",
"-K 	c #4D2715",
";K 	c #331708",
">K 	c #2B1207",
",K 	c #210C0A",
"'K 	c #311612",
")K 	c #492722",
"!K 	c #6C362B",
"~K 	c #7D3F2F",
"{K 	c #743A2D",
"]K 	c #773F32",
"^K 	c #70372A",
"/K 	c #703A2C",
"(K 	c #713A2B",
"_K 	c #70392C",
":K 	c #70382B",
"<K 	c #71392B",
"[K 	c #6F392A",
"}K 	c #653224",
"|K 	c #582B1B",
"1K 	c #542818",
"2K 	c #582A17",
"3K 	c #5F301B",
"4K 	c #65331D",
"5K 	c #652F1C",
"6K 	c #6B3520",
"7K 	c #6D341F",
"8K 	c #6E351E",
"9K 	c #6D351D",
"0K 	c #5F2915",
"aK 	c #5E2816",
"bK 	c #502211",
"cK 	c #431B0B",
"dK 	c #3D170E",
"eK 	c #60281B",
"fK 	c #6A2D1F",
"gK 	c #703021",
"hK 	c #793526",
"iK 	c #793628",
"jK 	c #7D382B",
"kK 	c #773226",
"lK 	c #7B3529",
"mK 	c #793223",
"nK 	c #7C3327",
"oK 	c #84382B",
"pK 	c #803426",
"qK 	c #863A2D",
"rK 	c #86392B",
"sK 	c #8C3C2E",
"tK 	c #863828",
"uK 	c #863A2B",
"vK 	c #893D2E",
"wK 	c #843928",
"xK 	c #853A2A",
"yK 	c #8D3E2F",
"zK 	c #853726",
"AK 	c #853628",
"BK 	c #843828",
"CK 	c #8B3C2D",
"DK 	c #8A3D2F",
"EK 	c #873D2E",
"FK 	c #803829",
"GK 	c #853B2B",
"HK 	c #82392A",
"IK 	c #81392A",
"JK 	c #843D2D",
"KK 	c #793729",
"LK 	c #6B2E1F",
"MK 	c #672E22",
"NK 	c #5E2C1D",
"OK 	c #562A1D",
"PK 	c #381A0F",
"QK 	c #441F0F",
"RK 	c #643320",
"SK 	c #652F1B",
"TK 	c #6D341E",
"UK 	c #6A321A",
"VK 	c #763721",
"WK 	c #7C3D26",
"XK 	c #7C3C23",
"YK 	c #7F3F23",
"ZK 	c #85472A",
"`K 	c #7D4025",
" L 	c #793E26",
".L 	c #6C3821",
"+L 	c #612F1B",
"@L 	c #5B2915",
"#L 	c #713221",
"$L 	c #813B2B",
"%L 	c #823B29",
"&L 	c #813B28",
"*L 	c #853E2A",
"=L 	c #833A26",
"-L 	c #863B2A",
";L 	c #8B402E",
">L 	c #833726",
",L 	c #863C2A",
"'L 	c #853B28",
")L 	c #863D2B",
"!L 	c #823826",
"~L 	c #853A29",
"{L 	c #823A27",
"]L 	c #843C29",
"^L 	c #7E3927",
"/L 	c #813C29",
"(L 	c #7B3423",
"_L 	c #7F3525",
":L 	c #853B2A",
"<L 	c #904231",
"[L 	c #903F2E",
"}L 	c #8C3D2C",
"|L 	c #8C3F2C",
"1L 	c #823626",
"2L 	c #853929",
"3L 	c #893F2E",
"4L 	c #823A28",
"5L 	c #883C2D",
"6L 	c #823829",
"7L 	c #853A2D",
"8L 	c #7F3729",
"9L 	c #7C3728",
"0L 	c #6D3121",
"aL 	c #632D1F",
"bL 	c #56261A",
"cL 	c #4B1D11",
"dL 	c #44170D",
"eL 	c #35130C",
"fL 	c #41190E",
"gL 	c #491C0E",
"hL 	c #532110",
"iL 	c #5A2414",
"jL 	c #713823",
"kL 	c #6E3620",
"lL 	c #7A3F2A",
"mL 	c #773D26",
"nL 	c #753C25",
"oL 	c #763821",
"pL 	c #73371F",
"qL 	c #683720",
"rL 	c #5C331F",
"sL 	c #793C29",
"tL 	c #88452D",
"uL 	c #8C3C29",
"vL 	c #6A281C",
"wL 	c #60271B",
"xL 	c #663A2E",
"yL 	c #341A15",
"zL 	c #220C06",
"AL 	c #35150A",
"BL 	c #3D1A0D",
"CL 	c #4A2213",
"DL 	c #63301D",
"EL 	c #6B3625",
"FL 	c #6A3321",
"GL 	c #713724",
"HL 	c #743A26",
"IL 	c #6A3522",
"JL 	c #673321",
"KL 	c #692F1E",
"LL 	c #280A06",
"ML 	c #A97E74",
"NL 	c #8E4A3F",
"OL 	c #7C2D1D",
"PL 	c #8D3729",
"QL 	c #AE695E",
"RL 	c #B5695C",
"SL 	c #AB6457",
"TL 	c #985346",
"UL 	c #A0564A",
"VL 	c #9F554B",
"WL 	c #A4594A",
"XL 	c #B16355",
"YL 	c #B56658",
"ZL 	c #BA6258",
"`L 	c #B25F53",
" M 	c #AF5E50",
".M 	c #A95C4C",
"+M 	c #9D4E3E",
"@M 	c #93473A",
"#M 	c #884435",
"$M 	c #884639",
"%M 	c #834436",
"&M 	c #7E4031",
"*M 	c #7E4032",
"=M 	c #7A3C30",
"-M 	c #783C2E",
";M 	c #74392B",
">M 	c #713629",
",M 	c #6D3124",
"'M 	c #682F21",
")M 	c #5F2B1F",
"!M 	c #3E1B12",
"~M 	c #3B190F",
"{M 	c #401C0F",
"]M 	c #482113",
"^M 	c #4C2617",
"/M 	c #482615",
"(M 	c #542D1B",
"_M 	c #5A2F1B",
":M 	c #542A18",
"<M 	c #512A1A",
"[M 	c #442112",
"}M 	c #3F190E",
"|M 	c #42180F",
"1M 	c #592920",
"2M 	c #5F2C21",
"3M 	c #6B2F21",
"4M 	c #6A2C1E",
"5M 	c #6F3023",
"6M 	c #6D3021",
"7M 	c #6E2F20",
"8M 	c #6D2E1E",
"9M 	c #6F3021",
"0M 	c #6E3120",
"aM 	c #6E3021",
"bM 	c #672C1C",
"cM 	c #6E2E1F",
"dM 	c #702E1F",
"eM 	c #712F20",
"fM 	c #723020",
"gM 	c #753323",
"hM 	c #722E1F",
"iM 	c #70291C",
"jM 	c #6F2B1C",
"kM 	c #712C1D",
"lM 	c #732F21",
"mM 	c #723121",
"nM 	c #6E321F",
"oM 	c #723021",
"pM 	c #763625",
"qM 	c #753525",
"rM 	c #6F3020",
"sM 	c #733524",
"tM 	c #753928",
"uM 	c #72382A",
"vM 	c #723A2E",
"wM 	c #7D473C",
"xM 	c #673329",
"yM 	c #33140C",
"zM 	c #432018",
"AM 	c #54291C",
"BM 	c #522D20",
"CM 	c #653827",
"DM 	c #703E2D",
"EM 	c #7F4633",
"FM 	c #834738",
"GM 	c #824431",
"HM 	c #7F4530",
"IM 	c #78422C",
"JM 	c #703F29",
"KM 	c #653824",
"LM 	c #552B1D",
"MM 	c #4C2313",
"NM 	c #582917",
"OM 	c #5A2516",
"PM 	c #6D3122",
"QM 	c #6C2F1E",
"RM 	c #713121",
"SM 	c #753421",
"TM 	c #7D3925",
"UM 	c #7B3725",
"VM 	c #7C3625",
"WM 	c #803928",
"XM 	c #7B3524",
"YM 	c #793523",
"ZM 	c #783723",
"`M 	c #773824",
" N 	c #763523",
".N 	c #783726",
"+N 	c #7A3626",
"@N 	c #763322",
"#N 	c #733121",
"$N 	c #733221",
"%N 	c #6F301E",
"&N 	c #763421",
"*N 	c #793322",
"=N 	c #7D3424",
"-N 	c #793021",
";N 	c #833728",
">N 	c #8C3A2A",
",N 	c #8D3C2D",
"'N 	c #8C3B2C",
")N 	c #8A3A2B",
"!N 	c #873A29",
"~N 	c #8A3B2C",
"{N 	c #8E412F",
"]N 	c #913D2E",
"^N 	c #934132",
"/N 	c #913F32",
"(N 	c #904133",
"_N 	c #823D2F",
":N 	c #673023",
"<N 	c #481D15",
"[N 	c #3A150D",
"}N 	c #39160E",
"|N 	c #391811",
"1N 	c #3C1A13",
"2N 	c #3C1B14",
"3N 	c #3B1B13",
"4N 	c #3A1A12",
"5N 	c #3D1C14",
"6N 	c #3C1C13",
"7N 	c #3E2015",
"8N 	c #683A2E",
"9N 	c #763E32",
"0N 	c #9C5241",
"aN 	c #974D3C",
"bN 	c #964C3D",
"cN 	c #944C3E",
"dN 	c #954D3E",
"eN 	c #9B4D40",
"fN 	c #A75547",
"gN 	c #B96656",
"hN 	c #B46A58",
"iN 	c #A05C4D",
"jN 	c #905344",
"kN 	c #8C4F40",
"lN 	c #834536",
"mN 	c #7D402F",
"nN 	c #783F2E",
"oN 	c #783D2C",
"pN 	c #6D3728",
"qN 	c #834636",
"rN 	c #814737",
"sN 	c #894835",
"tN 	c #823627",
"uN 	c #91554A",
"vN 	c #A77E79",
"wN 	c #984838",
"xN 	c #B26758",
"yN 	c #B56A58",
"zN 	c #A9624F",
"AN 	c #A6604E",
"BN 	c #A35D49",
"CN 	c #A35946",
"DN 	c #A55546",
"EN 	c #A65446",
"FN 	c #A55346",
"GN 	c #A45243",
"HN 	c #A15041",
"IN 	c #9D4C3D",
"JN 	c #9E4B3C",
"KN 	c #9B4735",
"LN 	c #9A4938",
"MN 	c #994A3C",
"NN 	c #994D3A",
"ON 	c #9C4D3C",
"PN 	c #9E4D41",
"QN 	c #994C3D",
"RN 	c #974C3D",
"SN 	c #984B3B",
"TN 	c #954638",
"UN 	c #954838",
"VN 	c #974A39",
"WN 	c #924434",
"XN 	c #934334",
"YN 	c #8E3F33",
"ZN 	c #893C30",
"`N 	c #8A3D30",
" O 	c #914735",
".O 	c #964B3A",
"+O 	c #9A4E3D",
"@O 	c #9A503F",
"#O 	c #9D503E",
"$O 	c #9D4C3A",
"%O 	c #9B4835",
"&O 	c #A24A3A",
"*O 	c #A34B3A",
"=O 	c #9D4939",
"-O 	c #974433",
";O 	c #903E2C",
">O 	c #984031",
",O 	c #9A4030",
"'O 	c #98382B",
")O 	c #96382A",
"!O 	c #97392B",
"~O 	c #943629",
"{O 	c #953628",
"]O 	c #993829",
"^O 	c #953526",
"/O 	c #963525",
"(O 	c #943426",
"_O 	c #953627",
":O 	c #9A392B",
"<O 	c #9A3A2D",
"[O 	c #9D3C2D",
"}O 	c #9B3A2B",
"|O 	c #A0402E",
"1O 	c #A13C2C",
"2O 	c #A24133",
"3O 	c #9B3C2D",
"4O 	c #9E4031",
"5O 	c #9B3D2E",
"6O 	c #993B2B",
"7O 	c #993E2D",
"8O 	c #973E2F",
"9O 	c #994130",
"0O 	c #9C4132",
"aO 	c #9F4433",
"bO 	c #9D4232",
"cO 	c #9D4636",
"dO 	c #8E3D2E",
"eO 	c #863829",
"fO 	c #7D3927",
"gO 	c #713527",
"hO 	c #733A2A",
"iO 	c #683527",
"jO 	c #6D2F26",
"kO 	c #65281D",
"lO 	c #682D1F",
"mO 	c #683020",
"nO 	c #6D2E22",
"oO 	c #712F22",
"pO 	c #6D3022",
"qO 	c #753326",
"rO 	c #793324",
"sO 	c #7B3726",
"tO 	c #863727",
"uO 	c #8B3828",
"vO 	c #923D2D",
"wO 	c #953E2E",
"xO 	c #963D2E",
"yO 	c #9B3E2F",
"zO 	c #A34333",
"AO 	c #A24434",
"BO 	c #A44636",
"CO 	c #A44737",
"DO 	c #A44736",
"EO 	c #A94737",
"FO 	c #AB483A",
"GO 	c #AE493B",
"HO 	c #AB4638",
"IO 	c #A94638",
"JO 	c #A04333",
"KO 	c #9D3F2F",
"LO 	c #A03F2D",
"MO 	c #9C3A2A",
"NO 	c #9A3B2B",
"OO 	c #983A2A",
"PO 	c #9B3C2B",
"QO 	c #9B3F2C",
"RO 	c #9C412D",
"SO 	c #9F412E",
"TO 	c #9F412F",
"UO 	c #A2402D",
"VO 	c #A1402F",
"WO 	c #9F3D2C",
"XO 	c #A04030",
"YO 	c #9F3E2F",
"ZO 	c #9B432F",
"`O 	c #9A412E",
" P 	c #9F4631",
".P 	c #A14631",
"+P 	c #A54835",
"@P 	c #AB4D3A",
"#P 	c #AA4D3D",
"$P 	c #A94B3A",
"%P 	c #AE5340",
"&P 	c #A7553F",
"*P 	c #A65140",
"=P 	c #A35240",
"-P 	c #A35646",
";P 	c #A35546",
">P 	c #A15545",
",P 	c #A35543",
"'P 	c #A75445",
")P 	c #A45543",
"!P 	c #A55846",
"~P 	c #A75B4A",
"{P 	c #A25441",
"]P 	c #A45644",
"^P 	c #A35644",
"/P 	c #A35241",
"(P 	c #A05341",
"_P 	c #9D513F",
":P 	c #9D5140",
"<P 	c #A15744",
"[P 	c #A15743",
"}P 	c #A75C48",
"|P 	c #B0624E",
"1P 	c #B66750",
"2P 	c #B86951",
"3P 	c #B96A53",
"4P 	c #B76550",
"5P 	c #AD5540",
"6P 	c #8A3426",
"7P 	c #8C3D2D",
"8P 	c #984839",
"9P 	c #9F4D3C",
"0P 	c #A55643",
"aP 	c #AF5E4E",
"bP 	c #B35E50",
"cP 	c #B25F4F",
"dP 	c #B35E4E",
"eP 	c #B25A48",
"fP 	c #B65B4A",
"gP 	c #B45C4A",
"hP 	c #B65D4C",
"iP 	c #B9614F",
"jP 	c #BE6753",
"kP 	c #BF6755",
"lP 	c #BF6654",
"mP 	c #C36C56",
"nP 	c #C06854",
"oP 	c #C66C5A",
"pP 	c #C16D5C",
"qP 	c #C36E5B",
"rP 	c #C8715D",
"sP 	c #C8705D",
"tP 	c #CC7462",
"uP 	c #C56E5B",
"vP 	c #C56B59",
"wP 	c #C16A56",
"xP 	c #C06A57",
"yP 	c #BD6654",
"zP 	c #BC6654",
"AP 	c #BA6351",
"BP 	c #BD6655",
"CP 	c #BF6855",
"DP 	c #C06956",
"EP 	c #C16E59",
"FP 	c #BE6956",
"GP 	c #BA6855",
"HP 	c #BD6B58",
"IP 	c #BC6A57",
"JP 	c #BB6855",
"KP 	c #C06B58",
"LP 	c #C16A57",
"MP 	c #C06754",
"NP 	c #BD624F",
"OP 	c #C26955",
"PP 	c #C06853",
"QP 	c #BE6452",
"RP 	c #B6634D",
"SP 	c #B86350",
"TP 	c #BC6754",
"UP 	c #C26654",
"VP 	c #C26956",
"WP 	c #C66B58",
"XP 	c #C56C59",
"YP 	c #BF6954",
"ZP 	c #C06E58",
"`P 	c #B26550",
" Q 	c #AC6756",
".Q 	c #B06755",
"+Q 	c #A9604E",
"@Q 	c #A85C49",
"#Q 	c #AB5E4D",
"$Q 	c #A65E4C",
"%Q 	c #AC634F",
"&Q 	c #AA5C49",
"*Q 	c #A35541",
"=Q 	c #AA5A47",
"-Q 	c #AE5C48",
";Q 	c #AC5845",
">Q 	c #AF5A46",
",Q 	c #B8604D",
"'Q 	c #BE6250",
")Q 	c #BB5F4D",
"!Q 	c #B35C47",
"~Q 	c #AA5847",
"{Q 	c #A45845",
"]Q 	c #A75944",
"^Q 	c #A5533F",
"/Q 	c #A5503E",
"(Q 	c #A6503D",
"_Q 	c #A14C3A",
":Q 	c #924531",
"<Q 	c #8B412E",
"[Q 	c #924733",
"}Q 	c #904834",
"|Q 	c #8B4632",
"1Q 	c #8B4633",
"2Q 	c #8E4E3A",
"3Q 	c #824630",
"4Q 	c #844632",
"5Q 	c #80442D",
"6Q 	c #8F4D36",
"7Q 	c #974A37",
"8Q 	c #A14B36",
"9Q 	c #9D4533",
"0Q 	c #A04735",
"aQ 	c #A04833",
"bQ 	c #A04933",
"cQ 	c #9F4532",
"dQ 	c #9D4331",
"eQ 	c #9B4430",
"fQ 	c #A04432",
"gQ 	c #A74736",
"hQ 	c #A64735",
"iQ 	c #AA4936",
"jQ 	c #A64632",
"kQ 	c #A94834",
"lQ 	c #A54633",
"mQ 	c #A84C37",
"nQ 	c #A54C37",
"oQ 	c #A44934",
"pQ 	c #B3503B",
"qQ 	c #B4503B",
"rQ 	c #B54F3D",
"sQ 	c #AD4B38",
"tQ 	c #AA4836",
"uQ 	c #A44532",
"vQ 	c #A14633",
"wQ 	c #A54A37",
"xQ 	c #A24636",
"yQ 	c #A34633",
"zQ 	c #AA4735",
"AQ 	c #A44632",
"BQ 	c #A44531",
"CQ 	c #A44430",
"DQ 	c #A64832",
"EQ 	c #A54731",
"FQ 	c #A84A38",
"GQ 	c #A34432",
"HQ 	c #A54734",
"IQ 	c #A24632",
"JQ 	c #A24A36",
"KQ 	c #A04835",
"LQ 	c #A44935",
"MQ 	c #AC533E",
"NQ 	c #AB533F",
"OQ 	c #AA5843",
"PQ 	c #A85542",
"QQ 	c #B05C46",
"RQ 	c #B25A46",
"SQ 	c #B9604C",
"TQ 	c #B55F4B",
"UQ 	c #B35F4B",
"VQ 	c #B4604B",
"WQ 	c #BD6753",
"XQ 	c #B96450",
"YQ 	c #B1614C",
"ZQ 	c #A05640",
"`Q 	c #A25A43",
" R 	c #AF5F49",
".R 	c #A95B45",
"+R 	c #AC5D46",
"@R 	c #B45F49",
"#R 	c #AB5941",
"$R 	c #AA5D47",
"%R 	c #9E5942",
"&R 	c #A05A43",
"*R 	c #994E38",
"=R 	c #A3563E",
"-R 	c #A4533C",
";R 	c #A84F38",
">R 	c #A3543B",
",R 	c #9F513B",
"'R 	c #7B1D0D",
")R 	c #823526",
"!R 	c #803728",
"~R 	c #823728",
"{R 	c #7E3422",
"]R 	c #803927",
"^R 	c #863A28",
"/R 	c #9D402E",
"(R 	c #9C422F",
"_R 	c #A14531",
":R 	c #A34330",
"<R 	c #AF4D3A",
"[R 	c #AE4838",
"}R 	c #AD4732",
"|R 	c #AD4834",
"1R 	c #B14F3D",
"2R 	c #BB5641",
"3R 	c #C15946",
"4R 	c #C15B47",
"5R 	c #BF5845",
"6R 	c #C15B48",
"7R 	c #C45E4C",
"8R 	c #C05A47",
"9R 	c #C4614F",
"0R 	c #C25F4C",
"aR 	c #BD5D48",
"bR 	c #B95B46",
"cR 	c #B75B47",
"dR 	c #B75745",
"eR 	c #C46252",
"fR 	c #BA5B4A",
"gR 	c #B35643",
"hR 	c #BA5B49",
"iR 	c #BC5D49",
"jR 	c #BE5E4B",
"kR 	c #C6624F",
"lR 	c #C05D4A",
"mR 	c #B75946",
"nR 	c #C06451",
"oR 	c #BC634E",
"pR 	c #B8604C",
"qR 	c #B3604B",
"rR 	c #A85B45",
"sR 	c #A55E48",
"tR 	c #AD624E",
"uR 	c #A46852",
"vR 	c #AF7663",
"wR 	c #8C5E49",
"xR 	c #8E5C47",
"yR 	c #A06551",
"zR 	c #AA6450",
"AR 	c #A9654F",
"BR 	c #A9604A",
"CR 	c #A15540",
"DR 	c #AC5C47",
"ER 	c #AC5943",
"FR 	c #B06049",
"GR 	c #A25741",
"HR 	c #9A513B",
"IR 	c #A85D48",
"JR 	c #AF624C",
"KR 	c #A55841",
"LR 	c #A86148",
"MR 	c #A8654F",
"NR 	c #A1624B",
"OR 	c #A35E4A",
"PR 	c #B15C46",
"QR 	c #BB5D48",
"RR 	c #BB634A",
"SR 	c #B75F47",
"TR 	c #C06650",
"UR 	c #BE6950",
"VR 	c #BD6650",
"WR 	c #BB644F",
"XR 	c #B35C46",
"YR 	c #B36047",
"ZR 	c #BC664E",
"`R 	c #B8644D",
" S 	c #B0664D",
".S 	c #AE684F",
"+S 	c #AC654E",
"@S 	c #AA654C",
"#S 	c #BE725A",
"$S 	c #C3765B",
"%S 	c #C3755A",
"&S 	c #BB6C52",
"*S 	c #B86B51",
"=S 	c #B5634A",
"-S 	c #BC664D",
";S 	c #BE694E",
">S 	c #B96549",
",S 	c #BF6B52",
"'S 	c #B8644A",
")S 	c #B86349",
"!S 	c #BE664D",
"~S 	c #C0664C",
"{S 	c #C87057",
"]S 	c #C36F55",
"^S 	c #C36C53",
"/S 	c #B8684D",
"(S 	c #BE6B53",
"_S 	c #BD6B53",
":S 	c #B8634A",
"<S 	c #C56F56",
"[S 	c #BF6E55",
"}S 	c #B96C51",
"|S 	c #B1664D",
"1S 	c #B26B51",
"2S 	c #B76F55",
"3S 	c #C0765C",
"4S 	c #BC6B53",
"5S 	c #BF6B54",
"6S 	c #C56D54",
"7S 	c #C76C52",
"8S 	c #C96D54",
"9S 	c #C96E53",
"0S 	c #C3674E",
"aS 	c #C4684E",
"bS 	c #CB6E54",
"cS 	c #CA6E54",
"dS 	c #C76B50",
"eS 	c #C86E55",
"fS 	c #C56954",
"gS 	c #B6604A",
"hS 	c #AF5E47",
"iS 	c #BB624C",
"jS 	c #C46750",
"kS 	c #C06651",
"lS 	c #C16951",
"mS 	c #B5624A",
"nS 	c #B8624B",
"oS 	c #CB6850",
"pS 	c #C8674E",
"qS 	c #C76650",
"rS 	c #C66750",
"sS 	c #B75C45",
"tS 	c #CC6B53",
"uS 	c #CB674F",
"vS 	c #C8654F",
"wS 	c #C4634B",
"xS 	c #CB664E",
"yS 	c #CD654C",
"zS 	c #D0674F",
"AS 	c #D0674E",
"BS 	c #C75F47",
"CS 	c #C75D47",
"DS 	c #C95E47",
"ES 	c #BF5942",
"FS 	c #C35E46",
"GS 	c #B9593F",
"HS 	c #BB583E",
"IS 	c #B5593E",
"JS 	c #B1573F",
"KS 	c #BB5E47",
"LS 	c #B85740",
"MS 	c #A44D37",
"NS 	c #9D5039",
"OS 	c #B55D48",
"PS 	c #B0503A",
"QS 	c #AA4E38",
"RS 	c #AD513A",
"SS 	c #A2462F",
"TS 	c #9A432E",
"US 	c #9E462F",
"VS 	c #A34A35",
"WS 	c #9E452F",
"XS 	c #93412C",
"YS 	c #97412D",
"ZS 	c #A5412D",
"`S 	c #A0402A",
" T 	c #984129",
".T 	c #A24C33",
"+T 	c #9A5A4F",
"@T 	c #9D7365",
"#T 	c #783123",
"$T 	c #773223",
"%T 	c #7D3222",
"&T 	c #782E1E",
"*T 	c #892E1E",
"=T 	c #8E301F",
"-T 	c #8E3220",
";T 	c #913220",
">T 	c #953321",
",T 	c #993421",
"'T 	c #983422",
")T 	c #9E3928",
"!T 	c #9F3A29",
"~T 	c #973522",
"{T 	c #9A3A27",
"]T 	c #9D3A28",
"^T 	c #9E3A27",
"/T 	c #AA422F",
"(T 	c #AA4432",
"_T 	c #A5422F",
":T 	c #A44230",
"<T 	c #A84433",
"[T 	c #AA4631",
"}T 	c #AB4633",
"|T 	c #B24C38",
"1T 	c #A84731",
"2T 	c #A94B36",
"3T 	c #A14A33",
"4T 	c #984832",
"5T 	c #A04733",
"6T 	c #AB4734",
"7T 	c #B35741",
"8T 	c #BC5E49",
"9T 	c #AA4E39",
"0T 	c #AB523D",
"aT 	c #AD5440",
"bT 	c #A0503D",
"cT 	c #B65F49",
"dT 	c #B55643",
"eT 	c #BD5543",
"fT 	c #BE5642",
"gT 	c #B04F3A",
"hT 	c #9B4733",
"iT 	c #A2503C",
"jT 	c #9F543A",
"kT 	c #9D533B",
"lT 	c #984F3A",
"mT 	c #A65D48",
"nT 	c #A2604A",
"oT 	c #AF644E",
"pT 	c #C0664E",
"qT 	c #BF5B43",
"rT 	c #D36D54",
"sT 	c #CD684F",
"tT 	c #CB664D",
"uT 	c #BE5F45",
"vT 	c #C05F46",
"wT 	c #C26149",
"xT 	c #BF5E45",
"yT 	c #C56049",
"zT 	c #D36E55",
"AT 	c #C2634A",
"BT 	c #BB6147",
"CT 	c #C77257",
"DT 	c #BF6C50",
"ET 	c #D0775C",
"FT 	c #CB6F54",
"GT 	c #C66B52",
"HT 	c #BD634A",
"IT 	c #C16850",
"JT 	c #C36A50",
"KT 	c #CD6F54",
"LT 	c #CF7257",
"MT 	c #C96B4F",
"NT 	c #D47458",
"OT 	c #D67358",
"PT 	c #DB765A",
"QT 	c #CB684D",
"RT 	c #D17056",
"ST 	c #DF7C5E",
"TT 	c #C86449",
"UT 	c #D06E52",
"VT 	c #D16D52",
"WT 	c #D16E54",
"XT 	c #CB6D53",
"YT 	c #B6573D",
"ZT 	c #CF6A50",
"`T 	c #CF6C51",
" U 	c #CD6E54",
".U 	c #C46E53",
"+U 	c #AE5C43",
"@U 	c #BC6B50",
"#U 	c #C27559",
"$U 	c #CA795D",
"%U 	c #CE7459",
"&U 	c #D5785A",
"*U 	c #D27053",
"=U 	c #DC7A5B",
"-U 	c #D77457",
";U 	c #D36E52",
">U 	c #D57257",
",U 	c #CE694F",
"'U 	c #D67056",
")U 	c #D66E54",
"!U 	c #C85F45",
"~U 	c #D2664C",
"{U 	c #D1674F",
"]U 	c #CA6046",
"^U 	c #C55E42",
"/U 	c #C96247",
"(U 	c #BB5A42",
"_U 	c #AD5A44",
":U 	c #A65D47",
"<U 	c #AC5941",
"[U 	c #D1654C",
"}U 	c #D5694F",
"|U 	c #D3654C",
"1U 	c #D2674D",
"2U 	c #D1684E",
"3U 	c #C2583E",
"4U 	c #D4674F",
"5U 	c #CF5842",
"6U 	c #CD5941",
"7U 	c #BC513A",
"8U 	c #B54B33",
"9U 	c #AF472F",
"0U 	c #A74630",
"aU 	c #AA4C37",
"bU 	c #9B3E28",
"cU 	c #AA4B33",
"dU 	c #9F3D27",
"eU 	c #A23F27",
"fU 	c #B34630",
"gU 	c #A43F2B",
"hU 	c #A43D28",
"iU 	c #A33C26",
"jU 	c #A7422E",
"kU 	c #A13D29",
"lU 	c #9B3B26",
"mU 	c #A13A24",
"nU 	c #A13B24",
"oU 	c #9F3E2A",
"pU 	c #A6482E",
"qU 	c #A15C4D",
"rU 	c #955F4E",
"sU 	c #7A2D1D",
"tU 	c #772E1D",
"uU 	c #7A3121",
"vU 	c #7B2F1D",
"wU 	c #7B2D1B",
"xU 	c #822E1E",
"yU 	c #8A2F1F",
"zU 	c #872C1C",
"AU 	c #882E1D",
"BU 	c #91301E",
"CU 	c #8C2E1D",
"DU 	c #943320",
"EU 	c #902E1D",
"FU 	c #8E321E",
"GU 	c #7E2E1C",
"HU 	c #9E3929",
"IU 	c #9A3524",
"JU 	c #9B3626",
"KU 	c #9B3624",
"LU 	c #963121",
"MU 	c #9B3524",
"NU 	c #9C3523",
"OU 	c #A03C28",
"PU 	c #A23D29",
"QU 	c #9F3B28",
"RU 	c #96402C",
"SU 	c #92432D",
"TU 	c #8E3824",
"UU 	c #A8412D",
"VU 	c #A33D29",
"WU 	c #A7402D",
"XU 	c #A74330",
"YU 	c #A5412F",
"ZU 	c #A54530",
"`U 	c #A54531",
" V 	c #9E3F2A",
".V 	c #9B402C",
"+V 	c #A34231",
"@V 	c #A3402D",
"#V 	c #AE4230",
"$V 	c #A24935",
"%V 	c #9F432F",
"&V 	c #A34530",
"*V 	c #A44431",
"=V 	c #AB4B37",
"-V 	c #AC4731",
";V 	c #B24933",
">V 	c #AB432C",
",V 	c #BA4933",
"'V 	c #AD4730",
")V 	c #AE4E36",
"!V 	c #A0442D",
"~V 	c #A4462F",
"{V 	c #B64F37",
"]V 	c #AE4931",
"^V 	c #BA553C",
"/V 	c #BE543D",
"(V 	c #C2573F",
"_V 	c #B74E35",
":V 	c #C1563C",
"<V 	c #C95C41",
"[V 	c #CD5F45",
"}V 	c #C1563F",
"|V 	c #B94C35",
"1V 	c #D3624B",
"2V 	c #C3553B",
"3V 	c #B64D35",
"4V 	c #B14D35",
"5V 	c #BB553E",
"6V 	c #C25C45",
"7V 	c #B65037",
"8V 	c #C45C42",
"9V 	c #BE5136",
"0V 	c #BF5036",
"aV 	c #BD5238",
"bV 	c #BB573D",
"cV 	c #9F4D36",
"dV 	c #9D5640",
"eV 	c #A14B34",
"fV 	c #BA4931",
"gV 	c #9C3A23",
"hV 	c #953B26",
"iV 	c #A1432C",
"jV 	c #8F3822",
"kV 	c #933E26",
"lV 	c #AB402A",
"mV 	c #AE3D29",
"nV 	c #A53C25",
"oV 	c #A63A26",
"pV 	c #A13723",
"qV 	c #9E3522",
"rV 	c #A23B26",
"sV 	c #A83724",
"tV 	c #9F3621",
"uV 	c #A43C26",
"vV 	c #98473B",
"wV 	c #936557",
"xV 	c #752B1D",
"yV 	c #7D3020",
"zV 	c #7A2E1F",
"AV 	c #792E1D",
"BV 	c #7A2C1B",
"CV 	c #792717",
"DV 	c #852A1A",
"EV 	c #882D1B",
"FV 	c #902E1F",
"GV 	c #8F2E1E",
"HV 	c #932F1E",
"IV 	c #8F2D1C",
"JV 	c #96311F",
"KV 	c #8E2B1B",
"LV 	c #8F3220",
"MV 	c #742E1A",
"NV 	c #833322",
"OV 	c #933322",
"PV 	c #91321F",
"QV 	c #94311E",
"RV 	c #983420",
"SV 	c #94311C",
"TV 	c #993622",
"UV 	c #9C3A28",
"VV 	c #93311F",
"WV 	c #953521",
"XV 	c #993521",
"YV 	c #9E3723",
"ZV 	c #953A27",
"`V 	c #9F3D28",
" W 	c #9C3824",
".W 	c #A9422C",
"+W 	c #A53C27",
"@W 	c #A53B28",
"#W 	c #983925",
"$W 	c #983825",
"%W 	c #A0402C",
"&W 	c #A14630",
"*W 	c #993D27",
"=W 	c #9E3824",
"-W 	c #A8412C",
";W 	c #AB442F",
">W 	c #A83D29",
",W 	c #AB3E2A",
"'W 	c #A13521",
")W 	c #A73E2A",
"!W 	c #A73F2A",
"~W 	c #B24632",
"{W 	c #B74C35",
"]W 	c #BC5138",
"^W 	c #AE412A",
"/W 	c #B84E36",
"(W 	c #AA452D",
"_W 	c #AB462F",
":W 	c #B24B34",
"<W 	c #BA4B32",
"[W 	c #B84930",
"}W 	c #B7482F",
"|W 	c #B94B33",
"1W 	c #B1422A",
"2W 	c #AC3C24",
"3W 	c #BB4A32",
"4W 	c #B7462E",
"5W 	c #C15037",
"6W 	c #B94C34",
"7W 	c #B84C33",
"8W 	c #BA4E36",
"9W 	c #BB4C33",
"0W 	c #B3452D",
"aW 	c #B9482F",
"bW 	c #B1442D",
"cW 	c #8F3D26",
"dW 	c #913E29",
"eW 	c #AE472E",
"fW 	c #B5402A",
"gW 	c #B33E27",
"hW 	c #B63F29",
"iW 	c #BC462F",
"jW 	c #B03F26",
"kW 	c #B0422A",
"lW 	c #A53D27",
"mW 	c #9B331E",
"nW 	c #903821",
"oW 	c #92361F",
"pW 	c #933922",
"qW 	c #943821",
"rW 	c #A63925",
"sW 	c #9F3A23",
"tW 	c #A13B25",
"uW 	c #A53A24",
"vW 	c #A23722",
"wW 	c #9F341F",
"xW 	c #A0341E",
"yW 	c #9C361F",
"zW 	c #A43F28",
"AW 	c #953E32",
"BW 	c #916454",
"CW 	c #792D1C",
"DW 	c #722815",
"EW 	c #7A2B1A",
"FW 	c #842C1C",
"GW 	c #842C1B",
"HW 	c #8D3120",
"IW 	c #8E2C1B",
"JW 	c #8B2D1B",
"KW 	c #913320",
"LW 	c #902E1C",
"MW 	c #932F1F",
"NW 	c #912C1A",
"OW 	c #902B19",
"PW 	c #8C301E",
"QW 	c #6E3020",
"RW 	c #9E3724",
"SW 	c #96311E",
"TW 	c #92321F",
"UW 	c #90331F",
"VW 	c #983723",
"WW 	c #973220",
"XW 	c #913A28",
"YW 	c #863420",
"ZW 	c #923521",
"`W 	c #A03823",
" X 	c #A63E29",
".X 	c #A23C27",
"+X 	c #9A3D28",
"@X 	c #A03F2C",
"#X 	c #9E3D29",
"$X 	c #A0432D",
"%X 	c #A23D2A",
"&X 	c #A43924",
"*X 	c #A93C27",
"=X 	c #A33B26",
"-X 	c #A33621",
";X 	c #AF3F27",
">X 	c #AB3C25",
",X 	c #B4462F",
"'X 	c #B2452D",
")X 	c #B3462E",
"!X 	c #AF442D",
"~X 	c #C3553D",
"{X 	c #AB4129",
"]X 	c #AA432A",
"^X 	c #BB4D34",
"/X 	c #BB4A31",
"(X 	c #B8472E",
"_X 	c #B7452F",
":X 	c #B9472E",
"<X 	c #B8452C",
"[X 	c #BE4C32",
"}X 	c #BB4931",
"|X 	c #BB462E",
"1X 	c #AD3D27",
"2X 	c #BB472D",
"3X 	c #B44128",
"4X 	c #B4452D",
"5X 	c #AD4932",
"6X 	c #94422C",
"7X 	c #97402B",
"8X 	c #AD3B23",
"9X 	c #B2402A",
"0X 	c #AC3B26",
"aX 	c #AA3A22",
"bX 	c #A93A25",
"cX 	c #A43C25",
"dX 	c #9A3420",
"eX 	c #9C3520",
"fX 	c #A03E28",
"gX 	c #9E3C27",
"hX 	c #943620",
"iX 	c #91351E",
"jX 	c #9E3721",
"kX 	c #A93D26",
"lX 	c #A63721",
"mX 	c #A23420",
"nX 	c #A23924",
"oX 	c #9D3823",
"pX 	c #9E3621",
"qX 	c #9A341F",
"rX 	c #A13520",
"sX 	c #A43823",
"tX 	c #A2341F",
"uX 	c #9D351E",
"vX 	c #96473A",
"wX 	c #906151",
"xX 	c #7C2E1E",
"yX 	c #7B2D1E",
"zX 	c #7C2B1B",
"AX 	c #812816",
"BX 	c #872A1B",
"CX 	c #8D2C1B",
"DX 	c #952F1E",
"EX 	c #8B2C1A",
"FX 	c #86321F",
"GX 	c #6A2E1D",
"HX 	c #702E1B",
"IX 	c #92301F",
"JX 	c #932E1B",
"KX 	c #98311E",
"LX 	c #93301D",
"MX 	c #8F3320",
"NX 	c #923321",
"OX 	c #81311C",
"PX 	c #953924",
"QX 	c #9C3623",
"RX 	c #A03A25",
"SX 	c #93321E",
"TX 	c #92311C",
"UX 	c #92341F",
"VX 	c #98331E",
"WX 	c #9B3823",
"XX 	c #983320",
"YX 	c #9F3924",
"ZX 	c #9E341F",
"`X 	c #A53E27",
" Y 	c #AE4933",
".Y 	c #B3412D",
"+Y 	c #AC3F28",
"@Y 	c #A93B25",
"#Y 	c #B3432B",
"$Y 	c #9F3620",
"%Y 	c #B34932",
"&Y 	c #AE3E26",
"*Y 	c #B44026",
"=Y 	c #B2432A",
"-Y 	c #B2432B",
";Y 	c #B74830",
">Y 	c #B6462D",
",Y 	c #BA452D",
"'Y 	c #B74229",
")Y 	c #B8472F",
"!Y 	c #AF4028",
"~Y 	c #A73B23",
"{Y 	c #C24D33",
"]Y 	c #C44C35",
"^Y 	c #B53D28",
"/Y 	c #AA442E",
"(Y 	c #95432E",
"_Y 	c #A94F39",
":Y 	c #B5412A",
"<Y 	c #A7361F",
"[Y 	c #A73A24",
"}Y 	c #AD3B27",
"|Y 	c #B03E28",
"1Y 	c #A93A23",
"2Y 	c #A1321C",
"3Y 	c #A43923",
"4Y 	c #9D3922",
"5Y 	c #9D3725",
"6Y 	c #9D3723",
"7Y 	c #9E3521",
"8Y 	c #A43B26",
"9Y 	c #99331E",
"0Y 	c #92331D",
"aY 	c #983B23",
"bY 	c #9F3824",
"cY 	c #AB3F29",
"dY 	c #A73D27",
"eY 	c #9B3620",
"fY 	c #9D351F",
"gY 	c #96341F",
"hY 	c #9A3823",
"iY 	c #96311C",
"jY 	c #A23A25",
"kY 	c #A03420",
"lY 	c #9B321D",
"mY 	c #A23B23",
"nY 	c #974E42",
"oY 	c #915E50",
"pY 	c #7E2F1D",
"qY 	c #7C2F1F",
"rY 	c #782918",
"sY 	c #7C2B19",
"tY 	c #8A2B1A",
"uY 	c #892C1B",
"vY 	c #862C1B",
"wY 	c #912E1E",
"xY 	c #923320",
"yY 	c #8F3520",
"zY 	c #7E3322",
"AY 	c #803420",
"BY 	c #983220",
"CY 	c #962F1E",
"DY 	c #993220",
"EY 	c #9B3220",
"FY 	c #962E1B",
"GY 	c #97321F",
"HY 	c #963521",
"IY 	c #993320",
"JY 	c #A03726",
"KY 	c #943420",
"LY 	c #923924",
"MY 	c #8E3925",
"NY 	c #963722",
"OY 	c #9B3925",
"PY 	c #98351F",
"QY 	c #9B3521",
"RY 	c #9D3521",
"SY 	c #A63720",
"TY 	c #AE402B",
"UY 	c #A13823",
"VY 	c #B6422C",
"WY 	c #B2422C",
"XY 	c #AB3E27",
"YY 	c #B4422B",
"ZY 	c #B1432B",
"`Y 	c #AB3D26",
" Z 	c #AF3B23",
".Z 	c #B6432C",
"+Z 	c #B13F29",
"@Z 	c #BA4730",
"#Z 	c #B24028",
"$Z 	c #B9472F",
"%Z 	c #B54129",
"&Z 	c #B64229",
"*Z 	c #B7422A",
"=Z 	c #B8432A",
"-Z 	c #B24128",
";Z 	c #AC3D25",
">Z 	c #BC4C33",
",Z 	c #C54F37",
"'Z 	c #B0432B",
")Z 	c #C2553C",
"!Z 	c #BC442B",
"~Z 	c #923A25",
"{Z 	c #A94A33",
"]Z 	c #A83A23",
"^Z 	c #A33822",
"/Z 	c #A3321C",
"(Z 	c #A43720",
"_Z 	c #A83C26",
":Z 	c #95341E",
"<Z 	c #9A351F",
"[Z 	c #A43A25",
"}Z 	c #A23A24",
"|Z 	c #8F301A",
"1Z 	c #A13C25",
"2Z 	c #9A321C",
"3Z 	c #9D3620",
"4Z 	c #9A3622",
"5Z 	c #A23E25",
"6Z 	c #954B40",
"7Z 	c #945E51",
"8Z 	c #792F20",
"9Z 	c #7E2E1D",
"0Z 	c #742A17",
"aZ 	c #7C2D1B",
"bZ 	c #7C2918",
"cZ 	c #832818",
"dZ 	c #882B19",
"eZ 	c #8C2C1B",
"fZ 	c #8E301D",
"gZ 	c #82311E",
"hZ 	c #7F2C18",
"iZ 	c #8F2A19",
"jZ 	c #95311D",
"kZ 	c #91311E",
"lZ 	c #913221",
"mZ 	c #9B3321",
"nZ 	c #9C3622",
"oZ 	c #983421",
"pZ 	c #993C28",
"qZ 	c #933F2B",
"rZ 	c #913421",
"sZ 	c #A03A26",
"tZ 	c #9D3824",
"uZ 	c #9D3721",
"vZ 	c #A73C26",
"wZ 	c #A23620",
"xZ 	c #A73721",
"yZ 	c #B2402C",
"zZ 	c #AF4732",
"AZ 	c #AC462F",
"BZ 	c #A83E28",
"CZ 	c #AA3C24",
"DZ 	c #AB3921",
"EZ 	c #AA3823",
"FZ 	c #AB3B24",
"GZ 	c #AD412B",
"HZ 	c #B2472F",
"IZ 	c #B4472E",
"JZ 	c #B23E28",
"KZ 	c #B43F27",
"LZ 	c #B9452E",
"MZ 	c #A83821",
"NZ 	c #B5442A",
"OZ 	c #B7462D",
"PZ 	c #AA3B23",
"QZ 	c #B24027",
"RZ 	c #C34C35",
"SZ 	c #B84931",
"TZ 	c #B94D35",
"UZ 	c #AD432B",
"VZ 	c #B6472F",
"WZ 	c #B63F27",
"XZ 	c #AD371F",
"YZ 	c #B83E28",
"ZZ 	c #A9422A",
"`Z 	c #9F402B",
" ` 	c #AF452F",
".` 	c #B53C25",
"+` 	c #B63E27",
"@` 	c #AC3D26",
"#` 	c #A13923",
"$` 	c #A63B25",
"%` 	c #A13721",
"&` 	c #9F3721",
"*` 	c #A03622",
"=` 	c #9E3520",
"-` 	c #9C331D",
";` 	c #A33921",
">` 	c #A03621",
",` 	c #A6402B",
"'` 	c #9B3A23",
")` 	c #A83D27",
"!` 	c #A2361E",
"~` 	c #A33721",
"{` 	c #A03721",
"]` 	c #9E3B26",
"^` 	c #8B311C",
"/` 	c #9A3620",
"(` 	c #9F331E",
"_` 	c #9E321D",
":` 	c #9A321E",
"<` 	c #9D3720",
"[` 	c #9F3F28",
"}` 	c #964438",
"|` 	c #965D4E",
"1` 	c #78301E",
"2` 	c #7F311E",
"3` 	c #792B1C",
"4` 	c #7B2C1B",
"5` 	c #822D1E",
"6` 	c #862C1D",
"7` 	c #8E2D1C",
"8` 	c #8A2B1B",
"9` 	c #8F321F",
"0` 	c #8B301D",
"a` 	c #8F311F",
"b` 	c #8B3421",
"c` 	c #922E1B",
"d` 	c #973221",
"e` 	c #92301D",
"f` 	c #9A3523",
"g` 	c #9E3826",
"h` 	c #983120",
"i` 	c #892E1A",
"j` 	c #7A2F1B",
"k` 	c #903724",
"l` 	c #A43C28",
"m` 	c #A03925",
"n` 	c #973420",
"o` 	c #A33F2A",
"p` 	c #AC4530",
"q` 	c #A33A26",
"r` 	c #A13420",
"s` 	c #AB3F28",
"t` 	c #A4351E",
"u` 	c #A83822",
"v` 	c #AA3924",
"w` 	c #AF3C27",
"x` 	c #A33E28",
"y` 	c #9E3F2B",
"z` 	c #923B26",
"A` 	c #943B23",
"B` 	c #AC4831",
"C` 	c #B64634",
"D` 	c #AB3824",
"E` 	c #B4442E",
"F` 	c #AE4028",
"G` 	c #A8422B",
"H` 	c #A73D26",
"I` 	c #AF4129",
"J` 	c #B5462D",
"K` 	c #B74B33",
"L` 	c #B14129",
"M` 	c #BB4A33",
"N` 	c #B5422A",
"O` 	c #B7442C",
"P` 	c #B44229",
"Q` 	c #B23D25",
"R` 	c #AE3921",
"S` 	c #AF3A22",
"T` 	c #BA4930",
"U` 	c #AB3A21",
"V` 	c #AF4229",
"W` 	c #AD4831",
"X` 	c #B3432C",
"Y` 	c #BE472E",
"Z` 	c #B04129",
"`` 	c #A33F2B",
"  .	c #B73F27",
". .	c #B94129",
"+ .	c #B14028",
"@ .	c #A43822",
"# .	c #A33C24",
"$ .	c #A03821",
"% .	c #A73D29",
"& .	c #A13621",
"* .	c #9F3520",
"= .	c #9A3721",
"- .	c #9F3922",
"; .	c #A73823",
"> .	c #A13620",
", .	c #9D3420",
"' .	c #9B341E",
") .	c #9B351F",
"! .	c #9A3923",
"~ .	c #9E3925",
"{ .	c #9C331F",
"] .	c #99311D",
"^ .	c #9E3E28",
"/ .	c #98463B",
"( .	c #8E5849",
"_ .	c #762F1F",
": .	c #7D2F1D",
"< .	c #7F301E",
"[ .	c #7C2D1E",
"} .	c #7B2A19",
"| .	c #7C2819",
"1 .	c #842F1E",
"2 .	c #7B2917",
"3 .	c #90301E",
"4 .	c #8B2C1B",
"5 .	c #8B2D1C",
"6 .	c #832917",
"7 .	c #8B2A19",
"8 .	c #8B2F1D",
"9 .	c #8D301C",
"0 .	c #993420",
"a .	c #973321",
"b .	c #90311D",
"c .	c #963421",
"d .	c #993523",
"e .	c #9F3724",
"f .	c #9D3623",
"g .	c #933A25",
"h .	c #873823",
"i .	c #903825",
"j .	c #9D3924",
"k .	c #A3402B",
"l .	c #92321D",
"m .	c #983822",
"n .	c #9E321F",
"o .	c #A3311D",
"p .	c #7B331E",
"q .	c #8B3E25",
"r .	c #A7452E",
"s .	c #B7412D",
"t .	c #A53721",
"u .	c #A23D27",
"v .	c #9D3A24",
"w .	c #A6422B",
"x .	c #AC432C",
"y .	c #B24B32",
"z .	c #B3482F",
"A .	c #B1432A",
"B .	c #A33720",
"C .	c #B6452C",
"D .	c #B8462E",
"E .	c #AF3B22",
"F .	c #A83720",
"G .	c #B03F28",
"H .	c #B3422A",
"I .	c #B4462C",
"J .	c #AB432A",
"K .	c #97331D",
"L .	c #AD3A24",
"M .	c #A6402A",
"N .	c #A6432C",
"O .	c #A53820",
"P .	c #BE462D",
"Q .	c #AA331E",
"R .	c #AA3921",
"S .	c #A6361F",
"T .	c #A33C25",
"U .	c #A33A25",
"V .	c #A63B24",
"W .	c #AA3D27",
"X .	c #A1351F",
"Y .	c #AD432E",
"Z .	c #9F3B24",
"` .	c #A4442E",
" ..	c #8B2E19",
"...	c #993924",
"+..	c #A53F28",
"@..	c #A43A21",
"#..	c #A1321D",
"$..	c #A83823",
"%..	c #99341E",
"&..	c #90321C",
"*..	c #8D3720",
"=..	c #9F3F2A",
"-..	c #A03521",
";..	c #9D321D",
">..	c #99331F",
",..	c #993822",
"'..	c #9C3724",
")..	c #993C26",
"!..	c #94473C",
"~..	c #88503F",
"{..	c #722B1A",
"]..	c #792B1A",
"^..	c #7A2A19",
"/..	c #782716",
"(..	c #7C2817",
"_..	c #802A1B",
":..	c #802B1B",
"<..	c #802A19",
"[..	c #7F2817",
"}..	c #7F2918",
"|..	c #913423",
"1..	c #8B2B19",
"2..	c #8A2E1B",
"3..	c #88301D",
"4..	c #902E1B",
"5..	c #8F2F1C",
"6..	c #8D2C1A",
"7..	c #8C2D1C",
"8..	c #97311E",
"9..	c #98321F",
"0..	c #8F2E1A",
"a..	c #8F2D1A",
"b..	c #8E2F1B",
"c..	c #95301D",
"d..	c #9A3521",
"e..	c #92311D",
"f..	c #953823",
"g..	c #8F311E",
"h..	c #943B27",
"i..	c #913624",
"j..	c #9F3A26",
"k..	c #9F3B27",
"l..	c #9D3925",
"m..	c #A93E2A",
"n..	c #A63B27",
"o..	c #A73E28",
"p..	c #A93724",
"q..	c #A43620",
"r..	c #A63A24",
"s..	c #A14029",
"t..	c #95422C",
"u..	c #944730",
"v..	c #A94C34",
"w..	c #AC3E27",
"x..	c #AC3B23",
"y..	c #A4402B",
"z..	c #A4442F",
"A..	c #983621",
"B..	c #A7442D",
"C..	c #A8412B",
"D..	c #A9412B",
"E..	c #B34028",
"F..	c #B94932",
"G..	c #B5432A",
"H..	c #B03B23",
"I..	c #BD472F",
"J..	c #B84830",
"K..	c #B64930",
"L..	c #BC4F34",
"M..	c #B8402A",
"N..	c #A64029",
"O..	c #933520",
"P..	c #9B3C27",
"Q..	c #B43C25",
"R..	c #AE3821",
"S..	c #A83722",
"T..	c #A03C27",
"U..	c #A03520",
"V..	c #983A23",
"W..	c #973C26",
"X..	c #9A3A24",
"Y..	c #9F351F",
"Z..	c #A53822",
"`..	c #9F331C",
" +.	c #A73A25",
".+.	c #9C351E",
"++.	c #A03924",
"@+.	c #983620",
"#+.	c #90361F",
"$+.	c #953722",
"%+.	c #96331C",
"&+.	c #97331E",
"*+.	c #95341D",
"=+.	c #9C3C25",
"-+.	c #934538",
";+.	c #8F5A44",
">+.	c #782F1F",
",+.	c #782A1A",
"'+.	c #822A1B",
")+.	c #812A1A",
"!+.	c #7F2717",
"~+.	c #792615",
"{+.	c #762614",
"]+.	c #842B19",
"^+.	c #872A1A",
"/+.	c #93301F",
"(+.	c #94301E",
"_+.	c #983622",
":+.	c #953421",
"<+.	c #963622",
"[+.	c #983724",
"}+.	c #983623",
"|+.	c #933423",
"1+.	c #9D3A26",
"2+.	c #943A25",
"3+.	c #993925",
"4+.	c #973926",
"5+.	c #9D3B25",
"6+.	c #993D29",
"7+.	c #9A3924",
"8+.	c #9A3724",
"9+.	c #97331F",
"0+.	c #9A3B24",
"a+.	c #9F3B26",
"b+.	c #AC3C28",
"c+.	c #A2412B",
"d+.	c #A14731",
"e+.	c #AC4932",
"f+.	c #A74028",
"g+.	c #933721",
"h+.	c #B24B37",
"i+.	c #A9462F",
"j+.	c #A13F25",
"k+.	c #AD4029",
"l+.	c #B14730",
"m+.	c #B54931",
"n+.	c #A83C24",
"o+.	c #AE3F28",
"p+.	c #AA3D25",
"q+.	c #AC3F26",
"r+.	c #AE3C23",
"s+.	c #BC4730",
"t+.	c #AD3E27",
"u+.	c #AB3C24",
"v+.	c #B2452C",
"w+.	c #AB4026",
"x+.	c #C24A32",
"y+.	c #A8432C",
"z+.	c #8D3923",
"A+.	c #943D25",
"B+.	c #AB412A",
"C+.	c #B03A23",
"D+.	c #B03922",
"E+.	c #B23E27",
"F+.	c #B13F27",
"G+.	c #A73921",
"H+.	c #A2361F",
"I+.	c #A03620",
"J+.	c #A03D27",
"K+.	c #9B3721",
"L+.	c #9C351F",
"M+.	c #953620",
"N+.	c #9C442E",
"O+.	c #9A4028",
"P+.	c #9A3E26",
"Q+.	c #993922",
"R+.	c #973620",
"S+.	c #A43922",
"T+.	c #9A331C",
"U+.	c #94301A",
"V+.	c #9C341E",
"W+.	c #99341D",
"X+.	c #9B331C",
"Y+.	c #8C3620",
"Z+.	c #8B341E",
"`+.	c #983522",
" @.	c #9C3522",
".@.	c #993721",
"+@.	c #8D4B3F",
"@@.	c #6A2818",
"#@.	c #732B19",
"$@.	c #7F2919",
"%@.	c #7D2616",
"&@.	c #7F2B1A",
"*@.	c #8C2C19",
"=@.	c #8C2E1B",
"-@.	c #892F1D",
";@.	c #8F2D1B",
">@.	c #8C2A18",
",@.	c #963422",
"'@.	c #8C2F1D",
")@.	c #94311D",
"!@.	c #93311C",
"~@.	c #892A17",
"{@.	c #94321F",
"]@.	c #953625",
"^@.	c #8E311F",
"/@.	c #8D2F1D",
"(@.	c #963825",
"_@.	c #933723",
":@.	c #8F331E",
"<@.	c #943723",
"[@.	c #963B28",
"}@.	c #9B3F2B",
"|@.	c #923622",
"1@.	c #953520",
"2@.	c #9B402A",
"3@.	c #983C27",
"4@.	c #8C321D",
"5@.	c #94341F",
"6@.	c #AF3E2A",
"7@.	c #A3331E",
"8@.	c #B04932",
"9@.	c #B0432E",
"0@.	c #A33A23",
"a@.	c #A33E27",
"b@.	c #9D432F",
"c@.	c #8D3C29",
"d@.	c #AA432E",
"e@.	c #AA472F",
"f@.	c #A3432A",
"g@.	c #AE4C32",
"h@.	c #A33F28",
"i@.	c #AD402A",
"j@.	c #A1341F",
"k@.	c #973520",
"l@.	c #B54D36",
"m@.	c #AF442C",
"n@.	c #A5331D",
"o@.	c #A93922",
"p@.	c #AD422A",
"q@.	c #B44A31",
"r@.	c #B74C34",
"s@.	c #B13E27",
"t@.	c #AE3D25",
"u@.	c #A73720",
"v@.	c #AE422B",
"w@.	c #AB4228",
"x@.	c #A93E26",
"y@.	c #AE452C",
"z@.	c #A93C24",
"A@.	c #AB351E",
"B@.	c #AD3820",
"C@.	c #A7422B",
"D@.	c #973923",
"E@.	c #9C4A31",
"F@.	c #9B4029",
"G@.	c #A63D25",
"H@.	c #AE3B23",
"I@.	c #A73821",
"J@.	c #9D3A22",
"K@.	c #9D3F27",
"L@.	c #98331C",
"M@.	c #A54029",
"N@.	c #9F3C24",
"O@.	c #983722",
"P@.	c #943A24",
"Q@.	c #973B25",
"R@.	c #91361F",
"S@.	c #9B3A24",
"T@.	c #942F1A",
"U@.	c #95301B",
"V@.	c #933B23",
"W@.	c #9D331D",
"X@.	c #A03824",
"Y@.	c #97361F",
"Z@.	c #943820",
"`@.	c #8F321B",
" #.	c #6D1D13",
".#.	c #7B4E42",
"+#.	c #652514",
"@#.	c #652414",
"##.	c #702617",
"$#.	c #77271A",
"%#.	c #79291B",
"&#.	c #77291C",
"*#.	c #7C291A",
"=#.	c #903524",
"-#.	c #883120",
";#.	c #852F1E",
">#.	c #922E1F",
",#.	c #8E3020",
"'#.	c #96321F",
")#.	c #952F1F",
"!#.	c #973320",
"~#.	c #933521",
"{#.	c #963321",
"]#.	c #8F301D",
"^#.	c #9A3623",
"/#.	c #953320",
"(#.	c #8D321F",
"_#.	c #883623",
":#.	c #833420",
"<#.	c #933E27",
"[#.	c #8D3521",
"}#.	c #923823",
"|#.	c #953824",
"1#.	c #943B25",
"2#.	c #9F3722",
"3#.	c #A53921",
"4#.	c #A7351F",
"5#.	c #B2462E",
"6#.	c #A8432D",
"7#.	c #8C3B26",
"8#.	c #8E432E",
"9#.	c #A2442E",
"0#.	c #96321D",
"a#.	c #973721",
"b#.	c #9C3F2B",
"c#.	c #A64731",
"d#.	c #993821",
"e#.	c #AC3A24",
"f#.	c #B24730",
"g#.	c #B1452D",
"h#.	c #AF422A",
"i#.	c #B3422B",
"j#.	c #AB3B23",
"k#.	c #A7371F",
"l#.	c #B04028",
"m#.	c #A73F26",
"n#.	c #AC472F",
"o#.	c #AB432B",
"p#.	c #B23E25",
"q#.	c #AE3B22",
"r#.	c #AF432C",
"s#.	c #A94830",
"t#.	c #A94B33",
"u#.	c #983E26",
"v#.	c #B13C25",
"w#.	c #A73B24",
"x#.	c #9B3621",
"y#.	c #A13B26",
"z#.	c #9D3D25",
"A#.	c #91321C",
"B#.	c #973820",
"C#.	c #993722",
"D#.	c #9E3823",
"E#.	c #9C3821",
"F#.	c #98311B",
"G#.	c #98301A",
"H#.	c #98301C",
"I#.	c #9C3723",
"J#.	c #993D28",
"K#.	c #932F1C",
"L#.	c #8F301C",
"M#.	c #8B301E",
"N#.	c #7F2F1C",
"O#.	c #782F1B",
"P#.	c #713023",
"Q#.	c #54190C",
"R#.	c #632A19",
"S#.	c #531E0E",
"T#.	c #491608",
"U#.	c #491407",
"V#.	c #4D1809",
"W#.	c #4D1607",
"X#.	c #531B0D",
"Y#.	c #581D10",
"Z#.	c #5B1E11",
"`#.	c #5E1D10",
" $.	c #5C1A0D",
".$.	c #621A0D",
"+$.	c #681E10",
"@$.	c #671D0F",
"#$.	c #691E0D",
"$$.	c #6A1E0F",
"%$.	c #6A1D0E",
"&$.	c #742313",
"*$.	c #842D1D",
"=$.	c #8C2E20",
"-$.	c #973628",
";$.	c #993525",
">$.	c #8F3121",
",$.	c #913523",
"'$.	c #953223",
")$.	c #973524",
"!$.	c #9A3322",
"~$.	c #95301E",
"{$.	c #9C3625",
"]$.	c #953623",
"^$.	c #8D3320",
"/$.	c #883724",
"($.	c #792D1A",
"_$.	c #943B26",
":$.	c #8F3722",
"<$.	c #953E28",
"[$.	c #993C2A",
"}$.	c #B23E2A",
"|$.	c #B0452F",
"1$.	c #8E3F2B",
"2$.	c #7A3C29",
"3$.	c #823925",
"4$.	c #9D3B29",
"5$.	c #9C3A25",
"6$.	c #A53D26",
"7$.	c #AE3F27",
"8$.	c #A43921",
"9$.	c #AD4128",
"0$.	c #B3452C",
"a$.	c #B6442B",
"b$.	c #B1412B",
"c$.	c #9D321C",
"d$.	c #9F321C",
"e$.	c #A93B23",
"f$.	c #B2432C",
"g$.	c #B54930",
"h$.	c #A44029",
"i$.	c #B44831",
"j$.	c #B04029",
"k$.	c #AE462F",
"l$.	c #A33E26",
"m$.	c #A83B23",
"n$.	c #AB3A23",
"o$.	c #A03A24",
"p$.	c #9B3720",
"q$.	c #A33D26",
"r$.	c #A13922",
"s$.	c #A43E27",
"t$.	c #9F3B25",
"u$.	c #A1412C",
"v$.	c #953621",
"w$.	c #9B3824",
"x$.	c #993723",
"y$.	c #95331E",
"z$.	c #94331E",
"A$.	c #8B321C",
"B$.	c #832E1A",
"C$.	c #812D1A",
"D$.	c #772918",
"E$.	c #712612",
"F$.	c #742616",
"G$.	c #722515",
"H$.	c #611D0E",
"I$.	c #5E190A",
"J$.	c #5E1807",
"K$.	c #6C2210",
"L$.	c #862A17",
"M$.	c #591B0F",
"N$.	c #702E1D",
"O$.	c #692A17",
"P$.	c #672715",
"Q$.	c #682615",
"R$.	c #632210",
"S$.	c #5C200F",
"T$.	c #581D0F",
"U$.	c #56190C",
"V$.	c #53170C",
"W$.	c #4F150A",
"X$.	c #491306",
"Y$.	c #461105",
"Z$.	c #441004",
"`$.	c #440F04",
" %.	c #400F03",
".%.	c #451106",
"+%.	c #441208",
"@%.	c #471409",
"#%.	c #4C1608",
"$%.	c #50190D",
"%%.	c #50170B",
"&%.	c #4E190B",
"*%.	c #50180B",
"=%.	c #50180A",
"-%.	c #53180B",
";%.	c #551809",
">%.	c #591608",
",%.	c #5F1B0C",
"'%.	c #5E1A0B",
")%.	c #5A180A",
"!%.	c #621D10",
"~%.	c #601B0D",
"{%.	c #661D0F",
"]%.	c #702112",
"^%.	c #792918",
"/%.	c #6F2013",
"(%.	c #6B1D0E",
"_%.	c #6F2112",
":%.	c #6B2515",
"<%.	c #662415",
"[%.	c #692514",
"}%.	c #772919",
"|%.	c #863321",
"1%.	c #88311E",
"2%.	c #913A27",
"3%.	c #8C3824",
"4%.	c #892F1E",
"5%.	c #AB422E",
"6%.	c #9A331F",
"7%.	c #AC3E29",
"8%.	c #B0402C",
"9%.	c #B03F2C",
"0%.	c #9E3E29",
"a%.	c #9D4B39",
"b%.	c #843C2A",
"c%.	c #974A36",
"d%.	c #A74A32",
"e%.	c #AD4B39",
"f%.	c #AC4B3A",
"g%.	c #B25140",
"h%.	c #B44732",
"i%.	c #B4462D",
"j%.	c #B4442C",
"k%.	c #B24229",
"l%.	c #C14A32",
"m%.	c #CC5840",
"n%.	c #B94A2F",
"o%.	c #BF4E33",
"p%.	c #A83D26",
"q%.	c #AA432C",
"r%.	c #B0472F",
"s%.	c #B0452D",
"t%.	c #A53923",
"u%.	c #AC3F2A",
"v%.	c #AB442D",
"w%.	c #A53D29",
"x%.	c #99341F",
"y%.	c #8E2E19",
"z%.	c #933523",
"A%.	c #842A18",
"B%.	c #882D1A",
"C%.	c #862C17",
"D%.	c #7B2513",
"E%.	c #782312",
"F%.	c #792715",
"G%.	c #762415",
"H%.	c #732517",
"I%.	c #6B2214",
"J%.	c #6A2112",
"K%.	c #641D0F",
"L%.	c #631E0E",
"M%.	c #651D0F",
"N%.	c #601D0F",
"O%.	c #561C0E",
"P%.	c #491405",
"Q%.	c #491305",
"R%.	c #491104",
"S%.	c #4F1406",
"T%.	c #551808",
"U%.	c #631B0C",
"V%.	c #671C0D",
"W%.	c #752716",
"X%.	c #7B2E1C",
"Y%.	c #812F1C",
"Z%.	c #933420",
"`%.	c #863424",
" &.	c #652211",
".&.	c #722F1C",
"+&.	c #732D1B",
"@&.	c #732A17",
"#&.	c #782917",
"$&.	c #7B291A",
"%&.	c #782817",
"&&.	c #732515",
"*&.	c #732615",
"=&.	c #6D2313",
"-&.	c #6F2516",
";&.	c #6E2515",
">&.	c #6B2114",
",&.	c #642212",
"'&.	c #662516",
")&.	c #612113",
"!&.	c #622416",
"~&.	c #5D2013",
"{&.	c #5D1F10",
"]&.	c #541C0E",
"^&.	c #511D0E",
"/&.	c #531E10",
"(&.	c #571F12",
"_&.	c #561A0C",
":&.	c #561709",
"<&.	c #541406",
"[&.	c #551609",
"}&.	c #4E1306",
"|&.	c #4F1407",
"1&.	c #531609",
"2&.	c #4E1608",
"3&.	c #4B1408",
"4&.	c #4E1406",
"5&.	c #501609",
"6&.	c #54180A",
"7&.	c #52190D",
"8&.	c #501509",
"9&.	c #561A0E",
"0&.	c #5D1F11",
"a&.	c #591D10",
"b&.	c #52180B",
"c&.	c #551A0C",
"d&.	c #59190B",
"e&.	c #5E1B0F",
"f&.	c #571A0C",
"g&.	c #52190B",
"h&.	c #582014",
"i&.	c #5D1E11",
"j&.	c #631D11",
"k&.	c #6A1F12",
"l&.	c #691C0F",
"m&.	c #731F12",
"n&.	c #6F1F10",
"o&.	c #762314",
"p&.	c #742211",
"q&.	c #701F0F",
"r&.	c #712110",
"s&.	c #6F1D0F",
"t&.	c #701E0E",
"u&.	c #711F0F",
"v&.	c #701E0F",
"w&.	c #701D0E",
"x&.	c #702010",
"y&.	c #762212",
"z&.	c #721E0F",
"A&.	c #6D200F",
"B&.	c #672212",
"C&.	c #652313",
"D&.	c #5F1E0D",
"E&.	c #642011",
"F&.	c #752C1C",
"G&.	c #6C2010",
"H&.	c #74210F",
"I&.	c #7C2514",
"J&.	c #832817",
"K&.	c #7C2413",
"L&.	c #7F2715",
"M&.	c #772312",
"N&.	c #7B2714",
"O&.	c #7C2414",
"P&.	c #832714",
"Q&.	c #7D2311",
"R&.	c #751E0F",
"S&.	c #761F0F",
"T&.	c #802414",
"U&.	c #7F2714",
"V&.	c #852916",
"W&.	c #882C18",
"X&.	c #892A18",
"Y&.	c #882A16",
"Z&.	c #882917",
"`&.	c #7E2312",
" *.	c #872916",
".*.	c #862715",
"+*.	c #852816",
"@*.	c #882A17",
"#*.	c #852614",
"$*.	c #8A2816",
"%*.	c #8B2A18",
"&*.	c #832312",
"**.	c #872615",
"=*.	c #802413",
"-*.	c #812716",
";*.	c #7B2413",
">*.	c #7E2816",
",*.	c #7E2616",
"'*.	c #7B2112",
")*.	c #7C2412",
"!*.	c #782211",
"~*.	c #7A2311",
"{*.	c #77210F",
"]*.	c #76220F",
"^*.	c #6F1F0D",
"/*.	c #752111",
"(*.	c #7B2614",
"_*.	c #7C2614",
":*.	c #7B2311",
"<*.	c #7C2312",
"[*.	c #772313",
"}*.	c #772412",
"|*.	c #752211",
"1*.	c #6E1E0E",
"2*.	c #6F2010",
"3*.	c #6E1E10",
"4*.	c #671A0C",
"5*.	c #671D0C",
"6*.	c #5E1608",
"7*.	c #5F1908",
"8*.	c #5D1507",
"9*.	c #5C1507",
"0*.	c #5E1809",
"a*.	c #581506",
"b*.	c #591707",
"c*.	c #571508",
"d*.	c #571509",
"e*.	c #57170A",
"f*.	c #611D0D",
"g*.	c #681D0D",
"h*.	c #762213",
"i*.	c #712415",
"j*.	c #732213",
"k*.	c #7E2C19",
"l*.	c #7D2716",
"m*.	c #812B17",
"n*.	c #873220",
"o*.	c #842D19",
"p*.	c #802B16",
"q*.	c #86301C",
"r*.	c #872F1A",
"s*.	c #86341F",
"t*.	c #90341F",
"u*.	c #993824",
"v*.	c #8C3726",
"w*.	c #671F10",
"x*.	c #75311F",
"y*.	c #822C1C",
"z*.	c #7D2817",
"A*.	c #7D2B18",
"B*.	c #7B2716",
"C*.	c #7C2A17",
"D*.	c #7D2C19",
"E*.	c #792916",
"F*.	c #7B2B1B",
"G*.	c #742816",
"H*.	c #6A2515",
"I*.	c #6E2818",
"J*.	c #732916",
"K*.	c #712713",
"L*.	c #762817",
"M*.	c #752F1E",
"N*.	c #7D3726",
"O*.	c #762D1C",
"P*.	c #7F2A1A",
"Q*.	c #702212",
"R*.	c #7A2F1C",
"S*.	c #782C1B",
"T*.	c #722517",
"U*.	c #702717",
"V*.	c #712516",
"W*.	c #702415",
"X*.	c #6D2615",
"Y*.	c #6B2211",
"Z*.	c #6C2613",
"`*.	c #5E1C0E",
" =.	c #581B0D",
".=.	c #5A1B0D",
"+=.	c #591B0D",
"@=.	c #5C1D0F",
"#=.	c #571A0E",
"$=.	c #53150A",
"%=.	c #5C190E",
"&=.	c #5F180C",
"*=.	c #621B0E",
"==.	c #5D1708",
"-=.	c #5F1909",
";=.	c #5D1709",
">=.	c #61170B",
",=.	c #5F1508",
"'=.	c #62190B",
")=.	c #581406",
"!=.	c #501204",
"~=.	c #501104",
"{=.	c #541507",
"]=.	c #541405",
"^=.	c #4C1106",
"/=.	c #4E1308",
"(=.	c #511507",
"_=.	c #4E1205",
":=.	c #531509",
"<=.	c #531205",
"[=.	c #551406",
"}=.	c #4F1507",
"|=.	c #55190B",
"1=.	c #54170B",
"2=.	c #501709",
"3=.	c #51170B",
"4=.	c #521609",
"5=.	c #56190B",
"6=.	c #551608",
"7=.	c #571608",
"8=.	c #5F1B0D",
"9=.	c #5C1909",
"0=.	c #59180B",
"a=.	c #59190C",
"b=.	c #5C1A0C",
"c=.	c #5D1A0D",
"d=.	c #5D190C",
"e=.	c #61180A",
"f=.	c #601C0C",
"g=.	c #611B0C",
"h=.	c #5C1506",
"i=.	c #5E1708",
"j=.	c #591607",
"k=.	c #5C1808",
"l=.	c #601A0B",
"m=.	c #5E1808",
"n=.	c #5D1404",
"o=.	c #681B0C",
"p=.	c #6B1E10",
"q=.	c #5F1709",
"r=.	c #5C1707",
"s=.	c #671B0E",
"t=.	c #5F170A",
"u=.	c #5C1607",
"v=.	c #601909",
"w=.	c #5F1607",
"x=.	c #63190A",
"y=.	c #641B0C",
"z=.	c #621A0A",
"A=.	c #5A1306",
"B=.	c #5B1406",
"C=.	c #5F1708",
"D=.	c #601809",
"E=.	c #5A1205",
"F=.	c #66190B",
"G=.	c #651606",
"H=.	c #691A0C",
"I=.	c #611505",
"J=.	c #671707",
"K=.	c #671908",
"L=.	c #661809",
"M=.	c #631707",
"N=.	c #681909",
"O=.	c #701B0C",
"P=.	c #6E1809",
"Q=.	c #741D0D",
"R=.	c #7B2110",
"S=.	c #7D220F",
"T=.	c #79200E",
"U=.	c #711F0E",
"V=.	c #741F0F",
"W=.	c #7C2512",
"X=.	c #782311",
"Y=.	c #7F2514",
"Z=.	c #872714",
"`=.	c #892B19",
" -.	c #8D311C",
".-.	c #89311C",
"+-.	c #822D17",
"@-.	c #812A16",
"#-.	c #7E2C18",
"$-.	c #843621",
"%-.	c #842E1A",
"&-.	c #8B2F1A",
"*-.	c #8D2C19",
"=-.	c #8E2D18",
"--.	c #902E1A",
";-.	c #912F1B",
">-.	c #8C321C",
",-.	c #89331D",
"'-.	c #85311C",
")-.	c #852F19",
"!-.	c #913420",
"~-.	c #8F3620",
"{-.	c #91331F",
"]-.	c #87301C",
"^-.	c #88321E",
"/-.	c #973824",
"(-.	c #94331F",
"_-.	c #923B27",
":-.	c #7A3422",
"<-.	c #752D1D",
"[-.	c #762816",
"}-.	c #7E2A18",
"|-.	c #802B19",
"1-.	c #7B2C19",
"2-.	c #752C1A",
"3-.	c #732A18",
"4-.	c #7C2E1B",
"5-.	c #7B2918",
"6-.	c #752B19",
"7-.	c #722D1A",
"8-.	c #7D321F",
"9-.	c #7F2D1B",
"0-.	c #832D1B",
"a-.	c #832C1A",
"b-.	c #852F1A",
"c-.	c #89331F",
"d-.	c #893522",
"e-.	c #822C19",
"f-.	c #85301E",
"g-.	c #89321F",
"h-.	c #832D1A",
"i-.	c #842C1A",
"j-.	c #882D1D",
"k-.	c #8A311F",
"l-.	c #8C321F",
"m-.	c #7D2917",
"n-.	c #822D1B",
"o-.	c #852E1C",
"p-.	c #872B1A",
"q-.	c #8F3421",
"r-.	c #993A26",
"s-.	c #8C311F",
"t-.	c #88301B",
"u-.	c #933825",
"v-.	c #953423",
"w-.	c #92311E",
"x-.	c #8C311E",
"y-.	c #893422",
"z-.	c #893523",
"A-.	c #89311F",
"B-.	c #8F3522",
"C-.	c #8D3722",
"D-.	c #8B3420",
"E-.	c #7B2814",
"F-.	c #8A3320",
"G-.	c #933A27",
"H-.	c #8B311D",
"I-.	c #973722",
"J-.	c #95351F",
"K-.	c #903320",
"L-.	c #923620",
"M-.	c #93341E",
"N-.	c #90311B",
"O-.	c #92321C",
"P-.	c #932D1A",
"Q-.	c #9B3522",
"R-.	c #912D19",
"S-.	c #9E3B28",
"T-.	c #9B3926",
"U-.	c #95331F",
"V-.	c #93311B",
"W-.	c #9A3621",
"X-.	c #92301C",
"Y-.	c #8D2D19",
"Z-.	c #902F1B",
"`-.	c #95321E",
" ;.	c #8E301C",
".;.	c #902F1A",
"+;.	c #97311D",
"@;.	c #9C301D",
"#;.	c #9B2E1B",
"$;.	c #A0321D",
"%;.	c #A0301C",
"&;.	c #A1331E",
"*;.	c #A2331E",
"=;.	c #A43F2A",
"-;.	c #9C3621",
";;.	c #97321E",
">;.	c #98311D",
",;.	c #9B361F",
"';.	c #9B3C26",
");.	c #953925",
"!;.	c #87321C",
"~;.	c #963C26",
"{;.	c #9B3924",
"];.	c #9E3B25",
"^;.	c #91341E",
"/;.	c #82321C",
"(;.	c #803521",
"_;.	c #963520",
":;.	c #933622",
"<;.	c #913522",
"[;.	c #973723",
"};.	c #692010",
"|;.	c #7A331F",
"1;.	c #742E1D",
"2;.	c #7B2A18",
"3;.	c #7E2A1A",
"4;.	c #822C1A",
"5;.	c #7D2A18",
"6;.	c #7A2B17",
"7;.	c #782A17",
"8;.	c #7D2D1C",
"9;.	c #762A19",
"0;.	c #7F3220",
"a;.	c #7F2E1C",
"b;.	c #7A2D18",
"c;.	c #81311E",
"d;.	c #82331E",
"e;.	c #85331E",
"f;.	c #852D1B",
"g;.	c #8A2E1C",
"h;.	c #89301C",
"i;.	c #8A2F1C",
"j;.	c #8D3421",
"k;.	c #86311C",
"l;.	c #87331D",
"m;.	c #862F1A",
"n;.	c #862E1A",
"o;.	c #872D1A",
"p;.	c #8B321F",
"q;.	c #89311E",
"r;.	c #8A311E",
"s;.	c #943523",
"t;.	c #8E3420",
"u;.	c #8E3622",
"v;.	c #892E1C",
"w;.	c #92351F",
"x;.	c #93341F",
"y;.	c #982E1A",
"z;.	c #A83E2A",
"A;.	c #A83F29",
"B;.	c #9D3722",
"C;.	c #A23B27",
"D;.	c #95402A",
"E;.	c #A24934",
"F;.	c #9E3D27",
"G;.	c #9F3C25",
"H;.	c #A8442C",
"I;.	c #A9412C",
"J;.	c #A23B25",
"K;.	c #AC432B",
"L;.	c #AA3F2A",
"M;.	c #AB4029",
"N;.	c #9F341E",
"O;.	c #B1422B",
"P;.	c #A93C26",
"Q;.	c #A94028",
"R;.	c #A23823",
"S;.	c #972F1A",
"T;.	c #9E331D",
"U;.	c #A73620",
"V;.	c #A93620",
"W;.	c #AE3A23",
"X;.	c #A13A23",
"Y;.	c #A43D2A",
"Z;.	c #A4412D",
"`;.	c #9C3923",
" >.	c #9C3822",
".>.	c #AC422E",
"+>.	c #A63F28",
"@>.	c #87361F",
"#>.	c #913B26",
"$>.	c #8E351E",
"%>.	c #92341D",
"&>.	c #96331E",
"*>.	c #98311C",
"=>.	c #96331D",
"->.	c #943923",
";>.	c #883822",
">>.	c #8E3D25",
",>.	c #963923",
"'>.	c #993621",
")>.	c #98331F",
"!>.	c #8F3221",
"~>.	c #611F0F",
"{>.	c #7A3421",
"]>.	c #782D1D",
"^>.	c #792A18",
"/>.	c #7E2B19",
"(>.	c #7C2816",
"_>.	c #7E2918",
":>.	c #7C2B1A",
"<>.	c #7F311F",
"[>.	c #752815",
"}>.	c #782A18",
"|>.	c #762917",
"1>.	c #782B18",
"2>.	c #782D1A",
"3>.	c #7C321F",
"4>.	c #7F2E1B",
"5>.	c #83301C",
"6>.	c #87321F",
"7>.	c #88321F",
"8>.	c #8E321F",
"9>.	c #8A311C",
"0>.	c #903620",
"a>.	c #8A3521",
"b>.	c #812F1A",
"c>.	c #8C3822",
"d>.	c #862F1B",
"e>.	c #973A25",
"f>.	c #8C301C",
"g>.	c #8C311D",
"h>.	c #90311E",
"i>.	c #93331F",
"j>.	c #993522",
"k>.	c #943621",
"l>.	c #8E3421",
"m>.	c #9D3A25",
"n>.	c #993724",
"o>.	c #963823",
"p>.	c #AE4029",
"q>.	c #AD442D",
"r>.	c #A93B27",
"s>.	c #A33925",
"t>.	c #A53D28",
"u>.	c #AA412A",
"v>.	c #A83E26",
"w>.	c #A8432A",
"x>.	c #A74831",
"y>.	c #9D4028",
"z>.	c #8F3B24",
"A>.	c #AE4830",
"B>.	c #AF452E",
"C>.	c #A93E28",
"D>.	c #B34831",
"E>.	c #AE452D",
"F>.	c #A53C26",
"G>.	c #A8402A",
"H>.	c #A83D24",
"I>.	c #A93923",
"J>.	c #AF3F28",
"K>.	c #AA3B25",
"L>.	c #B0422C",
"M>.	c #B1402A",
"N>.	c #95311B",
"O>.	c #90301A",
"P>.	c #A13D26",
"Q>.	c #9E3820",
"R>.	c #A33A24",
"S>.	c #97321C",
"T>.	c #9B3A25",
"U>.	c #843019",
"V>.	c #933E29",
"W>.	c #81321D",
"X>.	c #873A26",
"Y>.	c #86321C",
"Z>.	c #A2442D",
"`>.	c #983520",
" ,.	c #8C2B17",
".,.	c #9D341F",
"+,.	c #9B331D",
"@,.	c #96321C",
"#,.	c #8F321C",
"$,.	c #8E3620",
"%,.	c #92331E",
"&,.	c #94321D",
"*,.	c #9B3722",
"=,.	c #923426",
"-,.	c #612313",
";,.	c #702B19",
">,.	c #712B19",
",,.	c #772616",
"',.	c #7E2818",
"),.	c #782919",
"!,.	c #7B2E1D",
"~,.	c #7A2C1A",
"{,.	c #752A18",
"],.	c #813725",
"^,.	c #823321",
"/,.	c #7E321D",
"(,.	c #792D1B",
"_,.	c #762E1B",
":,.	c #7A301E",
"<,.	c #832F1B",
"[,.	c #893421",
"},.	c #842C19",
"|,.	c #832B17",
"1,.	c #892E1B",
"2,.	c #8F3420",
"3,.	c #8E3723",
"4,.	c #87321D",
"5,.	c #903420",
"6,.	c #902F1C",
"7,.	c #993923",
"8,.	c #9F4029",
"9,.	c #A03E2A",
"0,.	c #963924",
"a,.	c #9A3E2A",
"b,.	c #9A3C27",
"c,.	c #9A3824",
"d,.	c #A3412C",
"e,.	c #9D3C27",
"f,.	c #9C3823",
"g,.	c #AE4430",
"h,.	c #A73E27",
"i,.	c #AF4431",
"j,.	c #A93F28",
"k,.	c #A63923",
"l,.	c #A73D28",
"m,.	c #A43D26",
"n,.	c #A5432E",
"o,.	c #8D351F",
"p,.	c #9B412B",
"q,.	c #A94D37",
"r,.	c #A7462F",
"s,.	c #B44A34",
"t,.	c #AB452F",
"u,.	c #AC422C",
"v,.	c #B4482E",
"w,.	c #A5381F",
"x,.	c #AC3D24",
"y,.	c #B9432E",
"z,.	c #A83922",
"A,.	c #AF422B",
"B,.	c #B23E26",
"C,.	c #A6321C",
"D,.	c #AB422B",
"E,.	c #A53922",
"F,.	c #9B311C",
"G,.	c #9C301A",
"H,.	c #A33D27",
"I,.	c #95331D",
"J,.	c #963D27",
"K,.	c #8D3822",
"L,.	c #8E3C26",
"M,.	c #8D3721",
"N,.	c #90331D",
"O,.	c #9E3922",
"P,.	c #9D331F",
"Q,.	c #A23923",
"R,.	c #91341D",
"S,.	c #8B3322",
"T,.	c #602319",
"U,.	c #763321",
"V,.	c #712D1B",
"W,.	c #772B1A",
"X,.	c #7C2818",
"Y,.	c #802C1A",
"Z,.	c #782B19",
"`,.	c #792D1D",
" '.	c #722716",
".'.	c #702716",
"+'.	c #863422",
"@'.	c #7D2D1A",
"#'.	c #782D1C",
"$'.	c #83311F",
"%'.	c #832E1C",
"&'.	c #862F1C",
"*'.	c #913723",
"='.	c #89321D",
"-'.	c #8A331E",
";'.	c #8D3420",
">'.	c #8F331F",
",'.	c #9C3D28",
"''.	c #973A27",
")'.	c #983823",
"!'.	c #983B27",
"~'.	c #8D311D",
"{'.	c #973621",
"]'.	c #983721",
"^'.	c #A43A24",
"/'.	c #A53924",
"('.	c #9F3E28",
"_'.	c #A13F29",
":'.	c #A8462F",
"<'.	c #A53F27",
"['.	c #AA422A",
"}'.	c #AA432B",
"|'.	c #B7503B",
"1'.	c #B44C35",
"2'.	c #A83C25",
"3'.	c #A33821",
"4'.	c #A63E26",
"5'.	c #AC4029",
"6'.	c #BE4E37",
"7'.	c #B3452E",
"8'.	c #B34027",
"9'.	c #B6422B",
"0'.	c #AC361F",
"a'.	c #BA432E",
"b'.	c #A53B25",
"c'.	c #A43D27",
"d'.	c #9F351D",
"e'.	c #A1361F",
"f'.	c #9C321C",
"g'.	c #A33B24",
"h'.	c #8D331D",
"i'.	c #89361F",
"j'.	c #9A402B",
"k'.	c #9A3E28",
"l'.	c #A1331F",
"m'.	c #A0331E",
"n'.	c #9F321E",
"o'.	c #9A321D",
"p'.	c #94331D",
"q'.	c #95311C",
"r'.	c #682E29",
"s'.	c #793725",
"t'.	c #6F2D1E",
"u'.	c #6F2A1A",
"v'.	c #732C1B",
"w'.	c #752B1B",
"x'.	c #7A2918",
"y'.	c #772617",
"z'.	c #7F2C1B",
"A'.	c #7B2B19",
"B'.	c #762C19",
"C'.	c #7A2D1B",
"D'.	c #772D1C",
"E'.	c #6F2918",
"F'.	c #7E2D1A",
"G'.	c #742C1A",
"H'.	c #6C2816",
"I'.	c #79311E",
"J'.	c #7E3220",
"K'.	c #80311E",
"L'.	c #8C3724",
"M'.	c #913623",
"N'.	c #903220",
"O'.	c #8F311D",
"P'.	c #913520",
"Q'.	c #933B25",
"R'.	c #89301B",
"S'.	c #8A2F1B",
"T'.	c #822913",
"U'.	c #8B2F1B",
"V'.	c #9B3A26",
"W'.	c #90331E",
"X'.	c #9A3A26",
"Y'.	c #933722",
"Z'.	c #8C2F1B",
"`'.	c #9E3D28",
" ).	c #A03F2B",
".).	c #98301D",
"+).	c #AC412A",
"@).	c #A63C24",
"#).	c #AA3E27",
"$).	c #A73A23",
"%).	c #AD412A",
"&).	c #A43E28",
"*).	c #A6432E",
"=).	c #A6412B",
"-).	c #A73F28",
";).	c #A64129",
">).	c #AA3C25",
",).	c #AE4229",
"').	c #AE442C",
")).	c #AF3E26",
"!).	c #A3331D",
"~).	c #A63820",
"{).	c #B9432B",
"]).	c #BB442B",
"^).	c #B23C24",
"/).	c #AE3621",
"().	c #A7432C",
"_).	c #AF4C33",
":).	c #B65038",
"<).	c #A13821",
"[).	c #99321B",
"}).	c #973822",
"|).	c #923921",
"1).	c #943722",
"2).	c #9C331C",
"3).	c #99321C",
"4).	c #A0311E",
"5).	c #962F1B",
"6).	c #93321D",
"7).	c #97341F",
"8).	c #87291C",
"9).	c #5E2C27",
"0).	c #713021",
"a).	c #6B2C1A",
"b).	c #702D1B",
"c).	c #732E1D",
"d).	c #732917",
"e).	c #772817",
"f).	c #7E2C1B",
"g).	c #7C2917",
"h).	c #7C2A18",
"i).	c #762916",
"j).	c #7C311F",
"k).	c #79301E",
"l).	c #743321",
"m).	c #782F1D",
"n).	c #7E2F1E",
"o).	c #7E2B16",
"p).	c #852C19",
"q).	c #8C2D1A",
"r).	c #8E311D",
"s).	c #882F1A",
"t).	c #8C331E",
"u).	c #943924",
"v).	c #903520",
"w).	c #953724",
"x).	c #91321E",
"y).	c #8A2C19",
"z).	c #852B17",
"A).	c #913521",
"B).	c #A0442F",
"C).	c #9D3C28",
"D).	c #983924",
"E).	c #973421",
"F).	c #9E3822",
"G).	c #A9412A",
"H).	c #962B18",
"I).	c #9D331E",
"J).	c #A3351F",
"K).	c #AC412C",
"L).	c #B04830",
"M).	c #A13C26",
"N).	c #BC4D36",
"O).	c #A93A22",
"P).	c #AB4028",
"Q).	c #AA3821",
"R).	c #A83A22",
"S).	c #B34029",
"T).	c #B03D25",
"U).	c #B03F27",
"V).	c #AC3E25",
"W).	c #A4361F",
"X).	c #B54028",
"Y).	c #B33C25",
"Z).	c #C34B33",
"`).	c #AC3C25",
" !.	c #A53A22",
".!.	c #9E3E24",
"+!.	c #A4452D",
"@!.	c #A5422B",
"#!.	c #98361F",
"$!.	c #A23E28",
"%!.	c #9E3720",
"&!.	c #9E321C",
"*!.	c #9F331D",
"=!.	c #A0351E",
"-!.	c #9C301B",
";!.	c #97311C",
">!.	c #973622",
",!.	c #943520",
"'!.	c #9A311B",
")!.	c #992F1A",
"!!.	c #9C311C",
"~!.	c #9F331F",
"{!.	c #99301C",
"]!.	c #9A3723",
"^!.	c #892013",
"/!.	c #75514A",
"(!.	c #733625",
"_!.	c #70301F",
":!.	c #6C291A",
"<!.	c #722818",
"[!.	c #782A19",
"}!.	c #7A2B19",
"|!.	c #7D2C1A",
"1!.	c #792B19",
"2!.	c #6B2413",
"3!.	c #722B17",
"4!.	c #7B301F",
"5!.	c #6E2D19",
"6!.	c #752C19",
"7!.	c #7F2E1A",
"8!.	c #7B2612",
"9!.	c #812C18",
"0!.	c #8D3723",
"a!.	c #92331F",
"b!.	c #923623",
"c!.	c #892D19",
"d!.	c #993825",
"e!.	c #95341F",
"f!.	c #91311D",
"g!.	c #933522",
"h!.	c #953A26",
"i!.	c #943A26",
"j!.	c #9C3927",
"k!.	c #A13F2A",
"l!.	c #A33C27",
"m!.	c #973823",
"n!.	c #A03B25",
"o!.	c #972F1B",
"p!.	c #A83F28",
"q!.	c #A33922",
"r!.	c #AD432C",
"s!.	c #B34B35",
"t!.	c #A1402C",
"u!.	c #B3462F",
"v!.	c #AD3F26",
"w!.	c #B2442C",
"x!.	c #AC3C23",
"y!.	c #AE432A",
"z!.	c #A8422A",
"A!.	c #AC3821",
"B!.	c #B1462F",
"C!.	c #B43D25",
"D!.	c #AD361F",
"E!.	c #AA331C",
"F!.	c #B03A22",
"G!.	c #9C3E26",
"H!.	c #A74B32",
"I!.	c #A24127",
"J!.	c #A03A23",
"K!.	c #A93B26",
"L!.	c #9E311D",
"M!.	c #9A3421",
"N!.	c #9B3622",
"O!.	c #892613",
"P!.	c #3A1B17",
"Q!.	c #783222",
"R!.	c #6D2B1B",
"S!.	c #782D1B",
"T!.	c #742716",
"U!.	c #78291A",
"V!.	c #7C2C1C",
"W!.	c #722917",
"X!.	c #732D1A",
"Y!.	c #772C1A",
"Z!.	c #7C2F1D",
"`!.	c #78301C",
" ~.	c #84301D",
".~.	c #85321E",
"+~.	c #87301D",
"@~.	c #8A2C18",
"#~.	c #90321D",
"$~.	c #963723",
"%~.	c #93311D",
"&~.	c #903823",
"*~.	c #9C3925",
"=~.	c #A4442D",
"-~.	c #A24931",
";~.	c #A7422D",
">~.	c #A23C26",
",~.	c #A63D28",
"'~.	c #AA3D29",
")~.	c #A13720",
"!~.	c #A3422D",
"~~.	c #A3442E",
"{~.	c #A0432B",
"]~.	c #AD3E26",
"^~.	c #B6482F",
"/~.	c #B2462D",
"(~.	c #AB3821",
"_~.	c #B33D27",
":~.	c #BC442C",
"<~.	c #B74128",
"[~.	c #B9462E",
"}~.	c #AD4129",
"|~.	c #AF442E",
"1~.	c #A9402A",
"2~.	c #A63D24",
"3~.	c #A63A23",
"4~.	c #AB3820",
"5~.	c #AB361F",
"6~.	c #B64129",
"7~.	c #A2301A",
"8~.	c #AD3D25",
"9~.	c #AC452B",
"0~.	c #9D3E25",
"a~.	c #953B22",
"b~.	c #8E2F1A",
"c~.	c #A5412B",
"d~.	c #97341E",
"e~.	c #A6412C",
"f~.	c #973018",
"g~.	c #962E19",
"h~.	c #952C19",
"i~.	c #9D311C",
"j~.	c #99311C",
"k~.	c #972E19",
"l~.	c #9B2F19",
"m~.	c #9A301D",
"n~.	c #9D3520",
"o~.	c #9D3D29",
"p~.	c #946056",
"q~.	c #48251D",
"r~.	c #6A2A19",
"s~.	c #6B2F1B",
"t~.	c #6A2A18",
"u~.	c #732B18",
"v~.	c #752916",
"w~.	c #752819",
"x~.	c #702514",
"y~.	c #7B2F1E",
"z~.	c #772C19",
"A~.	c #7A2B18",
"B~.	c #85341F",
"C~.	c #84311D",
"D~.	c #85311D",
"E~.	c #85311B",
"F~.	c #872F1B",
"G~.	c #903522",
"H~.	c #9C3B27",
"I~.	c #963522",
"J~.	c #8B301B",
"K~.	c #923522",
"L~.	c #993B26",
"M~.	c #983A25",
"N~.	c #9F422D",
"O~.	c #91321D",
"P~.	c #9C3F28",
"Q~.	c #A7452F",
"R~.	c #9A3522",
"S~.	c #B74B34",
"T~.	c #B44A32",
"U~.	c #B24A34",
"V~.	c #9F3F2C",
"W~.	c #B2432D",
"X~.	c #B2422A",
"Y~.	c #A23922",
"Z~.	c #AF3E25",
"`~.	c #A84129",
" {.	c #A6351E",
".{.	c #A5331E",
"+{.	c #AD4630",
"@{.	c #9B3921",
"#{.	c #9B3F25",
"${.	c #923821",
"%{.	c #8C2E18",
"&{.	c #9C3420",
"*{.	c #9A311C",
"={.	c #A0371F",
"-{.	c #90301B",
";{.	c #8A2D16",
">{.	c #8F3019",
",{.	c #98341B",
"'{.	c #98351E",
"){.	c #5B2017",
"!{.	c #45190F",
"~{.	c #6C311C",
"{{.	c #5F2714",
"]{.	c #622413",
"^{.	c #6A2717",
"/{.	c #672516",
"({.	c #6D2613",
"_{.	c #732919",
":{.	c #702616",
"<{.	c #772B1B",
"[{.	c #772917",
"}{.	c #762C1A",
"|{.	c #792C1C",
"1{.	c #7B2D1A",
"2{.	c #792D18",
"3{.	c #7C2E1A",
"4{.	c #802E1B",
"5{.	c #842B18",
"6{.	c #8C331F",
"7{.	c #88321C",
"8{.	c #85301C",
"9{.	c #8A2A17",
"0{.	c #94321E",
"a{.	c #953420",
"b{.	c #983826",
"c{.	c #973825",
"d{.	c #8E2E1B",
"e{.	c #913A24",
"f{.	c #8B3520",
"g{.	c #8E3822",
"h{.	c #882C19",
"i{.	c #912F1C",
"j{.	c #A8442F",
"k{.	c #91301C",
"l{.	c #842C17",
"m{.	c #9C3720",
"n{.	c #AA432D",
"o{.	c #AC422B",
"p{.	c #AC432E",
"q{.	c #A5442E",
"r{.	c #963925",
"s{.	c #A1432D",
"t{.	c #A4412A",
"u{.	c #AE4129",
"v{.	c #B24129",
"w{.	c #862C18",
"x{.	c #A2422A",
"y{.	c #943721",
"z{.	c #A74930",
"A{.	c #9A3720",
"B{.	c #AA3620",
"C{.	c #9F2F1B",
"D{.	c #A43A22",
"E{.	c #A63F27",
"F{.	c #9E422B",
"G{.	c #913B22",
"H{.	c #90371F",
"I{.	c #96351F",
"J{.	c #A13F26",
"K{.	c #9D361E",
"L{.	c #99331D",
"M{.	c #922E18",
"N{.	c #97321B",
"O{.	c #902B17",
"P{.	c #932C18",
"Q{.	c #922B16",
"R{.	c #952F1B",
"S{.	c #9D3522",
"T{.	c #942D17",
"U{.	c #97301A",
"V{.	c #93301B",
"W{.	c #912F1A",
"X{.	c #94301C",
"Y{.	c #8B2E1A",
"Z{.	c #8E2F19",
"`{.	c #9B341C",
" ].	c #3F362E",
".].	c #34130D",
"+].	c #5F271A",
"@].	c #642B1A",
"#].	c #5F2210",
"$].	c #5F2111",
"%].	c #612011",
"&].	c #642010",
"*].	c #652312",
"=].	c #642211",
"-].	c #6C2617",
";].	c #662313",
">].	c #6A2616",
",].	c #6A2614",
"'].	c #6F2716",
")].	c #722916",
"!].	c #712716",
"~].	c #702816",
"{].	c #6D2412",
"]].	c #732815",
"^].	c #732512",
"/].	c #832E1B",
"(].	c #872F1D",
"_].	c #802B17",
":].	c #7F2B18",
"<].	c #822B16",
"[].	c #913321",
"}].	c #8F2E1B",
"|].	c #862917",
"1].	c #953622",
"2].	c #9F3F2B",
"3].	c #923723",
"4].	c #8D331F",
"5].	c #84321D",
"6].	c #80301B",
"7].	c #8A3C27",
"8].	c #873824",
"9].	c #87311E",
"0].	c #933623",
"a].	c #90301C",
"b].	c #903F2B",
"c].	c #86321D",
"d].	c #8B321E",
"e].	c #993A25",
"f].	c #A3432E",
"g].	c #9F311C",
"h].	c #A23F2B",
"i].	c #923722",
"j].	c #983A24",
"k].	c #AC4129",
"l].	c #A23A23",
"m].	c #AC3B27",
"n].	c #9A422B",
"o].	c #B03D28",
"p].	c #9C2F1B",
"q].	c #913C24",
"r].	c #8B3A21",
"s].	c #8C3E26",
"t].	c #9C4C34",
"u].	c #943A22",
"v].	c #A6341D",
"w].	c #A1341E",
"x].	c #9D321B",
"y].	c #9E3923",
"z].	c #923720",
"A].	c #87311B",
"B].	c #994029",
"C].	c #983C26",
"D].	c #963A24",
"E].	c #8E311A",
"F].	c #8D321B",
"G].	c #8A2F18",
"H].	c #912C16",
"I].	c #932E18",
"J].	c #962E1A",
"K].	c #892F1B",
"L].	c #8A2A15",
"M].	c #882B16",
"N].	c #8D2B17",
"O].	c #922D19",
"P].	c #942F1C",
"Q].	c #822B18",
"R].	c #7A2916",
"S].	c #852D1A",
"T].	c #822E23",
"U].	c #54170D",
"V].	c #3E0E07",
"W].	c #59534E",
"X].	c #240B04",
"Y].	c #4B1C0E",
"Z].	c #57210F",
"`].	c #581F0E",
" ^.	c #561B0A",
".^.	c #591D0C",
"+^.	c #591C0E",
"@^.	c #5A1C0C",
"#^.	c #551B0C",
"$^.	c #561D0D",
"%^.	c #5A200F",
"&^.	c #5C1E0E",
"*^.	c #632212",
"=^.	c #5B1E0E",
"-^.	c #5F1E0F",
";^.	c #611E10",
">^.	c #672312",
",^.	c #682110",
"'^.	c #6B2111",
")^.	c #702414",
"!^.	c #6A2111",
"~^.	c #6E2414",
"{^.	c #6E2212",
"]^.	c #7D2B1A",
"^^.	c #7A2A17",
"/^.	c #802917",
"(^.	c #842F1C",
"_^.	c #882F1D",
":^.	c #7E2F1A",
"<^.	c #823420",
"[^.	c #803320",
"}^.	c #7D301C",
"|^.	c #7B301D",
"1^.	c #853621",
"2^.	c #953926",
"3^.	c #8A331F",
"4^.	c #9D4934",
"5^.	c #8E3B26",
"6^.	c #8D3522",
"7^.	c #923825",
"8^.	c #8C3420",
"9^.	c #913621",
"0^.	c #9F402C",
"a^.	c #A13925",
"b^.	c #A23D28",
"c^.	c #9B3723",
"d^.	c #9E3924",
"e^.	c #9E3C2A",
"f^.	c #A94A32",
"g^.	c #A2472F",
"h^.	c #A23821",
"i^.	c #A23C23",
"j^.	c #A53821",
"k^.	c #8F341F",
"l^.	c #8E3B25",
"m^.	c #9D5439",
"n^.	c #934B32",
"o^.	c #99533A",
"p^.	c #9F4F36",
"q^.	c #A3442B",
"r^.	c #9E341E",
"s^.	c #A2351E",
"t^.	c #A4341F",
"u^.	c #9B301A",
"v^.	c #9F3623",
"w^.	c #90311C",
"x^.	c #862E18",
"y^.	c #852E1A",
"z^.	c #8A3520",
"A^.	c #87341E",
"B^.	c #832F1A",
"C^.	c #8B3721",
"D^.	c #7B2D17",
"E^.	c #7A2E1A",
"F^.	c #842D17",
"G^.	c #8C2C1A",
"H^.	c #862A18",
"I^.	c #852B1A",
"J^.	c #782514",
"K^.	c #7A2715",
"L^.	c #7B2816",
"M^.	c #7C2716",
"N^.	c #742312",
"O^.	c #712313",
"P^.	c #6B2012",
"Q^.	c #662012",
"R^.	c #6B2415",
"S^.	c #692517",
"T^.	c #622618",
"U^.	c #3C1208",
"V^.	c #3D2821",
"W^.	c #2D1D16",
"X^.	c #2D0E08",
"Y^.	c #280B03",
"Z^.	c #260904",
"`^.	c #2A0C05",
" /.	c #311009",
"./.	c #38130A",
"+/.	c #3F190C",
"@/.	c #441B0B",
"#/.	c #4E1F0F",
"$/.	c #522010",
"%/.	c #522110",
"&/.	c #501E0D",
"*/.	c #4C1C0C",
"=/.	c #501B0C",
"-/.	c #511B0C",
";/.	c #541E0D",
">/.	c #551B0B",
",/.	c #5A1D0E",
"'/.	c #5B1C0E",
")/.	c #5B1C0C",
"!/.	c #581E0F",
"~/.	c #5C2010",
"{/.	c #5B200F",
"]/.	c #602011",
"^/.	c #632012",
"//.	c #5F1D0E",
"(/.	c #631E0F",
"_/.	c #692112",
":/.	c #661E10",
"</.	c #6B2011",
"[/.	c #6D2414",
"}/.	c #6C2312",
"|/.	c #702615",
"1/.	c #702515",
"2/.	c #742617",
"3/.	c #742B1A",
"4/.	c #6E2513",
"5/.	c #7C301E",
"6/.	c #85301F",
"7/.	c #842D1A",
"8/.	c #8C2F1C",
"9/.	c #993E2B",
"0/.	c #963C28",
"a/.	c #923824",
"b/.	c #A13A27",
"c/.	c #98321E",
"d/.	c #9D3923",
"e/.	c #A13D27",
"f/.	c #A13C28",
"g/.	c #A13B28",
"h/.	c #973623",
"i/.	c #A64531",
"j/.	c #942E19",
"k/.	c #942E1A",
"l/.	c #893A25",
"m/.	c #893B26",
"n/.	c #833721",
"o/.	c #7B3621",
"p/.	c #8E4D35",
"q/.	c #8D4D37",
"r/.	c #8F4930",
"s/.	c #9C3E29",
"t/.	c #96301F",
"u/.	c #8D2A18",
"v/.	c #892917",
"w/.	c #882717",
"x/.	c #8F301B",
"y/.	c #872815",
"z/.	c #7D2715",
"A/.	c #7E2613",
"B/.	c #782816",
"C/.	c #80311F",
"D/.	c #702714",
"E/.	c #732A19",
"F/.	c #6F2814",
"G/.	c #6D2311",
"H/.	c #6F2615",
"I/.	c #6C2313",
"J/.	c #6C2412",
"K/.	c #6C2310",
"L/.	c #6C2214",
"M/.	c #6A2211",
"N/.	c #6D2515",
"O/.	c #6A2514",
"P/.	c #692212",
"Q/.	c #662110",
"R/.	c #682313",
"S/.	c #65220F",
"T/.	c #65210E",
"U/.	c #672211",
"V/.	c #602211",
"W/.	c #4F1E12",
"X/.	c #44160F",
"Y/.	c #36110A",
"Z/.	c #2A0C06",
"`/.	c #210503",
" (.	c #1C0502",
".(.	c #2B1A15",
"+(.	c #725F5B",
"@(.	c #210A06",
"#(.	c #3D150A",
"$(.	c #310F07",
"%(.	c #2B0A03",
"&(.	c #270A02",
"*(.	c #240A03",
"=(.	c #1D0602",
"-(.	c #1A0601",
";(.	c #170501",
">(.	c #120201",
",(.	c #0E0101",
"'(.	c #0E0202",
")(.	c #110402",
"!(.	c #1A0602",
"~(.	c #1E0703",
"{(.	c #250B05",
"](.	c #280E05",
"^(.	c #301209",
"/(.	c #35150B",
"((.	c #38150B",
"_(.	c #3D170A",
":(.	c #41170B",
"<(.	c #44180B",
"[(.	c #48170C",
"}(.	c #4C180D",
"|(.	c #4C190B",
"1(.	c #4C1B0D",
"2(.	c #4D190C",
"3(.	c #4F1A0D",
"4(.	c #561D10",
"5(.	c #591E0F",
"6(.	c #5D1F0D",
"7(.	c #621D0E",
"8(.	c #601C0F",
"9(.	c #5E1B0E",
"0(.	c #5D1B0D",
"a(.	c #5B1A0E",
"b(.	c #5C1A0B",
"c(.	c #621B0D",
"d(.	c #5C180B",
"e(.	c #5B1A0D",
"f(.	c #5C1B0D",
"g(.	c #5B1B0C",
"h(.	c #5D1D10",
"i(.	c #5C1B0E",
"j(.	c #5C190B",
"k(.	c #5A1A0B",
"l(.	c #5D1D0F",
"m(.	c #642114",
"n(.	c #5F1C0E",
"o(.	c #5B2111",
"p(.	c #5A1E0E",
"q(.	c #5F2010",
"r(.	c #5F1D0F",
"s(.	c #661F10",
"t(.	c #661F11",
"u(.	c #681F10",
"v(.	c #6B2010",
"w(.	c #722314",
"x(.	c #692210",
"y(.	c #6E2112",
"z(.	c #70281A",
"A(.	c #692312",
"B(.	c #6A2212",
"C(.	c #692414",
"D(.	c #6D2413",
"E(.	c #712715",
"F(.	c #6E2512",
"G(.	c #732416",
"H(.	c #6D2011",
"I(.	c #6D2110",
"J(.	c #762615",
"K(.	c #732212",
"L(.	c #782615",
"M(.	c #7A2613",
"N(.	c #721F10",
"O(.	c #70200F",
"P(.	c #712211",
"Q(.	c #772614",
"R(.	c #73220E",
"S(.	c #762312",
"T(.	c #782212",
"U(.	c #701D0C",
"V(.	c #742011",
"W(.	c #7A2414",
"X(.	c #7D2816",
"Y(.	c #792413",
"Z(.	c #752312",
"`(.	c #802F1E",
" _.	c #7C2714",
"._.	c #772615",
"+_.	c #722514",
"@_.	c #6D2A18",
"#_.	c #6E2916",
"$_.	c #752E1B",
"%_.	c #6C2917",
"&_.	c #682919",
"*_.	c #652817",
"=_.	c #6C2B19",
"-_.	c #68210F",
";_.	c #6F1D0C",
">_.	c #762110",
",_.	c #752210",
"'_.	c #762211",
")_.	c #72200D",
"!_.	c #6E1E0F",
"~_.	c #6C1E0F",
"{_.	c #6A1F0F",
"]_.	c #691F10",
"^_.	c #6A200F",
"/_.	c #6B1F0F",
"(_.	c #6C1F0E",
"__.	c #671E0D",
":_.	c #682011",
"<_.	c #651E0F",
"[_.	c #5E1B0D",
"}_.	c #621E0E",
"|_.	c #682310",
"1_.	c #632110",
"2_.	c #5F200E",
"3_.	c #652515",
"4_.	c #652616",
"5_.	c #662817",
"6_.	c #5F2314",
"7_.	c #5A1E0F",
"8_.	c #551C0E",
"9_.	c #4E190C",
"0_.	c #47160B",
"a_.	c #411308",
"b_.	c #3A1207",
"c_.	c #341107",
"d_.	c #280A03",
"e_.	c #200903",
"f_.	c #1D0502",
"g_.	c #170302",
"h_.	c #0F0201",
"i_.	c #0F0101",
"j_.	c #160301",
"k_.	c #1B0400",
"l_.	c #220501",
"m_.	c #290702",
"n_.	c #2B0B04",
"o_.	c #2C0A03",
"p_.	c #330E02",
"q_.	c #41150F",
"r_.	c #594241",
"s_.	c #381911",
"t_.	c #49190B",
"u_.	c #3F150A",
"v_.	c #391208",
"w_.	c #330E05",
"x_.	c #321006",
"y_.	c #290B04",
"z_.	c #250903",
"A_.	c #200802",
"B_.	c #1A0401",
"C_.	c #170400",
"D_.	c #130200",
"E_.	c #110201",
"F_.	c #160600",
"G_.	c #1A0801",
"H_.	c #1A0702",
"I_.	c #1D0703",
"J_.	c #230904",
"K_.	c #220902",
"L_.	c #260B03",
"M_.	c #270B03",
"N_.	c #220901",
"O_.	c #230704",
"P_.	c #240904",
"Q_.	c #230803",
"R_.	c #240802",
"S_.	c #200601",
"T_.	c #1F0601",
"U_.	c #2F1007",
"V_.	c #2A0C03",
"W_.	c #290D05",
"X_.	c #260A02",
"Y_.	c #250702",
"Z_.	c #250602",
"`_.	c #270803",
" :.	c #280804",
".:.	c #2A0904",
"+:.	c #2F0B05",
"@:.	c #350F05",
"#:.	c #3A120A",
"$:.	c #42160D",
"%:.	c #44160D",
"&:.	c #47190E",
"*:.	c #45170C",
"=:.	c #48190E",
"-:.	c #49180E",
";:.	c #48160C",
">:.	c #4B170E",
",:.	c #49170C",
"':.	c #4A170C",
"):.	c #4F1C10",
"!:.	c #4D1B0F",
"~:.	c #4B1B0F",
"{:.	c #511E10",
"]:.	c #52190C",
"^:.	c #561B0F",
"/:.	c #571B0E",
"(:.	c #5C1B0F",
"_:.	c #621D11",
"::.	c #621E13",
"<:.	c #5B1B0D",
"[:.	c #5F1E12",
"}:.	c #612111",
"|:.	c #60200F",
"1:.	c #5C1D10",
"2:.	c #5E1E10",
"3:.	c #5B1D10",
"4:.	c #5E1D0F",
"5:.	c #5F1F11",
"6:.	c #5C1E10",
"7:.	c #5C1C0E",
"8:.	c #55180A",
"9:.	c #5B190B",
"0:.	c #5A1909",
"a:.	c #5D1C0C",
"b:.	c #611D11",
"c:.	c #601D10",
"d:.	c #621D0F",
"e:.	c #681F12",
"f:.	c #661E11",
"g:.	c #631A0D",
"h:.	c #651B0C",
"i:.	c #641C0E",
"j:.	c #5D180B",
"k:.	c #5F1D0C",
"l:.	c #5F1C0D",
"m:.	c #5D1E0D",
"n:.	c #5C1C0D",
"o:.	c #621F0F",
"p:.	c #662211",
"q:.	c #601E0E",
"r:.	c #5E1C0D",
"s:.	c #5F1E0E",
"t:.	c #611D0F",
"u:.	c #581F10",
"v:.	c #5C2012",
"w:.	c #5C2013",
"x:.	c #5D1E0F",
"y:.	c #5D2011",
"z:.	c #551A0B",
"A:.	c #5B1B0B",
"B:.	c #5C1C11",
"C:.	c #5B1B0F",
"D:.	c #5B1B11",
"E:.	c #5A1A0F",
"F:.	c #581C0F",
"G:.	c #4D170C",
"H:.	c #4C160C",
"I:.	c #4A170D",
"J:.	c #45160A",
"K:.	c #431308",
"L:.	c #411409",
"M:.	c #3F140A",
"N:.	c #370F07",
"O:.	c #330F05",
"P:.	c #310E06",
"Q:.	c #310E05",
"R:.	c #2F0C03",
"S:.	c #290B03",
"T:.	c #250803",
"U:.	c #270A03",
"V:.	c #210603",
"W:.	c #220702",
"X:.	c #220801",
"Y:.	c #260A03",
"Z:.	c #290D03",
"`:.	c #2E0D04",
" <.	c #360F04",
".<.	c #270B02",
"+<.	c #280A01",
"@<.	c #280A02",
"#<.	c #250C05",
"$<.	c #240D08",
"%<.	c #1A0906",
"&<.	c #110202",
"*<.	c #110301",
"=<.	c #160200",
"-<.	c #1E0501",
";<.	c #250802",
"><.	c #2E0B03",
",<.	c #340C04",
"'<.	c #390F06",
")<.	c #3B0D04",
"!<.	c #411107",
"~<.	c #481407",
"{<.	c #52251C",
"]<.	c #7F6B67",
"^<.	c #482924",
"/<.	c #522115",
"(<.	c #45170B",
"_<.	c #3F1308",
":<.	c #391105",
"<<.	c #341006",
"[<.	c #2C0C02",
"}<.	c #220602",
"|<.	c #1D0400",
"1<.	c #150301",
"2<.	c #170702",
"3<.	c #190803",
"4<.	c #1F0904",
"5<.	c #1E0903",
"6<.	c #210904",
"7<.	c #250B03",
"8<.	c #260B04",
"9<.	c #2A0D05",
"0<.	c #290A02",
"a<.	c #260902",
"b<.	c #240902",
"c<.	c #3F170C",
"d<.	c #3C1307",
"e<.	c #3D1407",
"f<.	c #381005",
"g<.	c #391107",
"h<.	c #340F04",
"i<.	c #270B04",
"j<.	c #200701",
"k<.	c #1D0500",
"l<.	c #1C0401",
"m<.	c #1C0601",
"n<.	c #160502",
"o<.	c #0F0200",
"p<.	c #150402",
"q<.	c #1B0502",
"r<.	c #210802",
"s<.	c #240702",
"t<.	c #240701",
"u<.	c #230601",
"v<.	c #260701",
"w<.	c #250600",
"x<.	c #250601",
"y<.	c #260601",
"z<.	c #270601",
"A<.	c #270602",
"B<.	c #240601",
"C<.	c #240400",
"D<.	c #240501",
"E<.	c #260602",
"F<.	c #260502",
"G<.	c #260702",
"H<.	c #250502",
"I<.	c #250703",
"J<.	c #230602",
"K<.	c #200803",
"L<.	c #200602",
"M<.	c #200703",
"N<.	c #1F0502",
"O<.	c #1F0501",
"P<.	c #270804",
"Q<.	c #250801",
"R<.	c #270801",
"S<.	c #260802",
"T<.	c #280802",
"U<.	c #260801",
"V<.	c #260803",
"W<.	c #270802",
"X<.	c #270702",
"Y<.	c #230802",
"Z<.	c #270903",
"`<.	c #280903",
" [.	c #290A04",
".[.	c #2A0903",
"+[.	c #2D0802",
"@[.	c #2B0802",
"#[.	c #290802",
"$[.	c #290803",
"%[.	c #280702",
"&[.	c #270701",
"*[.	c #290701",
"=[.	c #260600",
"-[.	c #280902",
";[.	c #2A0902",
">[.	c #190603",
",[.	c #130301",
"'[.	c #150300",
")[.	c #1A0500",
"![.	c #2B0C03",
"~[.	c #2C0D03",
"{[.	c #2D0D03",
"][.	c #310F03",
"^[.	c #391207",
"/[.	c #3D1205",
"([.	c #451406",
"_[.	c #471506",
":[.	c #4D1709",
"<[.	c #351107",
"[[.	c #2B0B03",
"}[.	c #2D0B04",
"|[.	c #2D0D04",
"1[.	c #2C0C03",
"2[.	c #30140A",
"3[.	c #554F49",
"4[.	c #221B17",
"5[.	c #100300",
"6[.	c #160300",
"7[.	c #1F0401",
"8[.	c #280703",
"9[.	c #300A03",
"0[.	c #3E1005",
"a[.	c #421206",
"b[.	c #47180B",
"c[.	c #591A0D",
"d[.	c #60271E",
"e[.	c #431B14",
"f[.	c #501C0F",
"g[.	c #522215",
"h[.	c #491A0C",
"i[.	c #43160A",
"j[.	c #391108",
"k[.	c #351007",
"l[.	c #2B0C04",
"m[.	c #1E0401",
"n[.	c #1F0605",
"o[.	c #150E0F",
"p[.	c #393838",
"q[.	c #210D07",
"r[.	c #220A03",
"s[.	c #230B01",
"t[.	c #290E06",
"u[.	c #280D04",
"v[.	c #2A0D03",
"w[.	c #2F0D05",
"x[.	c #2D0D05",
"y[.	c #2D0D06",
"z[.	c #2E0C06",
"A[.	c #290902",
"B[.	c #491609",
"C[.	c #461709",
"D[.	c #461509",
"E[.	c #451508",
"F[.	c #3C1105",
"G[.	c #380F06",
"H[.	c #330D06",
"I[.	c #1E0602",
"J[.	c #180400",
"K[.	c #140401",
"L[.	c #1C0603",
"M[.	c #1F0702",
"N[.	c #240903",
"O[.	c #2A0A02",
"P[.	c #2C0902",
"Q[.	c #2C0903",
"R[.	c #2B0902",
"S[.	c #2A0701",
"T[.	c #2D0A02",
"U[.	c #2E0B04",
"V[.	c #2C0803",
"W[.	c #2D0904",
"X[.	c #2D0A03",
"Y[.	c #310A03",
"Z[.	c #2E0903",
"`[.	c #2A0702",
" }.	c #2B0701",
".}.	c #2C0802",
"+}.	c #2A0801",
"@}.	c #280701",
"#}.	c #2B0804",
"$}.	c #230702",
"%}.	c #230903",
"&}.	c #1D0501",
"*}.	c #1B0602",
"=}.	c #2E0D05",
"-}.	c #320E06",
";}.	c #330F04",
">}.	c #340C06",
",}.	c #300C04",
"'}.	c #320C05",
")}.	c #340E04",
"!}.	c #320D05",
"~}.	c #310D04",
"{}.	c #340F06",
"]}.	c #2F0903",
"^}.	c #1E0400",
"/}.	c #230701",
"(}.	c #2A0803",
"_}.	c #2B0702",
":}.	c #2D0902",
"<}.	c #2B0903",
"[}.	c #2E0904",
"}}.	c #2F0A05",
"|}.	c #2E0A04",
"1}.	c #300903",
"2}.	c #320A03",
"3}.	c #320B04",
"4}.	c #2F0902",
"5}.	c #320902",
"6}.	c #330A02",
"7}.	c #330B04",
"8}.	c #300A02",
"9}.	c #2F0802",
"0}.	c #300902",
"a}.	c #300A04",
"b}.	c #2D0903",
"c}.	c #2F0A02",
"d}.	c #310B03",
"e}.	c #2F0A03",
"f}.	c #2D0801",
"g}.	c #280801",
"h}.	c #1D0601",
"i}.	c #150201",
"j}.	c #140200",
"k}.	c #2A0A01",
"l}.	c #2F0C05",
"m}.	c #330D03",
"n}.	c #421507",
"o}.	c #4C1A0D",
"p}.	c #521D0D",
"q}.	c #521C0C",
"r}.	c #571F0F",
"s}.	c #541C0D",
"t}.	c #5A1D0F",
"u}.	c #602212",
"v}.	c #421509",
"w}.	c #361105",
"x}.	c #340E06",
"y}.	c #330D04",
"z}.	c #321108",
"A}.	c #230E08",
"B}.	c #4A4644",
"C}.	c #1D0A08",
"D}.	c #1E0702",
"E}.	c #320D06",
"F}.	c #3F1409",
"G}.	c #501A0D",
"H}.	c #561E0F",
"I}.	c #5E1C0C",
"J}.	c #712C1C",
"K}.	c #812C21",
"L}.	c #39110A",
"M}.	c #3C3130",
"N}.	c #4B1C11",
"O}.	c #391205",
"P}.	c #2C0B02",
"Q}.	c #210803",
"R}.	c #1B0401",
"S}.	c #1D0300",
"T}.	c #130403",
"U}.	c #1D0E09",
"V}.	c #270E05",
"W}.	c #260A01",
"X}.	c #2C1007",
"Y}.	c #2B0F07",
"Z}.	c #2D0F05",
"`}.	c #310F05",
" |.	c #320F06",
".|.	c #310D05",
"+|.	c #300E05",
"@|.	c #2A0A03",
"#|.	c #5E2314",
"$|.	c #551E0D",
"%|.	c #511B0B",
"&|.	c #571E10",
"*|.	c #53190C",
"=|.	c #4E180B",
"-|.	c #3E1007",
";|.	c #3B130A",
">|.	c #300B04",
",|.	c #180401",
"'|.	c #150401",
")|.	c #1E0803",
"!|.	c #220703",
"~|.	c #2E0A02",
"{|.	c #2F0B03",
"]|.	c #2D0803",
"^|.	c #330A03",
"/|.	c #320B03",
"(|.	c #2F0B04",
"_|.	c #320A05",
":|.	c #320A04",
"<|.	c #2F0702",
"[|.	c #310904",
"}|.	c #320B05",
"||.	c #300904",
"1|.	c #2F0904",
"2|.	c #270703",
"3|.	c #270904",
"4|.	c #1A0301",
"5|.	c #270902",
"6|.	c #2E0B02",
"7|.	c #390E04",
"8|.	c #3D1006",
"9|.	c #441408",
"0|.	c #431408",
"a|.	c #46160A",
"b|.	c #3F1005",
"c|.	c #411208",
"d|.	c #421409",
"e|.	c #3C0F05",
"f|.	c #380E05",
"g|.	c #3C1005",
"h|.	c #300B03",
"i|.	c #2E0A03",
"j|.	c #2F0A04",
"k|.	c #310C04",
"l|.	c #2D0901",
"m|.	c #300B02",
"n|.	c #310A02",
"o|.	c #310C03",
"p|.	c #350A03",
"q|.	c #360C04",
"r|.	c #340B03",
"s|.	c #360B03",
"t|.	c #350B04",
"u|.	c #320903",
"v|.	c #350C04",
"w|.	c #350C05",
"x|.	c #310B04",
"y|.	c #140101",
"z|.	c #2C0A02",
"A|.	c #320D04",
"B|.	c #3B1007",
"C|.	c #431608",
"D|.	c #501E0F",
"E|.	c #582311",
"F|.	c #622615",
"G|.	c #6D2C1A",
"H|.	c #6C2A16",
"I|.	c #732D18",
"J|.	c #722F1B",
"K|.	c #702C17",
"L|.	c #7F3420",
"M|.	c #491C0D",
"N|.	c #411105",
"O|.	c #401308",
"P|.	c #3E1206",
"Q|.	c #341209",
"R|.	c #2B2825",
"S|.	c #14130F",
"T|.	c #110302",
"U|.	c #170301",
"V|.	c #180201",
"W|.	c #230804",
"X|.	c #240905",
"Y|.	c #2B0D05",
"Z|.	c #320E05",
"`|.	c #432823",
" 1.	c #601E0C",
".1.	c #511C0D",
"+1.	c #4A190D",
"@1.	c #2A0B03",
"#1.	c #190702",
"$1.	c #1A0F0C",
"%1.	c #1C1C1B",
"&1.	c #290F06",
"*1.	c #2B0D03",
"=1.	c #311107",
"-1.	c #331107",
";1.	c #351006",
">1.	c #361107",
",1.	c #331005",
"'1.	c #341106",
")1.	c #330F06",
"!1.	c #320E04",
"~1.	c #2E0C05",
"{1.	c #5F271B",
"]1.	c #6A2517",
"^1.	c #6A2919",
"/1.	c #6D2918",
"(1.	c #6D2513",
"_1.	c #612311",
":1.	c #481409",
"<1.	c #3D1005",
"[1.	c #370F05",
"}1.	c #170401",
"|1.	c #170402",
"11.	c #280A04",
"21.	c #340A03",
"31.	c #370B05",
"41.	c #330903",
"51.	c #330B03",
"61.	c #340B04",
"71.	c #370C05",
"81.	c #2E0802",
"91.	c #340A04",
"01.	c #320C04",
"a1.	c #310A04",
"b1.	c #370C04",
"c1.	c #340904",
"d1.	c #310A05",
"e1.	c #290A03",
"f1.	c #1C0602",
"g1.	c #1B0402",
"h1.	c #2D0B03",
"i1.	c #370F03",
"j1.	c #3F1105",
"k1.	c #4A1309",
"l1.	c #571A0B",
"m1.	c #551A0D",
"n1.	c #5B2113",
"o1.	c #501A0F",
"p1.	c #471308",
"q1.	c #4B170B",
"r1.	c #461409",
"s1.	c #461507",
"t1.	c #350B03",
"u1.	c #350A05",
"v1.	c #310902",
"w1.	c #340C05",
"x1.	c #350D04",
"y1.	c #360C05",
"z1.	c #390D06",
"A1.	c #390C04",
"B1.	c #370D05",
"C1.	c #360C03",
"D1.	c #360B04",
"E1.	c #330902",
"F1.	c #360903",
"G1.	c #370D04",
"H1.	c #350A04",
"I1.	c #340D05",
"J1.	c #1C0503",
"K1.	c #150200",
"L1.	c #260903",
"M1.	c #3D1004",
"N1.	c #4A190A",
"O1.	c #561D0F",
"P1.	c #672617",
"Q1.	c #712814",
"R1.	c #893922",
"S1.	c #80331C",
"T1.	c #85331D",
"U1.	c #822F1A",
"V1.	c #471408",
"W1.	c #481609",
"X1.	c #471609",
"Y1.	c #34130F",
"Z1.	c #120100",
"`1.	c #1E0A03",
" 2.	c #200904",
".2.	c #2F0C04",
"+2.	c #3E170B",
"@2.	c #471E10",
"#2.	c #4E1C0C",
"$2.	c #602817",
"%2.	c #702F1A",
"&2.	c #672B1C",
"*2.	c #270E08",
"=2.	c #391306",
"-2.	c #43160B",
";2.	c #371308",
">2.	c #2E0C04",
",2.	c #1F0A02",
"'2.	c #190D09",
")2.	c #545557",
"!2.	c #250D08",
"~2.	c #2E0F05",
"{2.	c #331207",
"]2.	c #341207",
"^2.	c #361208",
"/2.	c #391309",
"(2.	c #371107",
"_2.	c #351207",
":2.	c #361007",
"<2.	c #360F05",
"[2.	c #4E2113",
"}2.	c #542012",
"|2.	c #5A2415",
"12.	c #70311F",
"22.	c #783421",
"32.	c #773624",
"42.	c #5F2516",
"52.	c #4C190C",
"62.	c #47170A",
"72.	c #3B1106",
"82.	c #180301",
"92.	c #300C03",
"02.	c #330E03",
"a2.	c #340B05",
"b2.	c #350B06",
"c2.	c #370B04",
"d2.	c #3A0E06",
"e2.	c #370903",
"f2.	c #380C04",
"g2.	c #390D05",
"h2.	c #390D04",
"i2.	c #370B03",
"j2.	c #360C06",
"k2.	c #330B05",
"l2.	c #290B02",
"m2.	c #190301",
"n2.	c #351008",
"o2.	c #50160C",
"p2.	c #56170D",
"q2.	c #692516",
"r2.	c #682412",
"s2.	c #5E1E0F",
"t2.	c #5D1D0E",
"u2.	c #581C11",
"v2.	c #5B1E12",
"w2.	c #581A0C",
"x2.	c #531708",
"y2.	c #3E1408",
"z2.	c #3B0E06",
"A2.	c #370C02",
"B2.	c #370C03",
"C2.	c #3A0D05",
"D2.	c #3B0C05",
"E2.	c #3C0D05",
"F2.	c #3A0B04",
"G2.	c #3A0F06",
"H2.	c #3B0D05",
"I2.	c #3A0D04",
"J2.	c #380C03",
"K2.	c #3A0B03",
"L2.	c #370A02",
"M2.	c #390C03",
"N2.	c #380D04",
"O2.	c #390E05",
"P2.	c #3A0D06",
"Q2.	c #3D0E06",
"R2.	c #3D0D06",
"S2.	c #380B04",
"T2.	c #380C05",
"U2.	c #330C02",
"V2.	c #2B0801",
"W2.	c #220701",
"X2.	c #1F0602",
"Y2.	c #301006",
"Z2.	c #39120A",
"`2.	c #41160B",
" 3.	c #5D2417",
".3.	c #6E2D1E",
"+3.	c #7C3828",
"@3.	c #743121",
"#3.	c #793421",
"$3.	c #712D19",
"%3.	c #672816",
"&3.	c #592011",
"*3.	c #541F10",
"=3.	c #431205",
"-3.	c #4B1508",
";3.	c #4B1608",
">3.	c #4F1B0D",
",3.	c #271E1F",
"'3.	c #090303",
")3.	c #371005",
"!3.	c #441407",
"~3.	c #4F170A",
"{3.	c #60210E",
"]3.	c #6F2E17",
"^3.	c #672713",
"/3.	c #531910",
"(3.	c #572E23",
"_3.	c #231A19",
":3.	c #3C190D",
"<3.	c #39160B",
"[3.	c #3C150A",
"}3.	c #3A150A",
"|3.	c #391409",
"13.	c #391209",
"23.	c #371007",
"33.	c #381106",
"43.	c #381107",
"53.	c #381007",
"63.	c #311006",
"73.	c #4C2515",
"83.	c #512613",
"93.	c #4D231A",
"03.	c #421B10",
"a3.	c #4A2015",
"b3.	c #421B13",
"c3.	c #331108",
"d3.	c #2D1007",
"e3.	c #220803",
"f3.	c #250902",
"g3.	c #330E06",
"h3.	c #330C04",
"i3.	c #330C03",
"j3.	c #350D05",
"k3.	c #3B0E05",
"l3.	c #3F0D07",
"m3.	c #3C0C04",
"n3.	c #3C0F06",
"o3.	c #3B0D07",
"p3.	c #3A0C05",
"q3.	c #3A0C04",
"r3.	c #380A04",
"s3.	c #1F0703",
"t3.	c #190502",
"u3.	c #390F05",
"v3.	c #401008",
"w3.	c #4D1A0D",
"x3.	c #511E0E",
"y3.	c #561F14",
"z3.	c #4C1B0E",
"A3.	c #471A0C",
"B3.	c #461809",
"C3.	c #451609",
"D3.	c #48180C",
"E3.	c #421207",
"F3.	c #3C0C05",
"G3.	c #3C0D04",
"H3.	c #3B0C04",
"I3.	c #401006",
"J3.	c #3E0D04",
"K3.	c #3E0D06",
"L3.	c #3E0D05",
"M3.	c #3C0C03",
"N3.	c #3E0F06",
"O3.	c #3E1006",
"P3.	c #3C0F04",
"Q3.	c #411007",
"R3.	c #3F0E06",
"S3.	c #3C0E06",
"T3.	c #3D0D05",
"U3.	c #3F0F05",
"V3.	c #3D0D04",
"W3.	c #3F0F06",
"X3.	c #3E0F05",
"Y3.	c #3E0E06",
"Z3.	c #3D0E07",
"`3.	c #3D0C05",
" 4.	c #380D06",
".4.	c #210701",
"+4.	c #200702",
"@4.	c #3B150A",
"#4.	c #451D11",
"$4.	c #4D2615",
"%4.	c #4F2818",
"&4.	c #673B26",
"*4.	c #653523",
"=4.	c #5F2D1D",
"-4.	c #652C1B",
";4.	c #582415",
">4.	c #4E170A",
",4.	c #57190B",
"'4.	c #53180C",
")4.	c #4C1C12",
"!4.	c #353232",
"~4.	c #421A0F",
"{4.	c #451C0F",
"]4.	c #42190C",
"^4.	c #3E1509",
"/4.	c #3C1409",
"(4.	c #40150A",
"_4.	c #3C1207",
":4.	c #3B1207",
"<4.	c #3C1209",
"[4.	c #3A1105",
"}4.	c #3B1107",
"|4.	c #5B2A1B",
"14.	c #5E2919",
"24.	c #662E1C",
"34.	c #602613",
"44.	c #612916",
"54.	c #642C1A",
"64.	c #5C2314",
"74.	c #52210F",
"84.	c #491B0E",
"94.	c #1D0801",
"04.	c #280B04",
"a4.	c #360E05",
"b4.	c #370F06",
"c4.	c #360D05",
"d4.	c #3A0E05",
"e4.	c #3B0D06",
"f4.	c #3D0E05",
"g4.	c #3D0C04",
"h4.	c #400F07",
"i4.	c #420F06",
"j4.	c #400D04",
"k4.	c #400F06",
"l4.	c #3D0F07",
"m4.	c #3B0E07",
"n4.	c #390C05",
"o4.	c #2D0B02",
"p4.	c #2B0A04",
"q4.	c #1E0603",
"r4.	c #3A170C",
"s4.	c #431D0F",
"t4.	c #4B1F10",
"u4.	c #4B1F13",
"v4.	c #5E2E1D",
"w4.	c #643220",
"x4.	c #6A3925",
"y4.	c #5D2D1B",
"z4.	c #532718",
"A4.	c #471E15",
"B4.	c #35150D",
"C4.	c #3A0C06",
"D4.	c #400D06",
"E4.	c #440F07",
"F4.	c #471108",
"G4.	c #451006",
"H4.	c #431006",
"I4.	c #441006",
"J4.	c #460F04",
"K4.	c #461006",
"L4.	c #430D04",
"M4.	c #420F05",
"N4.	c #450F06",
"O4.	c #481107",
"P4.	c #460F06",
"Q4.	c #421005",
"R4.	c #3F0D04",
"S4.	c #3B0C03",
"T4.	c #3F0E04",
"U4.	c #421006",
"V4.	c #471208",
"W4.	c #481208",
"X4.	c #431007",
"Y4.	c #441108",
"Z4.	c #410E06",
"`4.	c #430E05",
" 5.	c #451107",
".5.	c #411109",
"+5.	c #3B0E04",
"@5.	c #3E0C04",
"#5.	c #400E05",
"$5.	c #430F05",
"%5.	c #290A01",
"&5.	c #1E0802",
"*5.	c #2E0F04",
"=5.	c #41160A",
"-5.	c #4F1F11",
";5.	c #602A17",
">5.	c #713820",
",5.	c #7A3E24",
"'5.	c #824127",
")5.	c #73391D",
"!5.	c #71341C",
"~5.	c #75371F",
"{5.	c #5A2619",
"]5.	c #51150A",
"^5.	c #5C190A",
"/5.	c #571B0B",
"(5.	c #49190C",
"_5.	c #120402",
":5.	c #491D11",
"<5.	c #451A0D",
"[5.	c #471B0E",
"}5.	c #42160C",
"|5.	c #43170C",
"15.	c #44170C",
"25.	c #42140A",
"35.	c #3D1207",
"45.	c #40160C",
"55.	c #511F11",
"65.	c #5E291A",
"75.	c #652E21",
"85.	c #662F20",
"95.	c #622B1C",
"05.	c #6C3725",
"a5.	c #653021",
"b5.	c #4F2215",
"c5.	c #39140A",
"d5.	c #2B0D04",
"e5.	c #300E04",
"f5.	c #350F06",
"g5.	c #3D0F06",
"h5.	c #390B04",
"i5.	c #3F0E05",
"j5.	c #400E06",
"k5.	c #430F06",
"l5.	c #450F07",
"m5.	c #451108",
"n5.	c #441107",
"o5.	c #421008",
"p5.	c #431008",
"q5.	c #421107",
"r5.	c #410E05",
"s5.	c #401007",
"t5.	c #3E0F07",
"u5.	c #390E06",
"v5.	c #330C05",
"w5.	c #2C0A04",
"x5.	c #2A0B04",
"y5.	c #220603",
"z5.	c #2A0E05",
"A5.	c #4B2314",
"B5.	c #562612",
"C5.	c #643019",
"D5.	c #632E19",
"E5.	c #6F3724",
"F5.	c #6A311B",
"G5.	c #642D15",
"H5.	c #602B14",
"I5.	c #642F19",
"J5.	c #441B0D",
"K5.	c #431107",
"L5.	c #430F08",
"M5.	c #461007",
"N5.	c #480F06",
"O5.	c #4A1006",
"P5.	c #470F05",
"Q5.	c #481006",
"R5.	c #4B1008",
"S5.	c #4B0F07",
"T5.	c #4B1108",
"U5.	c #491107",
"V5.	c #4A1106",
"W5.	c #4E120A",
"X5.	c #470F08",
"Y5.	c #471107",
"Z5.	c #431108",
"`5.	c #491207",
" 6.	c #481105",
".6.	c #481007",
"+6.	c #471007",
"@6.	c #471106",
"#6.	c #3F0D05",
"$6.	c #411006",
"%6.	c #441007",
"&6.	c #460E05",
"*6.	c #410D04",
"=6.	c #2D0C04",
"-6.	c #511E12",
";6.	c #5E2819",
">6.	c #6C3422",
",6.	c #6E3421",
"'6.	c #703927",
")6.	c #652B1A",
"!6.	c #542214",
"~6.	c #50150A",
"{6.	c #601B0F",
"]6.	c #4A1508",
"^6.	c #140402",
"/6.	c #4F2012",
"(6.	c #4D2012",
"_6.	c #4B1D0F",
":6.	c #481A0C",
"<6.	c #47170B",
"[6.	c #49170B",
"}6.	c #49170A",
"|6.	c #451408",
"16.	c #45150A",
"26.	c #421308",
"36.	c #451309",
"46.	c #47150B",
"56.	c #421307",
"66.	c #3F1108",
"76.	c #3E1108",
"86.	c #310D06",
"96.	c #310B06",
"06.	c #300D05",
"a6.	c #370E05",
"b6.	c #3D1208",
"c6.	c #3C1006",
"d6.	c #410F07",
"e6.	c #421007",
"f6.	c #450E06",
"g6.	c #48120A",
"h6.	c #4A1208",
"i6.	c #491108",
"j6.	c #460F05",
"k6.	c #461209",
"l6.	c #451209",
"m6.	c #420D05",
"n6.	c #440F06",
"o6.	c #430F07",
"p6.	c #410F06",
"q6.	c #3D0E04",
"r6.	c #3A1007",
"s6.	c #350E04",
"t6.	c #2E0B05",
"u6.	c #461E12",
"v6.	c #552818",
"w6.	c #612E1D",
"x6.	c #713C26",
"y6.	c #7A432D",
"z6.	c #7B4731",
"A6.	c #744029",
"B6.	c #7E4530",
"C6.	c #7C4631",
"D6.	c #5C2B1C",
"E6.	c #390E03",
"F6.	c #3C0E05",
"G6.	c #400F05",
"H6.	c #440D06",
"I6.	c #450D04",
"J6.	c #4D1208",
"K6.	c #501107",
"L6.	c #511207",
"M6.	c #4D1107",
"N6.	c #4D1408",
"O6.	c #481005",
"P6.	c #4E1107",
"Q6.	c #4F1104",
"R6.	c #501207",
"S6.	c #541509",
"T6.	c #531308",
"U6.	c #4F1308",
"V6.	c #4D1308",
"W6.	c #4C1308",
"X6.	c #491408",
"Y6.	c #481308",
"Z6.	c #451007",
"`6.	c #4A1209",
" 7.	c #4B1207",
".7.	c #4C1208",
"+7.	c #4A1107",
"@7.	c #4D130A",
"#7.	c #4A1207",
"$7.	c #49150B",
"%7.	c #441307",
"&7.	c #49140A",
"*7.	c #4E1208",
"=7.	c #4F1307",
"-7.	c #4E1207",
";7.	c #471005",
">7.	c #360E04",
",7.	c #380E04",
"'7.	c #471006",
")7.	c #52190E",
"!7.	c #4F160D",
"~7.	c #5C180A",
"{7.	c #651D0D",
"]7.	c #681C0E",
"^7.	c #6B2213",
"/7.	c #4D1508",
"(7.	c #180704",
"_7.	c #572413",
":7.	c #4F1E11",
"<7.	c #511D0F",
"[7.	c #4F180D",
"}7.	c #4C170B",
"|7.	c #48160A",
"17.	c #49130A",
"27.	c #451207",
"37.	c #441109",
"47.	c #3E0E05",
"57.	c #3C1007",
"67.	c #3F1107",
"77.	c #410F05",
"87.	c #461107",
"97.	c #471209",
"07.	c #460F07",
"a7.	c #4B1308",
"b7.	c #4B1106",
"c7.	c #491005",
"d7.	c #4D1108",
"e7.	c #4D1309",
"f7.	c #401209",
"g7.	c #411309",
"h7.	c #431209",
"i7.	c #4C1409",
"j7.	c #4B1007",
"k7.	c #4A1308",
"l7.	c #4B1107",
"m7.	c #471008",
"n7.	c #461108",
"o7.	c #421208",
"p7.	c #3D1106",
"q7.	c #300D06",
"r7.	c #350C06",
"s7.	c #3E0F08",
"t7.	c #3E0E04",
"u7.	c #450E05",
"v7.	c #4D1109",
"w7.	c #501309",
"x7.	c #541209",
"y7.	c #551207",
"z7.	c #5C160A",
"A7.	c #58140A",
"B7.	c #531207",
"C7.	c #531409",
"D7.	c #551408",
"E7.	c #571308",
"F7.	c #561407",
"G7.	c #571408",
"H7.	c #561308",
"I7.	c #5A190E",
"J7.	c #501306",
"K7.	c #4F1309",
"L7.	c #4C150A",
"M7.	c #4E1309",
"N7.	c #4F1409",
"O7.	c #501508",
"P7.	c #511509",
"Q7.	c #4B1105",
"R7.	c #491208",
"S7.	c #4D140A",
"T7.	c #4D1409",
"U7.	c #53140A",
"V7.	c #521206",
"W7.	c #4C1005",
"X7.	c #4C1206",
"Y7.	c #400D02",
"Z7.	c #4C1309",
"`7.	c #56180B",
" 8.	c #5A190A",
".8.	c #621B0C",
"+8.	c #6A1F0E",
"@8.	c #681C0C",
"#8.	c #742314",
"$8.	c #722313",
"%8.	c #521106",
"&8.	c #170505",
"*8.	c #562314",
"=8.	c #532314",
"-8.	c #582316",
";8.	c #531F10",
">8.	c #561F10",
",8.	c #561A0F",
"'8.	c #50180C",
")8.	c #54190D",
"!8.	c #51190C",
"~8.	c #4B160A",
"{8.	c #461308",
"]8.	c #471509",
"^8.	c #4D160B",
"/8.	c #4C140A",
"(8.	c #3F1007",
"_8.	c #3A0F07",
":8.	c #381008",
"<8.	c #370E06",
"[8.	c #391007",
"}8.	c #431509",
"|8.	c #461309",
"18.	c #440F05",
"28.	c #531309",
"38.	c #541308",
"48.	c #54150B",
"58.	c #521308",
"68.	c #521309",
"78.	c #461208",
"88.	c #55140B",
"98.	c #53150C",
"08.	c #511409",
"a8.	c #521108",
"b8.	c #441209",
"c8.	c #411108",
"d8.	c #45130B",
"e8.	c #401107",
"f8.	c #3E1207",
"g8.	c #380F05",
"h8.	c #370E03",
"i8.	c #461106",
"j8.	c #481205",
"k8.	c #4D1207",
"l8.	c #501409",
"m8.	c #56140A",
"n8.	c #59160B",
"o8.	c #5F180E",
"p8.	c #60170C",
"q8.	c #5D150A",
"r8.	c #5D180C",
"s8.	c #5C1509",
"t8.	c #5D160A",
"u8.	c #62190E",
"v8.	c #62170C",
"w8.	c #60160B",
"x8.	c #561408",
"y8.	c #59180D",
"z8.	c #501408",
"A8.	c #471207",
"B8.	c #53160A",
"C8.	c #52150A",
"D8.	c #511308",
"E8.	c #54160B",
"F8.	c #54140B",
"G8.	c #591609",
"H8.	c #541309",
"I8.	c #4F130A",
"J8.	c #481108",
"K8.	c #491209",
"L8.	c #4B140A",
"M8.	c #4E150A",
"N8.	c #4F1207",
"O8.	c #531508",
"P8.	c #58160A",
"Q8.	c #5C180C",
"R8.	c #5F180A",
"S8.	c #6D1E0F",
"T8.	c #732010",
"U8.	c #561105",
"V8.	c #150705",
"W8.	c #562214",
"X8.	c #552415",
"Y8.	c #582314",
"Z8.	c #572011",
"`8.	c #57180B",
" 9.	c #5B1E10",
".9.	c #571A0D",
"+9.	c #4E180C",
"@9.	c #4A170A",
"#9.	c #4D1609",
"$9.	c #52160A",
"%9.	c #4F140A",
"&9.	c #47130A",
"*9.	c #3B0F06",
"=9.	c #3D1008",
"-9.	c #3D1007",
";9.	c #491308",
">9.	c #4E140A",
",9.	c #56140B",
"'9.	c #511309",
")9.	c #53170D",
"!9.	c #531408",
"~9.	c #59150B",
"{9.	c #561207",
"]9.	c #59150A",
"^9.	c #5A160B",
"/9.	c #5C160B",
"(9.	c #591509",
"_9.	c #551409",
":9.	c #5A1509",
"<9.	c #5A150B",
"[9.	c #59160C",
"}9.	c #451308",
"|9.	c #3E1308",
"19.	c #42150A",
"29.	c #43130A",
"39.	c #4C130A",
"49.	c #52150C",
"59.	c #4F1508",
"69.	c #55160A",
"79.	c #5E180E",
"89.	c #5D170D",
"99.	c #5E170B",
"09.	c #62180E",
"a9.	c #631A0E",
"b9.	c #60160A",
"c9.	c #5F160B",
"d9.	c #60190E",
"e9.	c #62180C",
"f9.	c #64190C",
"g9.	c #65190D",
"h9.	c #5D180D",
"i9.	c #57170B",
"j9.	c #511508",
"k9.	c #531A0D",
"l9.	c #53190B",
"m9.	c #57160A",
"n9.	c #561509",
"o9.	c #57150A",
"p9.	c #521508",
"q9.	c #56180C",
"r9.	c #54170A",
"s9.	c #56160A",
"t9.	c #5A170C",
"u9.	c #5E1508",
"v9.	c #66190D",
"w9.	c #62160A",
"x9.	c #5D1509",
"y9.	c #59160A",
"z9.	c #50160B",
"A9.	c #4E1408",
"B9.	c #5B190C",
"C9.	c #611B0E",
"D9.	c #60180B",
"E9.	c #681D0F",
"F9.	c #752011",
"G9.	c #772212",
"H9.	c #7E2717",
"I9.	c #591306",
"J9.	c #190905",
"K9.	c #5A2614",
"L9.	c #572416",
"M9.	c #5C2415",
"N9.	c #5A2013",
"O9.	c #5F1B0F",
"P9.	c #5F1C0F",
"Q9.	c #601B0E",
"R9.	c #5B1B0E",
"S9.	c #4C180B",
"T9.	c #55170D",
"U9.	c #56170C",
"V9.	c #471309",
"W9.	c #46130A",
"X9.	c #4D150A",
"Y9.	c #52150B",
"Z9.	c #53160B",
"`9.	c #561409",
" 0.	c #58150A",
".0.	c #591409",
"+0.	c #5B170B",
"@0.	c #5B1609",
"#0.	c #5F170B",
"$0.	c #5E1509",
"%0.	c #5F150A",
"&0.	c #61170C",
"*0.	c #5E160A",
"=0.	c #61160D",
"-0.	c #5C170A",
";0.	c #581409",
">0.	c #58160B",
",0.	c #5B160B",
"'0.	c #5F160D",
")0.	c #5C180D",
"!0.	c #51150B",
"~0.	c #4C1509",
"{0.	c #4D160C",
"]0.	c #481309",
"^0.	c #471407",
"/0.	c #461206",
"(0.	c #4B1409",
"_0.	c #4A150A",
":0.	c #491309",
"<0.	c #4C160D",
"[0.	c #4D180D",
"}0.	c #50170C",
"|0.	c #54150A",
"10.	c #57160B",
"20.	c #551508",
"30.	c #631C10",
"40.	c #641A0E",
"50.	c #641B0F",
"60.	c #64180E",
"70.	c #651A0E",
"80.	c #60180A",
"90.	c #661A0C",
"00.	c #6A190D",
"a0.	c #6C1A0F",
"b0.	c #681A0D",
"c0.	c #621C11",
"d0.	c #5E1A0E",
"e0.	c #59190D",
"f0.	c #581B11",
"g0.	c #5A1E11",
"h0.	c #5F170D",
"i0.	c #61190C",
"j0.	c #5E190D",
"k0.	c #5F160A",
"l0.	c #5A1609",
"m0.	c #601C10",
"n0.	c #5B180A",
"o0.	c #5B1A0A",
"p0.	c #63190B",
"q0.	c #6C1A0C",
"r0.	c #761E11",
"s0.	c #761C0F",
"t0.	c #7C2214",
"u0.	c #721F12",
"v0.	c #631A0B",
"w0.	c #56170B",
"x0.	c #58180D",
"y0.	c #601E10",
"z0.	c #651C10",
"A0.	c #6C1F11",
"B0.	c #6F1E11",
"C0.	c #751F10",
"D0.	c #7D2414",
"E0.	c #7A2212",
"F0.	c #802715",
"G0.	c #822714",
"H0.	c #621606",
"I0.	c #5C2617",
"J0.	c #5D2717",
"K0.	c #5F2617",
"L0.	c #5E2516",
"M0.	c #5D1E10",
"N0.	c #651F12",
"O0.	c #631C0F",
"P0.	c #621C0D",
"Q0.	c #621A0E",
"R0.	c #591A0E",
"S0.	c #56190D",
"T0.	c #5B180C",
"U0.	c #5A180C",
"V0.	c #57150B",
"W0.	c #56150C",
"X0.	c #4B1309",
"Y0.	c #4C160B",
"Z0.	c #4E160A",
"`0.	c #4E160B",
" a.	c #56120A",
".a.	c #5B140A",
"+a.	c #5B1508",
"@a.	c #5E170C",
"#a.	c #61170D",
"$a.	c #5E150A",
"%a.	c #63170B",
"&a.	c #63170A",
"*a.	c #62170B",
"=a.	c #65170B",
"-a.	c #63180B",
";a.	c #63170C",
">a.	c #64190D",
",a.	c #5F1809",
"'a.	c #611509",
")a.	c #61180D",
"!a.	c #5D170C",
"~a.	c #59180E",
"{a.	c #4E1609",
"]a.	c #4F160B",
"^a.	c #50180D",
"/a.	c #4B1307",
"(a.	c #4D1307",
"_a.	c #52170C",
":a.	c #521509",
"<a.	c #51160A",
"[a.	c #52170B",
"}a.	c #51160B",
"|a.	c #521407",
"1a.	c #561508",
"2a.	c #5C190D",
"3a.	c #5D190D",
"4a.	c #641C10",
"5a.	c #6A1F11",
"6a.	c #671C10",
"7a.	c #671B0F",
"8a.	c #681B0F",
"9a.	c #661A0F",
"0a.	c #65190C",
"aa.	c #63180C",
"ba.	c #681B0E",
"ca.	c #6A180A",
"da.	c #701C0E",
"ea.	c #701C0F",
"fa.	c #68180B",
"ga.	c #68190C",
"ha.	c #61180B",
"ia.	c #61190D",
"ja.	c #691A0F",
"ka.	c #722112",
"la.	c #6E1B0C",
"ma.	c #7D2618",
"na.	c #711D0E",
"oa.	c #752314",
"pa.	c #752416",
"qa.	c #6D1F12",
"ra.	c #6E2211",
"sa.	c #772413",
"ta.	c #802514",
"ua.	c #842416",
"va.	c #812212",
"wa.	c #7B1E0F",
"xa.	c #822415",
"ya.	c #822413",
"za.	c #7E2314",
"Aa.	c #6F1C0F",
"Ba.	c #5F1A0D",
"Ca.	c #5D1A0E",
"Da.	c #62180B",
"Ea.	c #6E1C0F",
"Fa.	c #751E0E",
"Ga.	c #7A2314",
"Ha.	c #782213",
"Ia.	c #7A2312",
"Ja.	c #7E2414",
"Ka.	c #822716",
"La.	c #872B18",
"Ma.	c #862B19",
"Na.	c #631809",
"Oa.	c #1D0803",
"Pa.	c #5C2818",
"Qa.	c #5B2717",
"Ra.	c #5D2414",
"Sa.	c #6A2113",
"Ta.	c #651C0F",
"Ua.	c #601A0E",
"Va.	c #5A190D",
"Wa.	c #5C170C",
"Xa.	c #541408",
"Ya.	c #55160B",
"Za.	c #52140A",
"`a.	c #551509",
" b.	c #55170B",
".b.	c #5D170B",
"+b.	c #5F170C",
"@b.	c #5D160C",
"#b.	c #5E140B",
"$b.	c #61160B",
"%b.	c #5E160B",
"&b.	c #5F190D",
"*b.	c #5B170A",
"=b.	c #60170A",
"-b.	c #66160C",
";b.	c #69190E",
">b.	c #68180C",
",b.	c #66170C",
"'b.	c #65180B",
")b.	c #66190C",
"!b.	c #6A190E",
"~b.	c #671709",
"{b.	c #6A1A0D",
"]b.	c #69190C",
"^b.	c #691A0E",
"/b.	c #6C1B10",
"(b.	c #6A1A0E",
"_b.	c #67170D",
":b.	c #65180D",
"<b.	c #491509",
"[b.	c #58160C",
"}b.	c #5A180B",
"|b.	c #651D10",
"1b.	c #661B0E",
"2b.	c #6A1D0F",
"3b.	c #6E1F0F",
"4b.	c #701F11",
"5b.	c #711E11",
"6b.	c #6F1B0C",
"7b.	c #741E0F",
"8b.	c #762112",
"9b.	c #7C2516",
"0b.	c #86291A",
"ab.	c #8C2C1C",
"bb.	c #852718",
"cb.	c #852919",
"db.	c #852716",
"eb.	c #852715",
"fb.	c #852514",
"gb.	c #852515",
"hb.	c #842313",
"ib.	c #862615",
"jb.	c #832716",
"kb.	c #7B2417",
"lb.	c #812F1D",
"mb.	c #882E1C",
"nb.	c #8B2917",
"ob.	c #8E2919",
"pb.	c #842211",
"qb.	c #7D2111",
"rb.	c #862213",
"sb.	c #771F11",
"tb.	c #6C1D0F",
"ub.	c #691D0E",
"vb.	c #6B1D0F",
"wb.	c #742315",
"xb.	c #791E11",
"yb.	c #822312",
"zb.	c #822213",
"Ab.	c #7E2311",
"Bb.	c #822514",
"Cb.	c #7D2411",
"Db.	c #872D19",
"Eb.	c #671A07",
"Fb.	c #1F0A04",
"Gb.	c #5F2A1A",
"Hb.	c #602A1B",
"Ib.	c #602616",
"Jb.	c #5B1F0F",
"Kb.	c #682012",
"Lb.	c #6B2112",
"Mb.	c #661D10",
"Nb.	c #671D11",
"Ob.	c #601C0E",
"Pb.	c #5D190B",
"Qb.	c #63190D",
"Rb.	c #611A0F",
"Sb.	c #5D190F",
"Tb.	c #59170B",
"Ub.	c #5A150A",
"Vb.	c #5A170B",
"Wb.	c #5E180B",
"Xb.	c #61140A",
"Yb.	c #64160B",
"Zb.	c #65180C",
"`b.	c #64170C",
" c.	c #64180B",
".c.	c #621A0C",
"+c.	c #59190E",
"@c.	c #6C180C",
"#c.	c #6A190C",
"$c.	c #6C1B0F",
"%c.	c #6E1B0F",
"&c.	c #6C1A0E",
"*c.	c #6D1A0D",
"=c.	c #6D1C0F",
"-c.	c #6D1A0E",
";c.	c #6E1C0E",
">c.	c #52180C",
",c.	c #59180C",
"'c.	c #5B180B",
")c.	c #5C170D",
"!c.	c #60180D",
"~c.	c #641A0F",
"{c.	c #611609",
"]c.	c #631B0D",
"^c.	c #661C0F",
"/c.	c #64180C",
"(c.	c #6E1D10",
"_c.	c #702012",
":c.	c #722010",
"<c.	c #8A2A1A",
"[c.	c #842515",
"}c.	c #892918",
"|c.	c #8C2B19",
"1c.	c #8F2917",
"2c.	c #8E2C17",
"3c.	c #912A19",
"4c.	c #8A2615",
"5c.	c #862513",
"6c.	c #7C2615",
"7c.	c #852817",
"8c.	c #822A18",
"9c.	c #82311F",
"0c.	c #812E1A",
"ac.	c #8A2414",
"bc.	c #892B18",
"cc.	c #872614",
"dc.	c #922918",
"ec.	c #902716",
"fc.	c #892212",
"gc.	c #852316",
"hc.	c #822010",
"ic.	c #872110",
"jc.	c #892515",
"kc.	c #852211",
"lc.	c #882616",
"mc.	c #862817",
"nc.	c #832614",
"oc.	c #842716",
"pc.	c #86331C",
"qc.	c #6D1D09",
"rc.	c #1F0C04",
"sc.	c #5F2918",
"tc.	c #691E10",
"uc.	c #691F12",
"vc.	c #641B0D",
"wc.	c #681C0F",
"xc.	c #641C0F",
"yc.	c #601A0D",
"zc.	c #58170A",
"Ac.	c #611A0E",
"Bc.	c #621609",
"Cc.	c #65150B",
"Dc.	c #6B190E",
"Ec.	c #6C1B0E",
"Fc.	c #69170C",
"Gc.	c #681B10",
"Hc.	c #5E170A",
"Ic.	c #6A1B0E",
"Jc.	c #6D1C0E",
"Kc.	c #6A170C",
"Lc.	c #711B0F",
"Mc.	c #6B1B0E",
"Nc.	c #6F1E12",
"Oc.	c #6B1B0D",
"Pc.	c #6B1C0D",
"Qc.	c #6E1E12",
"Rc.	c #611C10",
"Sc.	c #56190E",
"Tc.	c #581A0E",
"Uc.	c #5B190E",
"Vc.	c #5A190C",
"Wc.	c #671E10",
"Xc.	c #6C1E12",
"Yc.	c #6A1C10",
"Zc.	c #792115",
"`c.	c #7A2313",
" d.	c #882718",
".d.	c #822614",
"+d.	c #912D1C",
"@d.	c #922C1A",
"#d.	c #8C3522",
"$d.	c #7C2C1B",
"%d.	c #8C311C",
"&d.	c #922D1A",
"*d.	c #942C19",
"=d.	c #942D1A",
"-d.	c #8A2D19",
";d.	c #932917",
">d.	c #942715",
",d.	c #8F2513",
"'d.	c #922714",
")d.	c #972816",
"!d.	c #962717",
"~d.	c #8D2313",
"{d.	c #8B2414",
"]d.	c #772513",
"^d.	c #8B2618",
"/d.	c #8C2413",
"(d.	c #8A2312",
"_d.	c #882413",
":d.	c #872514",
"<d.	c #892817",
"[d.	c #872A17",
"}d.	c #86301D",
"|d.	c #73210B",
"1d.	c #281107",
"2d.	c #5C2B18",
"3d.	c #602C1D",
"4d.	c #592514",
"5d.	c #622616",
"6d.	c #692115",
"7d.	c #6B2113",
"8d.	c #691F11",
"9d.	c #651B0D",
"0d.	c #661E0F",
"ad.	c #5F190E",
"bd.	c #5E180D",
"cd.	c #621A0F",
"dd.	c #61190B",
"ed.	c #671B0D",
"fd.	c #67190D",
"gd.	c #67180B",
"hd.	c #6B190D",
"id.	c #6D190C",
"jd.	c #701A0E",
"kd.	c #6F1A0E",
"ld.	c #6E1B0E",
"md.	c #701D0F",
"nd.	c #6A1C0F",
"od.	c #6B1C10",
"pd.	c #6E1B0D",
"qd.	c #701D11",
"rd.	c #6F1B0E",
"sd.	c #6E1E11",
"td.	c #712114",
"ud.	c #6C1D12",
"vd.	c #651E13",
"wd.	c #6C2113",
"xd.	c #6F1D10",
"yd.	c #721E11",
"zd.	c #741F12",
"Ad.	c #6D1B0E",
"Bd.	c #712013",
"Cd.	c #5C1A0E",
"Dd.	c #5F1A0E",
"Ed.	c #5D1A0F",
"Fd.	c #5E1C10",
"Gd.	c #711D0F",
"Hd.	c #7C2111",
"Id.	c #852717",
"Jd.	c #8D2819",
"Kd.	c #8F2C1A",
"Ld.	c #8E2C1A",
"Md.	c #912C19",
"Nd.	c #982F1D",
"Od.	c #9C2D1B",
"Pd.	c #9C2F1D",
"Qd.	c #972A17",
"Rd.	c #922815",
"Sd.	c #902715",
"Td.	c #902816",
"Ud.	c #8D2B1A",
"Vd.	c #802814",
"Wd.	c #992C17",
"Xd.	c #9A2B18",
"Yd.	c #9D2B19",
"Zd.	c #982615",
"`d.	c #9C2A17",
" e.	c #992615",
".e.	c #972A1A",
"+e.	c #8A2411",
"@e.	c #812210",
"#e.	c #832916",
"$e.	c #7E2614",
"%e.	c #8C2817",
"&e.	c #8E2413",
"*e.	c #902615",
"=e.	c #8D2917",
"-e.	c #8E2A18",
";e.	c #8E2A19",
">e.	c #76230F",
",e.	c #2B1109",
"'e.	c #5D2B19",
")e.	c #632E1E",
"!e.	c #612718",
"~e.	c #662315",
"{e.	c #692214",
"]e.	c #6C2114",
"^e.	c #692013",
"/e.	c #6B1F12",
"(e.	c #671C0E",
"_e.	c #64190F",
":e.	c #631A0F",
"<e.	c #5F1A0C",
"[e.	c #5F180D",
"}e.	c #6E1C11",
"|e.	c #6F1B0F",
"1e.	c #6B180B",
"2e.	c #701B0F",
"3e.	c #6F190C",
"4e.	c #711B0D",
"5e.	c #711A0C",
"6e.	c #731D11",
"7e.	c #721D10",
"8e.	c #711F11",
"9e.	c #6D1D0F",
"0e.	c #741D0F",
"ae.	c #6A2214",
"be.	c #662011",
"ce.	c #712214",
"de.	c #701F10",
"ee.	c #742012",
"fe.	c #751F11",
"ge.	c #761F11",
"he.	c #6F1D11",
"ie.	c #6B1C0F",
"je.	c #641B10",
"ke.	c #651E10",
"le.	c #6B1F11",
"me.	c #7F2616",
"ne.	c #832918",
"oe.	c #882A18",
"pe.	c #902B18",
"qe.	c #8D2B18",
"re.	c #8B2C19",
"se.	c #A1321E",
"te.	c #AA3A27",
"ue.	c #A4321F",
"ve.	c #872C19",
"we.	c #8C2918",
"xe.	c #9F2E1B",
"ye.	c #9E2F1A",
"ze.	c #9D2D1A",
"Ae.	c #9B2C1A",
"Be.	c #9B2D1A",
"Ce.	c #982B18",
"De.	c #9C2F1C",
"Ee.	c #972C19",
"Fe.	c #932E1A",
"Ge.	c #94301B",
"He.	c #9A2C18",
"Ie.	c #9D2A15",
"Je.	c #A22D1A",
"Ke.	c #9D2A18",
"Le.	c #A02C19",
"Me.	c #A12E1A",
"Ne.	c #9F2C19",
"Oe.	c #932A18",
"Pe.	c #862916",
"Qe.	c #892C18",
"Re.	c #852A18",
"Se.	c #892815",
"Te.	c #8C2513",
"Ue.	c #8F2B18",
"Ve.	c #822814",
"We.	c #892513",
"Xe.	c #922B19",
"Ye.	c #8F2F1B",
"Ze.	c #8F3823",
"`e.	c #77220E",
" f.	c #321A0F",
".f.	c #592716",
"+f.	c #662D1E",
"@f.	c #672919",
"#f.	c #642112",
"$f.	c #6A2213",
"%f.	c #671E11",
"&f.	c #62190C",
"*f.	c #61180C",
"=f.	c #63190C",
"-f.	c #671A0E",
";f.	c #65180E",
">f.	c #611B0F",
",f.	c #66190E",
"'f.	c #731D10",
")f.	c #731B0F",
"!f.	c #761E12",
"~f.	c #721B0F",
"{f.	c #741C0F",
"]f.	c #741D10",
"^f.	c #752012",
"/f.	c #721F11",
"(f.	c #6A1A0C",
"_f.	c #701D10",
":f.	c #751E11",
"<f.	c #782113",
"[f.	c #772213",
"}f.	c #722113",
"|f.	c #6A1F10",
"1f.	c #672113",
"2f.	c #662417",
"3f.	c #681D0E",
"4f.	c #6F1E10",
"5f.	c #731E10",
"6f.	c #762012",
"7f.	c #7B2315",
"8f.	c #702011",
"9f.	c #6C2013",
"0f.	c #752517",
"af.	c #772415",
"bf.	c #882F1E",
"cf.	c #822917",
"df.	c #8F2E1F",
"ef.	c #922C19",
"ff.	c #923C29",
"gf.	c #8E331D",
"hf.	c #A33421",
"if.	c #9D301C",
"jf.	c #99321F",
"kf.	c #A2311C",
"lf.	c #A73521",
"mf.	c #A12D1A",
"nf.	c #A4311C",
"of.	c #9D2C18",
"pf.	c #A6311E",
"qf.	c #A32F1D",
"rf.	c #982A16",
"sf.	c #A32D1A",
"tf.	c #A22A17",
"uf.	c #A32C19",
"vf.	c #A02B18",
"wf.	c #9F2916",
"xf.	c #9F2A17",
"yf.	c #A12A17",
"zf.	c #9A2A19",
"Af.	c #8B2412",
"Bf.	c #8E2715",
"Cf.	c #8D2A17",
"Df.	c #8E2A16",
"Ef.	c #8D3621",
"Ff.	c #6E1C0B",
"Gf.	c #2F1A0F",
"Hf.	c #5B2715",
"If.	c #682A19",
"Jf.	c #702215",
"Kf.	c #6C2112",
"Lf.	c #691E0F",
"Mf.	c #671A0D",
"Nf.	c #691B0E",
"Of.	c #611A0D",
"Pf.	c #711C0E",
"Qf.	c #761D10",
"Rf.	c #731C0E",
"Sf.	c #6E1A0D",
"Tf.	c #792214",
"Uf.	c #6C1F10",
"Vf.	c #761F10",
"Wf.	c #782114",
"Xf.	c #632214",
"Yf.	c #772314",
"Zf.	c #782112",
"`f.	c #791F11",
" g.	c #7D2214",
".g.	c #7D2315",
"+g.	c #7D2517",
"@g.	c #7E2417",
"#g.	c #842819",
"$g.	c #822817",
"%g.	c #872818",
"&g.	c #8D2E1D",
"*g.	c #872817",
"=g.	c #97321D",
"-g.	c #A33220",
";g.	c #A7321F",
">g.	c #AA3523",
",g.	c #A2301C",
"'g.	c #A5331F",
")g.	c #A5321D",
"!g.	c #A3311E",
"~g.	c #A73420",
"{g.	c #A02C18",
"]g.	c #A2301D",
"^g.	c #9F2F1A",
"/g.	c #983019",
"(g.	c #92311A",
"_g.	c #9E351F",
":g.	c #9E311A",
"<g.	c #A22D18",
"[g.	c #9E2914",
"}g.	c #A62F1C",
"|g.	c #A32D19",
"1g.	c #A52E1A",
"2g.	c #A02916",
"3g.	c #A52E1C",
"4g.	c #9D2916",
"5g.	c #9A2C19",
"6g.	c #892714",
"7g.	c #932A17",
"8g.	c #942C1A",
"9g.	c #8A2B17",
"0g.	c #94351F",
"ag.	c #8D341F",
"bg.	c #761D0A",
"cg.	c #301A0E",
"dg.	c #5C2C19",
"eg.	c #672F20",
"fg.	c #632718",
"gg.	c #6B2819",
"hg.	c #6E2517",
"ig.	c #6F2416",
"jg.	c #6B2013",
"kg.	c #6C2011",
"lg.	c #6C1D10",
"mg.	c #6C1C0E",
"ng.	c #641A0C",
"og.	c #69180C",
"pg.	c #6B1A0C",
"qg.	c #6F1A0F",
"rg.	c #6D1B0F",
"sg.	c #6B1D10",
"tg.	c #641B0E",
"ug.	c #5E190E",
"vg.	c #731D0F",
"wg.	c #751D0F",
"xg.	c #771E10",
"yg.	c #791F10",
"zg.	c #7B2012",
"Ag.	c #771F10",
"Bg.	c #732013",
"Cg.	c #731F0F",
"Dg.	c #7B2213",
"Eg.	c #7C2315",
"Fg.	c #752112",
"Gg.	c #7A2110",
"Hg.	c #7F2414",
"Ig.	c #772011",
"Jg.	c #712010",
"Kg.	c #802716",
"Lg.	c #84291B",
"Mg.	c #822616",
"Ng.	c #832415",
"Og.	c #832515",
"Pg.	c #88291A",
"Qg.	c #892B1A",
"Rg.	c #842414",
"Sg.	c #882715",
"Tg.	c #94311F",
"Ug.	c #9D311E",
"Vg.	c #992E1A",
"Wg.	c #A53422",
"Xg.	c #A73722",
"Yg.	c #A9341E",
"Zg.	c #A7311B",
"`g.	c #A6331D",
" h.	c #A6331E",
".h.	c #A6301C",
"+h.	c #AC3523",
"@h.	c #A6311D",
"#h.	c #A0301D",
"$h.	c #8D2E18",
"%h.	c #A02D17",
"&h.	c #A8311C",
"*h.	c #A62E1B",
"=h.	c #A32B17",
"-h.	c #A52B19",
";h.	c #A42D1B",
">h.	c #9B2B19",
",h.	c #902A17",
"'h.	c #942815",
")h.	c #922715",
"!h.	c #8B2311",
"~h.	c #962C19",
"{h.	c #791F0C",
"]h.	c #331D11",
"^h.	c #5C2E19",
"/h.	c #662F1C",
"(h.	c #6C2718",
"_h.	c #6D2416",
":h.	c #712316",
"<h.	c #6D2112",
"[h.	c #691E11",
"}h.	c #681B0D",
"|h.	c #661B0C",
"1h.	c #6C190C",
"2h.	c #6B1A0E",
"3h.	c #6C1C10",
"4h.	c #611A0B",
"5h.	c #621C0F",
"6h.	c #741E12",
"7h.	c #781F10",
"8h.	c #7B2013",
"9h.	c #7A1F11",
"0h.	c #782013",
"ah.	c #731D0E",
"bh.	c #752214",
"ch.	c #7E2213",
"dh.	c #802313",
"eh.	c #812414",
"fh.	c #822617",
"gh.	c #812C1B",
"hh.	c #862A1A",
"ih.	c #862818",
"jh.	c #8A2C1D",
"kh.	c #862718",
"lh.	c #842817",
"mh.	c #943422",
"nh.	c #AA3A28",
"oh.	c #A0321C",
"ph.	c #A5371F",
"qh.	c #A3311B",
"rh.	c #B23B28",
"sh.	c #A9311E",
"th.	c #A7301C",
"uh.	c #A42F19",
"vh.	c #9D301A",
"wh.	c #AA3421",
"xh.	c #A52C18",
"yh.	c #A22C18",
"zh.	c #A32C18",
"Ah.	c #A52C19",
"Bh.	c #A12916",
"Ch.	c #A52D1A",
"Dh.	c #AA311D",
"Eh.	c #972C1A",
"Fh.	c #942B18",
"Gh.	c #972A19",
"Hh.	c #912714",
"Ih.	c #912815",
"Jh.	c #942B17",
"Kh.	c #912A17",
"Lh.	c #8F2B17",
"Mh.	c #8D2714",
"Nh.	c #95301C",
"Oh.	c #781F0B",
"Ph.	c #3F2619",
"Qh.	c #5A2B18",
"Rh.	c #66301E",
"Sh.	c #6D2719",
"Th.	c #6D2113",
"Uh.	c #6C1E10",
"Vh.	c #6D2010",
"Wh.	c #681C10",
"Xh.	c #661C0E",
"Yh.	c #64180A",
"Zh.	c #711C0F",
"`h.	c #711F13",
" i.	c #671C0F",
".i.	c #611B0D",
"+i.	c #6A1E10",
"@i.	c #6E1F12",
"#i.	c #791F13",
"$i.	c #7A1F13",
"%i.	c #7B1F11",
"&i.	c #7C2114",
"*i.	c #741E10",
"=i.	c #732112",
"-i.	c #772113",
";i.	c #7D2617",
">i.	c #792718",
",i.	c #7F2415",
"'i.	c #832413",
")i.	c #812313",
"!i.	c #882918",
"~i.	c #8C2E1C",
"{i.	c #842816",
"]i.	c #8E2A1A",
"^i.	c #8B2D1E",
"/i.	c #8D2D1C",
"(i.	c #8A2B19",
"_i.	c #A1311D",
":i.	c #AB3722",
"<i.	c #A02B17",
"[i.	c #A42B19",
"}i.	c #A32B18",
"|i.	c #A52D19",
"1i.	c #A7301D",
"2i.	c #A42B18",
"3i.	c #A4301C",
"4i.	c #992A17",
"5i.	c #962817",
"6i.	c #932614",
"7i.	c #962C18",
"8i.	c #922915",
"9i.	c #922A17",
"0i.	c #982C19",
"ai.	c #7B1F0D",
"bi.	c #452E1F",
"ci.	c #562714",
"di.	c #652D1C",
"ei.	c #672818",
"fi.	c #6F271A",
"gi.	c #6E2313",
"hi.	c #6B1F10",
"ii.	c #691D10",
"ji.	c #681D10",
"ki.	c #6F1C0D",
"li.	c #631C0D",
"mi.	c #6B1C0E",
"ni.	c #722012",
"oi.	c #751F12",
"pi.	c #771F12",
"qi.	c #782012",
"ri.	c #7C2112",
"si.	c #7D2112",
"ti.	c #7B2314",
"ui.	c #7E2214",
"vi.	c #721F0F",
"wi.	c #842415",
"xi.	c #862514",
"yi.	c #902D1B",
"zi.	c #8C2D1B",
"Ai.	c #852616",
"Bi.	c #852615",
"Ci.	c #8F2D1D",
"Di.	c #852A17",
"Ei.	c #872819",
"Fi.	c #922D1B",
"Gi.	c #A0321E",
"Hi.	c #A63420",
"Ii.	c #A83923",
"Ji.	c #9F2F19",
"Ki.	c #A4321C",
"Li.	c #AA341D",
"Mi.	c #9F301B",
"Ni.	c #A7331F",
"Oi.	c #A12E19",
"Pi.	c #A9321D",
"Qi.	c #A8301C",
"Ri.	c #A82F1C",
"Si.	c #A62D19",
"Ti.	c #A32E19",
"Ui.	c #9B2B18",
"Vi.	c #9A2916",
"Wi.	c #982B17",
"Xi.	c #952915",
"Yi.	c #902714",
"Zi.	c #912716",
"`i.	c #972917",
" j.	c #992D1A",
".j.	c #80240E",
"+j.	c #462C22",
"@j.	c #652E1D",
"#j.	c #6B2B1C",
"$j.	c #692316",
"%j.	c #652413",
"&j.	c #6D1F11",
"*j.	c #6C1E11",
"=j.	c #6B1E0F",
"-j.	c #6A1B0F",
";j.	c #6C1C0F",
">j.	c #741E11",
",j.	c #6A1C0E",
"'j.	c #631A0C",
")j.	c #701E11",
"!j.	c #752114",
"~j.	c #762011",
"{j.	c #802316",
"]j.	c #802416",
"^j.	c #7F2315",
"/j.	c #792614",
"(j.	c #892A19",
"_j.	c #8A2516",
":j.	c #8A2919",
"<j.	c #912E1F",
"[j.	c #8B2816",
"}j.	c #87301E",
"|j.	c #953524",
"1j.	c #8F2A18",
"2j.	c #9A3222",
"3j.	c #9C3722",
"4j.	c #A43824",
"5j.	c #AA3C23",
"6j.	c #AB341F",
"7j.	c #A02F1B",
"8j.	c #A2321C",
"9j.	c #9F341D",
"0j.	c #9E2F1B",
"aj.	c #A12D19",
"bj.	c #A5301D",
"cj.	c #A42F1A",
"dj.	c #A62E1A",
"ej.	c #A42D19",
"fj.	c #A8301E",
"gj.	c #A12C1A",
"hj.	c #992A16",
"ij.	c #9B2D18",
"jj.	c #992916",
"kj.	c #9A2917",
"lj.	c #982918",
"mj.	c #942A17",
"nj.	c #912814",
"oj.	c #922916",
"pj.	c #812410",
"qj.	c #4B2D29",
"rj.	c #5F2D1C",
"sj.	c #6C2A1C",
"tj.	c #6C2719",
"uj.	c #6F2111",
"vj.	c #721D0F",
"wj.	c #751C10",
"xj.	c #781F13",
"yj.	c #651B0E",
"zj.	c #681A0E",
"Aj.	c #791F12",
"Bj.	c #792012",
"Cj.	c #7D2215",
"Dj.	c #791D0F",
"Ej.	c #7F2112",
"Fj.	c #832516",
"Gj.	c #842514",
"Hj.	c #802615",
"Ij.	c #912919",
"Jj.	c #932D1B",
"Kj.	c #8B2918",
"Lj.	c #943221",
"Mj.	c #802614",
"Nj.	c #893120",
"Oj.	c #8D3524",
"Pj.	c #982F1A",
"Qj.	c #9D3822",
"Rj.	c #9D341D",
"Sj.	c #A2331D",
"Tj.	c #A4311B",
"Uj.	c #A52F1A",
"Vj.	c #9C2714",
"Wj.	c #A62D18",
"Xj.	c #A72E1A",
"Yj.	c #A42C19",
"Zj.	c #A42D1A",
"`j.	c #9E2C19",
" k.	c #9B2C17",
".k.	c #9C2C1A",
"+k.	c #9B2A19",
"@k.	c #9A2B1A",
"#k.	c #992A18",
"$k.	c #992B19",
"%k.	c #9C2A19",
"&k.	c #7E2512",
"*k.	c #553533",
"=k.	c #5D2C1D",
"-k.	c #642C1C",
";k.	c #6A291A",
">k.	c #6D2518",
",k.	c #702013",
"'k.	c #761F12",
")k.	c #771E11",
"!k.	c #781E11",
"~k.	c #6F1A0D",
"{k.	c #6D1C0D",
"]k.	c #781F12",
"^k.	c #7D2012",
"/k.	c #7C1F0F",
"(k.	c #7A2011",
"_k.	c #812415",
":k.	c #962B1B",
"<k.	c #893223",
"[k.	c #8B3323",
"}k.	c #AB3C29",
"|k.	c #A8331D",
"1k.	c #983D26",
"2k.	c #AB331E",
"3k.	c #AA321D",
"4k.	c #AC331F",
"5k.	c #A72E19",
"6k.	c #A12B16",
"7k.	c #A72D1A",
"8k.	c #A62F1A",
"9k.	c #A42A17",
"0k.	c #A32B16",
"ak.	c #A12C18",
"bk.	c #A3301D",
"ck.	c #992B17",
"dk.	c #9E2D1A",
"ek.	c #992816",
"fk.	c #982915",
"gk.	c #9B2A18",
"hk.	c #9D2D1B",
"ik.	c #952916",
"jk.	c #513530",
"kk.	c #602B1C",
"lk.	c #652617",
"mk.	c #732113",
"nk.	c #7A2012",
"ok.	c #792113",
"pk.	c #6F1B0D",
"qk.	c #711C10",
"rk.	c #6F1F11",
"sk.	c #7B2113",
"tk.	c #812113",
"uk.	c #812314",
"vk.	c #7D2010",
"wk.	c #832514",
"xk.	c #7F2212",
"yk.	c #8D2916",
"zk.	c #95301F",
"Ak.	c #962E1D",
"Bk.	c #932918",
"Ck.	c #902918",
"Dk.	c #84301C",
"Ek.	c #752717",
"Fk.	c #7E2D1C",
"Gk.	c #A73F29",
"Hk.	c #953A24",
"Ik.	c #A3301A",
"Jk.	c #9E3E27",
"Kk.	c #932F19",
"Lk.	c #AA321C",
"Mk.	c #A9301C",
"Nk.	c #A9301A",
"Ok.	c #AA311C",
"Pk.	c #A82E1B",
"Qk.	c #AA301C",
"Rk.	c #A9301B",
"Sk.	c #A52B18",
"Tk.	c #A72F1A",
"Uk.	c #A42E1A",
"Vk.	c #982814",
"Wk.	c #972916",
"Xk.	c #9D2C1A",
"Yk.	c #9A2816",
"Zk.	c #9E2C1A",
"`k.	c #992917",
" l.	c #982A17",
".l.	c #982D18",
"+l.	c #751D09",
"@l.	c #42281E",
"#l.	c #5C281A",
"$l.	c #63291A",
"%l.	c #682819",
"&l.	c #6B2416",
"*l.	c #762215",
"=l.	c #792211",
"-l.	c #7B2011",
";l.	c #7C2010",
">l.	c #852414",
",l.	c #842212",
"'l.	c #852313",
")l.	c #8A2716",
"!l.	c #8B2A1A",
"~l.	c #972C1B",
"{l.	c #832F1C",
"]l.	c #7D2919",
"^l.	c #7F2D1D",
"/l.	c #81301E",
"(l.	c #832F1E",
"_l.	c #7E2C1A",
":l.	c #943524",
"<l.	c #9B3724",
"[l.	c #A53E29",
"}l.	c #7E2B14",
"|l.	c #91311A",
"1l.	c #953822",
"2l.	c #9F3923",
"3l.	c #A62C18",
"4l.	c #AD331F",
"5l.	c #AC331E",
"6l.	c #AA301B",
"7l.	c #A22D19",
"8l.	c #A22C19",
"9l.	c #9B2816",
"0l.	c #9D2A17",
"al.	c #9A2A18",
"bl.	c #9D2818",
"cl.	c #942613",
"dl.	c #932514",
"el.	c #932E19",
"fl.	c #401D12",
"gl.	c #612B1A",
"hl.	c #662618",
"il.	c #6D1E11",
"jl.	c #6B2314",
"kl.	c #6C1C0D",
"ll.	c #721D0E",
"ml.	c #781F11",
"nl.	c #782011",
"ol.	c #791F0F",
"pl.	c #7C1F0E",
"ql.	c #8C2516",
"rl.	c #792C19",
"sl.	c #8E2B1A",
"tl.	c #932D19",
"ul.	c #8C2E1E",
"vl.	c #892D1D",
"wl.	c #7E311E",
"xl.	c #873221",
"yl.	c #7B2615",
"zl.	c #802717",
"Al.	c #923826",
"Bl.	c #952C18",
"Cl.	c #A73320",
"Dl.	c #A1301B",
"El.	c #AB4632",
"Fl.	c #AA442F",
"Gl.	c #B23C27",
"Hl.	c #AB3520",
"Il.	c #A32F1A",
"Jl.	c #963620",
"Kl.	c #AF3422",
"Ll.	c #A72D19",
"Ml.	c #B13521",
"Nl.	c #A72C18",
"Ol.	c #AA301D",
"Pl.	c #A82D1B",
"Ql.	c #A62A17",
"Rl.	c #A32E1B",
"Sl.	c #A02A17",
"Tl.	c #A02B1A",
"Ul.	c #A02C1A",
"Vl.	c #9D2D18",
"Wl.	c #972715",
"Xl.	c #982916",
"Yl.	c #992814",
"Zl.	c #982714",
"`l.	c #922C18",
" m.	c #853225",
".m.	c #52403B",
"+m.	c #633020",
"@m.	c #652A19",
"#m.	c #682616",
"$m.	c #6A2416",
"%m.	c #6F2315",
"&m.	c #722215",
"*m.	c #6F2113",
"=m.	c #671F11",
"-m.	c #711F10",
";m.	c #742010",
">m.	c #7C2012",
",m.	c #7C1F11",
"'m.	c #7D2213",
")m.	c #7C1E11",
"!m.	c #7E2012",
"~m.	c #802211",
"{m.	c #8D2617",
"]m.	c #8D2413",
"^m.	c #912817",
"/m.	c #8F2817",
"(m.	c #892D1A",
"_m.	c #7B3320",
":m.	c #942B19",
"<m.	c #952C1B",
"[m.	c #862C1A",
"}m.	c #91311F",
"|m.	c #862D1A",
"1m.	c #95321F",
"2m.	c #9A2D19",
"3m.	c #9C301C",
"4m.	c #A63421",
"5m.	c #AA3720",
"6m.	c #AD3420",
"7m.	c #B33B24",
"8m.	c #9B3B23",
"9m.	c #973821",
"0m.	c #B03621",
"am.	c #AD311C",
"bm.	c #AE341F",
"cm.	c #AE321D",
"dm.	c #B13621",
"em.	c #AE3320",
"fm.	c #B23622",
"gm.	c #A8311E",
"hm.	c #9E2918",
"im.	c #9E2916",
"jm.	c #952917",
"km.	c #982815",
"lm.	c #9C2917",
"mm.	c #992C1A",
"nm.	c #902A15",
"om.	c #922E1A",
"pm.	c #8E301E",
"qm.	c #610A00",
"rm.	c #552517",
"sm.	c #622617",
"tm.	c #6B2718",
"um.	c #7A2014",
"vm.	c #7A1F12",
"wm.	c #7E2112",
"xm.	c #802011",
"ym.	c #832315",
"zm.	c #832112",
"Am.	c #842112",
"Bm.	c #892413",
"Cm.	c #902717",
"Dm.	c #972B1A",
"Em.	c #8F2413",
"Fm.	c #8F2515",
"Gm.	c #812D1D",
"Hm.	c #762F1E",
"Im.	c #922F1E",
"Jm.	c #85321F",
"Km.	c #81301D",
"Lm.	c #792E1E",
"Mm.	c #8B2F20",
"Nm.	c #8D301E",
"Om.	c #922F1D",
"Pm.	c #972D1A",
"Qm.	c #952D18",
"Rm.	c #A93F2C",
"Sm.	c #A23B24",
"Tm.	c #B13823",
"Um.	c #A6311B",
"Vm.	c #A8321C",
"Wm.	c #AE311D",
"Xm.	c #B0341F",
"Ym.	c #AF331D",
"Zm.	c #AE331E",
"`m.	c #AE311B",
" n.	c #AD321D",
".n.	c #AA2E19",
"+n.	c #AB301B",
"@n.	c #AD3320",
"#n.	c #A22F1B",
"$n.	c #9E2815",
"%n.	c #9D2816",
"&n.	c #9A2D18",
"*n.	c #9B2916",
"=n.	c #912A18",
"-n.	c #8B2C17",
";n.	c #702818",
">n.	c #4B2518",
",n.	c #66301F",
"'n.	c #612617",
")n.	c #662314",
"!n.	c #652012",
"~n.	c #6D2214",
"{n.	c #761D0F",
"]n.	c #7C1F13",
"^n.	c #822216",
"/n.	c #822112",
"(n.	c #842412",
"_n.	c #8B2415",
":n.	c #8B2515",
"<n.	c #8D2616",
"[n.	c #912717",
"}n.	c #8F2516",
"|n.	c #8E2515",
"1n.	c #8F2818",
"2n.	c #742817",
"3n.	c #6E2614",
"4n.	c #8D2F1E",
"5n.	c #7E2B17",
"6n.	c #863222",
"7n.	c #84311F",
"8n.	c #7F2B1B",
"9n.	c #893320",
"0n.	c #983C28",
"an.	c #9F3926",
"bn.	c #9B3520",
"cn.	c #A63D29",
"dn.	c #AB3721",
"en.	c #A5311C",
"fn.	c #B23B26",
"gn.	c #A5361F",
"hn.	c #9C311B",
"in.	c #AF331E",
"jn.	c #AD311B",
"kn.	c #AF321D",
"ln.	c #B0331F",
"mn.	c #A92E19",
"nn.	c #AF321E",
"on.	c #B13520",
"pn.	c #AC321E",
"qn.	c #9E2B16",
"rn.	c #9B2714",
"sn.	c #9E2816",
"tn.	c #922613",
"un.	c #9C2B1A",
"vn.	c #952313",
"wn.	c #9C2B18",
"xn.	c #982816",
"yn.	c #8E2713",
"zn.	c #8A2E1D",
"An.	c #833321",
"Bn.	c #4F0F06",
"Cn.	c #492218",
"Dn.	c #65301F",
"En.	c #632A1A",
"Fn.	c #612417",
"Gn.	c #632314",
"Hn.	c #672214",
"In.	c #702111",
"Jn.	c #751D10",
"Kn.	c #7D2114",
"Ln.	c #7E1F11",
"Mn.	c #842315",
"Nn.	c #852517",
"On.	c #862515",
"Pn.	c #882414",
"Qn.	c #8F2718",
"Rn.	c #912816",
"Sn.	c #8E2513",
"Tn.	c #8D2514",
"Un.	c #8E2514",
"Vn.	c #942B1B",
"Wn.	c #7B2F1F",
"Xn.	c #912B18",
"Yn.	c #933221",
"Zn.	c #8A3120",
"`n.	c #973E2C",
" o.	c #8D3825",
".o.	c #89311D",
"+o.	c #913924",
"@o.	c #893520",
"#o.	c #953F29",
"$o.	c #953E29",
"%o.	c #AF4B39",
"&o.	c #9B3B25",
"*o.	c #A43925",
"=o.	c #9C321F",
"-o.	c #9F311B",
";o.	c #AC351F",
">o.	c #A03822",
",o.	c #9B301B",
"'o.	c #AB301A",
")o.	c #AB321C",
"!o.	c #AC311C",
"~o.	c #AC301B",
"{o.	c #B0331E",
"]o.	c #AF3520",
"^o.	c #A32A16",
"/o.	c #A02917",
"(o.	c #9F2A18",
"_o.	c #A32C1A",
":o.	c #A12D1B",
"<o.	c #9C2B17",
"[o.	c #962614",
"}o.	c #992918",
"|o.	c #812E1B",
"1o.	c #51150F",
"2o.	c #402320",
"3o.	c #632D21",
"4o.	c #5A291C",
"5o.	c #622C1D",
"6o.	c #632B1C",
"7o.	c #602617",
"8o.	c #642315",
"9o.	c #6A2114",
"0o.	c #6F2214",
"ao.	c #711E12",
"bo.	c #751E12",
"co.	c #7A2113",
"do.	c #842113",
"eo.	c #872314",
"fo.	c #8C2616",
"go.	c #922818",
"ho.	c #8E2918",
"io.	c #742614",
"jo.	c #832919",
"ko.	c #8C3623",
"lo.	c #8D3623",
"mo.	c #903E2B",
"no.	c #893622",
"oo.	c #95432F",
"po.	c #893925",
"qo.	c #924130",
"ro.	c #954230",
"so.	c #863725",
"to.	c #9C4432",
"uo.	c #9E432D",
"vo.	c #943A27",
"wo.	c #953825",
"xo.	c #A34430",
"yo.	c #A1412E",
"zo.	c #A73E29",
"Ao.	c #902D1A",
"Bo.	c #AA3721",
"Co.	c #AD3623",
"Do.	c #AA341E",
"Eo.	c #A8301A",
"Fo.	c #97331C",
"Go.	c #AC341F",
"Ho.	c #AE341E",
"Io.	c #AF351E",
"Jo.	c #B1351F",
"Ko.	c #B03620",
"Lo.	c #B23621",
"Mo.	c #AF341E",
"No.	c #AB311C",
"Oo.	c #AB321D",
"Po.	c #A52E19",
"Qo.	c #A72F1C",
"Ro.	c #A02716",
"So.	c #A22917",
"To.	c #9C2915",
"Uo.	c #9A2815",
"Vo.	c #942713",
"Wo.	c #972918",
"Xo.	c #8F2616",
"Yo.	c #7C3221",
"Zo.	c #5D342D",
"`o.	c #512617",
" p.	c #491C0C",
".p.	c #280803",
"+p.	c #220800",
"@p.	c #220400",
"#p.	c #1B0301",
"$p.	c #150000",
"%p.	c #0B0000",
"&p.	c #0A0000",
"*p.	c #0C0000",
"=p.	c #130000",
"-p.	c #1F0000",
";p.	c #2C1C1B",
">p.	c #4E3A37",
",p.	c #4D1F17",
"'p.	c #5F2F23",
")p.	c #572314",
"!p.	c #622A1C",
"~p.	c #642A1D",
"{p.	c #61281A",
"]p.	c #602415",
"^p.	c #5F2012",
"/p.	c #762113",
"(p.	c #751E10",
"_p.	c #761E10",
":p.	c #842314",
"<p.	c #872515",
"[p.	c #8C2716",
"}p.	c #8E2717",
"|p.	c #8F2717",
"1p.	c #932A1A",
"2p.	c #8C2512",
"3p.	c #86311E",
"4p.	c #8A301D",
"5p.	c #8B2513",
"6p.	c #983222",
"7p.	c #8D2D1E",
"8p.	c #983626",
"9p.	c #933524",
"0p.	c #943926",
"ap.	c #953F2B",
"bp.	c #903926",
"cp.	c #913C29",
"dp.	c #853624",
"ep.	c #7B311E",
"fp.	c #823827",
"gp.	c #7A3321",
"hp.	c #7F3725",
"ip.	c #7C3220",
"jp.	c #79301D",
"kp.	c #752E1D",
"lp.	c #74301E",
"mp.	c #7A2E1D",
"np.	c #84331F",
"op.	c #7D2F1B",
"pp.	c #7F351F",
"qp.	c #863320",
"rp.	c #943E2A",
"sp.	c #87331F",
"tp.	c #9A3E2B",
"up.	c #A34630",
"vp.	c #A94831",
"wp.	c #A6422D",
"xp.	c #9E3A25",
"yp.	c #B33F2B",
"zp.	c #A7341E",
"Ap.	c #AE3822",
"Bp.	c #93331C",
"Cp.	c #B53A23",
"Dp.	c #B13720",
"Ep.	c #AF351F",
"Fp.	c #AA321E",
"Gp.	c #A42E19",
"Hp.	c #A42C18",
"Ip.	c #A62D1B",
"Jp.	c #A62D1A",
"Kp.	c #9E2915",
"Lp.	c #A02A19",
"Mp.	c #952614",
"Np.	c #942615",
"Op.	c #962816",
"Pp.	c #932916",
"Qp.	c #752F1F",
"Rp.	c #78311F",
"Sp.	c #66261B",
"Tp.	c #583532",
"Up.	c #2F0001",
"Vp.	c #3C0000",
"Wp.	c #4A0100",
"Xp.	c #5A1007",
"Yp.	c #985447",
"Zp.	c #A46D64",
"`p.	c #B48883",
" q.	c #A4817A",
".q.	c #875548",
"+q.	c #592C1B",
"@q.	c #572E26",
"#q.	c #6C3828",
"$q.	c #663324",
"%q.	c #683225",
"&q.	c #662E20",
"*q.	c #662D1D",
"=q.	c #692F21",
"-q.	c #672D1F",
";q.	c #672F1F",
">q.	c #6A3223",
",q.	c #662E21",
"'q.	c #652A1D",
")q.	c #672F21",
"!q.	c #602E21",
"~q.	c #59291C",
"{q.	c #572719",
"]q.	c #562417",
"^q.	c #5A2517",
"/q.	c #61281B",
"(q.	c #672B1E",
"_q.	c #672B1D",
":q.	c #682C1F",
"<q.	c #602416",
"[q.	c #6A2314",
"}q.	c #712315",
"|q.	c #741C0E",
"1q.	c #862315",
"2q.	c #8F2617",
"3q.	c #8D2515",
"4q.	c #862A16",
"5q.	c #892312",
"6q.	c #8C2917",
"7q.	c #923B29",
"8q.	c #893825",
"9q.	c #873625",
"0q.	c #813220",
"aq.	c #7B2D1C",
"bq.	c #7C2E1F",
"cq.	c #7E2F1F",
"dq.	c #8D3323",
"eq.	c #903120",
"fq.	c #933422",
"gq.	c #843320",
"hq.	c #7D301D",
"iq.	c #893623",
"jq.	c #963E2A",
"kq.	c #973B28",
"lq.	c #983E2B",
"mq.	c #9D442D",
"nq.	c #A64630",
"oq.	c #AC452E",
"pq.	c #AB3B27",
"qq.	c #9F301A",
"rq.	c #B13721",
"sq.	c #B03721",
"tq.	c #AA331D",
"uq.	c #A72F1B",
"vq.	c #A82E1A",
"wq.	c #A12B17",
"xq.	c #A02A15",
"yq.	c #A12816",
"zq.	c #9C2615",
"Aq.	c #982715",
"Bq.	c #8E2411",
"Cq.	c #972B18",
"Dq.	c #912916",
"Eq.	c #762D1B",
"Fq.	c #7D3221",
"Gq.	c #813324",
"Hq.	c #913923",
"Iq.	c #903725",
"Jq.	c #9C4C3B",
"Kq.	c #9A4939",
"Lq.	c #994734",
"Mq.	c #723933",
"Nq.	c #9A6358",
"Oq.	c #7B2515",
"Pq.	c #6B0700",
"Qq.	c #6C0A02",
"Rq.	c #722B28",
"Sq.	c #8D433D",
"Tq.	c #892D1F",
"Uq.	c #933A2B",
"Vq.	c #8E4131",
"Wq.	c #8F4937",
"Xq.	c #834836",
"Yq.	c #5A271B",
"Zq.	c #0D0504",
"`q.	c #240402",
" r.	c #703325",
".r.	c #6C3223",
"+r.	c #6D3326",
"@r.	c #683122",
"#r.	c #632F1F",
"$r.	c #5F291C",
"%r.	c #642D1E",
"&r.	c #642B1D",
"*r.	c #642B1E",
"=r.	c #60271A",
"-r.	c #622A1E",
";r.	c #602A1D",
">r.	c #5C281B",
",r.	c #5C2619",
"'r.	c #692C1D",
")r.	c #6C2D1F",
"!r.	c #6A2B1D",
"~r.	c #632516",
"{r.	c #672315",
"]r.	c #6D2314",
"^r.	c #742214",
"/r.	c #742013",
"(r.	c #7E2212",
"_r.	c #8E2716",
":r.	c #872917",
"<r.	c #862815",
"[r.	c #95311F",
"}r.	c #963220",
"|r.	c #9A3B29",
"1r.	c #943826",
"2r.	c #913927",
"3r.	c #823422",
"4r.	c #803321",
"5r.	c #7C2E1C",
"6r.	c #7E2D1D",
"7r.	c #933120",
"8r.	c #993221",
"9r.	c #953626",
"0r.	c #8E3422",
"ar.	c #85311E",
"br.	c #7E311F",
"cr.	c #7A2E1C",
"dr.	c #853C28",
"er.	c #813522",
"fr.	c #93402B",
"gr.	c #9E432E",
"hr.	c #9D2E1A",
"ir.	c #9E301A",
"jr.	c #AE3824",
"kr.	c #AA351E",
"lr.	c #A42E18",
"mr.	c #AD3520",
"nr.	c #A9321E",
"or.	c #A82F1B",
"pr.	c #A12A18",
"qr.	c #A32B19",
"rr.	c #9F2915",
"sr.	c #9C2916",
"tr.	c #942512",
"ur.	c #942513",
"vr.	c #902815",
"wr.	c #932B17",
"xr.	c #912615",
"yr.	c #793121",
"zr.	c #742C1D",
"Ar.	c #813120",
"Br.	c #853020",
"Cr.	c #893220",
"Dr.	c #973625",
"Er.	c #963C2C",
"Fr.	c #963D2B",
"Gr.	c #973C2E",
"Hr.	c #603228",
"Ir.	c #270905",
"Jr.	c #7E3D2F",
"Kr.	c #A24A34",
"Lr.	c #A34839",
"Mr.	c #983D2D",
"Nr.	c #8E3121",
"Or.	c #862F23",
"Pr.	c #863B35",
"Qr.	c #84423E",
"Rr.	c #680705",
"Sr.	c #6A0A03",
"Tr.	c #75261F",
"Ur.	c #975A56",
"Vr.	c #A98382",
"Wr.	c #8D4539",
"Xr.	c #630804",
"Yr.	c #630904",
"Zr.	c #873E39",
"`r.	c #8D3228",
" s.	c #9F4638",
".s.	c #9C4B3A",
"+s.	c #9C4630",
"@s.	c #AA4A36",
"#s.	c #AC4D3B",
"$s.	c #A04433",
"%s.	c #9C4333",
"&s.	c #9A4333",
"*s.	c #98412D",
"=s.	c #8F3E2E",
"-s.	c #883B2C",
";s.	c #7D3929",
">s.	c #4C1D0F",
",s.	c #25100D",
"'s.	c #592A21",
")s.	c #733522",
"!s.	c #6B3022",
"~s.	c #622D1F",
"{s.	c #673021",
"]s.	c #642A1B",
"^s.	c #6A3022",
"/s.	c #652B1C",
"(s.	c #642A1C",
"_s.	c #65281B",
":s.	c #622818",
"<s.	c #60281C",
"[s.	c #612A1D",
"}s.	c #5F281B",
"|s.	c #61291D",
"1s.	c #622A1D",
"2s.	c #6C2C1E",
"3s.	c #682717",
"4s.	c #642012",
"5s.	c #6C2415",
"6s.	c #732114",
"7s.	c #711E10",
"8s.	c #792011",
"9s.	c #7D2011",
"0s.	c #902818",
"as.	c #932D1C",
"bs.	c #8D2817",
"cs.	c #963222",
"ds.	c #8F3524",
"es.	c #823522",
"fs.	c #813523",
"gs.	c #842D1F",
"hs.	c #A13321",
"is.	c #A83624",
"js.	c #A33623",
"ks.	c #A23423",
"ls.	c #80321F",
"ms.	c #752D1A",
"ns.	c #772D1A",
"os.	c #7E2E1B",
"ps.	c #8D3925",
"qs.	c #A13E2E",
"rs.	c #AA3521",
"ss.	c #AC3A25",
"ts.	c #A62F1B",
"us.	c #A62E1C",
"vs.	c #A02A18",
"ws.	c #9E2A17",
"xs.	c #922816",
"ys.	c #942917",
"zs.	c #952816",
"As.	c #942915",
"Bs.	c #912B17",
"Cs.	c #812E1C",
"Ds.	c #7D3324",
"Es.	c #7C3321",
"Fs.	c #7D301F",
"Gs.	c #813021",
"Hs.	c #812E20",
"Is.	c #8F3627",
"Js.	c #8A2D1C",
"Ks.	c #963625",
"Ls.	c #983624",
"Ms.	c #9D3928",
"Ns.	c #993726",
"Os.	c #9A3B28",
"Ps.	c #9E422C",
"Qs.	c #733933",
"Rs.	c #3C3435",
"Ss.	c #331008",
"Ts.	c #652518",
"Us.	c #99422F",
"Vs.	c #A14835",
"Ws.	c #9E4430",
"Xs.	c #A74838",
"Ys.	c #A64636",
"Zs.	c #A74631",
"`s.	c #A54B38",
" t.	c #A74435",
".t.	c #94453E",
"+t.	c #73100B",
"@t.	c #7C0603",
"#t.	c #953E37",
"$t.	c #89281B",
"%t.	c #9F4B39",
"&t.	c #A14938",
"*t.	c #A24839",
"=t.	c #A94C3F",
"-t.	c #9F4732",
";t.	c #A54631",
">t.	c #A24534",
",t.	c #A04431",
"'t.	c #A74632",
")t.	c #A3422F",
"!t.	c #9F402E",
"~t.	c #A0412E",
"{t.	c #A14232",
"]t.	c #9E4230",
"^t.	c #983D2B",
"/t.	c #913F2E",
"(t.	c #3E1309",
"_t.	c #250C06",
":t.	c #343132",
"<t.	c #6F372C",
"[t.	c #702E24",
"}t.	c #6E3126",
"|t.	c #6F3122",
"1t.	c #672A1B",
"2t.	c #692B1E",
"3t.	c #692C1E",
"4t.	c #662A1B",
"5t.	c #63281A",
"6t.	c #5F2819",
"7t.	c #5B2417",
"8t.	c #5E2619",
"9t.	c #612A1B",
"0t.	c #622719",
"at.	c #6A2B1E",
"bt.	c #713022",
"ct.	c #6F2E20",
"dt.	c #6E2718",
"et.	c #752113",
"ft.	c #762414",
"gt.	c #7A2112",
"ht.	c #832617",
"it.	c #872617",
"jt.	c #8C2715",
"kt.	c #932817",
"lt.	c #902A19",
"mt.	c #983523",
"nt.	c #963C2B",
"ot.	c #853423",
"pt.	c #6D2817",
"qt.	c #862D1E",
"rt.	c #8E2F1F",
"st.	c #943121",
"tt.	c #A73725",
"ut.	c #A3311F",
"vt.	c #A2301E",
"wt.	c #A3321D",
"xt.	c #AA3624",
"yt.	c #A63625",
"zt.	c #83321F",
"At.	c #8B3824",
"Bt.	c #9B3E2B",
"Ct.	c #9F3825",
"Dt.	c #A42F1B",
"Et.	c #AC3520",
"Ft.	c #B13A23",
"Gt.	c #B03722",
"Ht.	c #A9321C",
"It.	c #A9351F",
"Jt.	c #A9311D",
"Kt.	c #A02815",
"Lt.	c #9F2B1A",
"Mt.	c #9B2716",
"Nt.	c #9D2917",
"Ot.	c #992915",
"Pt.	c #932515",
"Qt.	c #8D2311",
"Rt.	c #952817",
"St.	c #9A2E1B",
"Tt.	c #9A321F",
"Ut.	c #853222",
"Vt.	c #833021",
"Wt.	c #943725",
"Xt.	c #9A3825",
"Yt.	c #A43D2B",
"Zt.	c #A03E29",
"`t.	c #8D3426",
" u.	c #0E0809",
".u.	c #531E11",
"+u.	c #98402F",
"@u.	c #9C4131",
"#u.	c #A04133",
"$u.	c #A34130",
"%u.	c #A23F2F",
"&u.	c #A84331",
"*u.	c #AB4432",
"=u.	c #A84534",
"-u.	c #A84431",
";u.	c #AB4A35",
">u.	c #AF4C39",
",u.	c #AC4B35",
"'u.	c #B04D38",
")u.	c #942D20",
"!u.	c #85544A",
"~u.	c #A24937",
"{u.	c #A44938",
"]u.	c #A24837",
"^u.	c #9D4634",
"/u.	c #944331",
"(u.	c #984231",
"_u.	c #98402C",
":u.	c #9E4432",
"<u.	c #9D422F",
"[u.	c #A24430",
"}u.	c #A1432F",
"|u.	c #A0412F",
"1u.	c #9E422D",
"2u.	c #9F3E2D",
"3u.	c #A03D2F",
"4u.	c #9E3C2E",
"5u.	c #943C2B",
"6u.	c #75281D",
"7u.	c #350F08",
"8u.	c #1B0703",
"9u.	c #030000",
"0u.	c #3C100B",
"au.	c #7A3124",
"bu.	c #752D1E",
"cu.	c #732E1F",
"du.	c #763122",
"eu.	c #773022",
"fu.	c #6D2A1C",
"gu.	c #6B2A1B",
"hu.	c #6A2B1C",
"iu.	c #672A1C",
"ju.	c #602719",
"ku.	c #5C2417",
"lu.	c #63281B",
"mu.	c #64281A",
"nu.	c #692B1D",
"ou.	c #733222",
"pu.	c #6F2E1E",
"qu.	c #722B1C",
"ru.	c #73291A",
"su.	c #671E0F",
"tu.	c #702315",
"uu.	c #802513",
"vu.	c #922A1A",
"wu.	c #9D3A27",
"xu.	c #8E3826",
"yu.	c #7F301F",
"zu.	c #772A19",
"Au.	c #8E3021",
"Bu.	c #953323",
"Cu.	c #AE402F",
"Du.	c #B54937",
"Eu.	c #C45B46",
"Fu.	c #C95F4A",
"Gu.	c #BF5840",
"Hu.	c #BC553E",
"Iu.	c #C85E48",
"Ju.	c #BF5842",
"Ku.	c #C45F46",
"Lu.	c #C35D46",
"Mu.	c #C35B46",
"Nu.	c #AC3C29",
"Ou.	c #A3341F",
"Pu.	c #8B3423",
"Qu.	c #813421",
"Ru.	c #9F351E",
"Su.	c #A8341D",
"Tu.	c #AE3520",
"Uu.	c #B23824",
"Vu.	c #9A2B16",
"Wu.	c #9B2C18",
"Xu.	c #9C2614",
"Yu.	c #A02816",
"Zu.	c #9C2A18",
"`u.	c #992715",
" v.	c #942511",
".v.	c #982A18",
"+v.	c #912512",
"@v.	c #922B18",
"#v.	c #923423",
"$v.	c #A5412E",
"%v.	c #9C3826",
"&v.	c #993725",
"*v.	c #9D3926",
"=v.	c #A53B27",
"-v.	c #6E3529",
";v.	c #110605",
">v.	c #200804",
",v.	c #421309",
"'v.	c #9E3F2F",
")v.	c #A14330",
"!v.	c #A94432",
"~v.	c #A7412D",
"{v.	c #A5402E",
"]v.	c #A2422F",
"^v.	c #A54834",
"/v.	c #A8422F",
"(v.	c #A94732",
"_v.	c #AA4732",
":v.	c #804B42",
"<v.	c #9F4936",
"[v.	c #A44B39",
"}v.	c #A84B3A",
"|v.	c #994332",
"1v.	c #944532",
"2v.	c #914432",
"3v.	c #944431",
"4v.	c #9B4330",
"5v.	c #A34533",
"6v.	c #A44330",
"7v.	c #AA4633",
"8v.	c #A2402C",
"9v.	c #A4402E",
"0v.	c #A74332",
"av.	c #953828",
"bv.	c #6D291C",
"cv.	c #0C0202",
"dv.	c #662B1D",
"ev.	c #863525",
"fv.	c #7E3122",
"gv.	c #813224",
"hv.	c #792E1F",
"iv.	c #7C3024",
"jv.	c #742E1E",
"kv.	c #742D1E",
"lv.	c #772F1F",
"mv.	c #6B291A",
"nv.	c #68271A",
"ov.	c #642819",
"pv.	c #632617",
"qv.	c #69291B",
"rv.	c #6B2B1D",
"sv.	c #753122",
"tv.	c #722E1D",
"uv.	c #7A3223",
"vv.	c #762B1B",
"wv.	c #7B2C1D",
"xv.	c #712515",
"yv.	c #76200F",
"zv.	c #8A2515",
"Av.	c #8F2B1B",
"Bv.	c #8C2514",
"Cv.	c #993422",
"Dv.	c #993827",
"Ev.	c #943927",
"Fv.	c #8B3725",
"Gv.	c #7B2A1B",
"Hv.	c #7D2B1B",
"Iv.	c #963323",
"Jv.	c #9F3624",
"Kv.	c #BD5340",
"Lv.	c #C15842",
"Mv.	c #A13E2A",
"Nv.	c #A13A26",
"Ov.	c #A63F2A",
"Pv.	c #A7412B",
"Qv.	c #C15943",
"Rv.	c #C95F48",
"Sv.	c #D16650",
"Tv.	c #C65D49",
"Uv.	c #90321F",
"Vv.	c #933823",
"Wv.	c #A3412D",
"Xv.	c #A93523",
"Yv.	c #AA321F",
"Zv.	c #A6301D",
"`v.	c #9B2B16",
" w.	c #A02E19",
".w.	c #A12F1C",
"+w.	c #9D2C19",
"@w.	c #982716",
"#w.	c #932714",
"$w.	c #962A19",
"%w.	c #912414",
"&w.	c #962A17",
"*w.	c #863527",
"=w.	c #0D0303",
"-w.	c #160401",
";w.	c #7F2D20",
">w.	c #983928",
",w.	c #9F4231",
"'w.	c #A94330",
")w.	c #B04633",
"!w.	c #AB4532",
"~w.	c #A94430",
"{w.	c #A94633",
"]w.	c #B14733",
"^w.	c #943F2F",
"/w.	c #A54B3A",
"(w.	c #A04635",
"_w.	c #A54735",
":w.	c #A34838",
"<w.	c #9E4532",
"[w.	c #A14534",
"}w.	c #A54432",
"|w.	c #A94634",
"1w.	c #AE4432",
"2w.	c #A6422E",
"3w.	c #A94231",
"4w.	c #953727",
"5w.	c #6A261B",
"6w.	c #2B0B05",
"7w.	c #0F0301",
"8w.	c #793226",
"9w.	c #853022",
"0w.	c #8D3528",
"aw.	c #893626",
"bw.	c #823121",
"cw.	c #7A2D1E",
"dw.	c #732B1C",
"ew.	c #732C1E",
"fw.	c #6E291B",
"gw.	c #702E20",
"hw.	c #6D2A1B",
"iw.	c #6C281A",
"jw.	c #732F1F",
"kw.	c #782E1F",
"lw.	c #792818",
"mw.	c #782618",
"nw.	c #712414",
"ow.	c #7C1F10",
"pw.	c #932919",
"qw.	c #902A18",
"rw.	c #8E2818",
"sw.	c #893423",
"tw.	c #7B2818",
"uw.	c #9C3321",
"vw.	c #AB4230",
"ww.	c #AA4330",
"xw.	c #A33E2A",
"yw.	c #9F3A27",
"zw.	c #96331F",
"Aw.	c #8E311E",
"Bw.	c #872A18",
"Cw.	c #822A17",
"Dw.	c #8A301C",
"Ew.	c #CD664F",
"Fw.	c #D16D55",
"Gw.	c #A83921",
"Hw.	c #973521",
"Iw.	c #A23E2C",
"Jw.	c #A3341E",
"Kw.	c #AD351F",
"Lw.	c #9F2A19",
"Mw.	c #9C2D19",
"Nw.	c #962918",
"Ow.	c #972614",
"Pw.	c #A0301E",
"Qw.	c #9E3623",
"Rw.	c #A13926",
"Sw.	c #1D0705",
"Tw.	c #110401",
"Uw.	c #7C2E21",
"Vw.	c #A24330",
"Ww.	c #94412C",
"Xw.	c #A04430",
"Yw.	c #AE432F",
"Zw.	c #B24734",
"`w.	c #B34431",
" x.	c #AD4633",
".x.	c #AE4834",
"+x.	c #AE4833",
"@x.	c #A94530",
"#x.	c #AF4733",
"$x.	c #B34832",
"%x.	c #9F3D2F",
"&x.	c #824B43",
"*x.	c #AA4B39",
"=x.	c #AA4B38",
"-x.	c #A54634",
";x.	c #A44834",
">x.	c #A34A36",
",x.	c #A14634",
"'x.	c #A84230",
")x.	c #A13929",
"!x.	c #9F3B2B",
"~x.	c #953B2A",
"{x.	c #5C1F11",
"]x.	c #140301",
"^x.	c #1B0804",
"/x.	c #883A2A",
"(x.	c #8B3224",
"_x.	c #8A3728",
":x.	c #7D2E20",
"<x.	c #742A1B",
"[x.	c #762D1E",
"}x.	c #762E20",
"|x.	c #752D1F",
"1x.	c #722E1E",
"2x.	c #712C1E",
"3x.	c #72281B",
"4x.	c #762D1F",
"5x.	c #732A1C",
"6x.	c #793020",
"7x.	c #7D2A1B",
"8x.	c #812D1E",
"9x.	c #722317",
"0x.	c #712011",
"ax.	c #7A1E10",
"bx.	c #762214",
"cx.	c #8F2A17",
"dx.	c #9B3323",
"ex.	c #90291A",
"fx.	c #842615",
"gx.	c #8A2918",
"hx.	c #9A3424",
"ix.	c #983524",
"jx.	c #812E1D",
"kx.	c #792917",
"lx.	c #882D1E",
"mx.	c #913020",
"nx.	c #B44E3D",
"ox.	c #A64734",
"px.	c #9C3C29",
"qx.	c #973826",
"rx.	c #8F301F",
"sx.	c #9A3624",
"tx.	c #9C3926",
"ux.	c #9A3725",
"vx.	c #973B2A",
"wx.	c #9D3D2C",
"xx.	c #9D3E2E",
"yx.	c #953A29",
"zx.	c #802919",
"Ax.	c #AC4732",
"Bx.	c #D76D55",
"Cx.	c #CB614A",
"Dx.	c #923322",
"Ex.	c #AC3925",
"Fx.	c #AD3722",
"Gx.	c #A63320",
"Hx.	c #AA3827",
"Ix.	c #A1311E",
"Jx.	c #952613",
"Kx.	c #9C2C18",
"Lx.	c #962613",
"Mx.	c #992815",
"Nx.	c #9B2919",
"Ox.	c #972817",
"Px.	c #932412",
"Qx.	c #952714",
"Rx.	c #AE3E2B",
"Sx.	c #B64531",
"Tx.	c #AA402F",
"Ux.	c #AF402F",
"Vx.	c #270B05",
"Wx.	c #0D0301",
"Xx.	c #702A1C",
"Yx.	c #A0402D",
"Zx.	c #A9422F",
"`x.	c #A74531",
" y.	c #AB4530",
".y.	c #AC4631",
"+y.	c #B54533",
"@y.	c #B64532",
"#y.	c #B44934",
"$y.	c #B34A32",
"%y.	c #79190C",
"&y.	c #A34C3B",
"*y.	c #A94D3C",
"=y.	c #A74733",
"-y.	c #A14632",
";y.	c #A44937",
">y.	c #AC4330",
",y.	c #AE422F",
"'y.	c #B04230",
")y.	c #AD412F",
"!y.	c #A83F2E",
"~y.	c #A23C2B",
"{y.	c #9A392A",
"]y.	c #943827",
"^y.	c #8F3827",
"/y.	c #571D10",
"(y.	c #2E0E08",
"_y.	c #913827",
":y.	c #9A3D2B",
"<y.	c #843222",
"[y.	c #772A1D",
"}y.	c #792E20",
"|y.	c #792D1E",
"1y.	c #7A3021",
"2y.	c #762B1C",
"3y.	c #7B311F",
"4y.	c #6E2315",
"5y.	c #752010",
"6y.	c #812311",
"7y.	c #922A1B",
"8y.	c #923221",
"9y.	c #923022",
"0y.	c #933421",
"ay.	c #9E3D2A",
"by.	c #9F311F",
"cy.	c #A23524",
"dy.	c #8A3621",
"ey.	c #832A19",
"fy.	c #7F2615",
"gy.	c #C05E47",
"hy.	c #D26E57",
"iy.	c #9E2C18",
"jy.	c #A42F1C",
"ky.	c #9D2B18",
"ly.	c #9F2A1A",
"my.	c #9F2C1B",
"ny.	c #9B2917",
"oy.	c #9B2A17",
"py.	c #962616",
"qy.	c #9E2E1B",
"ry.	c #B5412E",
"sy.	c #B3452F",
"ty.	c #41150E",
"uy.	c #0F0302",
"vy.	c #220903",
"wy.	c #632315",
"xy.	c #B64331",
"yy.	c #B94733",
"zy.	c #B64633",
"Ay.	c #AF4530",
"By.	c #A94630",
"Cy.	c #B44431",
"Dy.	c #B74533",
"Ey.	c #BD4733",
"Fy.	c #BA4632",
"Gy.	c #B94632",
"Hy.	c #9C3F31",
"Iy.	c #7F4337",
"Jy.	c #97402F",
"Ky.	c #A74C37",
"Ly.	c #B04634",
"My.	c #AC4935",
"Ny.	c #9B4333",
"Oy.	c #AF4331",
"Py.	c #AD412E",
"Qy.	c #AB3F2E",
"Ry.	c #A73E2C",
"Sy.	c #A7402F",
"Ty.	c #A43F2D",
"Uy.	c #8B3726",
"Vy.	c #51190D",
"Wy.	c #4C1E14",
"Xy.	c #913526",
"Yy.	c #863120",
"Zy.	c #7F2F20",
"`y.	c #7B2A1C",
" z.	c #7C2D1C",
".z.	c #813121",
"+z.	c #813321",
"@z.	c #7C2C1D",
"#z.	c #7F2213",
"$z.	c #802314",
"%z.	c #942A1B",
"&z.	c #872715",
"*z.	c #83291A",
"=z.	c #953221",
"-z.	c #A6412E",
";z.	c #A24531",
">z.	c #8C3625",
",z.	c #853322",
"'z.	c #983122",
")z.	c #AB3926",
"!z.	c #A43B27",
"~z.	c #A53D2B",
"{z.	c #973A2A",
"]z.	c #832C19",
"^z.	c #B44F39",
"/z.	c #CA5E48",
"(z.	c #8C2F1E",
"_z.	c #AE3C28",
":z.	c #A2301B",
"<z.	c #9E2E19",
"[z.	c #A32D1B",
"}z.	c #9E2715",
"|z.	c #A12B18",
"1z.	c #9C2817",
"2z.	c #9C2918",
"3z.	c #9E2B19",
"4z.	c #9C2919",
"5z.	c #9C3A26",
"6z.	c #A4412C",
"7z.	c #B03D2A",
"8z.	c #0C0101",
"9z.	c #B64430",
"0z.	c #B9442F",
"az.	c #7F342C",
"bz.	c #A24838",
"cz.	c #A14836",
"dz.	c #A64836",
"ez.	c #A24A35",
"fz.	c #AC4534",
"gz.	c #AF4734",
"hz.	c #96412E",
"iz.	c #A43E2C",
"jz.	c #9D3B2A",
"kz.	c #873222",
"lz.	c #250804",
"mz.	c #0D0302",
"nz.	c #712A1E",
"oz.	c #9B3B2B",
"pz.	c #9C3827",
"qz.	c #973927",
"rz.	c #923625",
"sz.	c #903526",
"tz.	c #95392A",
"uz.	c #913424",
"vz.	c #943625",
"wz.	c #993927",
"xz.	c #913323",
"yz.	c #8E3222",
"zz.	c #8D3321",
"Az.	c #863123",
"Bz.	c #852F1F",
"Cz.	c #82301C",
"Dz.	c #862F20",
"Ez.	c #7F2C1E",
"Fz.	c #7B200F",
"Gz.	c #832313",
"Hz.	c #842413",
"Iz.	c #892414",
"Jz.	c #902C1D",
"Kz.	c #8A2715",
"Lz.	c #872717",
"Mz.	c #853320",
"Nz.	c #853422",
"Oz.	c #803221",
"Pz.	c #7B2819",
"Qz.	c #8F2F1F",
"Rz.	c #8F3020",
"Sz.	c #933121",
"Tz.	c #A03C2C",
"Uz.	c #A0412C",
"Vz.	c #963D28",
"Wz.	c #792716",
"Xz.	c #903425",
"Yz.	c #963424",
"Zz.	c #993524",
"`z.	c #9E3526",
" A.	c #A53625",
".A.	c #A73826",
"+A.	c #AF3B28",
"@A.	c #AE3827",
"#A.	c #AA3623",
"$A.	c #AB3827",
"%A.	c #AA3926",
"&A.	c #AE3C29",
"*A.	c #A33E29",
"=A.	c #9D3E2C",
"-A.	c #822A16",
";A.	c #C96047",
">A.	c #C55D46",
",A.	c #A5321C",
"'A.	c #852815",
")A.	c #A7321C",
"!A.	c #A5301B",
"~A.	c #A83220",
"{A.	c #AB331F",
"]A.	c #A12C19",
"^A.	c #9C2815",
"/A.	c #9D2918",
"(A.	c #9B2817",
"_A.	c #A42E1B",
":A.	c #A13825",
"<A.	c #A23E29",
"[A.	c #A53C28",
"}A.	c #BD4833",
"|A.	c #7B2D24",
"1A.	c #090100",
"2A.	c #B34A33",
"3A.	c #C24A35",
"4A.	c #BF4734",
"5A.	c #BE4734",
"6A.	c #C14935",
"7A.	c #BD4632",
"8A.	c #B74330",
"9A.	c #B1462E",
"0A.	c #9D4733",
"aA.	c #A44837",
"bA.	c #9A4633",
"cA.	c #AE4535",
"dA.	c #AB432F",
"eA.	c #AE4431",
"fA.	c #0E0301",
"gA.	c #9F3B2A",
"hA.	c #9C392A",
"iA.	c #8D3726",
"jA.	c #9D3626",
"kA.	c #9E3827",
"lA.	c #943322",
"mA.	c #923422",
"nA.	c #903626",
"oA.	c #8F3726",
"pA.	c #8B3221",
"qA.	c #913726",
"rA.	c #8C3222",
"sA.	c #782313",
"tA.	c #802214",
"uA.	c #822214",
"vA.	c #8B2817",
"wA.	c #873726",
"xA.	c #792F1D",
"yA.	c #AB4937",
"zA.	c #9B452E",
"AA.	c #9B3525",
"BA.	c #AD3A27",
"CA.	c #B5402C",
"DA.	c #B33D29",
"EA.	c #B13E2A",
"FA.	c #AC3A27",
"GA.	c #AF3A27",
"HA.	c #953D28",
"IA.	c #A8422C",
"JA.	c #C65B42",
"KA.	c #B94E38",
"LA.	c #A73422",
"MA.	c #A23321",
"NA.	c #A32E1A",
"OA.	c #A6321E",
"PA.	c #9F2918",
"QA.	c #9F2B19",
"RA.	c #AD4531",
"SA.	c #080101",
"TA.	c #1C0702",
"UA.	c #B64630",
"VA.	c #BB4531",
"WA.	c #B84734",
"XA.	c #BD4935",
"YA.	c #C14934",
"ZA.	c #C14A35",
"`A.	c #C14733",
" B.	c #BF4631",
".B.	c #9C5852",
"+B.	c #873429",
"@B.	c #9B412F",
"#B.	c #A44836",
"$B.	c #A24532",
"%B.	c #A64331",
"&B.	c #B04635",
"*B.	c #AF4634",
"=B.	c #A7402E",
"-B.	c #AA412F",
";B.	c #9E3E2B",
">B.	c #8B3424",
",B.	c #1E0804",
"'B.	c #120202",
")B.	c #A13C2B",
"!B.	c #9E3F2C",
"~B.	c #973D2B",
"{B.	c #963322",
"]B.	c #8C2F1F",
"^B.	c #8C301D",
"/B.	c #842616",
"(B.	c #7F2214",
"_B.	c #802315",
":B.	c #7E2515",
"<B.	c #812514",
"[B.	c #8D2719",
"}B.	c #8C2617",
"|B.	c #872415",
"1B.	c #8C291A",
"2B.	c #843523",
"3B.	c #7A2E1E",
"4B.	c #8A2B1E",
"5B.	c #8F2F20",
"6B.	c #9A412C",
"7B.	c #8F3C29",
"8B.	c #8C3220",
"9B.	c #943323",
"0B.	c #B44933",
"aB.	c #BA4E35",
"bB.	c #BC4D35",
"cB.	c #C5543A",
"dB.	c #BE4F34",
"eB.	c #B84A31",
"fB.	c #B9462F",
"gB.	c #AE3826",
"hB.	c #A53D2C",
"iB.	c #973C2A",
"jB.	c #8D3826",
"kB.	c #AC4630",
"lB.	c #B84D35",
"mB.	c #A6341E",
"nB.	c #8F2C18",
"oB.	c #A7311D",
"pB.	c #A52F1B",
"qB.	c #A7311E",
"rB.	c #9F2B18",
"sB.	c #A22E1B",
"tB.	c #A22F1D",
"uB.	c #A22D1C",
"vB.	c #9F2917",
"wB.	c #A63C28",
"xB.	c #AB4731",
"yB.	c #B54B36",
"zB.	c #A4412B",
"AB.	c #0E0302",
"BB.	c #1D0603",
"CB.	c #A13C29",
"DB.	c #B54B35",
"EB.	c #BE4833",
"FB.	c #C44C38",
"GB.	c #C24C37",
"HB.	c #A1311A",
"IB.	c #9C6B58",
"JB.	c #93402F",
"KB.	c #9F4432",
"LB.	c #AB4735",
"MB.	c #B04834",
"NB.	c #B54633",
"OB.	c #99412E",
"PB.	c #9E402E",
"QB.	c #9B3927",
"RB.	c #863021",
"SB.	c #411307",
"TB.	c #1B0803",
"UB.	c #9D3B2B",
"VB.	c #A44030",
"WB.	c #9B3B2A",
"XB.	c #9B3E2C",
"YB.	c #A23C29",
"ZB.	c #A33B28",
"`B.	c #A53E2B",
" C.	c #A53E2A",
".C.	c #9D3D2B",
"+C.	c #923524",
"@C.	c #953726",
"#C.	c #993626",
"$C.	c #832717",
"%C.	c #882513",
"&C.	c #8A2718",
"*C.	c #882617",
"=C.	c #863423",
"-C.	c #A64633",
";C.	c #8B3723",
">C.	c #802F1C",
",C.	c #893020",
"'C.	c #8E2F20",
")C.	c #A43826",
"!C.	c #C0543D",
"~C.	c #CC5C44",
"{C.	c #D16248",
"]C.	c #BB563D",
"^C.	c #BF5940",
"/C.	c #BF573E",
"(C.	c #AF3B27",
"_C.	c #A9412D",
":C.	c #9E412E",
"<C.	c #8A3825",
"[C.	c #7E2714",
"}C.	c #BD543D",
"|C.	c #902E19",
"1C.	c #A8311D",
"2C.	c #A83320",
"3C.	c #A32E1D",
"4C.	c #9E2917",
"5C.	c #A12B1A",
"6C.	c #9A2613",
"7C.	c #A63E2B",
"8C.	c #973D29",
"9C.	c #170502",
"0C.	c #9D3F2A",
"aC.	c #A84832",
"bC.	c #AB4934",
"cC.	c #731609",
"dC.	c #A14532",
"eC.	c #A34634",
"fC.	c #A64533",
"gC.	c #B04733",
"hC.	c #A84532",
"iC.	c #3E130A",
"jC.	c #170603",
"kC.	c #280906",
"lC.	c #AA3F2E",
"mC.	c #A4422F",
"nC.	c #A23C2A",
"oC.	c #A53F2D",
"pC.	c #A63B29",
"qC.	c #9D3827",
"rC.	c #9C3928",
"sC.	c #7D2113",
"tC.	c #7D2514",
"uC.	c #892615",
"vC.	c #882816",
"wC.	c #812315",
"xC.	c #852719",
"yC.	c #742719",
"zC.	c #802C1E",
"AC.	c #7B2815",
"BC.	c #842919",
"CC.	c #953322",
"DC.	c #B14832",
"EC.	c #BD4D36",
"FC.	c #B35139",
"GC.	c #BC5F46",
"HC.	c #B0593F",
"IC.	c #B15C45",
"JC.	c #B65E48",
"KC.	c #B65740",
"LC.	c #C6624B",
"MC.	c #D66850",
"NC.	c #D1644A",
"OC.	c #D6684F",
"PC.	c #CE6148",
"QC.	c #CB6247",
"RC.	c #D46A4F",
"SC.	c #D06A51",
"TC.	c #C0654B",
"UC.	c #B15C42",
"VC.	c #C2664C",
"WC.	c #B65A41",
"XC.	c #C8694D",
"YC.	c #C36449",
"ZC.	c #C16248",
"`C.	c #C06046",
" D.	c #B8442F",
".D.	c #973D2A",
"+D.	c #832A17",
"@D.	c #AB452E",
"#D.	c #C3573F",
"$D.	c #902D19",
"%D.	c #A43E2A",
"&D.	c #AA3422",
"*D.	c #A6311C",
"=D.	c #A42D1C",
"-D.	c #9F2816",
";D.	c #972C18",
">D.	c #AE3D2A",
",D.	c #B0442D",
"'D.	c #B54731",
")D.	c #240B06",
"!D.	c #1E0502",
"~D.	c #BF4933",
"{D.	c #A94C37",
"]D.	c #9C4430",
"^D.	c #C14C36",
"/D.	c #C34E37",
"(D.	c #C44E38",
"_D.	c #9D432A",
":D.	c #90544D",
"<D.	c #A64433",
"[D.	c #B14531",
"}D.	c #B34533",
"|D.	c #B14532",
"1D.	c #B04432",
"2D.	c #AD4532",
"3D.	c #A54431",
"4D.	c #3B1209",
"5D.	c #3B130C",
"6D.	c #AB422F",
"7D.	c #A8402F",
"8D.	c #AD402E",
"9D.	c #9E3927",
"0D.	c #9D3826",
"aD.	c #872A19",
"bD.	c #7E2413",
"cD.	c #812515",
"dD.	c #7A2111",
"eD.	c #7E2313",
"fD.	c #842614",
"gD.	c #822314",
"hD.	c #71281A",
"iD.	c #722618",
"jD.	c #973B29",
"kD.	c #96402D",
"lD.	c #C35B44",
"mD.	c #C0563D",
"nD.	c #CC6249",
"oD.	c #C85F46",
"pD.	c #CA644C",
"qD.	c #B65841",
"rD.	c #B35943",
"sD.	c #AD583F",
"tD.	c #AE5D44",
"uD.	c #B16149",
"vD.	c #995038",
"wD.	c #A6563E",
"xD.	c #AD553D",
"yD.	c #BD5D42",
"zD.	c #C25B42",
"AD.	c #C55B42",
"BD.	c #D0654B",
"CD.	c #CA5D43",
"DD.	c #D06348",
"ED.	c #D2674E",
"FD.	c #D1664D",
"GD.	c #CB684F",
"HD.	c #AF5E44",
"ID.	c #B5664B",
"JD.	c #BF694D",
"KD.	c #BF674B",
"LD.	c #D47A5F",
"MD.	c #CD7359",
"ND.	c #BF664A",
"OD.	c #C2694F",
"PD.	c #C15D45",
"QD.	c #9D412C",
"RD.	c #8D3B28",
"SD.	c #792714",
"TD.	c #B54D35",
"UD.	c #A22E1A",
"VD.	c #9C2C19",
"WD.	c #9A2C17",
"XD.	c #A1301C",
"YD.	c #A42E1C",
"ZD.	c #A02B19",
"`D.	c #A4301D",
" E.	c #9B2815",
".E.	c #A63620",
"+E.	c #A93F2A",
"@E.	c #B1432E",
"#E.	c #B5452D",
"$E.	c #B54A34",
"%E.	c #2B0D08",
"&E.	c #1A0503",
"*E.	c #B04835",
"=E.	c #860F06",
"-E.	c #853223",
";E.	c #B64A36",
">E.	c #B34834",
",E.	c #AF4A34",
"'E.	c #AE4732",
")E.	c #AA4530",
"!E.	c #AA4733",
"~E.	c #792A1A",
"{E.	c #3A1308",
"]E.	c #140602",
"^E.	c #541B12",
"/E.	c #A83F2D",
"(E.	c #A83D2A",
"_E.	c #AF3F2C",
":E.	c #A83D2E",
"<E.	c #832715",
"[E.	c #812618",
"}E.	c #802516",
"|E.	c #882919",
"1E.	c #7A2214",
"2E.	c #883020",
"3E.	c #813222",
"4E.	c #71291A",
"5E.	c #7B2B1C",
"6E.	c #9B4734",
"7E.	c #933323",
"8E.	c #9B3320",
"9E.	c #AC402C",
"0E.	c #D1654E",
"aE.	c #C75E45",
"bE.	c #CE644B",
"cE.	c #C35B42",
"dE.	c #B05943",
"eE.	c #944F39",
"fE.	c #96543D",
"gE.	c #9E533B",
"hE.	c #A2513A",
"iE.	c #9D4B35",
"jE.	c #99452E",
"kE.	c #9B4B35",
"lE.	c #A5513B",
"mE.	c #97402A",
"nE.	c #983E27",
"oE.	c #A6472E",
"pE.	c #AB452D",
"qE.	c #B94B32",
"rE.	c #B94A31",
"sE.	c #964129",
"tE.	c #A2523A",
"uE.	c #BB6249",
"vE.	c #BD5B44",
"wE.	c #C05E46",
"xE.	c #AF5137",
"yE.	c #A84931",
"zE.	c #B0553A",
"AE.	c #AE583D",
"BE.	c #C1684E",
"CE.	c #B85A41",
"DE.	c #BE5C44",
"EE.	c #BF5D46",
"FE.	c #BB573F",
"GE.	c #BA543C",
"HE.	c #984430",
"IE.	c #B44930",
"JE.	c #AD3926",
"KE.	c #9E2D19",
"LE.	c #A32F1C",
"ME.	c #AC412B",
"NE.	c #AC452F",
"OE.	c #B64731",
"PE.	c #BE4D35",
"QE.	c #39130C",
"RE.	c #180503",
"SE.	c #903727",
"TE.	c #984934",
"UE.	c #AA4F39",
"VE.	c #C24D38",
"WE.	c #B7422C",
"XE.	c #A55A53",
"YE.	c #A14431",
"ZE.	c #AE4531",
"`E.	c #AF4935",
" F.	c #AE4734",
".F.	c #B04731",
"+F.	c #100502",
"@F.	c #63271B",
"#F.	c #9D3C2C",
"$F.	c #B04430",
"%F.	c #A33A28",
"&F.	c #91291A",
"*F.	c #822212",
"=F.	c #7B2415",
"-F.	c #883424",
";F.	c #823222",
">F.	c #77291A",
",F.	c #7E2C1D",
"'F.	c #852C1D",
")F.	c #994432",
"!F.	c #994D38",
"~F.	c #833A28",
"{F.	c #722918",
"]F.	c #C65842",
"^F.	c #C95D43",
"/F.	c #C4583E",
"(F.	c #BC5036",
"_F.	c #BF553A",
":F.	c #B7533A",
"<F.	c #97412B",
"[F.	c #A24932",
"}F.	c #A1472F",
"|F.	c #973D26",
"1F.	c #993C27",
"2F.	c #93351F",
"3F.	c #A23E27",
"4F.	c #99311B",
"5F.	c #A3432C",
"6F.	c #9D442E",
"7F.	c #A04831",
"8F.	c #A2412A",
"9F.	c #A84029",
"0F.	c #B04C35",
"aF.	c #AE573D",
"bF.	c #BC684E",
"cF.	c #B86047",
"dF.	c #B9654B",
"eF.	c #B6644C",
"fF.	c #AA5940",
"gF.	c #B75D45",
"hF.	c #BE5E47",
"iF.	c #B64B33",
"jF.	c #AF412B",
"kF.	c #8C3828",
"lF.	c #A1331B",
"mF.	c #A73220",
"nF.	c #A22C1A",
"oF.	c #9C2716",
"pF.	c #A12D1C",
"qF.	c #B64831",
"rF.	c #B74932",
"sF.	c #B24830",
"tF.	c #AD4830",
"uF.	c #BF5037",
"vF.	c #B54830",
"wF.	c #4E1810",
"xF.	c #170503",
"yF.	c #410E07",
"zF.	c #BA5038",
"AF.	c #AA4D37",
"BF.	c #B04D36",
"CF.	c #C5503A",
"DF.	c #8C3B2A",
"EF.	c #A14332",
"FF.	c #AB4634",
"GF.	c #A64E39",
"HF.	c #B44B36",
"IF.	c #B74F39",
"JF.	c #703123",
"KF.	c #A33B2D",
"LF.	c #A4402C",
"MF.	c #AA432F",
"NF.	c #A9432E",
"OF.	c #B1422E",
"PF.	c #AA422D",
"QF.	c #8B2716",
"RF.	c #7E2A19",
"SF.	c #803424",
"TF.	c #72291A",
"UF.	c #7D2B1C",
"VF.	c #9D4936",
"WF.	c #8F4330",
"XF.	c #7C3423",
"YF.	c #C35841",
"ZF.	c #C05B43",
"`F.	c #AE4F37",
" G.	c #B8563F",
".G.	c #BC5841",
"+G.	c #C1553C",
"@G.	c #CB5C42",
"#G.	c #B74A31",
"$G.	c #A83C23",
"%G.	c #AA452E",
"&G.	c #BC573C",
"*G.	c #AA4C33",
"=G.	c #A54F37",
"-G.	c #A14C35",
";G.	c #9F513A",
">G.	c #AC6249",
",G.	c #C3765C",
"'G.	c #B3654A",
")G.	c #A5543D",
"!G.	c #AB543D",
"~G.	c #B8543D",
"{G.	c #C15D44",
"]G.	c #B23F2B",
"^G.	c #9E2A16",
"/G.	c #A52E1B",
"(G.	c #B1432C",
"_G.	c #BB4E36",
":G.	c #B04E36",
"<G.	c #AB4C37",
"[G.	c #C15137",
"}G.	c #C35239",
"|G.	c #B24E35",
"1G.	c #BA5037",
"2G.	c #BC4F37",
"3G.	c #BB4D35",
"4G.	c #C9553D",
"5G.	c #BA462C",
"6G.	c #311511",
"7G.	c #A26257",
"8G.	c #913724",
"9G.	c #9B422F",
"0G.	c #A94735",
"aG.	c #B24B36",
"bG.	c #AB4834",
"cG.	c #9D422D",
"dG.	c #99432F",
"eG.	c #A74B38",
"fG.	c #B04B37",
"gG.	c #B24834",
"hG.	c #6D2111",
"iG.	c #36100A",
"jG.	c #0C0300",
"kG.	c #A4402D",
"lG.	c #A7432E",
"mG.	c #A03828",
"nG.	c #852312",
"oG.	c #862314",
"pG.	c #7F2515",
"qG.	c #7E2D1E",
"rG.	c #6F2819",
"sG.	c #742618",
"tG.	c #96402E",
"uG.	c #873B27",
"vG.	c #792F1E",
"wG.	c #7D2E1E",
"xG.	c #853121",
"yG.	c #B8583F",
"zG.	c #B15B44",
"AG.	c #B7573F",
"BG.	c #BF5137",
"CG.	c #A53B24",
"DG.	c #9F3723",
"EG.	c #94351E",
"FG.	c #A73B26",
"GG.	c #A43B24",
"HG.	c #A1452F",
"IG.	c #A0462F",
"JG.	c #A64C34",
"KG.	c #A44A32",
"LG.	c #AC583E",
"MG.	c #B06046",
"NG.	c #AC5C41",
"OG.	c #B85A40",
"PG.	c #B9573D",
"QG.	c #BA573E",
"RG.	c #B85239",
"SG.	c #BA4F35",
"TG.	c #B14932",
"UG.	c #822B19",
"VG.	c #A33624",
"WG.	c #A22E1C",
"XG.	c #A02D1A",
"YG.	c #BA4B33",
"ZG.	c #B1452C",
"`G.	c #B54831",
" H.	c #B2513B",
".H.	c #A3422C",
"+H.	c #AA462F",
"@H.	c #6F2D1D",
"#H.	c #AA4B34",
"$H.	c #B7563D",
"%H.	c #C75139",
"&H.	c #794338",
"*H.	c #81625D",
"=H.	c #663934",
"-H.	c #5F2D20",
";H.	c #933E2A",
">H.	c #8B3B2A",
",H.	c #A94632",
"'H.	c #AD4634",
")H.	c #B24A36",
"!H.	c #B64D39",
"~H.	c #B14A33",
"{H.	c #B84F37",
"]H.	c #35120A",
"^H.	c #0E0403",
"/H.	c #792D1F",
"(H.	c #B54D38",
"_H.	c #832311",
":H.	c #742E1F",
"<H.	c #822B1B",
"[H.	c #6E2817",
"}H.	c #803223",
"|H.	c #893524",
"1H.	c #C05842",
"2H.	c #B8543C",
"3H.	c #B2553C",
"4H.	c #B65840",
"5H.	c #B0573E",
"6H.	c #B95038",
"7H.	c #AF3D24",
"8H.	c #BD4A32",
"9H.	c #AB3E28",
"0H.	c #A2321D",
"aH.	c #A1341D",
"bH.	c #A02F18",
"cH.	c #A53A23",
"dH.	c #AB4933",
"eH.	c #AE4F36",
"fH.	c #B6543B",
"gH.	c #C36046",
"hH.	c #C25C43",
"iH.	c #C2593E",
"jH.	c #9C3C2A",
"kH.	c #832D1E",
"lH.	c #A02E1C",
"mH.	c #9C2816",
"nH.	c #BD5037",
"oH.	c #B44E39",
"pH.	c #CA5941",
"qH.	c #AE4831",
"rH.	c #7F3621",
"sH.	c #100503",
"tH.	c #B34F37",
"uH.	c #B7553D",
"vH.	c #BA533B",
"wH.	c #B9523A",
"xH.	c #BC4E36",
"yH.	c #C9563C",
"zH.	c #893D29",
"AH.	c #853D30",
"BH.	c #6F4D45",
"CH.	c #713425",
"DH.	c #562B1E",
"EH.	c #8B3C30",
"FH.	c #953A2B",
"GH.	c #94402F",
"HH.	c #953D2A",
"IH.	c #AC4633",
"JH.	c #AA4B35",
"KH.	c #B84E38",
"LH.	c #110504",
"MH.	c #AA4029",
"NH.	c #872313",
"OH.	c #77200F",
"PH.	c #782315",
"QH.	c #7C2A1B",
"RH.	c #642113",
"SH.	c #6C2518",
"TH.	c #822C1B",
"UH.	c #9C4433",
"VH.	c #8E3D2A",
"WH.	c #6E2615",
"XH.	c #8C3223",
"YH.	c #B45039",
"ZH.	c #B2563F",
"`H.	c #A7543C",
" I.	c #A35038",
".I.	c #A6543B",
"+I.	c #AD553E",
"@I.	c #A94932",
"#I.	c #B8452B",
"$I.	c #93311A",
"%I.	c #A63922",
"&I.	c #A53720",
"*I.	c #C55C42",
"=I.	c #CC6147",
"-I.	c #C35338",
";I.	c #BD4B32",
">I.	c #832816",
",I.	c #9A311D",
"'I.	c #A22F1A",
")I.	c #A12E1C",
"!I.	c #9F3720",
"~I.	c #AD442C",
"{I.	c #BC4F36",
"]I.	c #B04730",
"^I.	c #CC5E43",
"/I.	c #BA5138",
"(I.	c #C1563E",
"_I.	c #BD523B",
":I.	c #C95B42",
"<I.	c #A9442B",
"[I.	c #833D23",
"}I.	c #0F0402",
"|I.	c #C46047",
"1I.	c #BB573E",
"2I.	c #B75B45",
"3I.	c #C9583F",
"4I.	c #C3563B",
"5I.	c #CA5C42",
"6I.	c #CF5E45",
"7I.	c #C95A40",
"8I.	c #C24E36",
"9I.	c #8B3728",
"0I.	c #803425",
"aI.	c #8D3829",
"bI.	c #6D271D",
"cI.	c #703224",
"dI.	c #4D2215",
"eI.	c #8F3F30",
"fI.	c #A04532",
"gI.	c #9A422E",
"hI.	c #A94A37",
"iI.	c #BD4E3A",
"jI.	c #6C1F12",
"kI.	c #301109",
"lI.	c #190703",
"mI.	c #953C27",
"nI.	c #B54A33",
"oI.	c #8B2617",
"pI.	c #8A2617",
"qI.	c #892A1B",
"rI.	c #7F2618",
"sI.	c #7D2C1D",
"tI.	c #95422F",
"uI.	c #6A2413",
"vI.	c #813322",
"wI.	c #893425",
"xI.	c #973525",
"yI.	c #B44D36",
"zI.	c #AA5039",
"AI.	c #95472F",
"BI.	c #95452F",
"CI.	c #994530",
"DI.	c #A54933",
"EI.	c #B13C28",
"FI.	c #B43E2A",
"GI.	c #C7593E",
"HI.	c #9A2D1A",
"II.	c #9F2D19",
"JI.	c #9F2B17",
"KI.	c #A12E1B",
"LI.	c #A93F29",
"MI.	c #C5583F",
"NI.	c #BF5136",
"OI.	c #C55B44",
"PI.	c #B5523A",
"QI.	c #B3503A",
"RI.	c #BF563C",
"SI.	c #C1563B",
"TI.	c #C95B40",
"UI.	c #C0573C",
"VI.	c #93412A",
"WI.	c #110501",
"XI.	c #360E07",
"YI.	c #722516",
"ZI.	c #C35A41",
"`I.	c #BE573E",
" J.	c #C35C46",
".J.	c #B5543B",
"+J.	c #BF593F",
"@J.	c #CC5F44",
"#J.	c #CD5E43",
"$J.	c #C5563B",
"%J.	c #C45539",
"&J.	c #C4583D",
"*J.	c #AD422B",
"=J.	c #893826",
"-J.	c #984535",
";J.	c #882C1E",
">J.	c #703D35",
",J.	c #7B392A",
"'J.	c #723023",
")J.	c #4F241C",
"!J.	c #964033",
"~J.	c #9D3F2E",
"{J.	c #9A4431",
"]J.	c #A64A34",
"^J.	c #B04C36",
"/J.	c #B84D38",
"(J.	c #B74F37",
"_J.	c #BE533B",
":J.	c #8B2819",
"<J.	c #862716",
"[J.	c #822313",
"}J.	c #7D2516",
"|J.	c #742112",
"1J.	c #712213",
"2J.	c #7A2C1E",
"3J.	c #783021",
"4J.	c #73261A",
"5J.	c #8F3E2C",
"6J.	c #752D1C",
"7J.	c #7F3121",
"8J.	c #863121",
"9J.	c #882E1E",
"0J.	c #9E3726",
"aJ.	c #AE4630",
"bJ.	c #AC4832",
"cJ.	c #96432F",
"dJ.	c #AA4630",
"eJ.	c #B54229",
"fJ.	c #B13C24",
"gJ.	c #A3311C",
"hJ.	c #AE3C25",
"iJ.	c #C3553A",
"jJ.	c #C85A3F",
"kJ.	c #BF5237",
"lJ.	c #C4563B",
"mJ.	c #9E3A28",
"nJ.	c #A33120",
"oJ.	c #A12C1B",
"pJ.	c #9E2B17",
"qJ.	c #BE5138",
"rJ.	c #AF4B35",
"sJ.	c #B8543E",
"tJ.	c #AD4F37",
"uJ.	c #C75B41",
"vJ.	c #C4593D",
"wJ.	c #CC6246",
"xJ.	c #C55B3F",
"yJ.	c #B24F36",
"zJ.	c #883924",
"AJ.	c #130502",
"BJ.	c #BE553D",
"CJ.	c #C3583E",
"DJ.	c #C45C40",
"EJ.	c #CF644E",
"FJ.	c #C85E46",
"GJ.	c #CB5F44",
"HJ.	c #C55B40",
"IJ.	c #C5583D",
"JJ.	c #CF6044",
"KJ.	c #CA5C41",
"LJ.	c #BA5036",
"MJ.	c #C35D42",
"NJ.	c #BB543B",
"OJ.	c #C45A3F",
"PJ.	c #652A1E",
"QJ.	c #8E3A29",
"RJ.	c #8E3D2F",
"SJ.	c #59241F",
"TJ.	c #853F30",
"UJ.	c #743224",
"VJ.	c #492017",
"WJ.	c #993C29",
"XJ.	c #963E2B",
"YJ.	c #9E4431",
"ZJ.	c #A74B36",
"`J.	c #AA4A34",
" K.	c #692011",
".K.	c #2E0F07",
"+K.	c #220A04",
"@K.	c #C3543B",
"#K.	c #CA5C44",
"$K.	c #BB5139",
"%K.	c #BB5239",
"&K.	c #BC5239",
"*K.	c #832213",
"=K.	c #792415",
"-K.	c #772A1B",
";K.	c #702A1B",
">K.	c #5F1F10",
",K.	c #913D2A",
"'K.	c #762C1B",
")K.	c #6B2617",
"!K.	c #803122",
"~K.	c #973422",
"{K.	c #B24A32",
"]K.	c #B84F38",
"^K.	c #AA462E",
"/K.	c #A54A32",
"(K.	c #95402B",
"_K.	c #983F2A",
":K.	c #BD4E35",
"<K.	c #C2553B",
"[K.	c #C0543A",
"}K.	c #B94D33",
"|K.	c #A63523",
"1K.	c #9A2817",
"2K.	c #9B2715",
"3K.	c #A4301E",
"4K.	c #AA412B",
"5K.	c #B34931",
"6K.	c #C45940",
"7K.	c #CE6248",
"8K.	c #CC5B41",
"9K.	c #B8533B",
"0K.	c #B35239",
"aK.	c #C55C43",
"bK.	c #C75B3F",
"cK.	c #C35A3E",
"dK.	c #C75A42",
"eK.	c #CF6349",
"fK.	c #C65E43",
"gK.	c #B6523A",
"hK.	c #150503",
"iK.	c #B2523A",
"jK.	c #C15B41",
"kK.	c #B85137",
"lK.	c #B4523B",
"mK.	c #A4503A",
"nK.	c #A04C36",
"oK.	c #C45F48",
"pK.	c #D3664B",
"qK.	c #CE6349",
"rK.	c #CD6248",
"sK.	c #C2573B",
"tK.	c #D2664B",
"uK.	c #D06448",
"vK.	c #C4573C",
"wK.	c #C75C43",
"xK.	c #C55A3F",
"yK.	c #C15539",
"zK.	c #AC4026",
"AK.	c #97402E",
"BK.	c #A54832",
"CK.	c #761305",
"DK.	c #742D24",
"EK.	c #8D4332",
"FK.	c #783325",
"GK.	c #481F15",
"HK.	c #A33E2F",
"IK.	c #A64834",
"JK.	c #A84D35",
"KK.	c #B8533D",
"LK.	c #2C0E07",
"MK.	c #BE543B",
"NK.	c #C75B43",
"OK.	c #BD5138",
"PK.	c #952D1E",
"QK.	c #802112",
"RK.	c #79200F",
"SK.	c #732619",
"TK.	c #642416",
"UK.	c #652317",
"VK.	c #913E2B",
"WK.	c #652111",
"XK.	c #8C3121",
"YK.	c #B8523C",
"ZK.	c #B75038",
"`K.	c #A1422B",
" L.	c #993F29",
".L.	c #963A23",
"+L.	c #A73D25",
"@L.	c #B8452D",
"#L.	c #A9331D",
"$L.	c #BB553B",
"%L.	c #BD533B",
"&L.	c #B3442B",
"*L.	c #9F301F",
"=L.	c #B34930",
"-L.	c #C1573D",
";L.	c #B64B35",
">L.	c #C6573D",
",L.	c #CA5F44",
"'L.	c #C95A42",
")L.	c #C9593F",
"!L.	c #C8583C",
"~L.	c #C65A3F",
"{L.	c #C35A40",
"]L.	c #CB5F46",
"^L.	c #C45841",
"/L.	c #B55139",
"(L.	c #BC543A",
"_L.	c #BD5338",
":L.	c #C55E43",
"<L.	c #BB5439",
"[L.	c #9F4028",
"}L.	c #180502",
"|L.	c #330A05",
"1L.	c #601E0F",
"2L.	c #AD4B34",
"3L.	c #C25E42",
"4L.	c #9C4B34",
"5L.	c #CA6A51",
"6L.	c #CD6247",
"7L.	c #CE6348",
"8L.	c #CF654A",
"9L.	c #CD6147",
"0L.	c #C75B40",
"aL.	c #CB6144",
"bL.	c #C95E43",
"cL.	c #CC5E46",
"dL.	c #BB4C32",
"eL.	c #5B241B",
"fL.	c #98402E",
"gL.	c #904838",
"hL.	c #803225",
"iL.	c #873C29",
"jL.	c #753124",
"kL.	c #451A11",
"lL.	c #A13E2F",
"mL.	c #963A29",
"nL.	c #A1442F",
"oL.	c #A24630",
"pL.	c #AB4A33",
"qL.	c #B44F37",
"rL.	c #2B0E08",
"sL.	c #B8503A",
"tL.	c #BD5239",
"uL.	c #C4593F",
"vL.	c #BE5439",
"wL.	c #B64E36",
"xL.	c #CA5E47",
"yL.	c #862614",
"zL.	c #7E2514",
"AL.	c #652315",
"BL.	c #6F2719",
"CL.	c #792819",
"DL.	c #943F2C",
"EL.	c #642213",
"FL.	c #77301F",
"GL.	c #7E2F21",
"HL.	c #822C1E",
"IL.	c #A64530",
"JL.	c #BD442E",
"KL.	c #B04931",
"LL.	c #9C2D1D",
"ML.	c #922412",
"NL.	c #982917",
"OL.	c #A6301F",
"PL.	c #B94C33",
"QL.	c #BB5238",
"RL.	c #BF563D",
"SL.	c #B44D34",
"TL.	c #C2573D",
"UL.	c #BB5036",
"VL.	c #CF5F44",
"WL.	c #CD5F42",
"XL.	c #CF5F43",
"YL.	c #BD5137",
"ZL.	c #C96149",
"`L.	c #C0624A",
" M.	c #C35C42",
".M.	c #BE5C41",
"+M.	c #9E432A",
"@M.	c #2F0C07",
"#M.	c #591C0D",
"$M.	c #B4553E",
"%M.	c #C35E45",
"&M.	c #C25D44",
"*M.	c #BE5940",
"=M.	c #C36149",
"-M.	c #C6644A",
";M.	c #BC583C",
">M.	c #C3583D",
",M.	c #CA6245",
"'M.	c #CA6048",
")M.	c #CA6145",
"!M.	c #C95F43",
"~M.	c #C86045",
"{M.	c #B6563F",
"]M.	c #B45038",
"^M.	c #BF563E",
"/M.	c #501E16",
"(M.	c #963021",
"_M.	c #813423",
":M.	c #883B2A",
"<M.	c #793527",
"[M.	c #471911",
"}M.	c #963B2A",
"|M.	c #B44A33",
"1M.	c #BB4E35",
"2M.	c #B74A32",
"3M.	c #C05A44",
"4M.	c #280C07",
"5M.	c #BF543C",
"6M.	c #BB533B",
"7M.	c #C55A41",
"8M.	c #B04B32",
"9M.	c #B54C34",
"0M.	c #BE553C",
"aM.	c #B24A31",
"bM.	c #782111",
"cM.	c #752215",
"dM.	c #712215",
"eM.	c #692417",
"fM.	c #702919",
"gM.	c #7D2F1F",
"hM.	c #802E1F",
"iM.	c #A43F29",
"jM.	c #B53D29",
"kM.	c #A22E19",
"lM.	c #AA331F",
"mM.	c #BA462F",
"nM.	c #AF432B",
"oM.	c #892C1A",
"pM.	c #962716",
"qM.	c #C35C41",
"rM.	c #B75037",
"sM.	c #C85C41",
"tM.	c #CA5E44",
"uM.	c #C95A3F",
"vM.	c #C95A3E",
"wM.	c #CB5C3F",
"xM.	c #CB5B43",
"yM.	c #C86248",
"zM.	c #B45036",
"AM.	c #C05A41",
"BM.	c #C25F43",
"CM.	c #A84D34",
"DM.	c #9E432B",
"EM.	c #1E0904",
"FM.	c #2C0B04",
"GM.	c #591E0E",
"HM.	c #BE593E",
"IM.	c #C15D41",
"JM.	c #CB674B",
"KM.	c #C8634A",
"LM.	c #CB6548",
"MM.	c #C86044",
"NM.	c #C55D42",
"OM.	c #C25A40",
"PM.	c #C15840",
"QM.	c #C55B41",
"RM.	c #BC5B43",
"SM.	c #C25D46",
"TM.	c #893D26",
"UM.	c #A24D35",
"VM.	c #C75F44",
"WM.	c #C0573B",
"XM.	c #AA3F28",
"YM.	c #4E2217",
"ZM.	c #893B29",
"`M.	c #A34832",
" N.	c #A14433",
".N.	c #842E22",
"+N.	c #803833",
"@N.	c #98524A",
"#N.	c #A05951",
"$N.	c #98554A",
"%N.	c #974A3D",
"&N.	c #944638",
"*N.	c #954030",
"=N.	c #8C3825",
"-N.	c #803523",
";N.	c #68342A",
">N.	c #5B2418",
",N.	c #883A2E",
"'N.	c #4D1D13",
")N.	c #923928",
"!N.	c #9E422E",
"~N.	c #A4432D",
"{N.	c #B44B32",
"]N.	c #B84A32",
"^N.	c #C65940",
"/N.	c #BC563F",
"(N.	c #6A1E11",
"_N.	c #320F09",
":N.	c #A1412D",
"<N.	c #BF5339",
"[N.	c #C45B42",
"}N.	c #B34D36",
"|N.	c #B84C37",
"1N.	c #C15941",
"2N.	c #B95037",
"3N.	c #C15940",
"4N.	c #A7412A",
"5N.	c #832615",
"6N.	c #692415",
"7N.	c #712919",
"8N.	c #863223",
"9N.	c #863626",
"0N.	c #762E1E",
"aN.	c #893323",
"bN.	c #A5432C",
"cN.	c #A5412A",
"dN.	c #B74E39",
"eN.	c #9E3C26",
"fN.	c #AF3923",
"gN.	c #A43A23",
"hN.	c #B4452B",
"iN.	c #BB4F35",
"jN.	c #BF553B",
"kN.	c #842916",
"lN.	c #BA5137",
"mN.	c #BD543B",
"nN.	c #B34A31",
"oN.	c #C75C42",
"pN.	c #CA5E42",
"qN.	c #CB5D43",
"rN.	c #C85C40",
"sN.	c #C96045",
"tN.	c #AF4B30",
"uN.	c #AB492F",
"vN.	c #D1694D",
"wN.	c #C6654B",
"xN.	c #A44B32",
"yN.	c #AA4933",
"zN.	c #2D0C06",
"AN.	c #581C0E",
"BN.	c #B45035",
"CN.	c #C05A40",
"DN.	c #BC5439",
"EN.	c #C45D41",
"FN.	c #C76045",
"GN.	c #CB6449",
"HN.	c #CD6549",
"IN.	c #C86046",
"JN.	c #BD573B",
"KN.	c #BB543A",
"LN.	c #78341D",
"MN.	c #B55B42",
"NN.	c #B9543C",
"ON.	c #A34F37",
"PN.	c #C35F46",
"QN.	c #BD573D",
"RN.	c #C0583E",
"SN.	c #9F3821",
"TN.	c #4D2217",
"UN.	c #A34A31",
"VN.	c #88433B",
"WN.	c #57130E",
"XN.	c #550100",
"YN.	c #660700",
"ZN.	c #86402C",
"`N.	c #93503F",
" O.	c #9C5647",
".O.	c #A35A4B",
"+O.	c #B48579",
"@O.	c #793C30",
"#O.	c #9F4130",
"$O.	c #AF523F",
"%O.	c #AC503D",
"&O.	c #B25441",
"*O.	c #AA4C3A",
"=O.	c #A74B3A",
"-O.	c #91412C",
";O.	c #833C2A",
">O.	c #753022",
",O.	c #8F3A2A",
"'O.	c #8D4130",
")O.	c #6F3022",
"!O.	c #511E15",
"~O.	c #993B27",
"{O.	c #9F412D",
"]O.	c #B84F36",
"^O.	c #C3573D",
"/O.	c #BA533C",
"(O.	c #260E08",
"_O.	c #3C140C",
":O.	c #A84934",
"<O.	c #BC5037",
"[O.	c #B74A30",
"}O.	c #95402D",
"|O.	c #AD4F3A",
"1O.	c #BF583E",
"2O.	c #C0563B",
"3O.	c #BF543A",
"4O.	c #BC553C",
"5O.	c #BC553D",
"6O.	c #A03D28",
"7O.	c #9D3825",
"8O.	c #711E0F",
"9O.	c #642316",
"0O.	c #5B1D11",
"aO.	c #722718",
"bO.	c #742E20",
"cO.	c #7B2C1E",
"dO.	c #993D2B",
"eO.	c #A74430",
"fO.	c #AD4631",
"gO.	c #A84028",
"hO.	c #A23720",
"iO.	c #B8402B",
"jO.	c #A93B24",
"kO.	c #B84B32",
"lO.	c #852A1C",
"mO.	c #962819",
"nO.	c #982919",
"oO.	c #B14931",
"pO.	c #BC4F35",
"qO.	c #BA4C33",
"rO.	c #C95B3F",
"sO.	c #BD5339",
"tO.	c #CD5E42",
"uO.	c #CE5F43",
"vO.	c #C95C40",
"wO.	c #CE6346",
"xO.	c #D3674B",
"yO.	c #B85238",
"zO.	c #B54D34",
"AO.	c #BD5A40",
"BO.	c #A94F38",
"CO.	c #2C0904",
"DO.	c #571B0C",
"EO.	c #A2462E",
"FO.	c #C96348",
"GO.	c #CE674A",
"HO.	c #CB6348",
"IO.	c #C66248",
"JO.	c #BD553B",
"KO.	c #BE5539",
"LO.	c #CF664C",
"MO.	c #C86245",
"NO.	c #C45E45",
"OO.	c #AB503C",
"PO.	c #B04E34",
"QO.	c #C25A41",
"RO.	c #BC5A42",
"SO.	c #BA5A41",
"TO.	c #C56046",
"UO.	c #B44931",
"VO.	c #B2442B",
"WO.	c #511E13",
"XO.	c #923E2A",
"YO.	c #AD4E38",
"ZO.	c #A33F29",
"`O.	c #7F3626",
" P.	c #914C37",
".P.	c #9F4E3B",
"+P.	c #A44634",
"@P.	c #A84835",
"#P.	c #92473C",
"$P.	c #8B4F4A",
"%P.	c #AB5443",
"&P.	c #A9513D",
"*P.	c #B1503A",
"=P.	c #AD4E3C",
"-P.	c #A34532",
";P.	c #8E3E2C",
">P.	c #833A2A",
",P.	c #662E23",
"'P.	c #7E3325",
")P.	c #903D2F",
"!P.	c #8B3E2E",
"~P.	c #743527",
"{P.	c #5B271B",
"]P.	c #9A3A29",
"^P.	c #983B28",
"/P.	c #B44B34",
"(P.	c #BC523A",
"_P.	c #641E11",
":P.	c #270E07",
"<P.	c #41160D",
"[P.	c #B44C34",
"}P.	c #B95036",
"|P.	c #92412E",
"1P.	c #BB5339",
"2P.	c #B34B32",
"3P.	c #C45A43",
"4P.	c #A43E29",
"5P.	c #6D1D0D",
"6P.	c #662115",
"7P.	c #5B1F11",
"8P.	c #6B2115",
"9P.	c #682516",
"0P.	c #6D291B",
"aP.	c #772A1C",
"bP.	c #7F2C1D",
"cP.	c #8D3322",
"dP.	c #9D412D",
"eP.	c #AB432D",
"fP.	c #AF3C23",
"gP.	c #B23D26",
"hP.	c #B1472D",
"iP.	c #9B3A27",
"jP.	c #922917",
"kP.	c #962A18",
"lP.	c #8E2211",
"mP.	c #982B1A",
"nP.	c #9F2D1C",
"oP.	c #A83422",
"pP.	c #B64C33",
"qP.	c #BA4F36",
"rP.	c #B94B31",
"sP.	c #C7563C",
"tP.	c #BC4E33",
"uP.	c #CC6045",
"vP.	c #C05338",
"wP.	c #C8593D",
"xP.	c #CE6144",
"yP.	c #C65A40",
"zP.	c #C3573C",
"AP.	c #C6583D",
"BP.	c #A74832",
"CP.	c #9C422D",
"DP.	c #210905",
"EP.	c #57190A",
"FP.	c #C25B3F",
"GP.	c #C75E43",
"HP.	c #C25B40",
"IP.	c #CC6248",
"JP.	c #C85F42",
"KP.	c #C96144",
"LP.	c #C75D43",
"MP.	c #CB644A",
"NP.	c #BD573C",
"OP.	c #CA6448",
"PP.	c #C1593F",
"QP.	c #C05A3E",
"RP.	c #C45C44",
"SP.	c #C55D45",
"TP.	c #C56448",
"UP.	c #BE573D",
"VP.	c #B1543E",
"WP.	c #6F3422",
"XP.	c #904531",
"YP.	c #994632",
"ZP.	c #A34632",
"`P.	c #A54936",
" Q.	c #AA5141",
".Q.	c #AD5340",
"+Q.	c #AF5140",
"@Q.	c #984238",
"#Q.	c #87372A",
"$Q.	c #A95445",
"%Q.	c #A84D38",
"&Q.	c #A8503A",
"*Q.	c #A64935",
"=Q.	c #A74938",
"-Q.	c #983F2D",
";Q.	c #8C3C2B",
">Q.	c #7E3726",
",Q.	c #602A1E",
"'Q.	c #823527",
")Q.	c #914132",
"!Q.	c #6D2F20",
"~Q.	c #5D2516",
"{Q.	c #230B05",
"]Q.	c #451611",
"^Q.	c #9F412C",
"/Q.	c #B14830",
"(Q.	c #B74E34",
"_Q.	c #A2452F",
":Q.	c #C45B41",
"<Q.	c #B95139",
"[Q.	c #792515",
"}Q.	c #792618",
"|Q.	c #621C0E",
"1Q.	c #652418",
"2Q.	c #772719",
"3Q.	c #8F3B2B",
"4Q.	c #662214",
"5Q.	c #9C3F2A",
"6Q.	c #A9422D",
"7Q.	c #A93E27",
"8Q.	c #9B2E19",
"9Q.	c #AF3C24",
"0Q.	c #BB4731",
"aQ.	c #BA4C32",
"bQ.	c #C05238",
"cQ.	c #AA3725",
"dQ.	c #A33B25",
"eQ.	c #B34830",
"fQ.	c #AF452D",
"gQ.	c #AB4128",
"hQ.	c #B94E34",
"iQ.	c #CE5F44",
"jQ.	c #C25336",
"kQ.	c #BC4F33",
"lQ.	c #C95D42",
"mQ.	c #BD4E34",
"nQ.	c #C8593E",
"oQ.	c #8F3925",
"pQ.	c #1D0704",
"qQ.	c #290905",
"rQ.	c #BE583F",
"sQ.	c #C55F45",
"tQ.	c #CB6248",
"uQ.	c #CB6447",
"vQ.	c #C75C41",
"wQ.	c #C85F43",
"xQ.	c #CB6246",
"yQ.	c #C0593E",
"zQ.	c #C66046",
"AQ.	c #BC553A",
"BQ.	c #BD563C",
"CQ.	c #C15A40",
"DQ.	c #C0593D",
"EQ.	c #C45B40",
"FQ.	c #AC4229",
"GQ.	c #913F2F",
"HQ.	c #B0523C",
"IQ.	c #7C392A",
"JQ.	c #90422F",
"KQ.	c #974332",
"LQ.	c #A2442F",
"MQ.	c #A0412D",
"NQ.	c #A6442F",
"OQ.	c #9E3E2C",
"PQ.	c #9B4532",
"QQ.	c #A04631",
"RQ.	c #8E5243",
"SQ.	c #A04734",
"TQ.	c #AA503A",
"UQ.	c #A84E38",
"VQ.	c #9B4531",
"WQ.	c #A04A37",
"XQ.	c #A7503B",
"YQ.	c #9E4734",
"ZQ.	c #9F4935",
"`Q.	c #A14734",
" R.	c #893D2A",
".R.	c #7F3C2B",
"+R.	c #5A2B1E",
"@R.	c #833827",
"#R.	c #994636",
"$R.	c #6F3527",
"%R.	c #64251C",
"&R.	c #993823",
"*R.	c #AC442E",
"=R.	c #B94931",
"-R.	c #260C07",
";R.	c #461710",
">R.	c #AF4833",
",R.	c #AF4930",
"'R.	c #BE533A",
")R.	c #842715",
"!R.	c #762013",
"~R.	c #621E12",
"{R.	c #5E2013",
"]R.	c #742A1C",
"^R.	c #923725",
"/R.	c #99422D",
"(R.	c #973C27",
"_R.	c #AF3D29",
":R.	c #A0331C",
"<R.	c #B43D28",
"[R.	c #B44129",
"}R.	c #C9563F",
"|R.	c #BB4B31",
"1R.	c #8C2515",
"2R.	c #9A2D1B",
"3R.	c #9D2E1D",
"4R.	c #CA593D",
"5R.	c #CE5E43",
"6R.	c #D06246",
"7R.	c #C25439",
"8R.	c #AB472F",
"9R.	c #230A06",
"0R.	c #57190D",
"aR.	c #AC513B",
"bR.	c #C25B41",
"cR.	c #C55D41",
"dR.	c #C65D42",
"eR.	c #C85F44",
"fR.	c #C1583D",
"gR.	c #CA6348",
"hR.	c #B9533A",
"iR.	c #C0583F",
"jR.	c #BC5339",
"kR.	c #C65F44",
"lR.	c #B24832",
"mR.	c #672D21",
"nR.	c #813424",
"oR.	c #B95B43",
"pR.	c #A5432B",
"qR.	c #783A2A",
"rR.	c #924432",
"sR.	c #A24530",
"tR.	c #A44835",
"uR.	c #A94836",
"vR.	c #91594B",
"wR.	c #AB4A37",
"xR.	c #B15340",
"yR.	c #A34834",
"zR.	c #984A34",
"AR.	c #AE5541",
"BR.	c #9D4834",
"CR.	c #9F4430",
"DR.	c #8B3D2B",
"ER.	c #813F2E",
"FR.	c #592C1F",
"GR.	c #933A28",
"HR.	c #6A3121",
"IR.	c #662419",
"JR.	c #8B3425",
"KR.	c #8E3623",
"LR.	c #A43C29",
"MR.	c #C2563C",
"NR.	c #B74D34",
"OR.	c #B14C35",
"PR.	c #260D06",
"QR.	c #451910",
"RR.	c #AF4631",
"SR.	c #AD4E37",
"TR.	c #B8513A",
"UR.	c #AF4B34",
"VR.	c #762114",
"WR.	c #6E2012",
"XR.	c #651E11",
"YR.	c #632316",
"ZR.	c #591C10",
"`R.	c #7A2A1C",
" S.	c #8B3626",
".S.	c #7E2B1B",
"+S.	c #98402B",
"@S.	c #8D3B29",
"#S.	c #97442E",
"$S.	c #AC402A",
"%S.	c #AA361F",
"&S.	c #B43C27",
"*S.	c #C35439",
"=S.	c #BA5339",
"-S.	c #C25238",
";S.	c #812714",
">S.	c #BC4C31",
",S.	c #C15136",
"'S.	c #C4553A",
")S.	c #BD5236",
"!S.	c #AF482F",
"~S.	c #A04028",
"{S.	c #9D3C23",
"]S.	c #220804",
"^S.	c #57180C",
"/S.	c #A7452C",
"(S.	c #C65B41",
"_S.	c #C85D42",
":S.	c #BD5337",
"<S.	c #CC6146",
"[S.	c #BE553B",
"}S.	c #C75D44",
"|S.	c #C45C3F",
"1S.	c #BE573C",
"2S.	c #C35C40",
"3S.	c #BB4F36",
"4S.	c #BB5338",
"5S.	c #B34C33",
"6S.	c #A94129",
"7S.	c #A9432C",
"8S.	c #6A291E",
"9S.	c #7D3525",
"0S.	c #A44D35",
"aS.	c #983627",
"bS.	c #873B2A",
"cS.	c #8C402D",
"dS.	c #9F4733",
"eS.	c #A7422F",
"fS.	c #A94531",
"gS.	c #A74A36",
"hS.	c #AE4A36",
"iS.	c #AC4B36",
"jS.	c #A74937",
"kS.	c #A8513F",
"lS.	c #76514A",
"mS.	c #AF4E3D",
"nS.	c #AA4D3B",
"oS.	c #A74F3C",
"pS.	c #A74D3C",
"qS.	c #9E4B37",
"rS.	c #A84732",
"sS.	c #8C422F",
"tS.	c #814332",
"uS.	c #53261A",
"vS.	c #6D3327",
"wS.	c #5D2114",
"xS.	c #883124",
"yS.	c #832F1D",
"zS.	c #AD4931",
"AS.	c #5D1A0C",
"BS.	c #200C06",
"CS.	c #481A15",
"DS.	c #B84C34",
"ES.	c #BB5037",
"FS.	c #AB4630",
"GS.	c #A13A25",
"HS.	c #762216",
"IS.	c #601A0C",
"JS.	c #571B0F",
"KS.	c #631E11",
"LS.	c #802E1D",
"MS.	c #772B1D",
"NS.	c #7D2D1D",
"OS.	c #993F2B",
"PS.	c #8E3D27",
"QS.	c #93402C",
"RS.	c #922E19",
"SS.	c #942F1B",
"TS.	c #942C18",
"US.	c #96311D",
"VS.	c #97301C",
"WS.	c #BA5438",
"XS.	c #C65B3E",
"YS.	c #872816",
"ZS.	c #B74C33",
"`S.	c #BA4E33",
" T.	c #C25339",
".T.	c #B9472D",
"+T.	c #C65338",
"@T.	c #C24F34",
"#T.	c #C45439",
"$T.	c #AF5037",
"%T.	c #591B0E",
"&T.	c #B15138",
"*T.	c #B34D34",
"=T.	c #BC5137",
"-T.	c #C1543A",
";T.	c #B94C32",
">T.	c #C2563A",
",T.	c #B74B31",
"'T.	c #B84F34",
")T.	c #B94F36",
"!T.	c #722E22",
"~T.	c #AC503C",
"{T.	c #A6442E",
"]T.	c #763929",
"^T.	c #924632",
"/T.	c #984933",
"(T.	c #AA513A",
"_T.	c #924F45",
":T.	c #846055",
"<T.	c #B45641",
"[T.	c #B0533E",
"}T.	c #9E4935",
"|T.	c #9A4732",
"1T.	c #8C4632",
"2T.	c #964835",
"3T.	c #A94935",
"4T.	c #A04634",
"5T.	c #8C402E",
"6T.	c #743525",
"7T.	c #582A1E",
"8T.	c #672C1E",
"9T.	c #612518",
"0T.	c #842F21",
"aT.	c #A23825",
"bT.	c #B7472F",
"cT.	c #B4452F",
"dT.	c #A34B34",
"eT.	c #A34F36",
"fT.	c #A54E36",
"gT.	c #B54B32",
"hT.	c #B6462E",
"iT.	c #1E0905",
"jT.	c #4A1B15",
"kT.	c #AC432A",
"lT.	c #B1472E",
"mT.	c #B74930",
"nT.	c #BA4A30",
"oT.	c #802212",
"pT.	c #6F1E0F",
"qT.	c #681E11",
"rT.	c #5F1C11",
"sT.	c #5D1F13",
"tT.	c #712616",
"uT.	c #722617",
"vT.	c #993B2A",
"wT.	c #A44530",
"xT.	c #953624",
"yT.	c #943724",
"zT.	c #9A3822",
"AT.	c #B33A27",
"BT.	c #B74F36",
"CT.	c #C14F35",
"DT.	c #761F0D",
"ET.	c #AF3F29",
"FT.	c #AC452D",
"GT.	c #BA482E",
"HT.	c #C34F34",
"IT.	c #C85439",
"JT.	c #CE5B40",
"KT.	c #C8563C",
"LT.	c #C55439",
"MT.	c #BE4D33",
"NT.	c #BE4F35",
"OT.	c #B1482E",
"PT.	c #9D3D26",
"QT.	c #250805",
"RT.	c #B45138",
"ST.	c #BA573C",
"TT.	c #BB543C",
"UT.	c #C15439",
"VT.	c #C3563C",
"WT.	c #A13D23",
"XT.	c #A73F27",
"YT.	c #6F2D23",
"ZT.	c #763221",
"`T.	c #AC4B33",
" U.	c #9A3F2A",
".U.	c #713524",
"+U.	c #853E2B",
"@U.	c #90442F",
"#U.	c #9A4630",
"$U.	c #99422C",
"%U.	c #A34933",
"&U.	c #A94A35",
"*U.	c #A84A34",
"=U.	c #AA5038",
"-U.	c #9A3D26",
";U.	c #82554A",
">U.	c #A54D37",
",U.	c #BB5A43",
"'U.	c #9B4832",
")U.	c #9C4A34",
"!U.	c #9B4B34",
"~U.	c #97462F",
"{U.	c #AC4F38",
"]U.	c #B2523B",
"^U.	c #A3462F",
"/U.	c #9D4630",
"(U.	c #873F2B",
"_U.	c #783D2D",
":U.	c #52281A",
"<U.	c #99412C",
"[U.	c #6E3221",
"}U.	c #8B3223",
"|U.	c #A03B26",
"1U.	c #A04B34",
"2U.	c #975037",
"3U.	c #9E5C41",
"4U.	c #A3553B",
"5U.	c #AA442D",
"6U.	c #B14229",
"7U.	c #9D3D27",
"8U.	c #1C0802",
"9U.	c #491912",
"0U.	c #AF432D",
"aU.	c #96321E",
"bU.	c #781F0F",
"cU.	c #722213",
"dU.	c #581A0D",
"eU.	c #5D1C0F",
"fU.	c #7F3021",
"gU.	c #7D2D1F",
"hU.	c #6E2618",
"iU.	c #983D2A",
"jU.	c #993E2A",
"kU.	c #923925",
"lU.	c #9A3925",
"mU.	c #A73621",
"nU.	c #93321F",
"oU.	c #A5341D",
"pU.	c #BA4129",
"qU.	c #B64C31",
"rU.	c #C3563A",
"sU.	c #912917",
"tU.	c #B4442B",
"uU.	c #A74128",
"vU.	c #B5482E",
"wU.	c #B8492F",
"xU.	c #C55237",
"yU.	c #C24F35",
"zU.	c #C85339",
"AU.	c #CC583E",
"BU.	c #C65439",
"CU.	c #BE4E33",
"DU.	c #C5553A",
"EU.	c #B35138",
"FU.	c #9D3F2C",
"GU.	c #250A06",
"HU.	c #250A04",
"IU.	c #B9563C",
"JU.	c #B6553E",
"KU.	c #B04C33",
"LU.	c #B0482F",
"MU.	c #AE432B",
"NU.	c #68291D",
"OU.	c #A34B35",
"PU.	c #AB482F",
"QU.	c #6E3728",
"RU.	c #84402C",
"SU.	c #8F422B",
"TU.	c #97452D",
"UU.	c #9F422B",
"VU.	c #B04833",
"WU.	c #A44733",
"XU.	c #A44731",
"YU.	c #A64932",
"ZU.	c #AB4B35",
"`U.	c #7A504A",
" V.	c #9B4934",
".V.	c #B5563E",
"+V.	c #BC5E48",
"@V.	c #B05740",
"#V.	c #B55A44",
"$V.	c #B85C47",
"%V.	c #B55B45",
"&V.	c #AD523B",
"*V.	c #AE4C3A",
"=V.	c #A84E3C",
"-V.	c #A0513E",
";V.	c #94523E",
">V.	c #4D281A",
",V.	c #9E402C",
"'V.	c #672C1D",
")V.	c #6E2419",
"!V.	c #882B1D",
"~V.	c #A13E28",
"{V.	c #95412A",
"]V.	c #8B452D",
"^V.	c #A65B41",
"/V.	c #B4583F",
"(V.	c #1F0805",
"_V.	c #4C1913",
":V.	c #AF462E",
"<V.	c #B14631",
"[V.	c #B7452C",
"}V.	c #6C1D11",
"|V.	c #5D1B10",
"1V.	c #58190E",
"2V.	c #621F10",
"3V.	c #602012",
"4V.	c #963A27",
"5V.	c #A1331C",
"6V.	c #8B331D",
"7V.	c #8D3422",
"8V.	c #8A3421",
"9V.	c #7E301E",
"0V.	c #833120",
"aV.	c #802D1A",
"bV.	c #923724",
"cV.	c #AF3920",
"dV.	c #AE351F",
"eV.	c #BD5035",
"fV.	c #C15338",
"gV.	c #BA4A32",
"hV.	c #B44A30",
"iV.	c #A5402A",
"jV.	c #A03D24",
"kV.	c #B84A30",
"lV.	c #C75238",
"mV.	c #C04A30",
"nV.	c #BE4C33",
"oV.	c #BD482E",
"pV.	c #BC4A30",
"qV.	c #230905",
"rV.	c #5A1A0C",
"sV.	c #A64732",
"tV.	c #B64F36",
"uV.	c #A6422A",
"vV.	c #AC4830",
"wV.	c #AC4A31",
"xV.	c #BB5137",
"yV.	c #6A281E",
"zV.	c #722E1C",
"AV.	c #A24D36",
"BV.	c #622E1E",
"CV.	c #9C5641",
"DV.	c #AD5F47",
"EV.	c #B8644B",
"FV.	c #B5523B",
"GV.	c #B8553E",
"HV.	c #BA5743",
"IV.	c #C25E47",
"JV.	c #BD5941",
"KV.	c #C36048",
"LV.	c #BB5D44",
"MV.	c #BF604A",
"NV.	c #BD5C46",
"OV.	c #B75A44",
"PV.	c #A14935",
"QV.	c #785E58",
"RV.	c #762C1C",
"SV.	c #882E1A",
"TV.	c #7B2412",
"UV.	c #88301C",
"VV.	c #461F14",
"WV.	c #692B1C",
"XV.	c #6C2416",
"YV.	c #A0452F",
"ZV.	c #8F4028",
"`V.	c #A2472E",
" W.	c #210B05",
".W.	c #49180F",
"+W.	c #AC442C",
"@W.	c #6B1E12",
"#W.	c #681D11",
"$W.	c #712A1C",
"%W.	c #6B2517",
"&W.	c #963A28",
"*W.	c #8F3C27",
"=W.	c #89301D",
"-W.	c #89331E",
";W.	c #88341F",
">W.	c #843321",
",W.	c #7C3422",
"'W.	c #793220",
")W.	c #843827",
"!W.	c #7D331F",
"~W.	c #7D2F20",
"{W.	c #843220",
"]W.	c #8E321D",
"^W.	c #7B2715",
"/W.	c #A94029",
"(W.	c #AE4A32",
"_W.	c #B44E36",
":W.	c #AE462C",
"<W.	c #B3442A",
"[W.	c #AD4028",
"}W.	c #C65036",
"|W.	c #C55238",
"1W.	c #B74B30",
"2W.	c #A5452F",
"3W.	c #A03E27",
"4W.	c #B14B33",
"5W.	c #AE472F",
"6W.	c #B44D32",
"7W.	c #B4452C",
"8W.	c #60251B",
"9W.	c #783020",
"0W.	c #A6442C",
"aW.	c #9A3A25",
"bW.	c #5D281A",
"cW.	c #792B17",
"dW.	c #7F2B16",
"eW.	c #852914",
"fW.	c #8D2F1A",
"gW.	c #862914",
"hW.	c #8C2F1A",
"iW.	c #882C16",
"jW.	c #842A15",
"kW.	c #8E311C",
"lW.	c #752718",
"mW.	c #7A615C",
"nW.	c #832B1A",
"oW.	c #432017",
"pW.	c #B4442A",
"qW.	c #5D1B0C",
"rW.	c #41140B",
"sW.	c #842818",
"tW.	c #631B0F",
"uW.	c #742C1C",
"vW.	c #8F3525",
"wW.	c #A44732",
"xW.	c #973523",
"yW.	c #903B28",
"zW.	c #732E1C",
"AW.	c #6E2D1B",
"BW.	c #6D2E1B",
"CW.	c #662916",
"DW.	c #672E1B",
"EW.	c #6E3422",
"FW.	c #743422",
"GW.	c #773422",
"HW.	c #7C3827",
"IW.	c #6E2F1F",
"JW.	c #883422",
"KW.	c #8C341F",
"LW.	c #B33A23",
"MW.	c #B9462C",
"NW.	c #A63624",
"OW.	c #7C220F",
"PW.	c #912616",
"QW.	c #A43821",
"RW.	c #AF432A",
"SW.	c #B5442B",
"TW.	c #BC462C",
"UW.	c #C54F35",
"VW.	c #C34E34",
"WW.	c #591709",
"XW.	c #B94D34",
"YW.	c #B4482F",
"ZW.	c #AF452B",
"`W.	c #B6472D",
" X.	c #582018",
".X.	c #5A2416",
"+X.	c #7F2D18",
"@X.	c #8A2F1A",
"#X.	c #8B301C",
"$X.	c #84301B",
"%X.	c #675151",
"&X.	c #782D1E",
"*X.	c #802916",
"=X.	c #7F2815",
"-X.	c #802815",
";X.	c #802C19",
">X.	c #802B18",
",X.	c #7F2B19",
"'X.	c #782B1A",
")X.	c #6E2A1A",
"!X.	c #401F14",
"~X.	c #963D2A",
"{X.	c #622117",
"]X.	c #3F140C",
"^X.	c #671D10",
"/X.	c #5B1A0F",
"(X.	c #55180D",
"_X.	c #863322",
":X.	c #632417",
"<X.	c #973A26",
"[X.	c #9B3825",
"}X.	c #822F1E",
"|X.	c #702F1D",
"1X.	c #6C3020",
"2X.	c #692F1F",
"3X.	c #662B1A",
"4X.	c #703321",
"5X.	c #773523",
"6X.	c #813928",
"7X.	c #7E3221",
"8X.	c #853828",
"9X.	c #8A3B28",
"0X.	c #8D3D29",
"aX.	c #7D3524",
"bX.	c #7B3323",
"cX.	c #71301F",
"dX.	c #6D2D1B",
"eX.	c #803626",
"fX.	c #883522",
"gX.	c #8B3523",
"hX.	c #BB432E",
"iX.	c #B64029",
"jX.	c #AE482E",
"kX.	c #B54E33",
"lX.	c #963423",
"mX.	c #C85038",
"nX.	c #BA462D",
"oX.	c #BA442B",
"pX.	c #2A0C07",
"qX.	c #280905",
"rX.	c #963821",
"sX.	c #AB3F27",
"tX.	c #B0442B",
"uX.	c #AC4027",
"vX.	c #B2472E",
"wX.	c #AD3F27",
"xX.	c #97341D",
"yX.	c #963A25",
"zX.	c #582214",
"AX.	c #742C18",
"BX.	c #802914",
"CX.	c #852C17",
"DX.	c #822B17",
"EX.	c #862B17",
"FX.	c #6F1F0E",
"GX.	c #330603",
"HX.	c #802813",
"IX.	c #802613",
"JX.	c #812513",
"KX.	c #441E12",
"LX.	c #63261B",
"MX.	c #3A1109",
"NX.	c #AD3F28",
"OX.	c #B7402B",
"PX.	c #7E2316",
"QX.	c #571A0F",
"RX.	c #59190F",
"SX.	c #6F2215",
"TX.	c #7C2B1D",
"UX.	c #AC3A28",
"VX.	c #882D19",
"WX.	c #6D2F1E",
"XX.	c #662E1D",
"YX.	c #6C2B1C",
"ZX.	c #8B2B17",
"`X.	c #B95543",
" Y.	c #C35E4C",
".Y.	c #B85541",
"+Y.	c #B55945",
"@Y.	c #A54D3A",
"#Y.	c #A34734",
"$Y.	c #9C3F2C",
"%Y.	c #8A2C1C",
"&Y.	c #783625",
"*Y.	c #763121",
"=Y.	c #883A28",
"-Y.	c #B8432F",
";Y.	c #A13F28",
">Y.	c #A5422A",
",Y.	c #902514",
"'Y.	c #AB3A28",
")Y.	c #B74D35",
"!Y.	c #A83D25",
"~Y.	c #BC482D",
"{Y.	c #280B07",
"]Y.	c #AC4329",
"^Y.	c #B4472D",
"/Y.	c #B4432A",
"(Y.	c #AB3A22",
"_Y.	c #501D13",
":Y.	c #76271B",
"<Y.	c #5E2817",
"[Y.	c #6F2A18",
"}Y.	c #712C18",
"|Y.	c #7D2D1B",
"1Y.	c #852A16",
"2Y.	c #872E1A",
"3Y.	c #862B18",
"4Y.	c #8A301B",
"5Y.	c #7E2712",
"6Y.	c #6F2313",
"7Y.	c #632513",
"8Y.	c #411E0F",
"9Y.	c #622419",
"0Y.	c #622217",
"aY.	c #80291B",
"bY.	c #1B0705",
"cY.	c #54190E",
"dY.	c #772819",
"eY.	c #601F0F",
"fY.	c #903123",
"gY.	c #983827",
"hY.	c #973A29",
"iY.	c #9C3D2A",
"jY.	c #6F2F1E",
"kY.	c #8E2B16",
"lY.	c #AD4835",
"mY.	c #BF5542",
"nY.	c #9C341D",
"oY.	c #96412C",
"pY.	c #9F452F",
"qY.	c #A84D3A",
"rY.	c #B55640",
"sY.	c #BF5C46",
"tY.	c #8C2B18",
"uY.	c #853526",
"vY.	c #763020",
"wY.	c #7A3525",
"xY.	c #772A1A",
"yY.	c #802D1C",
"zY.	c #9F3E29",
"AY.	c #8F3A22",
"BY.	c #A7452D",
"CY.	c #7C2110",
"DY.	c #A93921",
"EY.	c #B13F26",
"FY.	c #280A05",
"GY.	c #B04228",
"HY.	c #AF4128",
"IY.	c #AC452C",
"JY.	c #AA472D",
"KY.	c #AD4A31",
"LY.	c #6E2B1A",
"MY.	c #792815",
"NY.	c #822915",
"OY.	c #822916",
"PY.	c #882F1B",
"QY.	c #732712",
"RY.	c #7A2510",
"SY.	c #7B2510",
"TY.	c #7C2411",
"UY.	c #7F2613",
"VY.	c #7F2A17",
"WY.	c #792412",
"XY.	c #782512",
"YY.	c #762411",
"ZY.	c #752412",
"`Y.	c #5F2415",
" Z.	c #421F11",
".Z.	c #622315",
"+Z.	c #5F2116",
"@Z.	c #35100A",
"#Z.	c #953121",
"$Z.	c #832416",
"%Z.	c #792212",
"&Z.	c #5A1A0D",
"*Z.	c #54170C",
"=Z.	c #802C20",
"-Z.	c #792A1C",
";Z.	c #8F321D",
">Z.	c #803220",
",Z.	c #742F1E",
"'Z.	c #6F3120",
")Z.	c #722C1B",
"!Z.	c #B9513C",
"~Z.	c #AA4730",
"{Z.	c #923923",
"]Z.	c #903824",
"^Z.	c #903621",
"/Z.	c #BF5E4A",
"(Z.	c #C7644F",
"_Z.	c #9C3C27",
":Z.	c #783220",
"<Z.	c #853021",
"[Z.	c #993A27",
"}Z.	c #893521",
"|Z.	c #AF4B33",
"1Z.	c #8E2614",
"2Z.	c #952A17",
"3Z.	c #9E321B",
"4Z.	c #621E10",
"5Z.	c #9F452D",
"6Z.	c #9E4930",
"7Z.	c #9F462D",
"8Z.	c #43160C",
"9Z.	c #572316",
"0Z.	c #662613",
"aZ.	c #6D2814",
"bZ.	c #7A2817",
"cZ.	c #7C2613",
"dZ.	c #802A16",
"eZ.	c #7F2713",
"fZ.	c #802714",
"gZ.	c #862E19",
"hZ.	c #5C2117",
"iZ.	c #2C0404",
"jZ.	c #77230E",
"kZ.	c #7A2411",
"lZ.	c #812715",
"mZ.	c #7D2513",
"nZ.	c #7A2919",
"oZ.	c #401C10",
"pZ.	c #561F15",
"qZ.	c #501608",
"rZ.	c #37110A",
"sZ.	c #8B2916",
"tZ.	c #A3301B",
"uZ.	c #A32F19",
"vZ.	c #B33C28",
"wZ.	c #AB3724",
"xZ.	c #7A2013",
"yZ.	c #55170C",
"zZ.	c #7A2619",
"AZ.	c #6D2718",
"BZ.	c #7B2C1C",
"CZ.	c #8B3121",
"DZ.	c #AC3B28",
"EZ.	c #6A2D1E",
"FZ.	c #953821",
"GZ.	c #A23F2A",
"HZ.	c #A63F29",
"IZ.	c #943925",
"JZ.	c #C5624C",
"KZ.	c #C55F4A",
"LZ.	c #753222",
"MZ.	c #8E3522",
"NZ.	c #8F351F",
"OZ.	c #AD452C",
"PZ.	c #AD462E",
"QZ.	c #B44C33",
"RZ.	c #7E2111",
"SZ.	c #A5351F",
"TZ.	c #B44127",
"UZ.	c #220704",
"VZ.	c #9D462C",
"WZ.	c #96492F",
"XZ.	c #A54D34",
"YZ.	c #3F1309",
"ZZ.	c #592215",
"`Z.	c #642311",
" `.	c #702C1A",
".`.	c #772815",
"+`.	c #812815",
"@`.	c #704B47",
"#`.	c #2D0909",
"$`.	c #782210",
"%`.	c #7C2A16",
"&`.	c #7D2615",
"*`.	c #6E2010",
"=`.	c #6A2312",
"-`.	c #431D14",
";`.	c #6F2213",
">`.	c #782612",
",`.	c #602213",
"'`.	c #531F13",
")`.	c #952E1A",
"!`.	c #1C0804",
"~`.	c #391109",
"{`.	c #9F321D",
"]`.	c #B13B27",
"^`.	c #8E2815",
"/`.	c #651B0F",
"(`.	c #60190D",
"_`.	c #672012",
":`.	c #7D2B1D",
"<`.	c #742B1C",
"[`.	c #963524",
"}`.	c #862D19",
"|`.	c #782E1A",
"1`.	c #7C291C",
"2`.	c #B84B38",
"3`.	c #A7402B",
"4`.	c #9F3C29",
"5`.	c #983B24",
"6`.	c #973720",
"7`.	c #87331E",
"8`.	c #923822",
"9`.	c #C56149",
"0`.	c #772D1D",
"a`.	c #823927",
"b`.	c #813624",
"c`.	c #A13E27",
"d`.	c #A03C26",
"e`.	c #AF442B",
"f`.	c #A73E26",
"g`.	c #AE462E",
"h`.	c #AD472E",
"i`.	c #812413",
"j`.	c #7E2113",
"k`.	c #8D2414",
"l`.	c #922614",
"m`.	c #A0311A",
"n`.	c #A8361F",
"o`.	c #A9351E",
"p`.	c #AA3D24",
"q`.	c #A5361E",
"r`.	c #9E3821",
"s`.	c #99361F",
"t`.	c #B03C24",
"u`.	c #964931",
"v`.	c #943F25",
"w`.	c #3D1409",
"x`.	c #722513",
"y`.	c #4F1F0F",
"z`.	c #6E2918",
"A`.	c #782815",
"B`.	c #792613",
"C`.	c #802816",
"D`.	c #7F2A14",
"E`.	c #892F1A",
"F`.	c #583D3C",
"G`.	c #452221",
"H`.	c #762611",
"I`.	c #752513",
"J`.	c #762412",
"K`.	c #762413",
"L`.	c #7A2614",
"M`.	c #732312",
"N`.	c #772716",
"O`.	c #421B0E",
"P`.	c #792516",
"Q`.	c #46190F",
"R`.	c #932F1B",
"S`.	c #A9361F",
"T`.	c #AD3621",
"U`.	c #300A07",
"V`.	c #9D2D19",
"W`.	c #A63220",
"X`.	c #732518",
"Y`.	c #792C1D",
"Z`.	c #9A3A28",
"``.	c #893420",
"  +	c #8F3824",
". +	c #702D1C",
"+ +	c #733020",
"@ +	c #AA442C",
"# +	c #7D1F10",
"$ +	c #AB3720",
"% +	c #B0452E",
"& +	c #A33F27",
"* +	c #1E0503",
"= +	c #AD3D24",
"- +	c #923A22",
"; +	c #963621",
"> +	c #3A120B",
", +	c #592415",
"' +	c #662414",
") +	c #7A2412",
"! +	c #7F2614",
"~ +	c #3C0702",
"{ +	c #722411",
"] +	c #782515",
"^ +	c #732415",
"/ +	c #42180E",
"( +	c #41150C",
"_ +	c #7F291B",
": +	c #541609",
"< +	c #1F0803",
"[ +	c #2D0C07",
"} +	c #952B17",
"| +	c #A2311F",
"1 +	c #A2311E",
"2 +	c #9B2B17",
"3 +	c #9B2D19",
"4 +	c #61190E",
"5 +	c #5B180D",
"6 +	c #54160C",
"7 +	c #56180E",
"8 +	c #632010",
"9 +	c #852D1D",
"0 +	c #AD3927",
"a +	c #652618",
"b +	c #98321D",
"c +	c #933621",
"d +	c #913422",
"e +	c #8E3825",
"f +	c #873321",
"g +	c #9A3820",
"h +	c #75301F",
"i +	c #833320",
"j +	c #7D2110",
"k +	c #8D2415",
"l +	c #942918",
"m +	c #A02E18",
"n +	c #210703",
"o +	c #631D0F",
"p +	c #A53E24",
"q +	c #381209",
"r +	c #652513",
"s +	c #752918",
"t +	c #7A2716",
"u +	c #7D2815",
"v +	c #782110",
"w +	c #712210",
"x +	c #300A01",
"y +	c #511105",
"z +	c #742212",
"A +	c #6E2411",
"B +	c #6B1F0E",
"C +	c #6F2312",
"D +	c #6D1F0F",
"E +	c #71210F",
"F +	c #561D11",
"G +	c #712314",
"H +	c #5B1C0F",
"I +	c #3C1309",
"J +	c #7C2617",
"K +	c #952A18",
"L +	c #541508",
"M +	c #1F0802",
"N +	c #892311",
"O +	c #711C0D",
"P +	c #6D1D11",
"Q +	c #66180E",
"R +	c #641A0D",
"S +	c #5C180E",
"T +	c #54180C",
"U +	c #812B1D",
"V +	c #892E1F",
"W +	c #AE3724",
"X +	c #752919",
"Y +	c #6C2A1B",
"Z +	c #AB402D",
"` +	c #8B311F",
" .+	c #8B3320",
"..+	c #8D3220",
"+.+	c #89301E",
"@.+	c #833525",
"#.+	c #863523",
"$.+	c #94341E",
"%.+	c #812817",
"&.+	c #712E1F",
"*.+	c #B63F26",
"=.+	c #AD3A22",
"-.+	c #762210",
";.+	c #962B1A",
">.+	c #922716",
",.+	c #9A2B19",
"'.+	c #962815",
").+	c #1D0504",
"!.+	c #672011",
"~.+	c #3A1209",
"{.+	c #692215",
"].+	c #6B2917",
"^.+	c #712918",
"/.+	c #6D2514",
"(.+	c #6D2211",
"_.+	c #7A2714",
":.+	c #7E2815",
"<.+	c #74220F",
"[.+	c #712C20",
"}.+	c #431F19",
"|.+	c #762613",
"1.+	c #732613",
"2.+	c #6E210F",
"3.+	c #702314",
"4.+	c #6D2212",
"5.+	c #49180C",
"6.+	c #5A1E14",
"7.+	c #370F08",
"8.+	c #A2311B",
"9.+	c #962D19",
"0.+	c #962B16",
"a.+	c #A12F1D",
"b.+	c #932B18",
"c.+	c #7A2010",
"d.+	c #64190E",
"e.+	c #61190F",
"f.+	c #5E1910",
"g.+	c #55150D",
"h.+	c #57180E",
"i.+	c #882F22",
"j.+	c #712718",
"k.+	c #822A1C",
"l.+	c #B33E2B",
"m.+	c #6A2B1A",
"n.+	c #662212",
"o.+	c #AB412D",
"p.+	c #812A17",
"q.+	c #873423",
"r.+	c #772A18",
"s.+	c #803121",
"t.+	c #7B301E",
"u.+	c #7B3120",
"v.+	c #78321F",
"w.+	c #732E1B",
"x.+	c #7F2D1A",
"y.+	c #76311F",
"z.+	c #7E321F",
"A.+	c #7B2312",
"B.+	c #7C200F",
"C.+	c #8B2312",
"D.+	c #992C1B",
"E.+	c #942716",
"F.+	c #922513",
"G.+	c #902511",
"H.+	c #992D18",
"I.+	c #1E0504",
"J.+	c #B13B23",
"K.+	c #AF3922",
"L.+	c #AB3D25",
"M.+	c #A93820",
"N.+	c #A8351E",
"O.+	c #3D1108",
"P.+	c #5E1F11",
"Q.+	c #632313",
"R.+	c #63210F",
"S.+	c #6B2210",
"T.+	c #702411",
"U.+	c #772814",
"V.+	c #812916",
"W.+	c #832A18",
"X.+	c #822713",
"Y.+	c #7F2814",
"Z.+	c #77260F",
"`.+	c #7D2813",
" ++	c #3A0A03",
".++	c #2E1513",
"+++	c #67210F",
"@++	c #6E2111",
"#++	c #6D2310",
"$++	c #67200E",
"%++	c #5E1F0F",
"&++	c #4F1A0C",
"*++	c #44140B",
"=++	c #581D12",
"-++	c #371108",
";++	c #8C2916",
">++	c #9E3620",
",++	c #992D19",
"'++	c #561609",
")++	c #7F2517",
"!++	c #942816",
"~++	c #671A0F",
"{++	c #661B10",
"]++	c #62170D",
"^++	c #82291D",
"/++	c #9B331F",
"(++	c #963624",
"_++	c #862D1B",
":++	c #762E1D",
"<++	c #743222",
"[++	c #6E2F1E",
"}++	c #6D2C1E",
"|++	c #6E2B1E",
"1++	c #743320",
"2++	c #7D2F1E",
"3++	c #7D2E1C",
"4++	c #852B18",
"5++	c #A13921",
"6++	c #752E1E",
"7++	c #AF4329",
"8++	c #791D0E",
"9++	c #8B2413",
"0++	c #902414",
"a++	c #922615",
"b++	c #912312",
"c++	c #922512",
"d++	c #932615",
"e++	c #962917",
"f++	c #952A16",
"g++	c #A4341E",
"h++	c #A73922",
"i++	c #AE3820",
"j++	c #A4301A",
"k++	c #A4341D",
"l++	c #8F2B16",
"m++	c #6F2415",
"n++	c #541A0C",
"o++	c #622011",
"p++	c #6E2514",
"q++	c #6C2512",
"r++	c #762514",
"s++	c #7C2815",
"t++	c #7D2714",
"u++	c #7E2812",
"v++	c #420B03",
"w++	c #321610",
"x++	c #6C220F",
"y++	c #762915",
"z++	c #752715",
"A++	c #742714",
"B++	c #742513",
"C++	c #722414",
"D++	c #732716",
"E++	c #521E14",
"F++	c #3C130A",
"G++	c #6C2111",
"H++	c #651E0E",
"I++	c #802617",
"J++	c #8C351C",
"K++	c #98321B",
"L++	c #9A2F1B",
"M++	c #81271B",
"N++	c #952919",
"O++	c #A3301F",
"P++	c #942817",
"Q++	c #741F10",
"R++	c #731E13",
"S++	c #6E1A0C",
"T++	c #67190B",
"U++	c #5B180F",
"V++	c #812C1C",
"W++	c #58180A",
"X++	c #87291B",
"Y++	c #A1331D",
"Z++	c #8C3321",
"`++	c #852C1A",
" @+	c #903723",
".@+	c #67291A",
"+@+	c #5F2618",
"@@+	c #5A2413",
"#@+	c #5F2818",
"$@+	c #5D2316",
"%@+	c #5D2718",
"&@+	c #5E2B19",
"*@+	c #5A2514",
"=@+	c #662C19",
"-@+	c #692C1C",
";@+	c #91301D",
">@+	c #6D2B1A",
",@+	c #9D2F1E",
"'@+	c #8D2214",
")@+	c #932513",
"!@+	c #932717",
"~@+	c #922814",
"{@+	c #972B19",
"]@+	c #621E0F",
"^@+	c #A4321B",
"/@+	c #812919",
"(@+	c #4A1C0C",
"_@+	c #672A16",
":@+	c #742E1C",
"<@+	c #7C3121",
"[@+	c #7C2B17",
"}@+	c #792816",
"|@+	c #742311",
"1@+	c #722412",
"2@+	c #622112",
"3@+	c #452F29",
"4@+	c #535250",
"5@+	c #3C3A38",
"6@+	c #3D3C3B",
"7@+	c #484A45",
"8@+	c #454844",
"9@+	c #4A4846",
"0@+	c #4B4845",
"a@+	c #4D4C4B",
"b@+	c #4F4E4D",
"c@+	c #4C5255",
"d@+	c #3E413E",
"e@+	c #4E190D",
"f@+	c #9D2F1D",
"g@+	c #9B2F1A",
"h@+	c #1D0702",
"i@+	c #7F2818",
"j@+	c #6B190C",
"k@+	c #6C1A0D",
"l@+	c #5A180D",
"m@+	c #54180D",
"n@+	c #641F12",
"o@+	c #7E291B",
"p@+	c #7E2A1B",
"q@+	c #8B2E1D",
"r@+	c #852E1F",
"s@+	c #832A1A",
"t@+	c #8E3523",
"u@+	c #642516",
"v@+	c #662D1F",
"w@+	c #7C3B2B",
"x@+	c #84422E",
"y@+	c #88422F",
"z@+	c #87412C",
"A@+	c #87422C",
"B@+	c #853E29",
"C@+	c #88412B",
"D@+	c #8D4533",
"E@+	c #86402D",
"F@+	c #823D29",
"G@+	c #8A412D",
"H@+	c #8F4430",
"I@+	c #662C1A",
"J@+	c #6A2918",
"K@+	c #7D3220",
"L@+	c #6D2717",
"M@+	c #9F301E",
"N@+	c #771B0C",
"O@+	c #882111",
"P@+	c #952615",
"Q@+	c #952715",
"R@+	c #8F2614",
"S@+	c #952918",
"T@+	c #932D18",
"U@+	c #300C05",
"V@+	c #601B0C",
"W@+	c #962B15",
"X@+	c #A12F19",
"Y@+	c #9D311A",
"Z@+	c #912C17",
"`@+	c #3D1109",
" #+	c #611D10",
".#+	c #742715",
"+#+	c #682014",
"@#+	c #454542",
"##+	c #490F04",
"$#+	c #62200F",
"%#+	c #7C2C1F",
"&#+	c #A02F1D",
"*#+	c #9C2D1A",
"=#+	c #8F311A",
"-#+	c #5A170A",
";#+	c #912819",
">#+	c #992C1D",
",#+	c #8A2514",
"'#+	c #8D2513",
")#+	c #6C1B0D",
"!#+	c #6B1A0D",
"~#+	c #6E1D0E",
"{#+	c #6B1B10",
"]#+	c #53180D",
"^#+	c #A43B28",
"/#+	c #652516",
"(#+	c #68200F",
"_#+	c #98331D",
":#+	c #82301B",
"<#+	c #6E2B1B",
"[#+	c #5E2517",
"}#+	c #6A2B19",
"|#+	c #A0432E",
"1#+	c #A1452E",
"2#+	c #A64933",
"3#+	c #9B412D",
"4#+	c #672E1E",
"5#+	c #7F2F1D",
"6#+	c #852F1B",
"7#+	c #6D2E1D",
"8#+	c #9E3A24",
"9#+	c #8B3823",
"0#+	c #7A1D0D",
"a#+	c #872312",
"b#+	c #992919",
"c#+	c #952716",
"d#+	c #912412",
"e#+	c #942516",
"f#+	c #8E2212",
"g#+	c #902614",
"h#+	c #912715",
"i#+	c #902513",
"j#+	c #8F2A16",
"k#+	c #8D2E1A",
"l#+	c #892A15",
"m#+	c #9A2C16",
"n#+	c #9A2E19",
"o#+	c #962A16",
"p#+	c #992E19",
"q#+	c #962A15",
"r#+	c #AC3926",
"s#+	c #A2321B",
"t#+	c #97311B",
"u#+	c #902C16",
"v#+	c #7B2E1A",
"w#+	c #7A5451",
"x#+	c #62544A",
"y#+	c #5F2110",
"z#+	c #46170A",
"A#+	c #310F08",
"B#+	c #8E2613",
"C#+	c #972C17",
"D#+	c #9A331E",
"E#+	c #9A301B",
"F#+	c #6E2115",
"G#+	c #942916",
"H#+	c #832010",
"I#+	c #8A2412",
"J#+	c #8A2413",
"K#+	c #862416",
"L#+	c #7E2011",
"M#+	c #681A0F",
"N#+	c #60180C",
"O#+	c #5B1A10",
"P#+	c #641E12",
"Q#+	c #571F11",
"R#+	c #8A321E",
"S#+	c #70291A",
"T#+	c #5F2619",
"U#+	c #5E2618",
"V#+	c #BB5842",
"W#+	c #BA563F",
"X#+	c #A9442D",
"Y#+	c #632B1A",
"Z#+	c #672D1C",
"`#+	c #7B2E19",
" $+	c #983D28",
".$+	c #A53321",
"+$+	c #7B1C0B",
"@$+	c #862313",
"#$+	c #8D2110",
"$$+	c #922515",
"%$+	c #8F2311",
"&$+	c #922717",
"*$+	c #8F2514",
"=$+	c #872D18",
"-$+	c #882A15",
";$+	c #782814",
">$+	c #130300",
",$+	c #9D2B16",
"'$+	c #982F18",
")$+	c #922D18",
"!$+	c #461406",
"~$+	c #621E0D",
"{$+	c #732311",
"]$+	c #320F07",
"^$+	c #752414",
"/$+	c #832513",
"($+	c #9B321B",
"_$+	c #200603",
":$+	c #6D2315",
"<$+	c #932715",
"[$+	c #922817",
"}$+	c #842311",
"|$+	c #8E2512",
"1$+	c #942819",
"2$+	c #852513",
"3$+	c #8B2715",
"4$+	c #892516",
"5$+	c #821F11",
"6$+	c #761C0D",
"7$+	c #681A0C",
"8$+	c #661A0E",
"9$+	c #7F291A",
"0$+	c #A13B27",
"a$+	c #A93C28",
"b$+	c #7C2E1D",
"c$+	c #6E2717",
"d$+	c #5E2B1D",
"e$+	c #632C1C",
"f$+	c #6E2C1C",
"g$+	c #682B1A",
"h$+	c #9C412B",
"i$+	c #7A1B0B",
"j$+	c #852110",
"k$+	c #902314",
"l$+	c #8D2111",
"m$+	c #912314",
"n$+	c #8B2212",
"o$+	c #882211",
"p$+	c #842B16",
"q$+	c #922F1B",
"r$+	c #902713",
"s$+	c #932816",
"t$+	c #8A2916",
"u$+	c #621B0F",
"v$+	c #9F2D1B",
"w$+	c #9E2F19",
"x$+	c #982A15",
"y$+	c #952F1A",
"z$+	c #7A281D",
"A$+	c #451407",
"B$+	c #63200E",
"C$+	c #6E2A1B",
"D$+	c #541E16",
"E$+	c #702918",
"F$+	c #7D2515",
"G$+	c #932A15",
"H$+	c #581608",
"I$+	c #100302",
"J$+	c #6B1D11",
"K$+	c #8B2313",
"L$+	c #7D200E",
"M$+	c #882312",
"N$+	c #822211",
"O$+	c #7C2011",
"P$+	c #792213",
"Q$+	c #6D1D10",
"R$+	c #69190D",
"S$+	c #6B1B0F",
"T$+	c #641809",
"U$+	c #691B0F",
"V$+	c #5A160C",
"W$+	c #58170C",
"X$+	c #722417",
"Y$+	c #601D12",
"Z$+	c #8D2B1C",
"`$+	c #A44C37",
" %+	c #974A34",
".%+	c #8E4730",
"+%+	c #843924",
"@%+	c #8B3F29",
"#%+	c #8E3722",
"$%+	c #7A2C1C",
"%%+	c #8E3120",
"&%+	c #69281A",
"*%+	c #511C11",
"=%+	c #5C2114",
"-%+	c #8E3322",
";%+	c #9F3C26",
">%+	c #A1412B",
",%+	c #9B3D25",
"'%+	c #AA422B",
")%+	c #692A1A",
"!%+	c #622919",
"~%+	c #772C1E",
"{%+	c #6D2D1C",
"]%+	c #B53F26",
"^%+	c #7E2211",
"/%+	c #791C0B",
"(%+	c #852212",
"_%+	c #8E2414",
":%+	c #912413",
"<%+	c #8C2111",
"[%+	c #8A2011",
"}%+	c #882212",
"|%+	c #872211",
"1%+	c #8C2312",
"2%+	c #89220F",
"3%+	c #8D2412",
"4%+	c #872C16",
"5%+	c #7B2713",
"6%+	c #7E2915",
"7%+	c #842513",
"8%+	c #912C18",
"9%+	c #8C2915",
"0%+	c #631D0A",
"a%+	c #4F0C00",
"b%+	c #401208",
"c%+	c #330D05",
"d%+	c #8F2815",
"e%+	c #962D18",
"f%+	c #8D2C18",
"g%+	c #8D2713",
"h%+	c #912818",
"i%+	c #100301",
"j%+	c #882615",
"k%+	c #751F0F",
"l%+	c #7A2514",
"m%+	c #6D1F10",
"n%+	c #661A0D",
"o%+	c #67180D",
"p%+	c #63190E",
"q%+	c #661D12",
"r%+	c #702114",
"s%+	c #611E12",
"t%+	c #95442F",
"u%+	c #954B35",
"v%+	c #964D36",
"w%+	c #904631",
"x%+	c #8C3C27",
"y%+	c #571B11",
"z%+	c #782416",
"A%+	c #712817",
"B%+	c #6E2A1D",
"C%+	c #5B2416",
"D%+	c #592417",
"E%+	c #8D3A25",
"F%+	c #843624",
"G%+	c #6F2C1E",
"H%+	c #682719",
"I%+	c #7A311F",
"J%+	c #822F1B",
"K%+	c #AC3921",
"L%+	c #A7462E",
"M%+	c #A13E26",
"N%+	c #781C0B",
"O%+	c #8D2212",
"P%+	c #932616",
"Q%+	c #892313",
"R%+	c #8F2D19",
"S%+	c #7B2915",
"T%+	c #8E2C18",
"U%+	c #8D2816",
"V%+	c #8C2714",
"W%+	c #8B2512",
"X%+	c #8B2915",
"Y%+	c #A0301A",
"Z%+	c #481809",
"`%+	c #68200D",
" &+	c #613F38",
".&+	c #261A13",
"+&+	c #49170F",
"@&+	c #68291E",
"#&+	c #7C2915",
"$&+	c #892715",
"%&+	c #8C2815",
"&&+	c #8A2B18",
"*&+	c #8F2814",
"=&+	c #952B18",
"-&+	c #8F2612",
";&+	c #912915",
">&+	c #5A1809",
",&+	c #892616",
"'&+	c #892514",
")&+	c #812111",
"!&+	c #651A0C",
"~&+	c #62180D",
"{&+	c #5D190E",
"]&+	c #732516",
"^&+	c #621D12",
"/&+	c #822819",
"(&+	c #883A25",
"_&+	c #83341D",
":&+	c #6F261A",
"<&+	c #4E190E",
"[&+	c #893021",
"}&+	c #762A1A",
"|&+	c #722C1C",
"1&+	c #5E2717",
"2&+	c #572518",
"3&+	c #913021",
"4&+	c #823623",
"5&+	c #732B1B",
"6&+	c #6B2A18",
"7&+	c #853220",
"8&+	c #9F432B",
"9&+	c #AA563C",
"0&+	c #AB5137",
"a&+	c #7B2010",
"b&+	c #8C2011",
"c&+	c #8E2213",
"d&+	c #8C2412",
"e&+	c #851F10",
"f&+	c #892314",
"g&+	c #852011",
"h&+	c #8A2717",
"i&+	c #8C2414",
"j&+	c #8A2714",
"k&+	c #902C17",
"l&+	c #8A2511",
"m&+	c #8E2916",
"n&+	c #8A2A16",
"o&+	c #9B321C",
"p&+	c #932F1A",
"q&+	c #4D1C0D",
"r&+	c #4F170B",
"s&+	c #541306",
"t&+	c #370C00",
"u&+	c #532014",
"v&+	c #772512",
"w&+	c #8C2614",
"x&+	c #852C18",
"y&+	c #922A16",
"z&+	c #932915",
"A&+	c #571609",
"B&+	c #240602",
"C&+	c #672014",
"D&+	c #882315",
"E&+	c #852112",
"F&+	c #882515",
"G&+	c #7E1F0F",
"H&+	c #82210F",
"I&+	c #7F2010",
"J&+	c #802111",
"K&+	c #842111",
"L&+	c #852314",
"M&+	c #772110",
"N&+	c #5F1509",
"O&+	c #66180D",
"P&+	c #76261A",
"Q&+	c #973D28",
"R&+	c #6F2212",
"S&+	c #652316",
"T&+	c #4C1609",
"U&+	c #622414",
"V&+	c #572516",
"W&+	c #5D2317",
"X&+	c #B75B43",
"Y&+	c #C36851",
"Z&+	c #C36750",
"`&+	c #B05B44",
" *+	c #793120",
".*+	c #78341F",
"+*+	c #A3361F",
"@*+	c #68291B",
"#*+	c #9E4833",
"$*+	c #A9573D",
"%*+	c #A64E34",
"&*+	c #B33F26",
"**+	c #8E2412",
"=*+	c #922313",
"-*+	c #882112",
";*+	c #831E0F",
">*+	c #801F0E",
",*+	c #7E1E0E",
"'*+	c #82200F",
")*+	c #832212",
"!*+	c #842613",
"~*+	c #7E2411",
"{*+	c #792310",
"]*+	c #862714",
"^*+	c #8A2310",
"/*+	c #8F2715",
"(*+	c #8D2815",
"_*+	c #110300",
":*+	c #842713",
"<*+	c #8E2B18",
"[*+	c #8C2E1A",
"}*+	c #872A16",
"|*+	c #912A16",
"1*+	c #3D1A0F",
"2*+	c #553F39",
"3*+	c #70271B",
"4*+	c #942D19",
"5*+	c #842814",
"6*+	c #822613",
"7*+	c #8E2D19",
"8*+	c #8F2915",
"9*+	c #8B2714",
"0*+	c #8A2513",
"a*+	c #872613",
"b*+	c #210702",
"c*+	c #0B0201",
"d*+	c #571C10",
"e*+	c #842011",
"f*+	c #812112",
"g*+	c #7D2212",
"h*+	c #7A1E0F",
"i*+	c #7F2110",
"j*+	c #6A1B0D",
"k*+	c #62190D",
"l*+	c #651A0D",
"m*+	c #952C17",
"n*+	c #562011",
"o*+	c #60291B",
"p*+	c #732D1F",
"q*+	c #98412E",
"r*+	c #9E402A",
"s*+	c #A2402B",
"t*+	c #983922",
"u*+	c #9D412A",
"v*+	c #9F4C37",
"w*+	c #AD5A45",
"x*+	c #AA5944",
"y*+	c #5D2918",
"z*+	c #6A2817",
"A*+	c #672719",
"B*+	c #792919",
"C*+	c #974028",
"D*+	c #93432C",
"E*+	c #9D452E",
"F*+	c #A3442D",
"G*+	c #9E412B",
"H*+	c #943C26",
"I*+	c #A3422B",
"J*+	c #8A2614",
"K*+	c #8D2211",
"L*+	c #922514",
"M*+	c #861E0E",
"N*+	c #872213",
"O*+	c #852111",
"P*+	c #862312",
"Q*+	c #862412",
"R*+	c #8C2816",
"S*+	c #8F2615",
"T*+	c #892614",
"U*+	c #892310",
"V*+	c #852915",
"W*+	c #501810",
"X*+	c #130201",
"Y*+	c #8B2815",
"Z*+	c #862813",
"`*+	c #942A15",
" =+	c #942814",
".=+	c #922F18",
"+=+	c #8E382E",
"@=+	c #50413D",
"#=+	c #56423F",
"$=+	c #671F0F",
"%=+	c #812411",
"&=+	c #942A16",
"*=+	c #792110",
"==+	c #822310",
"-=+	c #872513",
";=+	c #0A0200",
">=+	c #50190E",
",=+	c #7F2111",
"'=+	c #7E1F10",
")=+	c #802012",
"!=+	c #7E200F",
"~=+	c #832214",
"{=+	c #7A1F10",
"]=+	c #771C10",
"^=+	c #771D0F",
"/=+	c #791E0F",
"(=+	c #7D1E11",
"_=+	c #771F0F",
":=+	c #64170B",
"<=+	c #5F1609",
"[=+	c #5C160C",
"}=+	c #7F2A1B",
"|=+	c #9F2E19",
"1=+	c #581C10",
"2=+	c #752516",
"3=+	c #642214",
"4=+	c #62271B",
"5=+	c #611F12",
"6=+	c #893322",
"7=+	c #712C1A",
"8=+	c #76311E",
"9=+	c #94412E",
"0=+	c #963F29",
"a=+	c #9A4C35",
"b=+	c #94462E",
"c=+	c #A14D36",
"d=+	c #9C3721",
"e=+	c #6F2E1F",
"f=+	c #7F2E1F",
"g=+	c #873323",
"h=+	c #A7351E",
"i=+	c #99432C",
"j=+	c #A23F28",
"k=+	c #B13922",
"l=+	c #842110",
"m=+	c #7D1E0E",
"n=+	c #811F11",
"o=+	c #812010",
"p=+	c #801E0E",
"q=+	c #7A2917",
"r=+	c #6F2412",
"s=+	c #732714",
"t=+	c #8C2818",
"u=+	c #8C2D19",
"v=+	c #952D1F",
"w=+	c #40100B",
"x=+	c #350C03",
"y=+	c #661D0D",
"z=+	c #822412",
"A=+	c #8C2C18",
"B=+	c #9B2C1B",
"C=+	c #9B311B",
"D=+	c #8F5552",
"E=+	c #5E1806",
"F=+	c #8D2613",
"G=+	c #872B19",
"H=+	c #872311",
"I=+	c #882412",
"J=+	c #812012",
"K=+	c #812516",
"L=+	c #5A1A0E",
"M=+	c #7E2110",
"N=+	c #7C200E",
"O=+	c #7F2011",
"P=+	c #792010",
"Q=+	c #741B0C",
"R=+	c #761E0F",
"S=+	c #731B0C",
"T=+	c #691A0D",
"U=+	c #60170B",
"V=+	c #61170A",
"W=+	c #5D180F",
"X=+	c #A53523",
"Y=+	c #4F1A0F",
"Z=+	c #6C2B18",
"`=+	c #9B422D",
" -+	c #672A1A",
".-+	c #612616",
"+-+	c #852412",
"@-+	c #892011",
"#-+	c #932517",
"$-+	c #8E2111",
"%-+	c #872212",
"&-+	c #7D1C0D",
"*-+	c #832111",
"=-+	c #7D2210",
"--+	c #752310",
";-+	c #712514",
">-+	c #912B1B",
",-+	c #340F09",
"'-+	c #8E2E1A",
")-+	c #882614",
"!-+	c #832A16",
"~-+	c #842A16",
"{-+	c #673326",
"]-+	c #772B18",
"^-+	c #742515",
"/-+	c #772414",
"(-+	c #872512",
"_-+	c #832512",
":-+	c #801D0D",
"<-+	c #250701",
"[-+	c #3C1008",
"}-+	c #792514",
"|-+	c #7F2312",
"1-+	c #7C1E10",
"2-+	c #781D0E",
"3-+	c #711A0E",
"4-+	c #721B0D",
"5-+	c #701A0C",
"6-+	c #711B0E",
"7-+	c #701B0D",
"8-+	c #741D0E",
"9-+	c #60190C",
"0-+	c #611A0C",
"a-+	c #5B160A",
"b-+	c #631709",
"c-+	c #61160A",
"d-+	c #6F2316",
"e-+	c #7A291B",
"f-+	c #A43B25",
"g-+	c #6A2619",
"h-+	c #46160C",
"i-+	c #7A291A",
"j-+	c #662215",
"k-+	c #5D2518",
"l-+	c #722616",
"m-+	c #872F1E",
"n-+	c #983F28",
"o-+	c #7F2D19",
"p-+	c #732717",
"q-+	c #592313",
"r-+	c #722C1A",
"s-+	c #7F1F0E",
"t-+	c #882213",
"u-+	c #891E0E",
"v-+	c #821F10",
"w-+	c #7C2313",
"x-+	c #7C1E0F",
"y-+	c #7A200F",
"z-+	c #7B2211",
"A-+	c #7A1E0E",
"B-+	c #781F0E",
"C-+	c #7D2312",
"D-+	c #7E2410",
"E-+	c #7B2313",
"F-+	c #250704",
"G-+	c #350A02",
"H-+	c #7A2513",
"I-+	c #8D2312",
"J-+	c #942B15",
"K-+	c #680C03",
"L-+	c #6D4F4A",
"M-+	c #752816",
"N-+	c #772515",
"O-+	c #842517",
"P-+	c #762010",
"Q-+	c #6F1C0E",
"R-+	c #340D08",
"S-+	c #741E0E",
"T-+	c #6A1C0D",
"U-+	c #6A180B",
"V-+	c #701A0D",
"W-+	c #67180C",
"X-+	c #5E180C",
"Y-+	c #56170A",
"Z-+	c #4A1E11",
"`-+	c #8D2C1C",
" ;+	c #561C0F",
".;+	c #903222",
"+;+	c #923C26",
"@;+	c #7B311C",
"#;+	c #672314",
"$;+	c #9D2F1A",
"%;+	c #622A1A",
"&;+	c #7F200F",
"*;+	c #892110",
"=;+	c #75200F",
"-;+	c #761D0C",
";;+	c #7B1F10",
">;+	c #7E1E10",
",;+	c #7D1E0F",
"';+	c #7C1D0E",
");+	c #742111",
"!;+	c #7C2713",
"~;+	c #1F0704",
"{;+	c #682112",
"];+	c #852814",
"^;+	c #822615",
"/;+	c #8F2916",
"(;+	c #8F2713",
"_;+	c #8D2A16",
":;+	c #87403D",
"<;+	c #370301",
"[;+	c #712615",
"};+	c #722413",
"|;+	c #72210F",
"1;+	c #75210F",
"2;+	c #7C2311",
"3;+	c #7D1F0E",
"4;+	c #7F2211",
"5;+	c #762311",
"6;+	c #771E0D",
"7;+	c #742415",
"8;+	c #601E12",
"9;+	c #0D0202",
"0;+	c #731F10",
"a;+	c #772112",
"b;+	c #771D0D",
"c;+	c #6C1B0C",
"d;+	c #6D1E0E",
"e;+	c #681C0D",
"f;+	c #66170A",
"g;+	c #6E1A0E",
"h;+	c #551004",
"i;+	c #5D1508",
"j;+	c #69190B",
"k;+	c #671608",
"l;+	c #641D11",
"m;+	c #682314",
"n;+	c #46180F",
"o;+	c #370C06",
"p;+	c #782316",
"q;+	c #4D180A",
"r;+	c #752A16",
"s;+	c #8D311B",
"t;+	c #762719",
"u;+	c #762417",
"v;+	c #612613",
"w;+	c #862311",
"x;+	c #922616",
"y;+	c #791C0D",
"z;+	c #781E0E",
"A;+	c #6E1A0A",
"B;+	c #731B0D",
"C;+	c #71190C",
"D;+	c #751C0D",
"E;+	c #781D0F",
"F;+	c #7A1F0F",
"G;+	c #7B1E10",
"H;+	c #791E0E",
"I;+	c #722211",
"J;+	c #7A2413",
"K;+	c #190402",
"L;+	c #772311",
"M;+	c #782714",
"N;+	c #832210",
"O;+	c #7B2210",
"P;+	c #81220F",
"Q;+	c #852311",
"R;+	c #8A2613",
"S;+	c #882B18",
"T;+	c #872F22",
"U;+	c #6E4033",
"V;+	c #7D2412",
"W;+	c #802312",
"X;+	c #7E200E",
"Y;+	c #792315",
"Z;+	c #6F1F0F",
"`;+	c #58190B",
" >+	c #260501",
".>+	c #731D0D",
"+>+	c #6F1A0C",
"@>+	c #6B1B0C",
"#>+	c #68190B",
"$>+	c #671A0B",
"%>+	c #65190B",
"&>+	c #6F190E",
"*>+	c #66180A",
"=>+	c #59170A",
"->+	c #55150A",
";>+	c #571507",
">>+	c #5C170B",
",>+	c #541307",
"'>+	c #56150A",
")>+	c #67180E",
"!>+	c #65170A",
"~>+	c #68170A",
"{>+	c #681E13",
"]>+	c #AC3B29",
"^>+	c #9F3220",
"/>+	c #4D1A11",
"(>+	c #340F07",
"_>+	c #812717",
":>+	c #47170C",
"<>+	c #3C1108",
"[>+	c #772618",
"}>+	c #712618",
"|>+	c #A13D28",
"1>+	c #91341F",
"2>+	c #762818",
"3>+	c #7A311E",
"4>+	c #892210",
"5>+	c #892412",
"6>+	c #751B0C",
"7>+	c #761D0D",
"8>+	c #70190B",
"9>+	c #731C0F",
"0>+	c #761D0E",
"a>+	c #761E0E",
"b>+	c #721C0C",
"c>+	c #711D0D",
"d>+	c #6E1909",
"e>+	c #7B2111",
"f>+	c #782010",
"g>+	c #711B0C",
"h>+	c #6B1D0D",
"i>+	c #752313",
"j>+	c #872310",
"k>+	c #842210",
"l>+	c #8B2614",
"m>+	c #761908",
"n>+	c #64241A",
"o>+	c #6E2011",
"p>+	c #7C2211",
"q>+	c #7D1F11",
"r>+	c #761B0C",
"s>+	c #792111",
"t>+	c #692113",
"u>+	c #2A0804",
"v>+	c #150403",
"w>+	c #672010",
"x>+	c #6F1C0C",
"y>+	c #6D1A0B",
"z>+	c #6C190D",
"A>+	c #68190D",
"B>+	c #641709",
"C>+	c #5A1408",
"D>+	c #5B1509",
"E>+	c #64170A",
"F>+	c #68170B",
"G>+	c #6D190D",
"H>+	c #581509",
"I>+	c #671E13",
"J>+	c #913622",
"K>+	c #8F2B1A",
"L>+	c #772718",
"M>+	c #762418",
"N>+	c #54180B",
"O>+	c #3A1107",
"P>+	c #4C170A",
"Q>+	c #7C2618",
"R>+	c #6F2618",
"S>+	c #752415",
"T>+	c #7E2718",
"U>+	c #5A1E10",
"V>+	c #722D1C",
"W>+	c #892416",
"X>+	c #882313",
"Y>+	c #8A2213",
"Z>+	c #832011",
"`>+	c #7B1D0E",
" ,+	c #751B0B",
".,+	c #741C0D",
"+,+	c #6C1809",
"@,+	c #6E180A",
"#,+	c #701A0B",
"$,+	c #721C0E",
"%,+	c #71190B",
"&,+	c #731E0E",
"*,+	c #781E0F",
"=,+	c #732110",
"-,+	c #782314",
";,+	c #1A0400",
">,+	c #641E0F",
",,+	c #782513",
"',+	c #7F220F",
"),+	c #802110",
"!,+	c #7E2210",
"~,+	c #812211",
"{,+	c #8B4F47",
"],+	c #6F2717",
"^,+	c #722312",
"/,+	c #771E0E",
"(,+	c #781E10",
"_,+	c #761C0E",
":,+	c #721D0C",
"<,+	c #711C0C",
"[,+	c #2A0703",
"},+	c #120301",
"|,+	c #6F1D0E",
"1,+	c #6D1B0D",
"2,+	c #66160A",
"3,+	c #67170C",
"4,+	c #67190C",
"5,+	c #64160A",
"6,+	c #5E1407",
"7,+	c #5D160B",
"8,+	c #5B150A",
"9,+	c #6B180D",
"0,+	c #69170B",
"a,+	c #672013",
"b,+	c #8C3421",
"c,+	c #732314",
"d,+	c #611F13",
"e,+	c #521F12",
"f,+	c #3B130B",
"g,+	c #58190F",
"h,+	c #631D12",
"i,+	c #5C1D11",
"j,+	c #44130B",
"k,+	c #340E05",
"l,+	c #732211",
"m,+	c #772816",
"n,+	c #552213",
"o,+	c #AD3720",
"p,+	c #872412",
"q,+	c #7D1D0E",
"r,+	c #751D11",
"s,+	c #731E0F",
"t,+	c #701C0D",
"u,+	c #6C190A",
"v,+	c #6F1A0B",
"w,+	c #6E200F",
"x,+	c #080201",
"y,+	c #641D0E",
"z,+	c #7C2212",
"A,+	c #7D1F0F",
"B,+	c #872915",
"C,+	c #872912",
"D,+	c #614138",
"E,+	c #6D2210",
"F,+	c #6C1F0C",
"G,+	c #762111",
"H,+	c #721C0D",
"I,+	c #6F1B0B",
"J,+	c #711E0D",
"K,+	c #6C1D0E",
"L,+	c #661C0D",
"M,+	c #621A0B",
"N,+	c #2D0702",
"O,+	c #6A1B0C",
"P,+	c #601508",
"Q,+	c #601709",
"R,+	c #601509",
"S,+	c #5B150B",
"T,+	c #521409",
"U,+	c #5A1409",
"V,+	c #62160B",
"W,+	c #6C190B",
"X,+	c #69180B",
"Y,+	c #6B180C",
"Z,+	c #692012",
"`,+	c #A93421",
" '+	c #A83321",
".'+	c #7B2C1F",
"+'+	c #581A0F",
"@'+	c #53190D",
"#'+	c #421508",
"$'+	c #98341F",
"%'+	c #541A0E",
"&'+	c #4C1F10",
"*'+	c #5C2111",
"='+	c #882C1C",
"-'+	c #7A2417",
";'+	c #562014",
">'+	c #943622",
",'+	c #B64027",
"''+	c #932414",
")'+	c #8F2213",
"!'+	c #842010",
"~'+	c #7D2211",
"{'+	c #7F1E0F",
"]'+	c #7E1E0F",
"^'+	c #681809",
"/'+	c #641608",
"('+	c #6D190B",
"_'+	c #641708",
":'+	c #6A1A0B",
"<'+	c #67180A",
"['+	c #721B0C",
"}'+	c #6E1C0C",
"|'+	c #4F1610",
"1'+	c #060101",
"2'+	c #411206",
"3'+	c #631C0E",
"4'+	c #6B1E0E",
"5'+	c #6B1E0D",
"6'+	c #6F210F",
"7'+	c #802010",
"8'+	c #761F0E",
"9'+	c #70200E",
"0'+	c #772511",
"a'+	c #8A5242",
"b'+	c #370700",
"c'+	c #6F200E",
"d'+	c #6D1C0C",
"e'+	c #6D1E10",
"f'+	c #5A1709",
"g'+	c #300803",
"h'+	c #140300",
"i'+	c #551B0F",
"j'+	c #641D0D",
"k'+	c #5C1609",
"l'+	c #5A1507",
"m'+	c #56150B",
"n'+	c #5D1609",
"o'+	c #6A170A",
"p'+	c #6A2014",
"q'+	c #802819",
"r'+	c #7A2818",
"s'+	c #682114",
"t'+	c #571E11",
"u'+	c #46160E",
"v'+	c #300F08",
"w'+	c #5E1A0D",
"x'+	c #49160B",
"y'+	c #3F1208",
"z'+	c #641F0F",
"A'+	c #AF3926",
"B'+	c #43180D",
"C'+	c #652110",
"D'+	c #58180B",
"E'+	c #902412",
"F'+	c #8E2617",
"G'+	c #7E1D0F",
"H'+	c #791A0B",
"I'+	c #7A1C0E",
"J'+	c #6D1B0B",
"K'+	c #651809",
"L'+	c #671B10",
"M'+	c #641C0D",
"N'+	c #68190A",
"O'+	c #671A0A",
"P'+	c #3D1209",
"Q'+	c #671D0E",
"R'+	c #71190A",
"S'+	c #7F2113",
"T'+	c #6F1E0E",
"U'+	c #6C1E0E",
"V'+	c #7B1F0F",
"W'+	c #792813",
"X'+	c #732410",
"Y'+	c #7D2512",
"Z'+	c #622316",
"`'+	c #6A2613",
" )+	c #6D1D0E",
".)+	c #641B0B",
"+)+	c #61190A",
"@)+	c #5B1A0B",
"#)+	c #0C0201",
"$)+	c #60190B",
"%)+	c #62170A",
"&)+	c #591308",
"*)+	c #501004",
"=)+	c #581408",
"-)+	c #661508",
";)+	c #68170C",
">)+	c #64180D",
",)+	c #5B170C",
"')+	c #581E11",
"))+	c #47160D",
"!)+	c #48160D",
"~)+	c #381006",
"{)+	c #5A2116",
"])+	c #80271A",
"^)+	c #502014",
"/)+	c #812B1C",
"()+	c #8E331F",
"_)+	c #9F2C17",
":)+	c #942616",
"<)+	c #932314",
"[)+	c #8F2314",
"})+	c #811F0F",
"|)+	c #7F1F10",
"1)+	c #5A1407",
"2)+	c #5B190D",
"3)+	c #611C0E",
"4)+	c #5C1709",
"5)+	c #5B1505",
"6)+	c #591809",
"7)+	c #5D180A",
"8)+	c #0B0100",
"9)+	c #6E2110",
"0)+	c #722011",
"a)+	c #792312",
"b)+	c #6F1909",
"c)+	c #702211",
"d)+	c #6F2210",
"e)+	c #6F220D",
"f)+	c #743730",
"g)+	c #6D2411",
"h)+	c #69200F",
"i)+	c #6A1D0D",
"j)+	c #671B0B",
"k)+	c #6A1B0B",
"l)+	c #651C0E",
"m)+	c #62180A",
"n)+	c #531307",
"o)+	c #541207",
"p)+	c #6E1A0F",
"q)+	c #70190D",
"r)+	c #782517",
"s)+	c #4B160B",
"t)+	c #42140B",
"u)+	c #762516",
"v)+	c #631E10",
"w)+	c #5E1E11",
"x)+	c #4A1C10",
"y)+	c #5B1E0F",
"z)+	c #712717",
"A)+	c #53170A",
"B)+	c #632517",
"C)+	c #902413",
"D)+	c #912514",
"E)+	c #8F2312",
"F)+	c #882210",
"G)+	c #771B0D",
"H)+	c #63180A",
"I)+	c #591508",
"J)+	c #501206",
"K)+	c #521306",
"L)+	c #5A1708",
"M)+	c #5E180A",
"N)+	c #571709",
"O)+	c #571B0D",
"P)+	c #57190C",
"Q)+	c #581809",
"R)+	c #5D1B0B",
"S)+	c #1D0503",
"T)+	c #0D0201",
"U)+	c #210602",
"V)+	c #692111",
"W)+	c #691C0D",
"X)+	c #721B0B",
"Y)+	c #6E1C0D",
"Z)+	c #661B0B",
"`)+	c #751D0C",
" !+	c #6E1D0D",
".!+	c #6F1F0C",
"+!+	c #6D210F",
"@!+	c #702410",
"#!+	c #712311",
"$!+	c #7B2A16",
"%!+	c #5E4742",
"&!+	c #712613",
"*!+	c #66200E",
"=!+	c #641A0B",
"-!+	c #641C0C",
";!+	c #60190A",
">!+	c #581709",
",!+	c #190401",
"'!+	c #0F0202",
")!+	c #581A0A",
"!!+	c #541607",
"~!+	c #561608",
"{!+	c #581508",
"]!+	c #551308",
"^!+	c #521307",
"/!+	c #511408",
"(!+	c #4D1206",
"_!+	c #4B1306",
":!+	c #521408",
"<!+	c #511307",
"[!+	c #5E1709",
"}!+	c #6E190D",
"|!+	c #731B10",
"1!+	c #70190C",
"2!+	c #67190E",
"3!+	c #8C321E",
"4!+	c #451409",
"5!+	c #4B170D",
"6!+	c #621F11",
"7!+	c #4E150C",
"8!+	c #48140A",
"9!+	c #3F1209",
"0!+	c #360E06",
"a!+	c #7D291C",
"b!+	c #983525",
"c!+	c #431507",
"d!+	c #5B2012",
"e!+	c #531D0F",
"f!+	c #8B3624",
"g!+	c #7F2513",
"h!+	c #8F2411",
"i!+	c #8F2512",
"j!+	c #881F10",
"k!+	c #872112",
"l!+	c #832113",
"m!+	c #6F170A",
"n!+	c #5F1306",
"o!+	c #4F1408",
"p!+	c #591708",
"q!+	c #5E190B",
"r!+	c #5A1608",
"s!+	c #55190C",
"t!+	c #5A1C0E",
"u!+	c #59180A",
"v!+	c #120302",
"w!+	c #4A1307",
"x!+	c #5F190A",
"y!+	c #651B0B",
"z!+	c #661C0C",
"A!+	c #67190A",
"B!+	c #6A1A0A",
"C!+	c #661A0B",
"D!+	c #6E2412",
"E!+	c #722715",
"F!+	c #5E1A0C",
"G!+	c #64200B",
"H!+	c #631F0E",
"I!+	c #64200F",
"J!+	c #5F190B",
"K!+	c #601D0E",
"L!+	c #581808",
"M!+	c #5A190B",
"N!+	c #5B1809",
"O!+	c #58190C",
"P!+	c #51170C",
"Q!+	c #390C02",
"R!+	c #100200",
"S!+	c #1F0603",
"T!+	c #4F1305",
"U!+	c #4B1206",
"V!+	c #481106",
"W!+	c #4E1509",
"X!+	c #4A1304",
"Y!+	c #4C1306",
"Z!+	c #70190E",
"`!+	c #6E180C",
" ~+	c #8D4028",
".~+	c #8C3723",
"+~+	c #982E19",
"@~+	c #501A10",
"#~+	c #431409",
"$~+	c #672115",
"%~+	c #5F1B10",
"&~+	c #611C11",
"*~+	c #5D1C11",
"=~+	c #50160D",
"-~+	c #57180F",
";~+	c #993B29",
">~+	c #551407",
",~+	c #451205",
"'~+	c #531C11",
")~+	c #661F0F",
"!~+	c #973224",
"~~+	c #4F1708",
"{~+	c #AA3420",
"]~+	c #952515",
"^~+	c #8C210F",
"/~+	c #912513",
"(~+	c #862111",
"_~+	c #862011",
":~+	c #781C0F",
"<~+	c #4E1508",
"[~+	c #5B1909",
"}~+	c #5B1608",
"|~+	c #541709",
"1~+	c #531507",
"2~+	c #551507",
"3~+	c #481507",
"4~+	c #4A1407",
"5~+	c #521709",
"6~+	c #521809",
"7~+	c #5A1B0E",
"8~+	c #0A0100",
"9~+	c #120300",
"0~+	c #4C1407",
"a~+	c #5F190C",
"b~+	c #5E1B0C",
"c~+	c #6C1E0C",
"d~+	c #6C1D0D",
"e~+	c #691D0D",
"f~+	c #691F0E",
"g~+	c #6C240E",
"h~+	c #752714",
"i~+	c #4F1A19",
"j~+	c #4A3029",
"k~+	c #662410",
"l~+	c #5F200F",
"m~+	c #611E0E",
"n~+	c #5D1A0B",
"o~+	c #571808",
"p~+	c #591A0C",
"q~+	c #59190A",
"r~+	c #591A0A",
"s~+	c #5C190C",
"t~+	c #57180A",
"u~+	c #4F1609",
"v~+	c #53180A",
"w~+	c #461307",
"x~+	c #491206",
"y~+	c #471307",
"z~+	c #511306",
"A~+	c #6D1B0C",
"B~+	c #751C0E",
"C~+	c #711A0D",
"D~+	c #6E190C",
"E~+	c #86412A",
"F~+	c #853A25",
"G~+	c #823421",
"H~+	c #55180C",
"I~+	c #3A1106",
"J~+	c #421209",
"K~+	c #691D11",
"L~+	c #651C11",
"M~+	c #4D140C",
"N~+	c #441409",
"O~+	c #350E06",
"P~+	c #47150A",
"Q~+	c #4E1409",
"R~+	c #501407",
"S~+	c #571307",
"T~+	c #551506",
"U~+	c #4B0E05",
"V~+	c #4E150B",
"W~+	c #4E1307",
"X~+	c #662213",
"Y~+	c #732614",
"Z~+	c #742615",
"`~+	c #AD3522",
" {+	c #A1351E",
".{+	c #A63821",
"+{+	c #962414",
"@{+	c #9A2717",
"#{+	c #8F2111",
"${+	c #902311",
"%{+	c #962516",
"&{+	c #902213",
"*{+	c #8A2112",
"={+	c #851F0F",
"-{+	c #7A1C0C",
";{+	c #661609",
">{+	c #5F1407",
",{+	c #571407",
"'{+	c #501507",
"){+	c #4D1106",
"!{+	c #4F1204",
"~{+	c #511608",
"{{+	c #52170A",
"]{+	c #4C1408",
"^{+	c #51170A",
"/{+	c #511609",
"({+	c #4C1508",
"_{+	c #5B1A0C",
":{+	c #5D1C0D",
"<{+	c #551709",
"[{+	c #651C0C",
"}{+	c #6A1E0E",
"|{+	c #6A210D",
"1{+	c #732611",
"2{+	c #5E200F",
"3{+	c #1C0501",
"4{+	c #5B2210",
"5{+	c #5A1C0B",
"6{+	c #5B1D0C",
"7{+	c #5D1E0E",
"8{+	c #5D1D0D",
"9{+	c #5D1F0F",
"0{+	c #561A0B",
"a{+	c #55190A",
"b{+	c #55180B",
"c{+	c #4E1507",
"d{+	c #461207",
"e{+	c #491307",
"f{+	c #481206",
"g{+	c #441105",
"h{+	c #6A180D",
"i{+	c #71190E",
"j{+	c #6F180D",
"k{+	c #6A190B",
"l{+	c #7C2517",
"m{+	c #813420",
"n{+	c #6D2815",
"o{+	c #8B3622",
"p{+	c #6C2216",
"q{+	c #591D12",
"r{+	c #4C120A",
"s{+	c #49160A",
"t{+	c #471206",
"u{+	c #51140A",
"v{+	c #4C160A",
"w{+	c #602214",
"x{+	c #702718",
"y{+	c #7E2513",
"z{+	c #962615",
"A{+	c #972414",
"B{+	c #952312",
"C{+	c #902312",
"D{+	c #88200F",
"E{+	c #841E0E",
"F{+	c #7D1D0F",
"G{+	c #4B1004",
"H{+	c #4E1407",
"I{+	c #4C1004",
"J{+	c #4D1306",
"K{+	c #50160A",
"L{+	c #4B1407",
"M{+	c #4A1408",
"N{+	c #4B1609",
"O{+	c #511B0A",
"P{+	c #531808",
"Q{+	c #501607",
"R{+	c #521507",
"S{+	c #581C0D",
"T{+	c #541A0B",
"U{+	c #5B1E0D",
"V{+	c #5F1C0C",
"W{+	c #5E1B0A",
"X{+	c #5D1907",
"Y{+	c #601B0B",
"Z{+	c #611D0B",
"`{+	c #601C0B",
" ]+	c #641F0E",
".]+	c #772712",
"+]+	c #53180E",
"@]+	c #5A4945",
"#]+	c #4E1E10",
"$]+	c #612411",
"%]+	c #61230F",
"&]+	c #5C1E0B",
"*]+	c #571B09",
"=]+	c #5A1E0C",
"-]+	c #5B1E0C",
";]+	c #5E1D0C",
">]+	c #5A1B0B",
",]+	c #581B0B",
"']+	c #571809",
")]+	c #581909",
"!]+	c #591B0B",
"~]+	c #56190A",
"{]+	c #531A09",
"]]+	c #220401",
"^]+	c #120703",
"/]+	c #2B2523",
"(]+	c #301E18",
"_]+	c #491205",
":]+	c #4A1608",
"<]+	c #451206",
"[]+	c #5C1809",
"}]+	c #631B0B",
"|]+	c #731B0E",
"1]+	c #6F190D",
"2]+	c #6F1C10",
"3]+	c #8A2819",
"4]+	c #983923",
"5]+	c #712416",
"6]+	c #54160A",
"7]+	c #481509",
"8]+	c #6E1F10",
"9]+	c #57160C",
"0]+	c #4E1209",
"a]+	c #43120A",
"b]+	c #380F07",
"c]+	c #521A0E",
"d]+	c #5C1B11",
"e]+	c #5C1B10",
"f]+	c #4A1709",
"g]+	c #7B2212",
"h]+	c #822517",
"i]+	c #7E2B1C",
"j]+	c #431305",
"k]+	c #5C2112",
"l]+	c #822513",
"m]+	c #942514",
"n]+	c #972613",
"o]+	c #942110",
"p]+	c #9A2716",
"q]+	c #922211",
"r]+	c #912211",
"s]+	c #942515",
"t]+	c #861F10",
"u]+	c #872011",
"v]+	c #6D190A",
"w]+	c #65180A",
"x]+	c #551307",
"y]+	c #4E1106",
"z]+	c #471004",
"A]+	c #451004",
"B]+	c #461205",
"C]+	c #481004",
"D]+	c #4B1305",
"E]+	c #481408",
"F]+	c #481306",
"G]+	c #441106",
"H]+	c #481406",
"I]+	c #4D1405",
"J]+	c #493733",
"K]+	c #120601",
"L]+	c #481307",
"M]+	c #511708",
"N]+	c #55190D",
"O]+	c #531709",
"P]+	c #541606",
"Q]+	c #511405",
"R]+	c #511709",
"S]+	c #511908",
"T]+	c #521B09",
"U]+	c #541908",
"V]+	c #601D0C",
"W]+	c #6E2A14",
"X]+	c #532F29",
"Y]+	c #332422",
"Z]+	c #5A423E",
"`]+	c #431609",
" ^+	c #5C210F",
".^+	c #5A200E",
"+^+	c #622313",
"@^+	c #5C1B09",
"#^+	c #591A08",
"$^+	c #571708",
"%^+	c #541707",
"&^+	c #561A07",
"*^+	c #521707",
"=^+	c #511807",
"-^+	c #160601",
";^+	c #54514E",
">^+	c #1D1818",
",^+	c #441304",
"'^+	c #481506",
")^+	c #4A1509",
"!^+	c #461408",
"~^+	c #531608",
"{^+	c #701B0E",
"]^+	c #721A0D",
"^^+	c #661E12",
"/^+	c #4B160D",
"(^+	c #671A12",
"_^+	c #57170D",
":^+	c #4B150B",
"<^+	c #380E06",
"[^+	c #350B05",
"}^+	c #340C03",
"|^+	c #3C1106",
"1^+	c #3A0E04",
"2^+	c #4A150B",
"3^+	c #5D1D11",
"4^+	c #8B2D19",
"5^+	c #531C0F",
"6^+	c #952514",
"7^+	c #982515",
"8^+	c #972514",
"9^+	c #972716",
"0^+	c #8D200F",
"a^+	c #852010",
"b^+	c #7C1C0E",
"c^+	c #611709",
"d^+	c #551306",
"e^+	c #461004",
"f^+	c #441005",
"g^+	c #491406",
"h^+	c #4A1306",
"i^+	c #451306",
"j^+	c #431105",
"k^+	c #471507",
"l^+	c #511809",
"m^+	c #350800",
"n^+	c #625657",
"o^+	c #271514",
"p^+	c #370E04",
"q^+	c #521608",
"r^+	c #521708",
"s^+	c #551607",
"t^+	c #511808",
"u^+	c #531908",
"v^+	c #511909",
"w^+	c #5B1F0E",
"x^+	c #5E220F",
"y^+	c #672412",
"z^+	c #5E1D0E",
"A^+	c #581E0D",
"B^+	c #51190A",
"C^+	c #53403E",
"D^+	c #312521",
"E^+	c #57352B",
"F^+	c #0D0001",
"G^+	c #010000",
"H^+	c #574743",
"I^+	c #543A33",
"J^+	c #461306",
"K^+	c #551908",
"L^+	c #581B0E",
"M^+	c #56180A",
"N^+	c #5F1D0D",
"O^+	c #601F0C",
"P^+	c #581D0C",
"Q^+	c #351003",
"R^+	c #190606",
"S^+	c #3D1711",
"T^+	c #481708",
"U^+	c #48180A",
"V^+	c #4B1809",
"W^+	c #471508",
"X^+	c #441305",
"Y^+	c #431307",
"Z^+	c #421306",
"`^+	c #491508",
" /+	c #6A1D0C",
"./+	c #6D1A0C",
"+/+	c #721A0E",
"@/+	c #982C17",
"#/+	c #581B10",
"$/+	c #4E170B",
"%/+	c #5D1A10",
"&/+	c #61180E",
"*/+	c #421407",
"=/+	c #451208",
"-/+	c #46120A",
";/+	c #4A140B",
">/+	c #7C281B",
",/+	c #3F0F03",
"'/+	c #692315",
")/+	c #9A2615",
"!/+	c #992515",
"~/+	c #9B2615",
"{/+	c #8A1F0F",
"]/+	c #841D0E",
"^/+	c #7C1E0E",
"//+	c #701A0A",
"(/+	c #621709",
"_/+	c #541506",
":/+	c #400F04",
"</+	c #431004",
"[/+	c #441104",
"}/+	c #491507",
"|/+	c #451105",
"1/+	c #481608",
"2/+	c #541809",
"3/+	c #5D524E",
"4/+	c #2F2929",
"5/+	c #2C0C06",
"6/+	c #3E1106",
"7/+	c #4E1A07",
"8/+	c #551A0A",
"9/+	c #5A1C09",
"0/+	c #50200F",
"a/+	c #4C1F12",
"b/+	c #341A17",
"c/+	c #524846",
"d/+	c #232323",
"e/+	c #000003",
"f/+	c #2E1B14",
"g/+	c #7B6154",
"h/+	c #615150",
"i/+	c #362729",
"j/+	c #080305",
"k/+	c #04070B",
"l/+	c #524E4C",
"m/+	c #3F3230",
"n/+	c #2F0F08",
"o/+	c #2E0D07",
"p/+	c #403D36",
"q/+	c #372425",
"r/+	c #572212",
"s/+	c #521908",
"t/+	c #4C1607",
"u/+	c #4A1606",
"v/+	c #491706",
"w/+	c #461503",
"x/+	c #451307",
"y/+	c #411305",
"z/+	c #421304",
"A/+	c #431406",
"B/+	c #4D1507",
"C/+	c #6C170B",
"D/+	c #752316",
"E/+	c #AA3724",
"F/+	c #601D11",
"G/+	c #571D11",
"H/+	c #52180F",
"I/+	c #45140A",
"J/+	c #58180F",
"K/+	c #4B1208",
"L/+	c #4B130A",
"M/+	c #892916",
"N/+	c #6D2014",
"O/+	c #582012",
"P/+	c #6E2314",
"Q/+	c #972714",
"R/+	c #962413",
"S/+	c #9C2715",
"T/+	c #9D2615",
"U/+	c #982514",
"V/+	c #942312",
"W/+	c #871F0F",
"X/+	c #811D0E",
"Y/+	c #641707",
"Z/+	c #571607",
"`/+	c #461104",
" (+	c #410F04",
".(+	c #4A1507",
"+(+	c #451303",
"@(+	c #461305",
"#(+	c #461506",
"$(+	c #4C1506",
"%(+	c #491204",
"&(+	c #491506",
"*(+	c #491605",
"=(+	c #471404",
"-(+	c #441405",
";(+	c #491606",
">(+	c #4A170F",
",(+	c #210804",
"'(+	c #3D1307",
")(+	c #331C17",
"!(+	c #514A47",
"~(+	c #0B1112",
"{(+	c #000004",
"](+	c #3A2C2A",
"^(+	c #6C5B5B",
"/(+	c #362620",
"((+	c #310B05",
"_(+	c #4F190D",
":(+	c #4F1709",
"<(+	c #4E1706",
"[(+	c #491708",
"}(+	c #4E190A",
"|(+	c #4E1A0B",
"1(+	c #451506",
"2(+	c #48170B",
"3(+	c #471406",
"4(+	c #501708",
"5(+	c #611C0D",
"6(+	c #651C0D",
"7(+	c #701C10",
"8(+	c #732414",
"9(+	c #641F13",
"0(+	c #5A1B10",
"a(+	c #43140A",
"b(+	c #350F07",
"c(+	c #882913",
"d(+	c #601F13",
"e(+	c #551D10",
"f(+	c #932312",
"g(+	c #8A2111",
"h(+	c #821E0E",
"i(+	c #791D0C",
"j(+	c #6A190A",
"k(+	c #431104",
"l(+	c #451204",
"m(+	c #4B1506",
"n(+	c #4A1807",
"o(+	c #521A0C",
"p(+	c #4F1908",
"q(+	c #4D1906",
"r(+	c #4B190A",
"s(+	c #46170C",
"t(+	c #4C1405",
"u(+	c #4C190A",
"v(+	c #130505",
"w(+	c #807670",
"x(+	c #4F3D30",
"y(+	c #22130A",
"z(+	c #050502",
"A(+	c #161311",
"B(+	c #594B44",
"C(+	c #3E150D",
"D(+	c #521D0F",
"E(+	c #4E1708",
"F(+	c #581B0C",
"G(+	c #792517",
"H(+	c #942D1D",
"I(+	c #862B1B",
"J(+	c #51180D",
"K(+	c #4A160B",
"L(+	c #3B1109",
"M(+	c #7B251A",
"N(+	c #381207",
"O(+	c #7A2B1C",
"P(+	c #7D2B19",
"Q(+	c #982513",
"R(+	c #9C2818",
"S(+	c #982614",
"T(+	c #922312",
"U(+	c #922212",
"V(+	c #811F10",
"W(+	c #791C0C",
"X(+	c #4E1707",
"Y(+	c #3C0F01",
"Z(+	c #381E1A",
"`(+	c #4B3D3B",
" _+	c #000000",
"._+	c #050201",
"+_+	c #1F110D",
"@_+	c #422E2A",
"#_+	c #533D36",
"$_+	c #635146",
"%_+	c #8E776D",
"&_+	c #20120D",
"*_+	c #4C180A",
"=_+	c #4B1708",
"-_+	c #50170A",
";_+	c #611E0F",
">_+	c #691B0C",
",_+	c #AD3825",
"'_+	c #762416",
")_+	c #4E160C",
"!_+	c #46140A",
"~_+	c #73271B",
"{_+	c #712212",
"]_+	c #792210",
"^_+	c #992714",
"/_+	c #9C2717",
"(_+	c #962713",
"__+	c #962313",
":_+	c #8B1F0F",
"<_+	c #851D0D",
"[_+	c #701C0C",
"}_+	c #511506",
"|_+	c #4A1305",
"1_+	c #433129",
"2_+	c #28231F",
"3_+	c #513D38",
"4_+	c #531D0C",
"5_+	c #511A09",
"6_+	c #53190A",
"7_+	c #792416",
"8_+	c #712012",
"9_+	c #671F12",
"0_+	c #3B1208",
"a_+	c #321007",
"b_+	c #53190F",
"c_+	c #691D12",
"d_+	c #7F281A",
"e_+	c #742414",
"f_+	c #601C11",
"g_+	c #250D04",
"h_+	c #3C150C",
"i_+	c #4B190E",
"j_+	c #5E2111",
"k_+	c #702311",
"l_+	c #962311",
"m_+	c #9A2515",
"n_+	c #932310",
"o_+	c #992716",
"p_+	c #942614",
"q_+	c #8B210E",
"r_+	c #7F1F0F",
"s_+	c #771D0C",
"t_+	c #731E0D",
"u_+	c #681A0B",
"v_+	c #371209",
"w_+	c #494242",
"x_+	c #561C0A",
"y_+	c #5C1F0E",
"z_+	c #602110",
"A_+	c #6D2012",
"B_+	c #7C2415",
"C_+	c #5C1A10",
"D_+	c #52180D",
"E_+	c #46140B",
"F_+	c #3C110A",
"G_+	c #371008",
"H_+	c #250904",
"I_+	c #44160C",
"J_+	c #51180F",
"K_+	c #4C150B",
"L_+	c #47150E",
"M_+	c #43120B",
"N_+	c #220600",
"O_+	c #42160A",
"P_+	c #652215",
"Q_+	c #8D2D1B",
"R_+	c #AB341E",
"S_+	c #822414",
"T_+	c #992513",
"U_+	c #962612",
"V_+	c #952413",
"W_+	c #922311",
"X_+	c #801D0C",
"Y_+	c #7E1E0D",
"Z_+	c #741E0C",
"`_+	c #631907",
" :+	c #5A1808",
".:+	c #591A09",
"+:+	c #553B3A",
"@:+	c #61200F",
"#:+	c #5E1E0C",
"$:+	c #741C10",
"%:+	c #7D2416",
"&:+	c #52160C",
"*:+	c #431309",
"=:+	c #381108",
"-:+	c #361209",
";:+	c #361106",
">:+	c #371207",
",:+	c #3F130A",
"':+	c #3E1208",
"):+	c #46150A",
"!:+	c #49170D",
"~:+	c #51190E",
"{:+	c #602014",
"]:+	c #AE3723",
"^:+	c #AF3720",
"/:+	c #72200F",
"(:+	c #872814",
"_:+	c #902915",
"::+	c #932413",
"<:+	c #972515",
"[:+	c #9E2716",
"}:+	c #992614",
"|:+	c #8A2110",
"1:+	c #801F0D",
"2:+	c #791F0D",
"3:+	c #6E1D0C",
"4:+	c #651A07",
"5:+	c #621C0C",
"6:+	c #542F29",
"7:+	c #4A1F16",
"8:+	c #632011",
"9:+	c #682315",
"0:+	c #711E0E",
"a:+	c #581609",
"b:+	c #5F1A0F",
"c:+	c #A5311F",
"d:+	c #862617",
"e:+	c #83281A",
"f:+	c #671C11",
"g:+	c #631C11",
"h:+	c #48150A",
"i:+	c #49150C",
"j:+	c #4A160C",
"k:+	c #892A16",
"l:+	c #8B2814",
"m:+	c #972815",
"n:+	c #992514",
"o:+	c #952513",
"p:+	c #922413",
"q:+	c #8D210F",
"r:+	c #812312",
"s:+	c #7A1F0D",
"t:+	c #711D0C",
"u:+	c #6A1D08",
"v:+	c #511202",
"w:+	c #5E2417",
"x:+	c #642312",
"y:+	c #632514",
"z:+	c #692213",
"A:+	c #A63321",
"B:+	c #6F2114",
"C:+	c #5F1D11",
"D:+	c #5A1A10",
"E:+	c #7E2412",
"F:+	c #832411",
"G:+	c #8E2915",
"H:+	c #8D2914",
"I:+	c #982412",
"J:+	c #912411",
"K:+	c #84220F",
"L:+	c #7F2210",
"M:+	c #79210E",
"N:+	c #71210E",
"O:+	c #715851",
"P:+	c #51342B",
"Q:+	c #672511",
"R:+	c #622514",
"S:+	c #6E2113",
"T:+	c #731F11",
"U:+	c #5F1A11",
"V:+	c #7F2819",
"W:+	c #7E2617",
"X:+	c #742115",
"Y:+	c #742416",
"Z:+	c #732315",
"`:+	c #6B1E11",
" <+	c #6A2013",
".<+	c #681D13",
"+<+	c #641F10",
"@<+	c #672111",
"#<+	c #651D0E",
"$<+	c #962B17",
"%<+	c #752110",
"&<+	c #922C17",
"*<+	c #931F0E",
"=<+	c #9E2A18",
"-<+	c #932311",
";<+	c #942415",
"><+	c #892211",
",<+	c #7E2310",
"'<+	c #782410",
")<+	c #622515",
"!<+	c #5D2214",
"~<+	c #652415",
"{<+	c #692413",
"]<+	c #57190F",
"^<+	c #5A190F",
"/<+	c #652114",
"(<+	c #6D1D12",
"_<+	c #712014",
":<+	c #7A2617",
"<<+	c #702110",
"[<+	c #8B2613",
"}<+	c #9A2915",
"|<+	c #802612",
"1<+	c #693B32",
"2<+	c #60291C",
"3<+	c #612414",
"4<+	c #682215",
"5<+	c #611F11",
"6<+	c #54190F",
"7<+	c #682214",
"8<+	c #AC3624",
"9<+	c #862919",
"0<+	c #7B2516",
"a<+	c #772416",
"b<+	c #7C2316",
"c<+	c #7A2215",
"d<+	c #7E2814",
"e<+	c #972713",
"f<+	c #832815",
"g<+	c #4B0D05",
"h<+	c #5C1E0F",
"i<+	c #682818",
"j<+	c #751C0F",
"k<+	c #781D10",
"l<+	c #6A1D11",
"m<+	c #812114",
"n<+	c #802517",
"o<+	c #7C2113",
"p<+	c #7C1F12",
"q<+	c #832414",
"r<+	c #822813",
"s<+	c #742917",
"t<+	c #6D433E",
"u<+	c #591908",
"v<+	c #6B2E1C",
"w<+	c #682715",
"x<+	c #662617",
"y<+	c #5E1C0F",
"z<+	c #892617",
"A<+	c #6C1E0D",
"B<+	c #952814",
"C<+	c #962512",
"D<+	c #8F2210",
"E<+	c #902512",
"F<+	c #732E21",
"G<+	c #663020",
"H<+	c #6B301D",
"I<+	c #652615",
"J<+	c #732214",
"K<+	c #701D0D",
"L<+	c #55170A",
"M<+	c #A23220",
"N<+	c #A1402A",
"O<+	c #8B3321",
"P<+	c #7D2310",
"Q<+	c #9A2B17",
"R<+	c #9D2C1C",
"S<+	c #952512",
"T<+	c #822C18",
"U<+	c #702817",
"V<+	c #7D5143",
"W<+	c #6A3120",
"X<+	c #68281A",
"Y<+	c #6D2618",
"Z<+	c #741B0E",
"`<+	c #9C2F1A",
" [+	c #712413",
".[+	c #962715",
"+[+	c #784F41",
"@[+	c #6F2314",
"#[+	c #661B0F",
"$[+	c #5D1B0E",
"%[+	c #982817",
"&[+	c #932815",
"*[+	c #772C17",
"=[+	c #7E5549",
"-[+	c #6D3120",
";[+	c #6D2C1C",
">[+	c #692716",
",[+	c #6E2616",
"'[+	c #6F2414",
")[+	c #53190E",
"![+	c #722110",
"~[+	c #963720",
"{[+	c #A33625",
"][+	c #9D3A23",
"^[+	c #992B16",
"/[+	c #942412",
"([+	c #815848",
"_[+	c #6F3220",
":[+	c #6E2D1D",
"<[+	c #6E2919",
"[[+	c #721E0E",
"}[+	c #71200E",
"|[+	c #A4301B",
"1[+	c #A4432C",
"2[+	c #7E2615",
"3[+	c #962513",
"4[+	c #9E2B18",
"5[+	c #972814",
"6[+	c #8A3522",
"7[+	c #7C5140",
"8[+	c #733525",
"9[+	c #792617",
"0[+	c #651D11",
"a[+	c #58180C",
"b[+	c #5B1B10",
"c[+	c #52170D",
"d[+	c #AB3624",
"e[+	c #AC3623",
"f[+	c #993620",
"g[+	c #7C2717",
"h[+	c #962916",
"i[+	c #9A2E18",
"j[+	c #792F1F",
"k[+	c #7B4F41",
"l[+	c #763828",
"m[+	c #6D2818",
"n[+	c #772111",
"o[+	c #772010",
"p[+	c #6D1C11",
"q[+	c #58190D",
"r[+	c #97422E",
"s[+	c #A93322",
"t[+	c #AD3826",
"u[+	c #AB3523",
"v[+	c #AC3522",
"w[+	c #8E2E18",
"x[+	c #953B25",
"y[+	c #9D2E19",
"z[+	c #972615",
"A[+	c #962915",
"B[+	c #7D2E1A",
"C[+	c #754635",
"D[+	c #743928",
"E[+	c #6E2B1C",
"F[+	c #6F2A1B",
"G[+	c #AC3725",
"H[+	c #9B3B24",
"I[+	c #A34A34",
"J[+	c #701E0D",
"K[+	c #912713",
"L[+	c #9D2A19",
"M[+	c #8A2C17",
"N[+	c #7A4F3F",
"O[+	c #743727",
"P[+	c #7A2616",
"Q[+	c #751D0E",
"R[+	c #56160C",
"S[+	c #701F0E",
"T[+	c #903720",
"U[+	c #953F28",
"V[+	c #5E1A10",
"W[+	c #501307",
"X[+	c #972A16",
"Y[+	c #A12B19",
"Z[+	c #8B2E18",
"`[+	c #9C2B19",
" }+	c #9B2A16",
".}+	c #9C2A16",
"+}+	c #7D5445",
"@}+	c #742F1F",
"#}+	c #7A2213",
"$}+	c #772211",
"%}+	c #AE3B28",
"&}+	c #99301A",
"*}+	c #903D27",
"=}+	c #9F2C18",
"-}+	c #9E2D18",
";}+	c #952D19",
">}+	c #865C4D",
",}+	c #763827",
"'}+	c #742A1A",
")}+	c #731C0D",
"!}+	c #601A0F",
"~}+	c #571A10",
"{}+	c #551A10",
"]}+	c #541A0F",
"^}+	c #832915",
"/}+	c #9A2715",
"(}+	c #8A5F54",
"_}+	c #7A3C2A",
":}+	c #742818",
"<}+	c #7A1D0F",
"[}+	c #731C0C",
"}}+	c #6C2115",
"|}+	c #621E11",
"1}+	c #932814",
"2}+	c #8E2B17",
"3}+	c #8D2D18",
"4}+	c #835A50",
"5}+	c #773927",
"6}+	c #74301F",
"7}+	c #791E10",
"8}+	c #771C0F",
"9}+	c #4C190D",
"0}+	c #54150C",
"a}+	c #9B2E1E",
"b}+	c #682212",
"c}+	c #3E0B03",
"d}+	c #451008",
"e}+	c #A02B16",
"f}+	c #8F2F18",
"g}+	c #8D2A15",
"h}+	c #972915",
"i}+	c #8C675A",
"j}+	c #793B29",
"k}+	c #722F1D",
"l}+	c #6A1C11",
"m}+	c #6A1B10",
"n}+	c #55150B",
"o}+	c #4F1509",
"p}+	c #661D0E",
"q}+	c #58180E",
"r}+	c #3C0B02",
"s}+	c #441008",
"t}+	c #4B120A",
"u}+	c #732011",
"v}+	c #9E2A15",
"w}+	c #962A14",
"x}+	c #942914",
"y}+	c #866255",
"z}+	c #771C0E",
"A}+	c #6F2014",
"B}+	c #982A1A",
"C}+	c #721F0E",
"D}+	c #7C210F",
"E}+	c #A32E1C",
"F}+	c #9E2C17",
"G}+	c #823021",
"H}+	c #8E695A",
"I}+	c #753121",
"J}+	c #771D0E",
"K}+	c #711C11",
"L}+	c #661A10",
"M}+	c #53170B",
"N}+	c #4F150B",
"O}+	c #7E2416",
"P}+	c #52140C",
"Q}+	c #380D03",
"R}+	c #7F2412",
"S}+	c #91331D",
"T}+	c #8B6658",
"U}+	c #743927",
"V}+	c #742516",
"W}+	c #771E12",
"X}+	c #6B1C11",
"Y}+	c #581B0F",
"Z}+	c #52160B",
"`}+	c #64190B",
" |+	c #731E11",
".|+	c #6C1A0B",
"+|+	c #470F07",
"@|+	c #3F0C04",
"#|+	c #3F0E07",
"$|+	c #491409",
"%|+	c #852613",
"&|+	c #9B2915",
"*|+	c #8E3520",
"=|+	c #8B6557",
"-|+	c #753A27",
";|+	c #6F301D",
">|+	c #701E12",
",|+	c #721C0F",
"'|+	c #721D11",
")|+	c #54180E",
"!|+	c #55180E",
"~|+	c #451005",
"{|+	c #511208",
"]|+	c #5F1A0B",
"^|+	c #400D03",
"/|+	c #410D05",
"(|+	c #420F07",
"_|+	c #461008",
":|+	c #4C140B",
"<|+	c #7E2010",
"[|+	c #842411",
"}|+	c #922B17",
"||+	c #9D311B",
"1|+	c #A42D18",
"2|+	c #A02A16",
"3|+	c #953721",
"4|+	c #8B6556",
"5|+	c #743825",
"6|+	c #752C1D",
"7|+	c #772717",
"8|+	c #7D2313",
"9|+	c #781D11",
"0|+	c #721E12",
"a|+	c #771F13",
"b|+	c #731C10",
"c|+	c #611C0F",
"d|+	c #5C1C10",
"e|+	c #4F160C",
"f|+	c #51170D",
"g|+	c #3F1006",
"h|+	c #3F1008",
"i|+	c #3C0D06",
"j|+	c #3C0D03",
"k|+	c #481209",
"l|+	c #58150B",
"m|+	c #7E1F0E",
"n|+	c #882814",
"o|+	c #9C2C17",
"p|+	c #9D2B17",
"q|+	c #9D2C17",
"r|+	c #972A15",
"s|+	c #982F1B",
"t|+	c #8F6959",
"u|+	c #733726",
"v|+	c #70301D",
"w|+	c #7E2415",
"x|+	c #791D10",
"y|+	c #771D10",
"z|+	c #6F1D12",
"A|+	c #54190B",
"B|+	c #58170D",
"C|+	c #4D180C",
"D|+	c #4C170D",
"E|+	c #4E170D",
"F|+	c #4E180E",
"G|+	c #4D140B",
"H|+	c #4B1209",
"I|+	c #441207",
"J|+	c #431208",
"K|+	c #421108",
"L|+	c #431106",
"M|+	c #53150B",
"N|+	c #5C1407",
"O|+	c #882815",
"P|+	c #882916",
"Q|+	c #A02D18",
"R|+	c #9A2A15",
"S|+	c #A8301D",
"T|+	c #A72E1B",
"U|+	c #892813",
"V|+	c #8D3824",
"W|+	c #89675A",
"X|+	c #713826",
"Y|+	c #71301E",
"Z|+	c #782E1D",
"`|+	c #732513",
" 1+	c #7D2415",
".1+	c #7B1E0E",
"+1+	c #7B1F12",
"@1+	c #792114",
"#1+	c #781C10",
"$1+	c #761B0F",
"%1+	c #511A0F",
"&1+	c #4A1409",
"*1+	c #511910",
"=1+	c #4E170C",
"-1+	c #53160D",
";1+	c #51150C",
">1+	c #49120A",
",1+	c #49140B",
"'1+	c #8A2814",
")1+	c #A22B17",
"!1+	c #A12D18",
"~1+	c #902A16",
"{1+	c #8C2C17",
"]1+	c #8F331D",
"^1+	c #8E6A5C",
"/1+	c #703625",
"(1+	c #723120",
"_1+	c #791C0F",
":1+	c #50170D",
"<1+	c #441206",
"[1+	c #51170E",
"}1+	c #52160D",
"|1+	c #50150B",
"11+	c #5B180E",
"21+	c #5B1408",
"31+	c #A8311B",
"41+	c #A62C19",
"51+	c #9C2E18",
"61+	c #902C18",
"71+	c #875E51",
"81+	c #723726",
"91+	c #7A1E11",
"01+	c #7F2012",
"a1+	c #4B160C",
"b1+	c #4A140A",
"c1+	c #4B150D",
"d1+	c #8B2713",
"e1+	c #8D685B",
"f1+	c #733120",
"g1+	c #7F1E11",
"h1+	c #5E1B10",
"i1+	c #4C150C",
"j1+	c #4D150C",
"k1+	c #50150C",
"l1+	c #A92F1C",
"m1+	c #9A301A",
"n1+	c #896559",
"o1+	c #723627",
"p1+	c #743120",
"q1+	c #7A2F1F",
"r1+	c #7C1D10",
"s1+	c #791D11",
"t1+	c #6D1E12",
"u1+	c #5F1B0E",
"v1+	c #601F12",
"w1+	c #4D1509",
"x1+	c #4B130B",
"y1+	c #972D18",
"z1+	c #962C17",
"A1+	c #9A2A16",
"B1+	c #AB301D",
"C1+	c #A82F1A",
"D1+	c #962814",
"E1+	c #932A16",
"F1+	c #73554C",
"G1+	c #783B2A",
"H1+	c #732918",
"I1+	c #7F1F11",
"J1+	c #5F1A10",
"K1+	c #AB311D",
"L1+	c #A62E19",
"M1+	c #9C2A15",
"N1+	c #913A26",
"O1+	c #7A3A2A",
"P1+	c #763220",
"Q1+	c #722A19",
"R1+	c #782715",
"S1+	c #7A1D10",
"T1+	c #781C0E",
"U1+	c #7E1F12",
"V1+	c #4D170D",
"W1+	c #4F1A0E",
"X1+	c #992B1A",
"Y1+	c #9C2C1C",
"Z1+	c #9A2A17",
"`1+	c #A43220",
" 2+	c #A02C17",
".2+	c #A6301B",
"+2+	c #A52D1B",
"@2+	c #9D2A16",
"#2+	c #89685C",
"$2+	c #752F1D",
"%2+	c #752D1B",
"&2+	c #762513",
"*2+	c #792013",
"=2+	c #4B190D",
"-2+	c #4F180C",
";2+	c #5B1C10",
">2+	c #681E0E",
",2+	c #A12E1D",
"'2+	c #9F2D17",
")2+	c #7C2D17",
"!2+	c #8D6B5D",
"~2+	c #793827",
"{2+	c #773120",
"]2+	c #7F1F12",
"^2+	c #801F11",
"/2+	c #661F12",
"(2+	c #5B1709",
"_2+	c #952818",
":2+	c #942413",
"<2+	c #9E2B1A",
"[2+	c #A8301B",
"}2+	c #992A14",
"|2+	c #933B26",
"12+	c #815F55",
"22+	c #783928",
"32+	c #783120",
"42+	c #732715",
"52+	c #74200F",
"62+	c #6A1F13",
"72+	c #641D10",
"82+	c #922713",
"92+	c #AB3623",
"02+	c #962E18",
"a2+	c #953B27",
"b2+	c #7D2814",
"c2+	c #8B665B",
"d2+	c #773826",
"e2+	c #773321",
"f2+	c #782E1C",
"g2+	c #681E12",
"h2+	c #651D12",
"i2+	c #7C2210",
"j2+	c #963019",
"k2+	c #A72F19",
"l2+	c #A9311A",
"m2+	c #993019",
"n2+	c #953C26",
"o2+	c #8B685C",
"p2+	c #763A28",
"q2+	c #782415",
"r2+	c #772216",
"s2+	c #611B10",
"t2+	c #5D1C0E",
"u2+	c #5B1D0F",
"v2+	c #6C2012",
"w2+	c #73200F",
"x2+	c #8C2411",
"y2+	c #49130B",
"z2+	c #753A29",
"A2+	c #753221",
"B2+	c #7A301F",
"C2+	c #671B0C",
"D2+	c #5A1C0D",
"E2+	c #682010",
"F2+	c #9E2F1F",
"G2+	c #A22B18",
"H2+	c #A32D18",
"I2+	c #9A2B15",
"J2+	c #9C2B16",
"K2+	c #5C362F",
"L2+	c #793D2B",
"M2+	c #762716",
"N2+	c #781D0D",
"O2+	c #7B1D10",
"P2+	c #7A2114",
"Q2+	c #741D11",
"R2+	c #6D1C10",
"S2+	c #671D0D",
"T2+	c #691B0D",
"U2+	c #6F1F12",
"V2+	c #6E1F13",
"W2+	c #691E12",
"X2+	c #6A1E12",
"Y2+	c #A7301A",
"Z2+	c #922914",
"`2+	c #7C2B14",
" 3+	c #6D4942",
".3+	c #773B2C",
"+3+	c #72311E",
"@3+	c #712312",
"#3+	c #7D2013",
"$3+	c #701F13",
"%3+	c #691F13",
"&3+	c #5E2112",
"*3+	c #9D2817",
"=3+	c #A0311B",
"-3+	c #982E18",
";3+	c #9E311B",
">3+	c #9F2D18",
",3+	c #49130D",
"'3+	c #793C2D",
")3+	c #712E1C",
"!3+	c #752614",
"~3+	c #7C1D0F",
"{3+	c #731E12",
"]3+	c #642013",
"^3+	c #9C2F19",
"/3+	c #903C27",
"(3+	c #802A11",
"_3+	c #421009",
":3+	c #7B3D2B",
"<3+	c #7A2717",
"[3+	c #652011",
"}3+	c #631F10",
"|3+	c #662112",
"13+	c #A32E18",
"23+	c #AB311E",
"33+	c #9B351E",
"43+	c #7B260F",
"53+	c #481913",
"63+	c #7A3C2B",
"73+	c #74311F",
"83+	c #6E2714",
"93+	c #7B2215",
"03+	c #651F10",
"a3+	c #671C0C",
"b3+	c #A12C17",
"c3+	c #8C3A25",
"d3+	c #782913",
"e3+	c #48110B",
"f3+	c #793C2B",
"g3+	c #712D1D",
"h3+	c #782214",
"i3+	c #732215",
"j3+	c #671F13",
"k3+	c #A62F19",
"l3+	c #AB321F",
"m3+	c #A93320",
"n3+	c #A12E18",
"o3+	c #9E331C",
"p3+	c #9A2F19",
"q3+	c #89311B",
"r3+	c #742913",
"s3+	c #7A3E2E",
"t3+	c #6F2D1A",
"u3+	c #7D1E12",
"v3+	c #6E1D11",
"w3+	c #6B2216",
"x3+	c #7F2311",
"y3+	c #AC3320",
"z3+	c #9E3B23",
"A3+	c #A1361E",
"B3+	c #A1321B",
"C3+	c #A52F1D",
"D3+	c #8D361F",
"E3+	c #732811",
"F3+	c #7E5E54",
"G3+	c #783C2A",
"H3+	c #773524",
"I3+	c #6D2B19",
"J3+	c #712614",
"K3+	c #7C2515",
"L3+	c #802215",
"M3+	c #7E2115",
"N3+	c #742316",
"O3+	c #752315",
"P3+	c #742518",
"Q3+	c #731F13",
"R3+	c #AD3421",
"S3+	c #9E341D",
"T3+	c #963B23",
"U3+	c #A12D17",
"V3+	c #9B2E18",
"W3+	c #8B3A29",
"X3+	c #73250F",
"Y3+	c #45100A",
"Z3+	c #763A29",
"`3+	c #792414",
" 4+	c #842213",
".4+	c #832316",
"+4+	c #7E2114",
"@4+	c #862417",
"#4+	c #712111",
"$4+	c #6E2213",
"%4+	c #A22D17",
"&4+	c #A32A17",
"*4+	c #A42C17",
"=4+	c #A02C16",
"-4+	c #A73A22",
";4+	c #92351E",
">4+	c #8E341F",
",4+	c #883B28",
"'4+	c #6E210D",
")4+	c #7C3C2B",
"!4+	c #753322",
"~4+	c #702D1A",
"{4+	c #872316",
"]4+	c #7D2417",
"^4+	c #7F2416",
"/4+	c #88281A",
"(4+	c #A62F1D",
"_4+	c #A6301A",
":4+	c #AB3420",
"<4+	c #8A3925",
"[4+	c #742611",
"}4+	c #66483E",
"|4+	c #7B3E2B",
"14+	c #793323",
"24+	c #742D1C",
"34+	c #762815",
"44+	c #802113",
"54+	c #832012",
"64+	c #842013",
"74+	c #7B2517",
"84+	c #AA311E",
"94+	c #A22A16",
"04+	c #A7301B",
"a4+	c #982B16",
"b4+	c #8A3B27",
"c4+	c #72210B",
"d4+	c #491E17",
"e4+	c #7B2F1C",
"f4+	c #822011",
"g4+	c #95321D",
"h4+	c #A22E18",
"i4+	c #9E2E16",
"j4+	c #8B3926",
"k4+	c #6F220E",
"l4+	c #7E402F",
"m4+	c #793321",
"n4+	c #722D1B",
"o4+	c #752C18",
"p4+	c #822111",
"q4+	c #9D2D17",
"r4+	c #993C25",
"s4+	c #862C19",
"t4+	c #A5311B",
"u4+	c #AD321F",
"v4+	c #A9301D",
"w4+	c #A92F1B",
"x4+	c #72220E",
"y4+	c #440B06",
"z4+	c #7B3C2C",
"A4+	c #712B18",
"B4+	c #7D200F",
"C4+	c #7E2618",
"D4+	c #9C3020",
"E4+	c #812512",
"F4+	c #A92F1A",
"G4+	c #9D2915",
"H4+	c #A52E18",
"I4+	c #A93321",
"J4+	c #722512",
"K4+	c #805D51",
"L4+	c #742B18",
"M4+	c #752413",
"N4+	c #822315",
"O4+	c #8B2D18",
"P4+	c #A0321B",
"Q4+	c #AA2F1C",
"R4+	c #AE3624",
"S4+	c #9B2A15",
"T4+	c #962C16",
"U4+	c #922F1A",
"V4+	c #7A3726",
"W4+	c #763423",
"X4+	c #742815",
"Y4+	c #801F12",
"Z4+	c #86281A",
"`4+	c #AE331F",
" 5+	c #9D2914",
".5+	c #A42B16",
"+5+	c #7F3828",
"@5+	c #72311F",
"#5+	c #773622",
"$5+	c #753220",
"%5+	c #742A18",
"&5+	c #802114",
"*5+	c #862415",
"=5+	c #952A19",
"-5+	c #9B2D1C",
";5+	c #AB3321",
">5+	c #AA301E",
",5+	c #AA3220",
"'5+	c #A42B17",
")5+	c #A12B15",
"!5+	c #8C3521",
"~5+	c #815B54",
"{5+	c #75311E",
"]5+	c #722B19",
"^5+	c #782818",
"/5+	c #792311",
"(5+	c #852417",
"_5+	c #852315",
":5+	c #812412",
"<5+	c #9C2914",
"[5+	c #9F2B16",
"}5+	c #992E18",
"|5+	c #8B3821",
"15+	c #712C21",
"25+	c #7D3B27",
"35+	c #6F2D1C",
"45+	c #732915",
"55+	c #7A2A18",
"65+	c #812A1B",
"75+	c #802311",
"85+	c #8B2A16",
"95+	c #A53220",
"05+	c #882E18",
"a5+	c #A7331C",
"b5+	c #9F2A16",
"c5+	c #8C3520",
"d5+	c #943B2A",
"e5+	c #4B1E12",
"f5+	c #763B27",
"g5+	c #7A3928",
"h5+	c #77301E",
"i5+	c #772B17",
"j5+	c #762A17",
"k5+	c #832211",
"l5+	c #972B1B",
"m5+	c #A83523",
"n5+	c #A8311F",
"o5+	c #A8331C",
"p5+	c #8B3521",
"q5+	c #943D27",
"r5+	c #8B5D55",
"s5+	c #773121",
"t5+	c #772F1D",
"u5+	c #852113",
"v5+	c #A22C17",
"w5+	c #992F19",
"x5+	c #AE3522",
"y5+	c #8D2C17",
"z5+	c #912D18",
"A5+	c #6F3222",
"B5+	c #7D3C2A",
"C5+	c #823D2C",
"D5+	c #792817",
"E5+	c #823624",
"F5+	c #733423",
"G5+	c #7F3728",
"H5+	c #7F3627",
"I5+	c #823524",
"J5+	c #732111",
"K5+	c #842718",
"L5+	c #8A2211",
"M5+	c #962A1B",
"N5+	c #952717",
"O5+	c #A33422",
"P5+	c #A6311F",
"Q5+	c #87301B",
"R5+	c #A52D18",
"S5+	c #8D5852",
"T5+	c #735A4E",
"U5+	c #7F3B2C",
"V5+	c #6A2E1A",
"W5+	c #753524",
"X5+	c #793424",
"Y5+	c #823726",
"Z5+	c #7B1F0E",
"`5+	c #982B1B",
" 6+	c #AA3321",
".6+	c #98422D",
"+6+	c #A8311A",
"@6+	c #A43019",
"#6+	c #A52E17",
"$6+	c #943825",
"%6+	c #863522",
"&6+	c #7A2C20",
"*6+	c #6D2D1E",
"=6+	c #7D3B2A",
"-6+	c #703020",
";6+	c #873725",
">6+	c #7F2716",
",6+	c #732313",
"'6+	c #9E2D1C",
")6+	c #A93422",
"!6+	c #912B16",
"~6+	c #A42F18",
"{6+	c #903622",
"]6+	c #873925",
"^6+	c #8B331E",
"/6+	c #7C3529",
"(6+	c #672917",
"_6+	c #7E3D2C",
":6+	c #6E3323",
"<6+	c #642412",
"[6+	c #7D3021",
"}6+	c #8C3425",
"|6+	c #722518",
"16+	c #8C2718",
"26+	c #A2331C",
"36+	c #A3351E",
"46+	c #9C2B15",
"56+	c #933824",
"66+	c #86311D",
"76+	c #8C3924",
"86+	c #661203",
"96+	c #642F1E",
"06+	c #7E3A27",
"a6+	c #7E3828",
"b6+	c #793625",
"c6+	c #6C2413",
"d6+	c #863221",
"e6+	c #8B3625",
"f6+	c #632716",
"g6+	c #862517",
"h6+	c #8E2719",
"i6+	c #8D2517",
"j6+	c #902A1B",
"k6+	c #9F2E1D",
"l6+	c #822E1C",
"m6+	c #641005",
"n6+	c #71574E",
"o6+	c #843E2C",
"p6+	c #7E3628",
"q6+	c #7F3826",
"r6+	c #652311",
"s6+	c #6F291B",
"t6+	c #903020",
"u6+	c #79281B",
"v6+	c #732E1E",
"w6+	c #6B2719",
"x6+	c #8F2F19",
"y6+	c #913823",
"z6+	c #953720",
"A6+	c #A43820",
"B6+	c #A63B23",
"C6+	c #AB321E",
"D6+	c #862F19",
"E6+	c #7A2915",
"F6+	c #913925",
"G6+	c #3D1511",
"H6+	c #853524",
"I6+	c #7D3523",
"J6+	c #843826",
"K6+	c #85311F",
"L6+	c #8A3122",
"M6+	c #952A1A",
"N6+	c #A73321",
"O6+	c #8B301A",
"P6+	c #83301A",
"Q6+	c #7D2F1A",
"R6+	c #8B3A24",
"S6+	c #822E1A",
"T6+	c #822D18",
"U6+	c #96341E",
"V6+	c #A5311A",
"W6+	c #9C3119",
"X6+	c #AF3621",
"Y6+	c #AD3321",
"Z6+	c #892B17",
"`6+	c #9B3C24",
" 7+	c #913B25",
".7+	c #853729",
"+7+	c #7F3623",
"@7+	c #813622",
"#7+	c #8B2F1F",
"$7+	c #8F2E19",
"%7+	c #893621",
"&7+	c #86351F",
"*7+	c #8B3C26",
"=7+	c #84331E",
"-7+	c #7C3825",
";7+	c #86311F",
">7+	c #903121",
",7+	c #84311C",
"'7+	c #893723",
")7+	c #932C16",
"!7+	c #923A26",
"~7+	c #842E1B",
"{7+	c #862B15",
"]7+	c #93361F",
"^7+	c #6F4B46",
"/7+	c #8E3323",
"(7+	c #88331D",
"_7+	c #87311D",
":7+	c #8A331D",
"<7+	c #A13019",
"[7+	c #9A2D17",
"}7+	c #AC442B",
"|7+	c #A44A33",
"17+	c #923F29",
"27+	c #95412C",
"37+	c #913C27",
"47+	c #8A3420",
"57+	c #802E1A",
"67+	c #742A14",
"77+	c #471C15",
"87+	c #79291A",
"97+	c #953B28",
"07+	c #9C3C28",
"a7+	c #AB3C2A",
"b7+	c #923520",
"c7+	c #992F18",
"d7+	c #AC4128",
"e7+	c #963F28",
"f7+	c #8B3C29",
"g7+	c #823B27",
"h7+	c #7C341E",
"i7+	c #8F3E28",
"j7+	c #9A402C",
"k7+	c #9C3B26",
"l7+	c #842F18",
"m7+	c #977E78",
"n7+	c #5D281F",
"o7+	c #722819",
"p7+	c #953525",
"q7+	c #6A2110",
"r7+	c #702413",
"s7+	c #A9432F",
"t7+	c #A03B27",
"u7+	c #93331E",
"v7+	c #89321C",
"w7+	c #9F321B",
"x7+	c #892F1C",
"y7+	c #7B2C18",
"z7+	c #762C17",
"A7+	c #792A16",
"B7+	c #88351F",
"C7+	c #9C3E28",
"D7+	c #A14129",
"E7+	c #A5442A",
"F7+	c #A4432A",
"G7+	c #9D3821",
"H7+	c #60231B",
"I7+	c #957973",
"J7+	c #5D2A1F",
"K7+	c #592213",
"L7+	c #642514",
"M7+	c #8D2F20",
"N7+	c #913222",
"O7+	c #832B1C",
"P7+	c #712412",
"Q7+	c #A1422D",
"R7+	c #A34531",
"S7+	c #954631",
"T7+	c #913F2B",
"U7+	c #993E28",
"V7+	c #A3452F",
"W7+	c #85311A",
"X7+	c #99402A",
"Y7+	c #9C412A",
"Z7+	c #A24129",
"`7+	c #A7442C",
" 8+	c #A53E25",
".8+	c #B94E35",
"+8+	c #A6452C",
"@8+	c #A14028",
"#8+	c #A74730",
"$8+	c #A6432B",
"%8+	c #AA452C",
"&8+	c #AC482E",
"*8+	c #A8462B",
"=8+	c #A7462D",
"-8+	c #AB4831",
";8+	c #7E5750",
">8+	c #95786F",
",8+	c #5F2D21",
"'8+	c #5F2517",
")8+	c #531F0E",
"!8+	c #5A1F10",
"~8+	c #973827",
"{8+	c #903925",
"]8+	c #8E3A24",
"^8+	c #8F3825",
"/8+	c #8F3A25",
"(8+	c #91402A",
"_8+	c #883C28",
":8+	c #873C28",
"<8+	c #8D3C27",
"[8+	c #933B27",
"}8+	c #9C422C",
"|8+	c #A24732",
"18+	c #9D422C",
"28+	c #A74530",
"38+	c #AC462D",
"48+	c #A43D25",
"58+	c #A8452E",
"68+	c #B84D34",
"78+	c #A3422A",
"88+	c #AF462F",
"98+	c #B74E36",
"08+	c #B84E34",
"a8+	c #B0472E",
"b8+	c #AC472D",
"c8+	c #AA462B",
"d8+	c #A9472F",
"e8+	c #A2402A",
"f8+	c #90351F",
"g8+	c #7D2B17",
"h8+	c #702917",
"i8+	c #72301F",
"j8+	c #7F574A",
"k8+	c #9D7F75",
"l8+	c #642F23",
"m8+	c #662819",
"n8+	c #5B2211",
"o8+	c #551C0C",
"p8+	c #8D2E1E",
"q8+	c #A13E2C",
"r8+	c #9C402D",
"s8+	c #802C18",
"t8+	c #7C2814",
"u8+	c #7B2C1A",
"v8+	c #7C3420",
"w8+	c #863926",
"x8+	c #853724",
"y8+	c #AB422D",
"z8+	c #A7422C",
"A8+	c #AB4931",
"B8+	c #9C402B",
"C8+	c #A8422D",
"D8+	c #A84229",
"E8+	c #962E17",
"F8+	c #B5452C",
"G8+	c #AF452C",
"H8+	c #B3482E",
"I8+	c #B04A2E",
"J8+	c #9F4227",
"K8+	c #A5452C",
"L8+	c #B04A31",
"M8+	c #A03B23",
"N8+	c #842F1A",
"O8+	c #80574D",
"P8+	c #A6887C",
"Q8+	c #683023",
"R8+	c #6A2D1C",
"S8+	c #622716",
"T8+	c #5D2212",
"U8+	c #501909",
"V8+	c #652213",
"W8+	c #702416",
"X8+	c #882C1D",
"Y8+	c #993625",
"Z8+	c #A03B29",
"`8+	c #9F3D2A",
" 9+	c #983C29",
".9+	c #9C412C",
"+9+	c #A1432E",
"@9+	c #A74532",
"#9+	c #882714",
"$9+	c #B3472E",
"%9+	c #AD4A32",
"&9+	c #B3462C",
"*9+	c #B14B32",
"=9+	c #A84930",
"-9+	c #89361E",
";9+	c #953C24",
">9+	c #973922",
",9+	c #6D2616",
"'9+	c #762A18",
")9+	c #823521",
"!9+	c #8B645C",
"~9+	c #6B3325",
"{9+	c #6C2C1B",
"]9+	c #6A2A1A",
"^9+	c #662718",
"/9+	c #5C2011",
"(9+	c #4A1506",
"_9+	c #6F2211",
":9+	c #B54330",
"<9+	c #AB4730",
"[9+	c #B34D35",
"}9+	c #88301A",
"|9+	c #8E301B",
"19+	c #93301C",
"29+	c #BA4D33",
"39+	c #BE5034",
"49+	c #BA4D32",
"59+	c #C35237",
"69+	c #A3472F",
"79+	c #A84830",
"89+	c #7E3620",
"99+	c #7E311A",
"09+	c #852E18",
"a9+	c #7C2B18",
"b9+	c #682411",
"c9+	c #873C25",
"d9+	c #8D685D",
"e9+	c #6B3125",
"f9+	c #702F1C",
"g9+	c #6A2715",
"h9+	c #682213",
"i9+	c #551B0D",
"j9+	c #481305",
"k9+	c #571D0D",
"l9+	c #662312",
"m9+	c #762616",
"n9+	c #7B271A",
"o9+	c #A63C25",
"p9+	c #9E3F28",
"q9+	c #AD4C35",
"r9+	c #AC4734",
"s9+	c #993B28",
"t9+	c #963E28",
"u9+	c #98402A",
"v9+	c #A6452E",
"w9+	c #973F27",
"x9+	c #B1513B",
"y9+	c #C45639",
"z9+	c #C7573B",
"A9+	c #C15337",
"B9+	c #BC4C32",
"C9+	c #A63D26",
"D9+	c #A0432A",
"E9+	c #893821",
"F9+	c #7A311D",
"G9+	c #4F1306",
"H9+	c #67210E",
"I9+	c #752914",
"J9+	c #80584F",
"K9+	c #6F3628",
"L9+	c #712F1C",
"M9+	c #692211",
"N9+	c #65200F",
"O9+	c #4D180B",
"P9+	c #461204",
"Q9+	c #4F1A0B",
"R9+	c #B14A32",
"S9+	c #AF4D35",
"T9+	c #A54A33",
"U9+	c #964028",
"V9+	c #994129",
"W9+	c #B24C33",
"X9+	c #9D462E",
"Y9+	c #B8482E",
"Z9+	c #BB4D31",
"`9+	c #C05135",
" 0+	c #BD4D33",
".0+	c #B74329",
"+0+	c #B7452B",
"@0+	c #95371F",
"#0+	c #92341E",
"$0+	c #682414",
"%0+	c #4E1304",
"&0+	c #7A2816",
"*0+	c #81301B",
"=0+	c #876459",
"-0+	c #6B372A",
";0+	c #722D1D",
">0+	c #702A1A",
",0+	c #6C2615",
"'0+	c #692110",
")0+	c #541B0E",
"!0+	c #411003",
"~0+	c #5C2014",
"{0+	c #591F13",
"]0+	c #5A1F0E",
"^0+	c #6B2313",
"/0+	c #993520",
"(0+	c #A64028",
"_0+	c #B64D37",
":0+	c #A54027",
"<0+	c #9D432C",
"[0+	c #A04832",
"}0+	c #B14D33",
"|0+	c #A74A31",
"10+	c #9B442C",
"20+	c #B5452B",
"30+	c #B8442A",
"40+	c #8A2E1A",
"50+	c #561B0E",
"60+	c #8F3F29",
"70+	c #693A34",
"80+	c #683829",
"90+	c #70301E",
"00+	c #511A0D",
"a0+	c #4A1609",
"b0+	c #411407",
"c0+	c #681F0F",
"d0+	c #7A2210",
"e0+	c #A93D25",
"f0+	c #9E4029",
"g0+	c #913720",
"h0+	c #9C3D26",
"i0+	c #B64B32",
"j0+	c #AB422A",
"k0+	c #A53F26",
"l0+	c #A63B22",
"m0+	c #AB3E25",
"n0+	c #B43E26",
"o0+	c #8A2B16",
"p0+	c #772310",
"q0+	c #5B1708",
"r0+	c #4C1104",
"s0+	c #4A1004",
"t0+	c #602010",
"u0+	c #872B17",
"v0+	c #571812",
"w0+	c #6A382A",
"x0+	c #4C180C",
"y0+	c #401309",
"z0+	c #521C0E",
"A0+	c #571C0E",
"B0+	c #5E2012",
"C0+	c #AA4129",
"D0+	c #9E3F26",
"E0+	c #90341C",
"F0+	c #983D27",
"G0+	c #9B3E26",
"H0+	c #A4402A",
"I0+	c #A63A22",
"J0+	c #A53D24",
"K0+	c #A8412A",
"L0+	c #A44129",
"M0+	c #932C17",
"N0+	c #470D03",
"O0+	c #892B16",
"P0+	c #91422D",
"Q0+	c #72301E",
"R0+	c #763120",
"S0+	c #561B0D",
"T0+	c #3C0E04",
"U0+	c #721D0D",
"V0+	c #721A0C",
"W0+	c #822411",
"X0+	c #4D1407",
"Y0+	c #4F1003",
"Z0+	c #892713",
"`0+	c #8E2714",
" a+	c #8B2E1B",
".a+	c #893D28",
"+a+	c #4F1008",
"@a+	c #6C3629",
"#a+	c #76301F",
"$a+	c #722615",
"%a+	c #6F2311",
"&a+	c #742413",
"*a+	c #53170E",
"=a+	c #410C04",
"-a+	c #440E03",
";a+	c #470F03",
">a+	c #491006",
",a+	c #752311",
"'a+	c #9A3829",
")a+	c #722416",
"!a+	c #521506",
"~a+	c #4E0F05",
"{a+	c #842714",
"]a+	c #541F1A",
"^a+	c #642F1F",
"/a+	c #743420",
"(a+	c #651E12",
"_a+	c #641F11",
":a+	c #681E0D",
"<a+	c #6A1D12",
"[a+	c #671B11",
"}a+	c #661C12",
"|a+	c #4D1005",
"1a+	c #4D1007",
"2a+	c #4A1005",
"3a+	c #561B0C",
"4a+	c #651A0B",
"5a+	c #541206",
"6a+	c #541106",
"7a+	c #4F0F04",
"8a+	c #521003",
"9a+	c #531005",
"0a+	c #541004",
"aa+	c #5F1608",
"ba+	c #68180A",
"ca+	c #86331F",
"da+	c #541912",
"ea+	c #653124",
"fa+	c #79311F",
"ga+	c #7A2718",
"ha+	c #531306",
"ia+	c #511004",
"ja+	c #511005",
"ka+	c #530F04",
"la+	c #561208",
"ma+	c #591106",
"na+	c #581206",
"oa+	c #551005",
"pa+	c #561205",
"qa+	c #541104",
"ra+	c #541003",
"sa+	c #571206",
"ta+	c #501005",
"ua+	c #521005",
"va+	c #541105",
"wa+	c #581308",
"xa+	c #581207",
"ya+	c #561005",
"za+	c #601608",
"Aa+	c #8A2713",
"Ba+	c #8B321D",
"Ca+	c #83331D",
"Da+	c #8F3E26",
"Ea+	c #521107",
"Fa+	c #832618",
"Ga+	c #862613",
"Ha+	c #942D18",
"Ia+	c #863720",
"Ja+	c #8B3B23",
"Ka+	c #561107",
"La+	c #6A3323",
"Ma+	c #72331F",
"Na+	c #812214",
"Oa+	c #812613",
"Pa+	c #9A3323",
"Qa+	c #8E2C1C",
"Ra+	c #80301D",
"Sa+	c #942714",
"Ta+	c #8E2814",
"Ua+	c #8F2714",
"Va+	c #8A3722",
"Wa+	c #570E07",
"Xa+	c #643021",
"Ya+	c #743220",
"Za+	c #902E18",
"`a+	c #873522",
" b+	c #7C301D",
".b+	c #8C2E19",
"+b+	c #8D3D28",
"@b+	c #4E0D06",
"#b+	c #663122",
"$b+	c #773320",
"%b+	c #912614",
"&b+	c #8C311B",
"*b+	c #863923",
"=b+	c #833723",
"-b+	c #8A3822",
";b+	c #541005",
">b+	c #8C2D18",
",b+	c #862210",
"'b+	c #86361F",
")b+	c #8D331C",
"!b+	c #8B2711",
"~b+	c #893824",
"{b+	c #8E3E26",
"]b+	c #510F06",
"^b+	c #642C1B",
"/b+	c #753320",
"(b+	c #762F1C",
"_b+	c #752615",
":b+	c #902416",
"<b+	c #9C361E",
"[b+	c #952E18",
"}b+	c #933620",
"|b+	c #892E19",
"1b+	c #4F0E05",
"2b+	c #5C2A1A",
"3b+	c #872413",
"4b+	c #7C2513",
"5b+	c #88331F",
"6b+	c #962F1A",
"7b+	c #98341E",
"8b+	c #9A351E",
"9b+	c #B03B28",
"0b+	c #8C2B16",
"ab+	c #8D2F19",
"bb+	c #571106",
"cb+	c #622B1A",
"db+	c #742C19",
"eb+	c #942717",
"fb+	c #7F2A16",
"gb+	c #913722",
"hb+	c #9A2814",
"ib+	c #581105",
"jb+	c #742F1D",
"kb+	c #883320",
"lb+	c #B0361F",
"mb+	c #B13822",
"nb+	c #9A341D",
"ob+	c #9A321B",
"pb+	c #932B16",
"qb+	c #923D26",
"rb+	c #4E0E06",
"sb+	c #632B1D",
"tb+	c #732F1C",
"ub+	c #6E2210",
"vb+	c #67200D",
"wb+	c #A4311A",
"xb+	c #9D3B23",
"yb+	c #8F2A15",
"zb+	c #912D17",
"Ab+	c #622C1C",
"Bb+	c #723220",
"Cb+	c #742514",
"Db+	c #6B2412",
"Eb+	c #922617",
"Fb+	c #992A19",
"Gb+	c #98321C",
"Hb+	c #A2422B",
"Ib+	c #91351F",
"Jb+	c #AF3420",
"Kb+	c #96311A",
"Lb+	c #8F3F27",
"Mb+	c #4E1206",
"Nb+	c #703120",
"Ob+	c #74311E",
"Pb+	c #962514",
"Qb+	c #993423",
"Rb+	c #952A15",
"Sb+	c #9B3822",
"Tb+	c #94331C",
"Ub+	c #92311B",
"Vb+	c #A13C24",
"Wb+	c #A33D24",
"Xb+	c #9E361F",
"Yb+	c #902814",
"Zb+	c #521004",
"`b+	c #712816",
" c+	c #9D2C1B",
".c+	c #8A301A",
"+c+	c #A9311B",
"@c+	c #A23E24",
"#c+	c #8A3721",
"$c+	c #86341E",
"%c+	c #4E0B03",
"&c+	c #602919",
"*c+	c #6E301F",
"=c+	c #712A18",
"-c+	c #A12F1E",
";c+	c #8D3622",
">c+	c #A22F18",
",c+	c #992C16",
"'c+	c #862D18",
")c+	c #883620",
"!c+	c #8B3C22",
"~c+	c #460D04",
"{c+	c #5E2A1A",
"]c+	c #6C3120",
"^c+	c #6D2C19",
"/c+	c #722111",
"(c+	c #8B311B",
"_c+	c #923621",
":c+	c #AD341F",
"<c+	c #AC341E",
"[c+	c #972E18",
"}c+	c #A4331C",
"|c+	c #882F1C",
"1c+	c #843521",
"2c+	c #883B23",
"3c+	c #6C311F",
"4c+	c #733220",
"5c+	c #9B2D17",
"6c+	c #992B1B",
"7c+	c #823822",
"8c+	c #823720",
"9c+	c #410D02",
"0c+	c #602619",
"ac+	c #6D3523",
"bc+	c #6F2E1D",
"cc+	c #722C19",
"dc+	c #6D2816",
"ec+	c #6F2715",
"fc+	c #982A19",
"gc+	c #9A2918",
"hc+	c #923926",
"ic+	c #A52F19",
"jc+	c #B33A25",
"kc+	c #882C17",
"lc+	c #7A3119",
"mc+	c #79361D",
"nc+	c #6E3121",
"oc+	c #6F2F1F",
"pc+	c #6F2C1B",
"qc+	c #6C2815",
"rc+	c #682514",
"sc+	c #8C2313",
"tc+	c #962919",
"uc+	c #8B3724",
"vc+	c #973B26",
"wc+	c #7E2D19",
"xc+	c #76301C",
"yc+	c #7B3923",
"zc+	c #682C1A",
"Ac+	c #6F2817",
"Bc+	c #6C2817",
"Cc+	c #672716",
"Dc+	c #A0301F",
"Ec+	c #A33222",
"Fc+	c #82311D",
"Gc+	c #8A311D",
"Hc+	c #9F2E18",
"Ic+	c #892612",
"Jc+	c #7B2D19",
"Kc+	c #773621",
"Lc+	c #7F3824",
"Mc+	c #682918",
"Nc+	c #722F1F",
"Oc+	c #722817",
"Pc+	c #6E2716",
"Qc+	c #662515",
"Rc+	c #702312",
"Sc+	c #83301E",
"Tc+	c #7C2A15",
"Uc+	c #99331B",
"Vc+	c #A6331C",
"Wc+	c #81321E",
"Xc+	c #7C3620",
"Yc+	c #6E2917",
"Zc+	c #6A2513",
"`c+	c #8E2612",
" d+	c #82311C",
".d+	c #853924",
"+d+	c #7F351C",
"@d+	c #6D301D",
"#d+	c #702C1C",
"$d+	c #732616",
"%d+	c #722212",
"&d+	c #9E2F1E",
"*d+	c #9B3E29",
"=d+	c #9D2C16",
"-d+	c #7D351B",
";d+	c #46130C",
">d+	c #6B2A15",
",d+	c #6D3221",
"'d+	c #712A1A",
")d+	c #6F2614",
"!d+	c #6F2110",
"~d+	c #943823",
"{d+	c #943822",
"]d+	c #9C3620",
"^d+	c #A73820",
"/d+	c #9A3019",
"(d+	c #972B16",
"_d+	c #9D2E18",
":d+	c #97301B",
"<d+	c #81321C",
"[d+	c #7A321B",
"}d+	c #4F1C0D",
"|d+	c #692D1D",
"1d+	c #6F2C1C",
"2d+	c #6F2816",
"3d+	c #912914",
"4d+	c #852D18",
"5d+	c #8D301B",
"6d+	c #8C331D",
"7d+	c #92321B",
"8d+	c #A6331B",
"9d+	c #982F19",
"0d+	c #86311B",
"ad+	c #7E331C",
"bd+	c #833824",
"cd+	c #642413",
"dd+	c #763422",
"ed+	c #6B2C1B",
"fd+	c #762617",
"gd+	c #AB412C",
"hd+	c #A02F19",
"id+	c #A13120",
"jd+	c #A4301F",
"kd+	c #81361F",
"ld+	c #571C0D",
"md+	c #622110",
"nd+	c #6B2B1A",
"od+	c #712113",
"pd+	c #8C2A16",
"qd+	c #973A24",
"rd+	c #A03120",
"sd+	c #86301A",
"td+	c #80321B",
"ud+	c #863820",
"vd+	c #5F2311",
"wd+	c #6E2F1C",
"xd+	c #692B19",
"yd+	c #6D2C1B",
"zd+	c #8F291A",
"Ad+	c #8B2718",
"Bd+	c #9C2F1E",
"Cd+	c #962914",
"Dd+	c #8B2F18",
"Ed+	c #83341F",
"Fd+	c #7D301A",
"Gd+	c #75321E",
"Hd+	c #6F311E",
"Id+	c #692816",
"Jd+	c #712513",
"Kd+	c #A5351E",
"Ld+	c #932713",
"Md+	c #8D2814",
"Nd+	c #8A321D",
"Od+	c #82341D",
"Pd+	c #823820",
"Qd+	c #481405",
"Rd+	c #72301D",
"Sd+	c #6B2F1D",
"Td+	c #642918",
"Ud+	c #892819",
"Vd+	c #832B16",
"Wd+	c #8F2913",
"Xd+	c #942C17",
"Yd+	c #902914",
"Zd+	c #7E311D",
"`d+	c #4C1305",
" e+	c #5B210F",
".e+	c #692E1D",
"+e+	c #8A321F",
"@e+	c #822E19",
"#e+	c #A5331C",
"$e+	c #9C2814",
"%e+	c #962714",
"&e+	c #842F1B",
"*e+	c #86341C",
"=e+	c #591D0D",
"-e+	c #6E2E1C",
";e+	c #6C2D1D",
">e+	c #6B2D1D",
",e+	c #8A2618",
"'e+	c #84331D",
")e+	c #83321D",
"!e+	c #561D0E",
"~e+	c #6B2D1C",
"{e+	c #6A2414",
"]e+	c #8B2314",
"^e+	c #912A15",
"/e+	c #96311B",
"(e+	c #AE3420",
"_e+	c #A42F1D",
":e+	c #7F311A",
"<e+	c #561F11",
"[e+	c #6E2E1E",
"}e+	c #6F1E0D",
"|e+	c #76210F",
"1e+	c #AC311D",
"2e+	c #AD321E",
"3e+	c #952713",
"4e+	c #80331D",
"5e+	c #541E0F",
"6e+	c #6C2B1A",
"7e+	c #732A1A",
"8e+	c #742412",
"9e+	c #912618",
"0e+	c #A62F18",
"ae+	c #9C3019",
"be+	c #852D17",
"ce+	c #7C301A",
"de+	c #532012",
"ee+	c #692818",
"fe+	c #6B2716",
"ge+	c #902613",
"he+	c #91301B",
"ie+	c #92301B",
"je+	c #B03723",
"ke+	c #9B2B1A",
"le+	c #8C2D17",
"me+	c #852D19",
"ne+	c #7A3018",
"oe+	c #521E10",
"pe+	c #6E301D",
"qe+	c #6A2C1A",
"re+	c #6E2A18",
"se+	c #6F2616",
"te+	c #8B2211",
"ue+	c #A4371F",
"ve+	c #992A15",
"we+	c #8C2B15",
"xe+	c #80331E",
"ye+	c #431206",
"ze+	c #692D1C",
"Ae+	c #652A1B",
"Be+	c #652818",
"Ce+	c #712617",
"De+	c #652112",
"Ee+	c #902F1F",
"Fe+	c #B43B27",
"Ge+	c #B13825",
"He+	c #A22C16",
"Ie+	c #9D2A14",
"Je+	c #82321D",
"Ke+	c #7F2D16",
"Le+	c #511D0D",
"Me+	c #6B2919",
"Ne+	c #821F0F",
"Oe+	c #932617",
"Pe+	c #8F2112",
"Qe+	c #A33820",
"Re+	c #882512",
"Se+	c #872B16",
"Te+	c #7E2C16",
"Ue+	c #4E1C0A",
"Ve+	c #632D1C",
"We+	c #592816",
"Xe+	c #992D16",
"Ye+	c #942B16",
"Ze+	c #892D18",
"`e+	c #802D16",
" f+	c #622718",
".f+	c #85200E",
"+f+	c #902515",
"@f+	c #A9371F",
"#f+	c #912E19",
"$f+	c #8F2D16",
"%f+	c #993720",
"&f+	c #842C18",
"*f+	c #4D1305",
"=f+	c #4B1B0B",
"-f+	c #652B1B",
";f+	c #662816",
">f+	c #6E281A",
",f+	c #662413",
"'f+	c #9F2F18",
")f+	c #94341D",
"!f+	c #7F311B",
"~f+	c #7C2A14",
"{f+	c #481707",
"]f+	c #672B1A",
"^f+	c #8F2D18",
"/f+	c #95321B",
"(f+	c #81301A",
"_f+	c #7E5B55",
":f+	c #5F2917",
"<f+	c #662918",
"[f+	c #6A2A1B",
"}f+	c #97351E",
"|f+	c #88311C",
"1f+	c #812B19",
"2f+	c #812B18",
"3f+	c #7F2E18",
"4f+	c #531E0D",
"5f+	c #592E27",
"6f+	c #6E2D1F",
"7f+	c #6D3426",
"8f+	c #642F1C",
"9f+	c #692919",
"0f+	c #932914",
"af+	c #852612",
"bf+	c #552D22",
"cf+	c #7E605B",
"df+	c #672E20",
"ef+	c #632F20",
"ff+	c #632D1D",
"gf+	c #642E1D",
"hf+	c #933C26",
"if+	c #8E341E",
"jf+	c #9D3B24",
"kf+	c #8A2915",
"lf+	c #852713",
"mf+	c #6B2E1D",
"nf+	c #6F544C",
"of+	c #55312A",
"pf+	c #612C21",
"qf+	c #682E23",
"rf+	c #5F2F22",
"sf+	c #5A2A1D",
"tf+	c #612B1B",
"uf+	c #682B1C",
"vf+	c #662717",
"wf+	c #7E2719",
"xf+	c #913821",
"yf+	c #9B3D27",
"zf+	c #A7301E",
"Af+	c #7D2613",
"Bf+	c #732F1D",
"Cf+	c #6B3021",
"Df+	c #6A2F1F",
"Ef+	c #723525",
"Ff+	c #582B23",
"Gf+	c #58352B",
"Hf+	c #492517",
"If+	c #632F22",
"Jf+	c #6B3426",
"Kf+	c #662B1F",
"Lf+	c #5B291B",
"Mf+	c #55261A",
"Nf+	c #522618",
"Of+	c #58281A",
"Pf+	c #662111",
"Qf+	c #702C1D",
"Rf+	c #8E341D",
"Sf+	c #8D321C",
"Tf+	c #8F2A14",
"Uf+	c #892A14",
"Vf+	c #8A2E19",
"Wf+	c #703121",
"Xf+	c #6F3221",
"Yf+	c #632D1E",
"Zf+	c #6A3225",
"`f+	c #491911",
" g+	c #71504A",
".g+	c #5E281C",
"+g+	c #6B3123",
"@g+	c #632B1E",
"#g+	c #602B1D",
"$g+	c #5E291C",
"%g+	c #5B2A1E",
"&g+	c #57291E",
"*g+	c #54271B",
"=g+	c #5C2819",
"-g+	c #5B2316",
";g+	c #672718",
">g+	c #662514",
",g+	c #952C16",
"'g+	c #AA3320",
")g+	c #6D2A1A",
"!g+	c #682E1D",
"~g+	c #6D2F21",
"{g+	c #682B1D",
"]g+	c #6B2F1F",
"^g+	c #6C2E22",
"/g+	c #602615",
"(g+	c #46241F",
"_g+	c #755344",
":g+	c #6E3222",
"<g+	c #743526",
"[g+	c #6D3224",
"}g+	c #6C3323",
"|g+	c #6A3020",
"1g+	c #692F20",
"2g+	c #6D3023",
"3g+	c #682D21",
"4g+	c #622C20",
"5g+	c #59281C",
"6g+	c #55281C",
"7g+	c #55281B",
"8g+	c #5A2618",
"9g+	c #5A2315",
"0g+	c #922F19",
"ag+	c #913620",
"bg+	c #953A23",
"cg+	c #AC331D",
"dg+	c #723324",
"eg+	c #6E2E1D",
"fg+	c #7D3527",
"gg+	c #7A3221",
"hg+	c #7A3424",
"ig+	c #5C302B",
"jg+	c #66352A",
"kg+	c #723727",
"lg+	c #6E3626",
"mg+	c #69301F",
"ng+	c #662C1F",
"og+	c #692E21",
"pg+	c #652B1E",
"qg+	c #632A1D",
"rg+	c #5A291F",
"sg+	c #4C251A",
"tg+	c #52281B",
"ug+	c #502519",
"vg+	c #5E2718",
"wg+	c #5F2416",
"xg+	c #722210",
"yg+	c #97351D",
"zg+	c #6E2D1A",
"Ag+	c #6A2C1D",
"Bg+	c #7A3120",
"Cg+	c #762A1E",
"Dg+	c #6E4740",
"Eg+	c #68403A",
"Fg+	c #6B3023",
"Gg+	c #683223",
"Hg+	c #6A3123",
"Ig+	c #5F281C",
"Jg+	c #60291D",
"Kg+	c #632A1C",
"Lg+	c #632719",
"Mg+	c #5B271F",
"Ng+	c #290A06",
"Og+	c #35180F",
"Pg+	c #4D2619",
"Qg+	c #4C2118",
"Rg+	c #582516",
"Sg+	c #5A2313",
"Tg+	c #642517",
"Ug+	c #6B200F",
"Vg+	c #831F10",
"Wg+	c #94311B",
"Xg+	c #A03019",
"Yg+	c #9B3922",
"Zg+	c #B03623",
"`g+	c #802512",
" h+	c #632C1E",
".h+	c #622C1F",
"+h+	c #56291E",
"@h+	c #672C1F",
"#h+	c #702D1E",
"$h+	c #69271B",
"%h+	c #53201A",
"&h+	c #6C3022",
"*h+	c #612B20",
"=h+	c #693425",
"-h+	c #6A3224",
";h+	c #682E21",
">h+	c #642C1F",
",h+	c #632C20",
"'h+	c #61291C",
")h+	c #622C1E",
"!h+	c #6A3126",
"~h+	c #51261C",
"{h+	c #150202",
"]h+	c #240E09",
"^h+	c #432317",
"/h+	c #461E14",
"(h+	c #552114",
"_h+	c #5D2415",
":h+	c #742613",
"<h+	c #9A3922",
"[h+	c #912E18",
"}h+	c #9C331B",
"|h+	c #642618",
"1h+	c #5A281C",
"2h+	c #633126",
"3h+	c #2F110B",
"4h+	c #2C0B05",
"5h+	c #793022",
"6h+	c #742D1D",
"7h+	c #833421",
"8h+	c #82301D",
"9h+	c #7F615A",
"0h+	c #6A2A1F",
"ah+	c #683126",
"bh+	c #612D21",
"ch+	c #5E2B21",
"dh+	c #471C0F",
"eh+	c #4D2013",
"fh+	c #55251B",
"gh+	c #5C2B20",
"hh+	c #58281C",
"ih+	c #5F2C20",
"jh+	c #59251A",
"kh+	c #542119",
"lh+	c #140201",
"mh+	c #1B0906",
"nh+	c #351911",
"oh+	c #39190F",
"ph+	c #4E1F13",
"qh+	c #582212",
"rh+	c #612010",
"sh+	c #612515",
"th+	c #63200F",
"uh+	c #772517",
"vh+	c #7B2613",
"wh+	c #A63826",
"xh+	c #8F311C",
"yh+	c #A3321B",
"zh+	c #AA341C",
"Ah+	c #9C2C16",
"Bh+	c #932512",
"Ch+	c #4A1E12",
"Dh+	c #4D2218",
"Eh+	c #160403",
"Fh+	c #541F16",
"Gh+	c #7D3528",
"Hh+	c #782E20",
"Ih+	c #772D1E",
"Jh+	c #762C1D",
"Kh+	c #7B3322",
"Lh+	c #682817",
"Mh+	c #51130A",
"Nh+	c #684439",
"Oh+	c #703322",
"Ph+	c #693429",
"Qh+	c #5C281C",
"Rh+	c #5A281E",
"Sh+	c #3F180E",
"Th+	c #3D170D",
"Uh+	c #3C170C",
"Vh+	c #3D170C",
"Wh+	c #3E170D",
"Xh+	c #2B0A05",
"Yh+	c #190501",
"Zh+	c #180302",
"`h+	c #2E150E",
" i+	c #35180E",
".i+	c #4A1F12",
"+i+	c #522112",
"@i+	c #5D2213",
"#i+	c #5F2112",
"$i+	c #5B2011",
"%i+	c #9F3323",
"&i+	c #8D2E19",
"*i+	c #9F2C15",
"=i+	c #572215",
"-i+	c #471F16",
";i+	c #3F1C13",
">i+	c #1C0402",
",i+	c #210500",
"'i+	c #3A1008",
")i+	c #66281E",
"!i+	c #742D20",
"~i+	c #7C3527",
"{i+	c #7E392B",
"]i+	c #733123",
"^i+	c #69291A",
"/i+	c #642B1C",
"(i+	c #732F1E",
"_i+	c #5B1F17",
":i+	c #793626",
"<i+	c #663323",
"[i+	c #5D2C1E",
"}i+	c #55251A",
"|i+	c #56281D",
"1i+	c #582B1E",
"2i+	c #351106",
"3i+	c #371109",
"4i+	c #1A0402",
"5i+	c #160501",
"6i+	c #29140C",
"7i+	c #35150F",
"8i+	c #471E12",
"9i+	c #522013",
"0i+	c #592314",
"ai+	c #582010",
"bi+	c #5E2211",
"ci+	c #5C1F0F",
"di+	c #8B2516",
"ei+	c #A0341D",
"fi+	c #942F19",
"gi+	c #962F19",
"hi+	c #AC341D",
"ii+	c #842512",
"ji+	c #7D210F",
"ki+	c #5E1E0E",
"li+	c #532015",
"mi+	c #3B180E",
"ni+	c #33130D",
"oi+	c #541C10",
"pi+	c #5C2315",
"qi+	c #541D0F",
"ri+	c #591F0F",
"si+	c #571E0E",
"ti+	c #672D1E",
"ui+	c #6B2E1E",
"vi+	c #8B685A",
"wi+	c #7D3C2E",
"xi+	c #682F23",
"yi+	c #55271B",
"zi+	c #55271C",
"Ai+	c #572A1D",
"Bi+	c #40170C",
"Ci+	c #371409",
"Di+	c #36130A",
"Ei+	c #330F07",
"Fi+	c #180300",
"Gi+	c #1F0804",
"Hi+	c #28110A",
"Ii+	c #2C100C",
"Ji+	c #30130E",
"Ki+	c #431C10",
"Li+	c #502012",
"Mi+	c #552011",
"Ni+	c #5F2414",
"Oi+	c #672215",
"Pi+	c #631F11",
"Qi+	c #91311C",
"Ri+	c #872A15",
"Si+	c #521F15",
"Ti+	c #411B12",
"Ui+	c #37160E",
"Vi+	c #200801",
"Wi+	c #3B1008",
"Xi+	c #562012",
"Yi+	c #551E11",
"Zi+	c #551E0E",
"`i+	c #6F311F",
" j+	c #732F20",
".j+	c #7E3827",
"+j+	c #774A3C",
"@j+	c #783627",
"#j+	c #6F3423",
"$j+	c #693021",
"%j+	c #632B21",
"&j+	c #56261B",
"*j+	c #52271C",
"=j+	c #52291C",
"-j+	c #4E241A",
";j+	c #3D180D",
">j+	c #331006",
",j+	c #341108",
"'j+	c #311007",
")j+	c #2E0E05",
"!j+	c #260D08",
"~j+	c #361A12",
"{j+	c #3E1D16",
"]j+	c #3B1A13",
"^j+	c #3D1B13",
"/j+	c #451E11",
"(j+	c #4B1D10",
"_j+	c #5A2111",
":j+	c #722311",
"<j+	c #A43F2C",
"[j+	c #832613",
"}j+	c #5A1F11",
"|j+	c #501F13",
"1j+	c #471D13",
"2j+	c #401A11",
"3j+	c #39160D",
"4j+	c #2B0C06",
"5j+	c #210601",
"6j+	c #551E10",
"7j+	c #551D0D",
"8j+	c #542111",
"9j+	c #4E1A0E",
"0j+	c #572213",
"aj+	c #632A1B",
"bj+	c #5F2417",
"cj+	c #813C28",
"dj+	c #814C3F",
"ej+	c #632816",
"fj+	c #6D3727",
"gj+	c #653223",
"hj+	c #693023",
"ij+	c #632E1F",
"jj+	c #502419",
"kj+	c #4F2419",
"lj+	c #5E3328",
"mj+	c #562D22",
"nj+	c #562C22",
"oj+	c #592D25",
"pj+	c #52271E",
"qj+	c #532A1F",
"rj+	c #4D251B",
"sj+	c #4B241C",
"tj+	c #442118",
"uj+	c #3C1911",
"vj+	c #37140D",
"wj+	c #3C1912",
"xj+	c #401C14",
"yj+	c #442017",
"zj+	c #491C10",
"Aj+	c #582013",
"Bj+	c #5A2114",
"Cj+	c #5A2113",
"Dj+	c #5F1D10",
"Ej+	c #9B3923",
"Fj+	c #8D2813",
"Gj+	c #8D2915",
"Hj+	c #6A2311",
"Ij+	c #531F0F",
"Jj+	c #542317",
"Kj+	c #4D2015",
"Lj+	c #3F1910",
"Mj+	c #38120A",
"Nj+	c #4A180C",
"Oj+	c #4F1D0D",
"Pj+	c #4F1B0E",
"Qj+	c #551D11",
"Rj+	c #662B1E",
"Sj+	c #793623",
"Tj+	c #89625C",
"Uj+	c #694439",
"Vj+	c #793D2E",
"Wj+	c #6F3325",
"Xj+	c #633123",
"Yj+	c #602E1F",
"Zj+	c #683021",
"`j+	c #6E2F22",
" k+	c #6C2D20",
".k+	c #6A2E1F",
"+k+	c #6A2D20",
"@k+	c #652B1D",
"#k+	c #62291B",
"$k+	c #592619",
"%k+	c #512117",
"&k+	c #4C2014",
"*k+	c #491F14",
"=k+	c #4C2317",
"-k+	c #431B10",
";k+	c #3F190F",
">k+	c #401C12",
",k+	c #441E17",
"'k+	c #482116",
")k+	c #482117",
"!k+	c #472218",
"~k+	c #431A0E",
"{k+	c #4F1D11",
"]k+	c #551D0F",
"^k+	c #5B1F10",
"/k+	c #622113",
"(k+	c #611E11",
"_k+	c #942E18",
":k+	c #A12C16",
"<k+	c #611D0C",
"[k+	c #532216",
"}k+	c #512114",
"|k+	c #542417",
"1k+	c #4D2118",
"2k+	c #41180E",
"3k+	c #461A11",
"4k+	c #512317",
"5k+	c #552416",
"6k+	c #61291E",
"7k+	c #682C1D",
"8k+	c #6C2F21",
"9k+	c #6E3326",
"0k+	c #5C2518",
"ak+	c #6A2D1D",
"bk+	c #723222",
"ck+	c #783523",
"dk+	c #7F341F",
"ek+	c #773B29",
"fk+	c #7E3C2A",
"gk+	c #753425",
"hk+	c #793826",
"ik+	c #773526",
"jk+	c #753223",
"kk+	c #763021",
"lk+	c #772F21",
"mk+	c #732D1E",
"nk+	c #5C271A",
"ok+	c #572417",
"pk+	c #522015",
"qk+	c #542217",
"rk+	c #4F2016",
"sk+	c #4C1F14",
"tk+	c #4A1E14",
"uk+	c #4B2216",
"vk+	c #4F2519",
"wk+	c #4C2319",
"xk+	c #4A2217",
"yk+	c #441D12",
"zk+	c #43190D",
"Ak+	c #4D1D11",
"Bk+	c #591F10",
"Ck+	c #872516",
"Dk+	c #862212",
"Ek+	c #A03D2B",
"Fk+	c #9C2D17",
"Gk+	c #9A2F18",
"Hk+	c #8E2914",
"Ik+	c #612213",
"Jk+	c #581F12",
"Kk+	c #4E1D10",
"Lk+	c #512015",
"Mk+	c #58271A",
"Nk+	c #582317",
"Ok+	c #5A2519",
"Pk+	c #4D1B12",
"Qk+	c #521E12",
"Rk+	c #572013",
"Sk+	c #6A2E20",
"Tk+	c #60281A",
"Uk+	c #61271B",
"Vk+	c #61291B",
"Wk+	c #5C2316",
"Xk+	c #742F21",
"Yk+	c #773020",
"Zk+	c #813726",
"`k+	c #7E3C2D",
" l+	c #844030",
".l+	c #763223",
"+l+	c #793425",
"@l+	c #7D3628",
"#l+	c #783122",
"$l+	c #7D3626",
"%l+	c #762E1F",
"&l+	c #7A3023",
"*l+	c #712B1C",
"=l+	c #742E21",
"-l+	c #6D2C1D",
";l+	c #692A1B",
">l+	c #5F2518",
",l+	c #5A281A",
"'l+	c #4F2115",
")l+	c #4F2417",
"!l+	c #4C2116",
"~l+	c #4E2318",
"{l+	c #4E2418",
"]l+	c #441C10",
"^l+	c #4A1B10",
"/l+	c #4F1C0E",
"(l+	c #582011",
"_l+	c #5B2114",
":l+	c #5B1F13",
"<l+	c #591D0F",
"[l+	c #6D1F13",
"}l+	c #591D11",
"|l+	c #582418",
"1l+	c #5C2719",
"2l+	c #642A1E",
"3l+	c #6A2A1C",
"4l+	c #64271B",
"5l+	c #652819",
"6l+	c #612517",
"7l+	c #632416",
"8l+	c #722F20",
"9l+	c #762F20",
"0l+	c #7A2E20",
"al+	c #7B3122",
"bl+	c #813723",
"cl+	c #873D27",
"dl+	c #7A3A2D",
"el+	c #833B2B",
"fl+	c #843C2C",
"gl+	c #823A29",
"hl+	c #7A3423",
"il+	c #7D3526",
"jl+	c #7A3122",
"kl+	c #7A2F21",
"ll+	c #7A3020",
"ml+	c #7E3022",
"nl+	c #712B1A",
"ol+	c #732D1D",
"pl+	c #702C1B",
"ql+	c #5B2617",
"rl+	c #54261B",
"sl+	c #4F2317",
"tl+	c #53261B",
"ul+	c #4F261A",
"vl+	c #4B2116",
"wl+	c #3E180E",
"xl+	c #441A10",
"yl+	c #4B1B10",
"zl+	c #511D10",
"Al+	c #572214",
"Bl+	c #571E12",
"Cl+	c #591C11",
"Dl+	c #5D1D12",
"El+	c #662114",
"Fl+	c #561E11",
"Gl+	c #602A1C",
"Hl+	c #5B2516",
"Il+	c #612516",
"Jl+	c #672518",
"Kl+	c #6B281A",
"Ll+	c #6C2619",
"Ml+	c #78301F",
"Nl+	c #813323",
"Ol+	c #7E3020",
"Pl+	c #7B2E20",
"Ql+	c #7F3322",
"Rl+	c #893727",
"Sl+	c #83574C",
"Tl+	c #864030",
"Ul+	c #863A2A",
"Vl+	c #823425",
"Wl+	c #7E3222",
"Xl+	c #813525",
"Yl+	c #7D3323",
"Zl+	c #7E3424",
"`l+	c #7B3324",
" m+	c #7C301F",
".m+	c #732B1D",
"+m+	c #722C1D",
"@m+	c #602717",
"#m+	c #542517",
"$m+	c #4E2216",
"%m+	c #4D2216",
"&m+	c #4B2115",
"*m+	c #471C13",
"=m+	c #41180D",
"-m+	c #461C10",
";m+	c #4A1D10",
">m+	c #6A2115",
",m+	c #6D2317",
"'m+	c #871F10",
")m+	c #842815",
"!m+	c #832A1B",
"~m+	c #7A2512",
"{m+	c #642313",
"]m+	c #5E281A",
"^m+	c #60291A",
"/m+	c #632618",
"(m+	c #692819",
"_m+	c #772C1D",
":m+	c #7F2F1F",
"<m+	c #833323",
"[m+	c #8E3D29",
"}m+	c #823B2B",
"|m+	c #7C3624",
"1m+	c #7F3424",
"2m+	c #833626",
"3m+	c #853626",
"4m+	c #7B2F20",
"5m+	c #7D3625",
"6m+	c #782F1E",
"7m+	c #772E1F",
"8m+	c #743020",
"9m+	c #662A1D",
"0m+	c #5D261B",
"am+	c #54271A",
"bm+	c #53291C",
"cm+	c #502318",
"dm+	c #512418",
"em+	c #41170C",
"fm+	c #461B10",
"gm+	c #4E1C10",
"hm+	c #551E12",
"im+	c #551C0F",
"jm+	c #5A1D10",
"km+	c #5A1C11",
"lm+	c #672114",
"mm+	c #94361F",
"nm+	c #7E2716",
"om+	c #622212",
"pm+	c #572112",
"qm+	c #4F1E10",
"rm+	c #532316",
"sm+	c #612B1E",
"tm+	c #5C2517",
"um+	c #682619",
"vm+	c #823122",
"wm+	c #7D2E1D",
"xm+	c #853424",
"ym+	c #853323",
"zm+	c #863627",
"Am+	c #823B2A",
"Bm+	c #823625",
"Cm+	c #7E3121",
"Dm+	c #7D3121",
"Em+	c #702D1D",
"Fm+	c #783425",
"Gm+	c #772E1E",
"Hm+	c #722D1E",
"Im+	c #602819",
"Jm+	c #522415",
"Km+	c #4E2115",
"Lm+	c #512318",
"Mm+	c #4F2117",
"Nm+	c #42190F",
"Om+	c #40180C",
"Pm+	c #471B10",
"Qm+	c #4D1F13",
"Rm+	c #4F1C0F",
"Sm+	c #671E12",
"Tm+	c #742114",
"Um+	c #7E2517",
"Vm+	c #9E2E1D",
"Wm+	c #882613",
"Xm+	c #882915",
"Ym+	c #5F2011",
"Zm+	c #5C2113",
"`m+	c #562316",
" n+	c #59291A",
".n+	c #5F291A",
"+n+	c #622B1D",
"@n+	c #5E271A",
"#n+	c #682718",
"$n+	c #822C1D",
"%n+	c #7E2E1F",
"&n+	c #943C29",
"*n+	c #681B11",
"=n+	c #65321F",
"-n+	c #7C3524",
";n+	c #843627",
">n+	c #833524",
",n+	c #833627",
"'n+	c #813425",
")n+	c #803527",
"!n+	c #823223",
"~n+	c #6B2A1A",
"{n+	c #57271B",
"]n+	c #582A1F",
"^n+	c #502418",
"/n+	c #55271E",
"(n+	c #4A1F14",
"_n+	c #42190E",
":n+	c #5A1B0F",
"<n+	c #80200F",
"[n+	c #882B17",
"}n+	c #8D3520",
"|n+	c #8A331C",
"1n+	c #93331D",
"2n+	c #832110",
"3n+	c #722A18",
"4n+	c #632C1F",
"5n+	c #612A19",
"6n+	c #632518",
"7n+	c #84321F",
"8n+	c #8A3525",
"9n+	c #8E3A27",
"0n+	c #913B27",
"an+	c #9D4833",
"bn+	c #8B4E4A",
"cn+	c #843F2C",
"dn+	c #843927",
"en+	c #853627",
"fn+	c #7E3525",
"gn+	c #7A2F20",
"hn+	c #702A19",
"in+	c #6A2B1B",
"jn+	c #67291B",
"kn+	c #54261A",
"ln+	c #53251A",
"mn+	c #57281E",
"nn+	c #451B10",
"on+	c #451A10",
"pn+	c #44180D",
"qn+	c #4F1E14",
"rn+	c #4D1A0F",
"sn+	c #551B10",
"tn+	c #601E11",
"un+	c #791D0D",
"vn+	c #822311",
"wn+	c #892915",
"xn+	c #802A17",
"yn+	c #7A2814",
"zn+	c #832E19",
"An+	c #692313",
"Bn+	c #6C2316",
"Cn+	c #642717",
"Dn+	c #692718",
"En+	c #883323",
"Fn+	c #843121",
"Gn+	c #822F20",
"Hn+	c #812E1E",
"In+	c #903B2A",
"Jn+	c #97432F",
"Kn+	c #87422D",
"Ln+	c #883826",
"Mn+	c #843625",
"Nn+	c #7C3021",
"On+	c #792C1E",
"Pn+	c #6D2D1D",
"Qn+	c #6B3020",
"Rn+	c #592717",
"Sn+	c #56271A",
"Tn+	c #552519",
"Un+	c #57271C",
"Vn+	c #56241B",
"Wn+	c #52241B",
"Xn+	c #491D12",
"Yn+	c #43170D",
"Zn+	c #46190E",
"`n+	c #47180C",
" o+	c #4E1A0F",
".o+	c #521A0F",
"+o+	c #561B10",
"@o+	c #551A0E",
"#o+	c #551C10",
"$o+	c #751D0D",
"%o+	c #8D2612",
"&o+	c #642515",
"*o+	c #5F2312",
"=o+	c #632111",
"-o+	c #6D271A",
";o+	c #5C2313",
">o+	c #5E2315",
",o+	c #662B1C",
"'o+	c #6C3122",
")o+	c #762A1D",
"!o+	c #873521",
"~o+	c #95432D",
"{o+	c #844130",
"]o+	c #883726",
"^o+	c #843322",
"/o+	c #833222",
"(o+	c #853728",
"_o+	c #7A3323",
":o+	c #6C2B1B",
"<o+	c #692A1C",
"[o+	c #5B291D",
"}o+	c #5A2A1E",
"|o+	c #57291D",
"1o+	c #58271B",
"2o+	c #532219",
"3o+	c #491D13",
"4o+	c #471D12",
"5o+	c #46180E",
"6o+	c #47180E",
"7o+	c #4D1C0F",
"8o+	c #4C190E",
"9o+	c #4D180E",
"0o+	c #51180E",
"ao+	c #521A10",
"bo+	c #6D2013",
"co+	c #8A2313",
"do+	c #782412",
"eo+	c #5D1F0E",
"fo+	c #7C2410",
"go+	c #602414",
"ho+	c #612210",
"io+	c #5E2113",
"jo+	c #67281A",
"ko+	c #652719",
"lo+	c #672E1F",
"mo+	c #693121",
"no+	c #682716",
"oo+	c #702719",
"po+	c #7E291A",
"qo+	c #842D1E",
"ro+	c #852F21",
"so+	c #823323",
"to+	c #863323",
"uo+	c #834333",
"vo+	c #8E4130",
"wo+	c #883828",
"xo+	c #853525",
"yo+	c #863526",
"zo+	c #8A3526",
"Ao+	c #5C2C1F",
"Bo+	c #5C2A1E",
"Co+	c #59261A",
"Do+	c #522419",
"Eo+	c #4A1D12",
"Fo+	c #47180D",
"Go+	c #44150B",
"Ho+	c #4C1B12",
"Io+	c #4A180D",
"Jo+	c #4E180D",
"Ko+	c #49180D",
"Lo+	c #752619",
"Mo+	c #852213",
"No+	c #5F2212",
"Oo+	c #872713",
"Po+	c #592112",
"Qo+	c #612415",
"Ro+	c #6C2C1C",
"So+	c #662A1C",
"To+	c #6E3224",
"Uo+	c #602417",
"Vo+	c #74281C",
"Wo+	c #71281C",
"Xo+	c #712719",
"Yo+	c #77281A",
"Zo+	c #7F2F1E",
"`o+	c #843021",
" p+	c #883223",
".p+	c #944533",
"+p+	c #3E1307",
"@p+	c #7B3F30",
"#p+	c #8A4130",
"$p+	c #87392A",
"%p+	c #883829",
"&p+	c #833423",
"*p+	c #7F3222",
"=p+	c #893325",
"-p+	c #772B1C",
";p+	c #783121",
">p+	c #722B1D",
",p+	c #763123",
"'p+	c #742D1F",
")p+	c #752E20",
"!p+	c #773123",
"~p+	c #63291C",
"{p+	c #58241A",
"]p+	c #4F2618",
"^p+	c #4B1E11",
"/p+	c #4A1A0E",
"(p+	c #4B1910",
"_p+	c #4C170E",
":p+	c #4F1A10",
"<p+	c #752317",
"[p+	c #762317",
"}p+	c #6B2417",
"|p+	c #8E2D17",
"1p+	c #591F11",
"2p+	c #6B2A1C",
"3p+	c #622517",
"4p+	c #6B291B",
"5p+	c #702C1E",
"6p+	c #722C1F",
"7p+	c #722C1E",
"8p+	c #6C281B",
"9p+	c #722919",
"0p+	c #882F20",
"ap+	c #8A3624",
"bp+	c #8A3F28",
"cp+	c #914530",
"dp+	c #76301D",
"ep+	c #361309",
"fp+	c #733928",
"gp+	c #874433",
"hp+	c #863928",
"ip+	c #873627",
"jp+	c #823324",
"kp+	c #843323",
"lp+	c #813221",
"mp+	c #742B1B",
"np+	c #783324",
"op+	c #6F291A",
"pp+	c #70291B",
"qp+	c #57261B",
"rp+	c #52251A",
"sp+	c #4F2218",
"tp+	c #522217",
"up+	c #4D1F15",
"vp+	c #471A0E",
"wp+	c #47190C",
"xp+	c #49190F",
"yp+	c #4B190F",
"zp+	c #4D1B0E",
"Ap+	c #51190B",
"Bp+	c #5F2014",
"Cp+	c #632014",
"Dp+	c #7C2310",
"Ep+	c #8C2410",
"Fp+	c #6C2516",
"Gp+	c #632013",
"Hp+	c #5B2112",
"Ip+	c #713124",
"Jp+	c #6B2A1E",
"Kp+	c #6A291C",
"Lp+	c #712B1D",
"Mp+	c #762B1D",
"Np+	c #782C1E",
"Op+	c #802F20",
"Pp+	c #803222",
"Qp+	c #852F20",
"Rp+	c #822D1D",
"Sp+	c #8A3623",
"Tp+	c #8A3824",
"Up+	c #893E29",
"Vp+	c #8D452E",
"Wp+	c #77311B",
"Xp+	c #6C3624",
"Yp+	c #7E4232",
"Zp+	c #884333",
"`p+	c #873A2A",
" q+	c #853324",
".q+	c #8A392A",
"+q+	c #843223",
"@q+	c #7F2D1F",
"#q+	c #783223",
"$q+	c #752E1F",
"%q+	c #773122",
"&q+	c #7D3122",
"*q+	c #712D1E",
"=q+	c #4E1F11",
"-q+	c #5E2F23",
";q+	c #5A2A1F",
">q+	c #491E12",
",q+	c #4B1C12",
"'q+	c #49190E",
")q+	c #4A1A0F",
"!q+	c #4E1C11",
"~q+	c #581F14",
"{q+	c #571C12",
"]q+	c #561C10",
"^q+	c #5F2015",
"/q+	c #631F12",
"(q+	c #6D2114",
"_q+	c #802713",
":q+	c #6E2415",
"<q+	c #632112",
"[q+	c #632818",
"}q+	c #652C1D",
"|q+	c #622B1B",
"1q+	c #662C1D",
"2q+	c #64281B",
"3q+	c #6F281A",
"4q+	c #732819",
"5q+	c #802F21",
"6q+	c #7D3120",
"7q+	c #6D2919",
"8q+	c #802D1D",
"9q+	c #802C1C",
"0q+	c #893726",
"aq+	c #8C3D28",
"bq+	c #914730",
"cq+	c #8A432D",
"dq+	c #6E2911",
"eq+	c #331208",
"fq+	c #723A2B",
"gq+	c #874435",
"hq+	c #8A4131",
"iq+	c #813626",
"jq+	c #8B3B2C",
"kq+	c #833426",
"lq+	c #8A3625",
"mq+	c #723122",
"nq+	c #753224",
"oq+	c #722A1B",
"pq+	c #4C180E",
"qq+	c #51261B",
"rq+	c #58291D",
"sq+	c #59291E",
"tq+	c #532418",
"uq+	c #58281D",
"vq+	c #512118",
"wq+	c #4E1E13",
"xq+	c #522117",
"yq+	c #4A190F",
"zq+	c #48180E",
"Aq+	c #4C1B11",
"Bq+	c #591E13",
"Cq+	c #632116",
"Dq+	c #802A1C",
"Eq+	c #7A210F",
"Fq+	c #702614",
"Gq+	c #672112",
"Hq+	c #612314",
"Iq+	c #5F2214",
"Jq+	c #62291A",
"Kq+	c #3E1209",
"Lq+	c #67281C",
"Mq+	c #782A1C",
"Nq+	c #7A291C",
"Oq+	c #7C2C1E",
"Pq+	c #873424",
"Qq+	c #823020",
"Rq+	c #8A3D28",
"Sq+	c #90452F",
"Tq+	c #853F2A",
"Uq+	c #6B2A12",
"Vq+	c #2C0E05",
"Wq+	c #5F3120",
"Xq+	c #683324",
"Yq+	c #844234",
"Zq+	c #8C4333",
"`q+	c #883A29",
" r+	c #853123",
".r+	c #7B3020",
"+r+	c #612717",
"@r+	c #753526",
"#r+	c #753324",
"$r+	c #732E20",
"%r+	c #742F20",
"&r+	c #742C1E",
"*r+	c #642314",
"=r+	c #43170E",
"-r+	c #4F2319",
";r+	c #57281D",
">r+	c #542418",
",r+	c #5C2B1F",
"'r+	c #5B291E",
")r+	c #59291D",
"!r+	c #522116",
"~r+	c #4F1D12",
"{r+	c #512014",
"]r+	c #4A190E",
"^r+	c #521D11",
"/r+	c #5A1F13",
"(r+	c #591E12",
"_r+	c #622012",
":r+	c #7C281A",
"<r+	c #682517",
"[r+	c #5F1F12",
"}r+	c #632515",
"|r+	c #5E2C1F",
"1r+	c #502718",
"2r+	c #632419",
"3r+	c #7B2D1D",
"4r+	c #7D2C1E",
"5r+	c #802D1F",
"6r+	c #833224",
"7r+	c #7C3122",
"8r+	c #853625",
"9r+	c #7E3523",
"0r+	c #803723",
"ar+	c #8E402A",
"br+	c #8D402A",
"cr+	c #732C1A",
"dr+	c #8C4332",
"er+	c #8A3F2F",
"fr+	c #883B2B",
"gr+	c #833121",
"hr+	c #7E3324",
"ir+	c #622917",
"jr+	c #4F2114",
"kr+	c #592517",
"lr+	c #612819",
"mr+	c #763728",
"nr+	c #7F3C2E",
"or+	c #773325",
"pr+	c #7B3626",
"qr+	c #7F3526",
"rr+	c #3F160C",
"sr+	c #52241A",
"tr+	c #58271C",
"ur+	c #5A291D",
"vr+	c #5E2A1F",
"wr+	c #511F14",
"xr+	c #5A271A",
"yr+	c #582318",
"zr+	c #562217",
"Ar+	c #542015",
"Br+	c #561F12",
"Cr+	c #5C2318",
"Dr+	c #541F13",
"Er+	c #571F14",
"Fr+	c #5D1F12",
"Gr+	c #682317",
"Hr+	c #7A2815",
"Ir+	c #7F2916",
"Jr+	c #8D2D1D",
"Kr+	c #602515",
"Lr+	c #662919",
"Mr+	c #5D2A1A",
"Nr+	c #5E2A1D",
"Or+	c #542519",
"Pr+	c #3F1C14",
"Qr+	c #2C0A05",
"Rr+	c #732C20",
"Sr+	c #833122",
"Tr+	c #873524",
"Ur+	c #6E2C1D",
"Vr+	c #813927",
"Wr+	c #8A402C",
"Xr+	c #8D3E29",
"Yr+	c #8C3E27",
"Zr+	c #853821",
"`r+	c #673120",
" s+	c #652E1C",
".s+	c #672E1C",
"+s+	c #773623",
"@s+	c #8B4233",
"#s+	c #893B2C",
"$s+	c #85392A",
"%s+	c #7E3323",
"&s+	c #5E2A1C",
"*s+	c #482114",
"=s+	c #512115",
"-s+	c #552313",
";s+	c #7A3828",
">s+	c #893928",
",s+	c #421106",
"'s+	c #3A1306",
")s+	c #53241A",
"!s+	c #59271B",
"~s+	c #5E2C1E",
"{s+	c #5D2B1E",
"]s+	c #5D291C",
"^s+	c #632D20",
"/s+	c #5D281B",
"(s+	c #5C2217",
"_s+	c #592014",
":s+	c #5A1F12",
"<s+	c #662517",
"[s+	c #652417",
"}s+	c #682416",
"|s+	c #7F2719",
"1s+	c #67200F",
"2s+	c #6B2B1B",
"3s+	c #662A19",
"4s+	c #6C2F1F",
"5s+	c #673020",
"6s+	c #5F2A1D",
"7s+	c #4F2216",
"8s+	c #411E11",
"9s+	c #2E0F08",
"0s+	c #782F21",
"as+	c #944434",
"bs+	c #8A3A29",
"cs+	c #823423",
"ds+	c #843422",
"es+	c #813320",
"fs+	c #7D3724",
"gs+	c #843A26",
"hs+	c #8C3923",
"is+	c #88361F",
"js+	c #893A24",
"ks+	c #6F2A16",
"ls+	c #622A18",
"ms+	c #642A18",
"ns+	c #692E1C",
"os+	c #7A3827",
"ps+	c #8D412F",
"qs+	c #883D2C",
"rs+	c #853829",
"ss+	c #7F3224",
"ts+	c #6A2F1E",
"us+	c #54281A",
"vs+	c #4A2315",
"ws+	c #4D2114",
"xs+	c #4D1E10",
"ys+	c #5A2112",
"zs+	c #5B2213",
"As+	c #531A0C",
"Bs+	c #3C1308",
"Cs+	c #481E13",
"Ds+	c #4F2316",
"Es+	c #4E2014",
"Fs+	c #582519",
"Gs+	c #5A281B",
"Hs+	c #612C1E",
"Is+	c #5E2518",
"Js+	c #682D20",
"Ks+	c #612618",
"Ls+	c #5F2719",
"Ms+	c #592115",
"Ns+	c #5D2416",
"Os+	c #5C1F12",
"Ps+	c #5E2011",
"Qs+	c #642217",
"Rs+	c #742718",
"Ss+	c #7B3927",
"Ts+	c #6F3121",
"Us+	c #6E3324",
"Vs+	c #5F2B1D",
"Ws+	c #401B11",
"Xs+	c #2E0F09",
"Ys+	c #240801",
"Zs+	c #6A2518",
"`s+	c #662013",
" t+	c #5D2616",
".t+	c #772F1E",
"+t+	c #853523",
"@t+	c #7F3421",
"#t+	c #7B3522",
"$t+	c #7A3724",
"%t+	c #853C29",
"&t+	c #923F2B",
"*t+	c #89341E",
"=t+	c #86331E",
"-t+	c #89371F",
";t+	c #652B19",
">t+	c #642B19",
",t+	c #763626",
"'t+	c #914535",
")t+	c #8C3F2F",
"!t+	c #8B3F2E",
"~t+	c #8A3828",
"{t+	c #873829",
"]t+	c #7F3425",
"^t+	c #793222",
"/t+	c #5E2D1D",
"(t+	c #512417",
"_t+	c #52261B",
":t+	c #461B0E",
"<t+	c #4E1E11",
"[t+	c #521D0E",
"}t+	c #5B2215",
"|t+	c #672C1B",
"1t+	c #6A2718",
"2t+	c #692817",
"3t+	c #45160B",
"4t+	c #481D10",
"5t+	c #481C10",
"6t+	c #4C1E11",
"7t+	c #5D281C",
"8t+	c #5B2719",
"9t+	c #5E261B",
"0t+	c #5C251A",
"at+	c #62281C",
"bt+	c #682E1E",
"ct+	c #612619",
"dt+	c #622314",
"et+	c #642317",
"ft+	c #662317",
"gt+	c #702A18",
"ht+	c #6F2919",
"it+	c #6A2714",
"jt+	c #782A1B",
"kt+	c #682515",
"lt+	c #7B3623",
"mt+	c #692D1E",
"nt+	c #6D3424",
"ot+	c #5F2A1B",
"pt+	c #5A2617",
"qt+	c #5C291B",
"rt+	c #562619",
"st+	c #431D13",
"tt+	c #2A0B02",
"ut+	c #320D03",
"vt+	c #5B1D0E",
"wt+	c #6A2516",
"xt+	c #642417",
"yt+	c #682F20",
"zt+	c #7D3321",
"At+	c #803421",
"Bt+	c #823A26",
"Ct+	c #7C3623",
"Dt+	c #873D29",
"Et+	c #923D29",
"Ft+	c #812E19",
"Gt+	c #88341C",
"Ht+	c #330702",
"It+	c #632A18",
"Jt+	c #5E2615",
"Kt+	c #662D1C",
"Lt+	c #6E3223",
"Mt+	c #7F3F2D",
"Nt+	c #89402F",
"Ot+	c #8A3C2B",
"Pt+	c #5F2B1E",
"Qt+	c #5F3226",
"Rt+	c #4D1D0E",
"St+	c #542013",
"Tt+	c #5B2315",
"Ut+	c #491A0D",
"Vt+	c #4E2013",
"Wt+	c #532318",
"Xt+	c #4B1E13",
"Yt+	c #602517",
"Zt+	c #612719",
"`t+	c #6B2C1C",
" u+	c #723321",
".u+	c #6E2E20",
"+u+	c #5D2113",
"@u+	c #662619",
"#u+	c #5F281A",
"$u+	c #752A1C",
"%u+	c #682211",
"&u+	c #752F1B",
"*u+	c #813A28",
"=u+	c #763727",
"-u+	c #6A3021",
";u+	c #6B3224",
">u+	c #652D1E",
",u+	c #612B1C",
"'u+	c #5F2718",
")u+	c #61291A",
"!u+	c #522114",
"~u+	c #491B10",
"{u+	c #4D2017",
"]u+	c #491F15",
"^u+	c #371208",
"/u+	c #5E2215",
"(u+	c #622518",
"_u+	c #602618",
":u+	c #7B3925",
"<u+	c #82301A",
"[u+	c #8B321B",
"}u+	c #3A0F05",
"|u+	c #622816",
"1u+	c #642818",
"2u+	c #5A2718",
"3u+	c #733727",
"4u+	c #87402F",
"5u+	c #914433",
"6u+	c #8C3F2E",
"7u+	c #853A28",
"8u+	c #803525",
"9u+	c #532519",
"0u+	c #5F3023",
"au+	c #663023",
"bu+	c #773D2E",
"cu+	c #6D3525",
"du+	c #5A2616",
"eu+	c #4F1D10",
"fu+	c #501F10",
"gu+	c #531F12",
"hu+	c #541D10",
"iu+	c #531B0C",
"ju+	c #643325",
"ku+	c #4D2115",
"lu+	c #502013",
"mu+	c #592316",
"nu+	c #692719",
"ou+	c #672618",
"pu+	c #6A291B",
"qu+	c #6B2619",
"ru+	c #67281B",
"su+	c #6B2F20",
"tu+	c #733627",
"uu+	c #6E2C1F",
"vu+	c #733426",
"wu+	c #78281A",
"xu+	c #73281A",
"yu+	c #72291B",
"zu+	c #652010",
"Au+	c #6A2719",
"Bu+	c #682415",
"Cu+	c #6A2519",
"Du+	c #642415",
"Eu+	c #672614",
"Fu+	c #712D1C",
"Gu+	c #682513",
"Hu+	c #6E2311",
"Iu+	c #752B1A",
"Ju+	c #7C3324",
"Ku+	c #813B2A",
"Lu+	c #783624",
"Mu+	c #763425",
"Nu+	c #713422",
"Ou+	c #743625",
"Pu+	c #642B1B",
"Qu+	c #662F21",
"Ru+	c #652C1E",
"Su+	c #622819",
"Tu+	c #5E2415",
"Uu+	c #662B1B",
"Vu+	c #4D1B10",
"Wu+	c #5E2D1F",
"Xu+	c #481D12",
"Yu+	c #4F1B0C",
"Zu+	c #622614",
"`u+	c #6D2D20",
" v+	c #65291A",
".v+	c #68291A",
"+v+	c #6E2C1B",
"@v+	c #743221",
"#v+	c #7C3627",
"$v+	c #7E3C28",
"%v+	c #803D29",
"&v+	c #8D3924",
"*v+	c #8F351E",
"=v+	c #3D160B",
"-v+	c #602918",
";v+	c #642817",
">v+	c #622717",
",v+	c #632717",
"'v+	c #622516",
")v+	c #5F2C1B",
"!v+	c #753826",
"~v+	c #87402E",
"{v+	c #904331",
"]v+	c #883D2B",
"^v+	c #883F2E",
"/v+	c #813929",
"(v+	c #813A29",
"_v+	c #692F22",
":v+	c #6A3122",
"<v+	c #733827",
"[v+	c #6C3324",
"}v+	c #76392A",
"|v+	c #703628",
"1v+	c #582719",
"2v+	c #6F2619",
"3v+	c #732B1E",
"4v+	c #732A1B",
"5v+	c #6C2F20",
"6v+	c #6F3323",
"7v+	c #713525",
"8v+	c #743A29",
"9v+	c #733626",
"0v+	c #6D2F1F",
"av+	c #773324",
"bv+	c #7A2B1D",
"cv+	c #6E2617",
"dv+	c #581F11",
"ev+	c #5B2314",
"fv+	c #662C1C",
"gv+	c #612918",
"hv+	c #642616",
"iv+	c #642A1A",
"jv+	c #6B3220",
"kv+	c #69301E",
"lv+	c #732C19",
"mv+	c #7C2F1E",
"nv+	c #7F3321",
"ov+	c #7E3625",
"pv+	c #793524",
"qv+	c #783727",
"rv+	c #713122",
"sv+	c #682B1B",
"tv+	c #6D2D1F",
"uv+	c #551F12",
"vv+	c #642B21",
"wv+	c #753528",
"xv+	c #873B2B",
"yv+	c #823729",
"zv+	c #843A2B",
"Av+	c #833D2C",
"Bv+	c #813A2A",
"Cv+	c #6D2E1F",
"Dv+	c #7B3424",
"Ev+	c #7A3A27",
"Fv+	c #813F2A",
"Gv+	c #863621",
"Hv+	c #872E19",
"Iv+	c #4B2411",
"Jv+	c #602514",
"Kv+	c #652718",
"Lv+	c #562513",
"Mv+	c #5D2818",
"Nv+	c #622817",
"Ov+	c #86422F",
"Pv+	c #793927",
"Qv+	c #8B4835",
"Rv+	c #8B4532",
"Sv+	c #884030",
"Tv+	c #7E3725",
"Uv+	c #662C1B",
"Vv+	c #642C1E",
"Wv+	c #5F2D1F",
"Xv+	c #5E291B",
"Yv+	c #702F1F",
"Zv+	c #752B1C",
"`v+	c #74291A",
" w+	c #712D1F",
".w+	c #733023",
"+w+	c #622A1B",
"@w+	c #6E3325",
"#w+	c #713020",
"$w+	c #722F1E",
"%w+	c #863827",
"&w+	c #6E301E",
"*w+	c #642718",
"=w+	c #5E2414",
"-w+	c #5D2413",
";w+	c #5D2313",
">w+	c #6D2B1D",
",w+	c #622211",
"'w+	c #582210",
")w+	c #783524",
"!w+	c #8A3927",
"~w+	c #813B29",
"{w+	c #833D2A",
"]w+	c #7C3A27",
"^w+	c #753422",
"/w+	c #713220",
"(w+	c #6F2D1B",
"_w+	c #743423",
":w+	c #733323",
"<w+	c #753726",
"[w+	c #6F3424",
"}w+	c #6D3020",
"|w+	c #6B2D1F",
"1w+	c #723022",
"2w+	c #6D2A1D",
"3w+	c #6B291C",
"4w+	c #65291B",
"5w+	c #793123",
"6w+	c #873C2E",
"7w+	c #84392A",
"8w+	c #6C2E1D",
"9w+	c #6E2D1C",
"0w+	c #773424",
"aw+	c #803827",
"bw+	c #88402D",
"cw+	c #944835",
"dw+	c #873E2A",
"ew+	c #82311B",
"fw+	c #652918",
"gw+	c #602614",
"hw+	c #5D2919",
"iw+	c #5C2716",
"jw+	c #612818",
"kw+	c #6C2D1C",
"lw+	c #773827",
"mw+	c #884331",
"nw+	c #894330",
"ow+	c #924838",
"pw+	c #91422F",
"qw+	c #893728",
"rw+	c #863726",
"sw+	c #713123",
"tw+	c #733021",
"uw+	c #702E1E",
"vw+	c #833727",
"ww+	c #7D3421",
"xw+	c #7A3425",
"yw+	c #693022",
"zw+	c #632C1D",
"Aw+	c #883625",
"Bw+	c #833825",
"Cw+	c #843F2B",
"Dw+	c #8A412F",
"Ew+	c #793221",
"Fw+	c #7E402D",
"Gw+	c #773726",
"Hw+	c #823F2E",
"Iw+	c #793726",
"Jw+	c #723424",
"Kw+	c #703223",
"Lw+	c #743324",
"Mw+	c #6F2F20",
"Nw+	c #703222",
"Ow+	c #6C301E",
"Pw+	c #6A2E1E",
"Qw+	c #662A1A",
"Rw+	c #692A19",
"Sw+	c #702F20",
"Tw+	c #79301F",
"Uw+	c #742919",
"Vw+	c #7A3220",
"Ww+	c #803625",
"Xw+	c #8D4430",
"Yw+	c #984A35",
"Zw+	c #934129",
"`w+	c #903B26",
" x+	c #72564A",
".x+	c #5D3122",
"+x+	c #672A19",
"@x+	c #572312",
"#x+	c #5F2615",
"$x+	c #602716",
"%x+	c #602714",
"&x+	c #8A4432",
"*x+	c #954835",
"=x+	c #974934",
"-x+	c #9A4835",
";x+	c #8E3D2C",
">x+	c #863927",
",x+	c #813623",
"'x+	c #7E3120",
")x+	c #792B1E",
"!x+	c #6B2C1D",
"~x+	c #7E3526",
"{x+	c #793423",
"]x+	c #7A3625",
"^x+	c #7F3A2A",
"/x+	c #7F3D2C",
"(x+	c #783626",
"_x+	c #763524",
":x+	c #6E3424",
"<x+	c #6C3526",
"[x+	c #673323",
"}x+	c #643223",
"|x+	c #8A3827",
"1x+	c #893724",
"2x+	c #883621",
"3x+	c #8F3A29",
"4x+	c #8F3A28",
"5x+	c #773322",
"6x+	c #823C2C",
"7x+	c #753321",
"8x+	c #803A28",
"9x+	c #823C28",
"0x+	c #833B2A",
"ax+	c #894633",
"bx+	c #803A29",
"cx+	c #783322",
"dx+	c #723626",
"ex+	c #733929",
"fx+	c #743D2C",
"gx+	c #693322",
"hx+	c #713424",
"ix+	c #743624",
"jx+	c #723423",
"kx+	c #703221",
"lx+	c #743628",
"mx+	c #6C3021",
"nx+	c #6D2C1F",
"ox+	c #682A1C",
"px+	c #6C2A1A",
"qx+	c #692615",
"rx+	c #702B1A",
"sx+	c #7C291B",
"tx+	c #7B2E1F",
"ux+	c #893625",
"vx+	c #853623",
"wx+	c #96422C",
"xx+	c #964A32",
"yx+	c #8C442C",
"zx+	c #984932",
"Ax+	c #933D27",
"Bx+	c #852E19",
"Cx+	c #892E18",
"Dx+	c #582D1E",
"Ex+	c #622918",
"Fx+	c #5D2615",
"Gx+	c #5D2515",
"Hx+	c #612716",
"Ix+	c #6C2F1B",
"Jx+	c #7C3C29",
"Kx+	c #84402D",
"Lx+	c #823C29",
"Mx+	c #924633",
"Nx+	c #934431",
"Ox+	c #8D3E2D",
"Px+	c #853826",
"Qx+	c #833220",
"Rx+	c #853122",
"Sx+	c #873121",
"Tx+	c #8A3323",
"Ux+	c #7A2819",
"Vx+	c #782F22",
"Wx+	c #792F21",
"Xx+	c #783321",
"Yx+	c #733322",
"Zx+	c #834233",
"`x+	c #6E3727",
" y+	c #5C291A",
".y+	c #612E20",
"+y+	c #592C1E",
"@y+	c #692C20",
"#y+	c #8A3627",
"$y+	c #8E3B29",
"%y+	c #91402E",
"&y+	c #8D3927",
"*y+	c #8E3A26",
"=y+	c #873623",
"-y+	c #8E3E2A",
";y+	c #753625",
">y+	c #773928",
",y+	c #723323",
"'y+	c #7A3B2A",
")y+	c #713120",
"!y+	c #6F3526",
"~y+	c #6F3123",
"{y+	c #712F21",
"]y+	c #712F1F",
"^y+	c #8C3928",
"/y+	c #903E29",
"(y+	c #92422E",
"_y+	c #9A452F",
":y+	c #A54830",
"<y+	c #A24830",
"[y+	c #964029",
"}y+	c #9A3E27",
"|y+	c #822A15",
"1y+	c #95361F",
"2y+	c #7F2F22",
"3y+	c #4B1E0C",
"4y+	c #662C17",
"5y+	c #632815",
"6y+	c #602313",
"7y+	c #632615",
"8y+	c #5D2314",
"9y+	c #5E2515",
"0y+	c #652A18",
"ay+	c #72321E",
"by+	c #8A4230",
"cy+	c #8D422E",
"dy+	c #9E4D39",
"ey+	c #A24B39",
"fy+	c #A24C39",
"gy+	c #903E2A",
"hy+	c #782D20",
"iy+	c #772B1E",
"jy+	c #793122",
"ky+	c #642D1D",
"ly+	c #612D1F",
"my+	c #653123",
"ny+	c #512519",
"oy+	c #68291C",
"py+	c #8E3B2B",
"qy+	c #8C3926",
"ry+	c #893B27",
"sy+	c #833722",
"ty+	c #682F1F",
"uy+	c #723425",
"vy+	c #7C3829",
"wy+	c #713423",
"xy+	c #6A2F21",
"yy+	c #743323",
"zy+	c #743223",
"Ay+	c #763222",
"By+	c #74281A",
"Cy+	c #83311E",
"Dy+	c #873724",
"Ey+	c #8A3923",
"Fy+	c #A34931",
"Gy+	c #A3442C",
"Hy+	c #9F3F29",
"Iy+	c #903721",
"Jy+	c #91341C",
"Ky+	c #79443E",
"Ly+	c #391C15",
"My+	c #672F1A",
"Ny+	c #642414",
"Oy+	c #632616",
"Py+	c #5F2514",
"Qy+	c #5F2717",
"Ry+	c #73311F",
"Sy+	c #76331F",
"Ty+	c #984833",
"Uy+	c #9D4732",
"Vy+	c #A74E3B",
"Wy+	c #AF5844",
"Xy+	c #9A4A35",
"Yy+	c #92452F",
"Zy+	c #923F2C",
"`y+	c #923A28",
" z+	c #903928",
".z+	c #8E3424",
"+z+	c #8A3221",
"@z+	c #7C3120",
"#z+	c #812E1F",
"$z+	c #57281C",
"%z+	c #5E2317",
"&z+	c #853825",
"*z+	c #883824",
"=z+	c #873926",
"-z+	c #873825",
";z+	c #863826",
">z+	c #5F2817",
",z+	c #6E3122",
"'z+	c #722A1D",
")z+	c #763627",
"!z+	c #772D1F",
"~z+	c #782B1C",
"{z+	c #973423",
"]z+	c #963725",
"^z+	c #A1442D",
"/z+	c #AF4A33",
"(z+	c #B24C34",
"_z+	c #8E301A",
":z+	c #8F311B",
"<z+	c #5D1104",
"[z+	c #574038",
"}z+	c #632413",
"|z+	c #5E2313",
"1z+	c #682A1A",
"2z+	c #672714",
"3z+	c #71301D",
"4z+	c #853622",
"5z+	c #8D3B25",
"6z+	c #9F4934",
"7z+	c #A64E3A",
"8z+	c #A2513C",
"9z+	c #A14F3A",
"0z+	c #9C503C",
"az+	c #94442F",
"bz+	c #8C3925",
"cz+	c #69291C",
"dz+	c #512215",
"ez+	c #4C2015",
"fz+	c #451E13",
"gz+	c #401B13",
"hz+	c #531E0F",
"iz+	c #7E3522",
"jz+	c #853926",
"kz+	c #8D3F2B",
"lz+	c #893C27",
"mz+	c #94452F",
"nz+	c #944531",
"oz+	c #8C3E29",
"pz+	c #8D402C",
"qz+	c #782E1B",
"rz+	c #652715",
"sz+	c #6C3424",
"tz+	c #7B3222",
"uz+	c #7C2E20",
"vz+	c #7D2F21",
"wz+	c #762C1E",
"xz+	c #7E2F20",
"yz+	c #8C2F20",
"zz+	c #8A2D1E",
"Az+	c #923223",
"Bz+	c #943222",
"Cz+	c #963B29",
"Dz+	c #B7523A",
"Ez+	c #842E19",
"Fz+	c #421F15",
"Gz+	c #622815",
"Hz+	c #672819",
"Iz+	c #6C2715",
"Jz+	c #712A19",
"Kz+	c #7B2E1B",
"Lz+	c #8B3924",
"Mz+	c #9A4733",
"Nz+	c #9C4934",
"Oz+	c #A04C37",
"Pz+	c #9C4E38",
"Qz+	c #8F4633",
"Rz+	c #934836",
"Sz+	c #934B36",
"Tz+	c #934934",
"Uz+	c #893E27",
"Vz+	c #8E3C28",
"Wz+	c #8A3423",
"Xz+	c #8F3829",
"Yz+	c #8B2C1D",
"Zz+	c #892F20",
"`z+	c #8A3222",
" A+	c #5C261A",
".A+	c #4C1F13",
"+A+	c #421A11",
"@A+	c #3D1810",
"#A+	c #772F1C",
"$A+	c #7F3521",
"%A+	c #7E3421",
"&A+	c #8B3F2A",
"*A+	c #843722",
"=A+	c #79301A",
"-A+	c #79311C",
";A+	c #6B3424",
">A+	c #6E3729",
",A+	c #652C1C",
"'A+	c #7C3022",
")A+	c #873723",
"!A+	c #97432E",
"~A+	c #9C422B",
"{A+	c #B14C34",
"]A+	c #B24B31",
"^A+	c #90351E",
"/A+	c #743B32",
"(A+	c #361812",
"_A+	c #612A17",
":A+	c #642615",
"<A+	c #6B2715",
"[A+	c #6C2614",
"}A+	c #8C3C26",
"|A+	c #8A3C25",
"1A+	c #8E422B",
"2A+	c #89402A",
"3A+	c #98503A",
"4A+	c #944F38",
"5A+	c #8E4E38",
"6A+	c #8F503C",
"7A+	c #8B4F3A",
"8A+	c #894833",
"9A+	c #96422F",
"0A+	c #712C1B",
"aA+	c #692B1B",
"bA+	c #562216",
"cA+	c #471D14",
"dA+	c #46170D",
"eA+	c #77301D",
"fA+	c #843824",
"gA+	c #7C311C",
"hA+	c #7C321C",
"iA+	c #823924",
"jA+	c #7E341F",
"kA+	c #612514",
"lA+	c #612F20",
"mA+	c #612E1E",
"nA+	c #723221",
"oA+	c #8B3623",
"pA+	c #973F2A",
"qA+	c #99442E",
"rA+	c #A64A35",
"sA+	c #B04B33",
"tA+	c #A9452D",
"uA+	c #A6412A",
"vA+	c #872C17",
"wA+	c #8F2D17",
"xA+	c #5F2319",
"yA+	c #56413B",
"zA+	c #612C17",
"AA+	c #5F2614",
"BA+	c #742A16",
"CA+	c #7E2E1A",
"DA+	c #873722",
"EA+	c #823721",
"FA+	c #7B3722",
"GA+	c #7C3824",
"HA+	c #914A35",
"IA+	c #8C4F39",
"JA+	c #92553F",
"KA+	c #914F38",
"LA+	c #994C37",
"MA+	c #994934",
"NA+	c #8D3E28",
"OA+	c #97442F",
"PA+	c #973C28",
"QA+	c #903924",
"RA+	c #983423",
"SA+	c #542319",
"TA+	c #47190D",
"UA+	c #6E2B18",
"VA+	c #7C331F",
"WA+	c #7C3320",
"XA+	c #7A321F",
"YA+	c #77311E",
"ZA+	c #78321D",
"`A+	c #652716",
" B+	c #5B2517",
".B+	c #702819",
"+B+	c #8C3020",
"@B+	c #933926",
"#B+	c #913122",
"$B+	c #923121",
"%B+	c #9E4D36",
"&B+	c #90402B",
"*B+	c #9D4A35",
"=B+	c #AD5640",
"-B+	c #B25239",
";B+	c #B65239",
">B+	c #A7422A",
",B+	c #812814",
"'B+	c #5A1E0D",
")B+	c #602612",
"!B+	c #612312",
"~B+	c #662715",
"{B+	c #7F301B",
"]B+	c #73321E",
"^B+	c #7E3621",
"/B+	c #823824",
"(B+	c #803B27",
"_B+	c #874632",
":B+	c #995742",
"<B+	c #98513B",
"[B+	c #A05942",
"}B+	c #914E35",
"|B+	c #914832",
"1B+	c #A54A34",
"2B+	c #99402B",
"3B+	c #9D3E2A",
"4B+	c #9E3625",
"5B+	c #7C2F20",
"6B+	c #5A261A",
"7B+	c #723527",
"8B+	c #692614",
"9B+	c #6F2917",
"0B+	c #742E1B",
"aB+	c #76311D",
"bB+	c #6E2B19",
"cB+	c #76321D",
"dB+	c #702C18",
"eB+	c #722E1A",
"fB+	c #6F2F19",
"gB+	c #713625",
"hB+	c #602A1A",
"iB+	c #6B2C1E",
"jB+	c #9D4532",
"kB+	c #8D3E2B",
"lB+	c #A04B36",
"mB+	c #AB523C",
"nB+	c #B3553D",
"oB+	c #B5533B",
"pB+	c #AE4B32",
"qB+	c #8C2F19",
"rB+	c #42312A",
"sB+	c #5C2713",
"tB+	c #5F2512",
"uB+	c #622513",
"vB+	c #782916",
"wB+	c #7B2B18",
"xB+	c #7E2F1B",
"yB+	c #7D311F",
"zB+	c #6F2D19",
"AB+	c #80341F",
"BB+	c #863C27",
"CB+	c #7E3723",
"DB+	c #89442F",
"EB+	c #88432D",
"FB+	c #85412B",
"GB+	c #A05740",
"HB+	c #AD5B43",
"IB+	c #B35D47",
"JB+	c #B05841",
"KB+	c #AF513C",
"LB+	c #AD4734",
"MB+	c #723421",
"NB+	c #863D2C",
"OB+	c #8A442F",
"PB+	c #7E3622",
"QB+	c #873D2A",
"RB+	c #8C4230",
"SB+	c #8C4431",
"TB+	c #894430",
"UB+	c #7D2E1F",
"VB+	c #893122",
"WB+	c #903D29",
"XB+	c #8C3A26",
"YB+	c #8F3D29",
"ZB+	c #923A27",
"`B+	c #953D29",
" C+	c #AA5740",
".C+	c #AF5C43",
"+C+	c #B35C44",
"@C+	c #BA5740",
"#C+	c #BC563E",
"$C+	c #B85036",
"%C+	c #B04930",
"&C+	c #8F2F1A",
"*C+	c #550B03",
"=C+	c #632614",
"-C+	c #712917",
";C+	c #792E1A",
">C+	c #80301C",
",C+	c #7D341E",
"'C+	c #803B25",
")C+	c #823E29",
"!C+	c #8E4A33",
"~C+	c #96523A",
"{C+	c #9F5740",
"]C+	c #9C4F36",
"^C+	c #AB533C",
"/C+	c #B7563F",
"(C+	c #C05C44",
"_C+	c #BE5C45",
":C+	c #C05942",
"<C+	c #A93E2D",
"[C+	c #7E3321",
"}C+	c #8B402F",
"|C+	c #8D4532",
"1C+	c #964A36",
"2C+	c #964B36",
"3C+	c #91432E",
"4C+	c #974A33",
"5C+	c #954A36",
"6C+	c #73321F",
"7C+	c #6C2D1A",
"8C+	c #6C2918",
"9C+	c #823424",
"0C+	c #933725",
"aC+	c #9A3C2A",
"bC+	c #893C28",
"cC+	c #92422D",
"dC+	c #AA4F38",
"eC+	c #A8543D",
"fC+	c #A6543E",
"gC+	c #A9543D",
"hC+	c #A74C33",
"iC+	c #B24D34",
"jC+	c #B95138",
"kC+	c #A24028",
"lC+	c #A24128",
"mC+	c #9F3E26",
"nC+	c #973C24",
"oC+	c #973B23",
"pC+	c #8A2F19",
"qC+	c #732418",
"rC+	c #391B13",
"sC+	c #622510",
"tC+	c #752613",
"uC+	c #772A16",
"vC+	c #742915",
"wC+	c #7F301C",
"xC+	c #7E341E",
"yC+	c #7D3923",
"zC+	c #83402B",
"AC+	c #7C3B26",
"BC+	c #91452C",
"CC+	c #AB4F38",
"DC+	c #A34930",
"EC+	c #B5543C",
"FC+	c #BF5D42",
"GC+	c #B4543D",
"HC+	c #AF523C",
"IC+	c #B4563F",
"JC+	c #B2543D",
"KC+	c #AD4A36",
"LC+	c #A1472E",
"MC+	c #8E3E28",
"NC+	c #8F3E2A",
"OC+	c #8D3A26",
"PC+	c #8B3A26",
"QC+	c #8D3823",
"RC+	c #9B3826",
"SC+	c #872F20",
"TC+	c #6A2A17",
"UC+	c #6A2A16",
"VC+	c #773220",
"WC+	c #75331E",
"XC+	c #73301D",
"YC+	c #943A29",
"ZC+	c #883421",
"`C+	c #8E3B28",
" D+	c #943F2A",
".D+	c #9C4A33",
"+D+	c #A54F38",
"@D+	c #B65A43",
"#D+	c #BC5A40",
"$D+	c #C75F46",
"%D+	c #BE5941",
"&D+	c #9F432D",
"*D+	c #94422D",
"=D+	c #9D452F",
"-D+	c #A03C25",
";D+	c #983921",
">D+	c #8E3A21",
",D+	c #88331C",
"'D+	c #8E351F",
")D+	c #8D351E",
"!D+	c #812713",
"~D+	c #8C2A14",
"{D+	c #902C15",
"]D+	c #731A0A",
"^D+	c #2F0E03",
"/D+	c #662210",
"(D+	c #662513",
"_D+	c #692412",
":D+	c #742916",
"<D+	c #772A17",
"[D+	c #7E301D",
"}D+	c #76311B",
"|D+	c #79311B",
"1D+	c #7B351F",
"2D+	c #7F3720",
"3D+	c #873B24",
"4D+	c #8D3B23",
"5D+	c #903A23",
"6D+	c #9D4229",
"7D+	c #A34730",
"8D+	c #9D462D",
"9D+	c #9A462D",
"0D+	c #AF563F",
"aD+	c #A04731",
"bD+	c #B2573F",
"cD+	c #C26248",
"dD+	c #B95A43",
"eD+	c #B65944",
"fD+	c #A44D36",
"gD+	c #A9533D",
"hD+	c #9F4E39",
"iD+	c #8A422C",
"jD+	c #7F3B26",
"kD+	c #793722",
"lD+	c #823B25",
"mD+	c #953C2A",
"nD+	c #873421",
"oD+	c #863825",
"pD+	c #863A27",
"qD+	c #7F3522",
"rD+	c #843522",
"sD+	c #893725",
"tD+	c #963A26",
"uD+	c #A13E2B",
"vD+	c #933927",
"wD+	c #923D2A",
"xD+	c #8A3924",
"yD+	c #843A24",
"zD+	c #813C26",
"AD+	c #7D3823",
"BD+	c #84412E",
"CD+	c #813E2B",
"DD+	c #87432F",
"ED+	c #8C442D",
"FD+	c #94472F",
"GD+	c #A24F38",
"HD+	c #A84F39",
"ID+	c #AF523B",
"JD+	c #B75840",
"KD+	c #B25841",
"LD+	c #B85E45",
"MD+	c #BC5F45",
"ND+	c #C4624A",
"OD+	c #BD583F",
"PD+	c #983D29",
"QD+	c #9A3B26",
"RD+	c #9E3A23",
"SD+	c #8E4229",
"TD+	c #7C200D",
"UD+	c #662512",
"VD+	c #632312",
"WD+	c #772916",
"XD+	c #772F1B",
"YD+	c #79321D",
"ZD+	c #7D321D",
"`D+	c #782F19",
" E+	c #7D331E",
".E+	c #853822",
"+E+	c #8B3923",
"@E+	c #903A24",
"#E+	c #913C25",
"$E+	c #88351E",
"%E+	c #933F27",
"&E+	c #953F27",
"*E+	c #994931",
"=E+	c #98432C",
"-E+	c #9A432D",
";E+	c #A64A33",
">E+	c #AE4D36",
",E+	c #B6563E",
"'E+	c #B6543D",
")E+	c #B95840",
"!E+	c #BA5741",
"~E+	c #BE5C43",
"{E+	c #B65640",
"]E+	c #BA5C46",
"^E+	c #B45A46",
"/E+	c #B65E47",
"(E+	c #B25A43",
"_E+	c #A24E39",
":E+	c #994833",
"<E+	c #96432E",
"[E+	c #A2412D",
"}E+	c #9C3828",
"|E+	c #813822",
"1E+	c #7F3722",
"2E+	c #7A341F",
"3E+	c #843B27",
"4E+	c #87341F",
"5E+	c #983B2A",
"6E+	c #913B29",
"7E+	c #853521",
"8E+	c #8A3B25",
"9E+	c #A04A33",
"0E+	c #A5503A",
"aE+	c #994831",
"bE+	c #9E4D37",
"cE+	c #994A34",
"dE+	c #91432D",
"eE+	c #994932",
"fE+	c #9E4C36",
"gE+	c #A34E38",
"hE+	c #BB5F47",
"iE+	c #BD6048",
"jE+	c #C2674D",
"kE+	c #B65A42",
"lE+	c #B05239",
"mE+	c #A8492F",
"nE+	c #B04C32",
"oE+	c #B54F35",
"pE+	c #AF4830",
"qE+	c #9B3E27",
"rE+	c #8E3924",
"sE+	c #853A26",
"tE+	c #954B33",
"uE+	c #90442C",
"vE+	c #8F341E",
"wE+	c #972F18",
"xE+	c #892914",
"yE+	c #662713",
"zE+	c #6B2514",
"AE+	c #752713",
"BE+	c #7E2A17",
"CE+	c #792A17",
"DE+	c #7D2D19",
"EE+	c #7D2C18",
"FE+	c #7B331F",
"GE+	c #732C18",
"HE+	c #7A2F19",
"IE+	c #7A2E19",
"JE+	c #7E301A",
"KE+	c #85341D",
"LE+	c #85361C",
"ME+	c #883B22",
"NE+	c #873821",
"OE+	c #81331A",
"PE+	c #80351D",
"QE+	c #8C3C24",
"RE+	c #913A22",
"SE+	c #963F27",
"TE+	c #9D452C",
"UE+	c #9D442C",
"VE+	c #9A4029",
"WE+	c #A0472F",
"XE+	c #A64B32",
"YE+	c #B4563E",
"ZE+	c #B9553F",
"`E+	c #B8543B",
" F+	c #B05138",
".F+	c #B96148",
"+F+	c #B45A43",
"@F+	c #B45A42",
"#F+	c #B55D45",
"$F+	c #B75F46",
"%F+	c #B55C44",
"&F+	c #BC5F49",
"*F+	c #BE5D45",
"=F+	c #B04E37",
"-F+	c #AF4D36",
";F+	c #A84430",
">F+	c #943E28",
",F+	c #8B3B26",
"'F+	c #97412C",
")F+	c #A4422E",
"!F+	c #A4452E",
"~F+	c #9F432E",
"{F+	c #9B4731",
"]F+	c #A6523C",
"^F+	c #A6513C",
"/F+	c #A8533D",
"(F+	c #A5513C",
"_F+	c #A7533B",
":F+	c #A8513A",
"<F+	c #AC5940",
"[F+	c #A8553C",
"}F+	c #AF553E",
"|F+	c #B2563D",
"1F+	c #C1644C",
"2F+	c #C76A51",
"3F+	c #C4654B",
"4F+	c #B45941",
"5F+	c #BC6147",
"6F+	c #A95036",
"7F+	c #AE513A",
"8F+	c #A6462E",
"9F+	c #8C3A24",
"0F+	c #89422C",
"aF+	c #883B24",
"bF+	c #832D16",
"cF+	c #8C2C16",
"dF+	c #872914",
"eF+	c #76615E",
"fF+	c #4D1F16",
"gF+	c #6B2711",
"hF+	c #652310",
"iF+	c #6D2312",
"jF+	c #782B17",
"kF+	c #712B16",
"lF+	c #6E2713",
"mF+	c #7B321F",
"nF+	c #7E321C",
"oF+	c #792C17",
"pF+	c #792B16",
"qF+	c #85351F",
"rF+	c #7F311C",
"sF+	c #782F18",
"tF+	c #7F331D",
"uF+	c #873923",
"vF+	c #823823",
"wF+	c #833621",
"xF+	c #86371E",
"yF+	c #8C3B23",
"zF+	c #97422A",
"AF+	c #9B3F29",
"BF+	c #903922",
"CF+	c #A5442C",
"DF+	c #AE4B35",
"EF+	c #A4462E",
"FF+	c #B3553E",
"GF+	c #AF553C",
"HF+	c #B2563C",
"IF+	c #B5573E",
"JF+	c #D26850",
"KF+	c #D36950",
"LF+	c #C55F47",
"MF+	c #C15B43",
"NF+	c #BF5D45",
"OF+	c #C8654D",
"PF+	c #BA5B42",
"QF+	c #B95942",
"RF+	c #B75A41",
"SF+	c #BF5E47",
"TF+	c #B3543D",
"UF+	c #B1563E",
"VF+	c #A85039",
"WF+	c #9E4B34",
"XF+	c #974933",
"YF+	c #A04F39",
"ZF+	c #A44F38",
"`F+	c #A24B33",
" G+	c #8E3D26",
".G+	c #924730",
"+G+	c #8C422B",
"@G+	c #8F462E",
"#G+	c #974932",
"$G+	c #AB5740",
"%G+	c #A35037",
"&G+	c #A64D34",
"*G+	c #B3563F",
"=G+	c #B2553E",
"-G+	c #B55944",
";G+	c #B75D46",
">G+	c #B8634D",
",G+	c #B35E48",
"'G+	c #B05941",
")G+	c #BE684E",
"!G+	c #BB644B",
"~G+	c #C27158",
"{G+	c #BA674F",
"]G+	c #BE664E",
"^G+	c #C0684D",
"/G+	c #C26D52",
"(G+	c #C0684F",
"_G+	c #C66D53",
":G+	c #C4694F",
"<G+	c #C6694E",
"[G+	c #B5553B",
"}G+	c #B5533A",
"|G+	c #A3482E",
"1G+	c #A4482F",
"2G+	c #A3462E",
"3G+	c #A74A34",
"4G+	c #9E3F27",
"5G+	c #A8442B",
"6G+	c #993E27",
"7G+	c #9E3D24",
"8G+	c #9A361F",
"9G+	c #893721",
"0G+	c #79331E",
"aG+	c #7F301A",
"bG+	c #913721",
"cG+	c #922B15",
"dG+	c #872813",
"eG+	c #6E322C",
"fG+	c #553B33",
"gG+	c #66200D",
"hG+	c #732817",
"iG+	c #792B18",
"jG+	c #75301C",
"kG+	c #7C3421",
"lG+	c #7D311C",
"mG+	c #83311B",
"nG+	c #823520",
"oG+	c #843821",
"pG+	c #84361F",
"qG+	c #84341C",
"rG+	c #84341F",
"sG+	c #8B3722",
"tG+	c #A4432B",
"uG+	c #A3432B",
"vG+	c #B9573F",
"wG+	c #BB5D43",
"xG+	c #B95941",
"yG+	c #B15842",
"zG+	c #B45B43",
"AG+	c #A9533B",
"BG+	c #A44F36",
"CG+	c #AE573E",
"DG+	c #A9533A",
"EG+	c #A8563F",
"FG+	c #9D4E37",
"GG+	c #A85941",
"HG+	c #AD5C45",
"IG+	c #A85640",
"JG+	c #B4644B",
"KG+	c #AB5C45",
"LG+	c #A3553E",
"MG+	c #A75A43",
"NG+	c #AB5C44",
"OG+	c #AF5B43",
"PG+	c #B05B43",
"QG+	c #B7624A",
"RG+	c #B66147",
"SG+	c #BB6349",
"TG+	c #BE654B",
"UG+	c #B55C41",
"VG+	c #B55940",
"WG+	c #BC5E46",
"XG+	c #B05A40",
"YG+	c #B25F46",
"ZG+	c #A8563D",
"`G+	c #A34F35",
" H+	c #A55239",
".H+	c #A45239",
"+H+	c #A25238",
"@H+	c #A5553C",
"#H+	c #AA573C",
"$H+	c #AE5C40",
"%H+	c #B35C41",
"&H+	c #B3553B",
"*H+	c #BA593D",
"=H+	c #B64F34",
"-H+	c #AF4A31",
";H+	c #9E3F25",
">H+	c #A23D26",
",H+	c #7E2A16",
"'H+	c #7E331F",
")H+	c #892D17",
"!H+	c #792915",
"~H+	c #4A160E",
"{H+	c #5C514D",
"]H+	c #451F16",
"^H+	c #6A2512",
"/H+	c #822D19",
"(H+	c #7C2C19",
"_H+	c #702916",
":H+	c #762D1A",
"<H+	c #6B2816",
"[H+	c #7F2B17",
"}H+	c #7E311C",
"|H+	c #7E331D",
"1H+	c #7C2F19",
"2H+	c #82331D",
"3H+	c #85341E",
"4H+	c #88311B",
"5H+	c #86301B",
"6H+	c #A03D26",
"7H+	c #9F412B",
"8H+	c #A6442D",
"9H+	c #B14F36",
"0H+	c #A5452D",
"aH+	c #9B462F",
"bH+	c #984730",
"cH+	c #97462E",
"dH+	c #9C4931",
"eH+	c #9F4931",
"fH+	c #A64F37",
"gH+	c #9A452E",
"hH+	c #92412B",
"iH+	c #954931",
"jH+	c #994C33",
"kH+	c #A0533C",
"lH+	c #944A31",
"mH+	c #93472F",
"nH+	c #904932",
"oH+	c #9D523A",
"pH+	c #A3553C",
"qH+	c #A15137",
"rH+	c #A14F37",
"sH+	c #A5533C",
"tH+	c #A04D34",
"uH+	c #9A472F",
"vH+	c #9B462E",
"wH+	c #A04C33",
"xH+	c #9E472D",
"yH+	c #A1482F",
"zH+	c #9E492F",
"AH+	c #9D4A32",
"BH+	c #9C4930",
"CH+	c #9E4931",
"DH+	c #9E4C35",
"EH+	c #9C482F",
"FH+	c #954029",
"GH+	c #9E4A31",
"HH+	c #99462C",
"IH+	c #99462D",
"JH+	c #973F26",
"KH+	c #A74931",
"LH+	c #A5432A",
"MH+	c #983821",
"NH+	c #7F321C",
"OH+	c #812813",
"PH+	c #882C14",
"QH+	c #501605",
"RH+	c #6E2915",
"SH+	c #712C19",
"TH+	c #722E1B",
"UH+	c #873520",
"VH+	c #7D2E16",
"WH+	c #7F2D17",
"XH+	c #7D2E1B",
"YH+	c #7F341E",
"ZH+	c #7E311B",
"`H+	c #81311B",
" I+	c #8E3820",
".I+	c #903722",
"+I+	c #902F19",
"@I+	c #A14027",
"#I+	c #A03B24",
"$I+	c #9C3B23",
"%I+	c #96432B",
"&I+	c #99452F",
"*I+	c #903C25",
"=I+	c #923E29",
"-I+	c #94412A",
";I+	c #903E28",
">I+	c #974830",
",I+	c #94442D",
"'I+	c #924129",
")I+	c #924029",
"!I+	c #8B3D26",
"~I+	c #93452C",
"{I+	c #92412A",
"]I+	c #903C24",
"^I+	c #9B422B",
"/I+	c #A24930",
"(I+	c #9A4228",
"_I+	c #9E462D",
":I+	c #9C442C",
"<I+	c #9B422A",
"[I+	c #984027",
"}I+	c #943D26",
"|I+	c #933A22",
"1I+	c #923C25",
"2I+	c #9F3F26",
"3I+	c #9A3821",
"4I+	c #98351C",
"5I+	c #96361E",
"6I+	c #9C3A24",
"7I+	c #943C25",
"8I+	c #8D3B24",
"9I+	c #8C301A",
"0I+	c #862713",
"aI+	c #3F0804",
"bI+	c #5A433D",
"cI+	c #5C1C06",
"dI+	c #6F2513",
"eI+	c #6C2311",
"fI+	c #732B17",
"gI+	c #712714",
"hI+	c #772A15",
"iI+	c #702814",
"jI+	c #762E1A",
"kI+	c #7C2E19",
"lI+	c #843520",
"mI+	c #782A16",
"nI+	c #7C311B",
"oI+	c #762D18",
"pI+	c #792D19",
"qI+	c #83331E",
"rI+	c #873721",
"sI+	c #92371F",
"tI+	c #963922",
"uI+	c #923A24",
"vI+	c #8B3925",
"wI+	c #8D3C24",
"xI+	c #934028",
"yI+	c #8D3922",
"zI+	c #97432B",
"AI+	c #903A25",
"BI+	c #80301A",
"CI+	c #903C26",
"DI+	c #913F29",
"EI+	c #8D3E25",
"FI+	c #893923",
"GI+	c #99432D",
"HI+	c #A14830",
"II+	c #9B3F28",
"JI+	c #9D422B",
"KI+	c #9D4129",
"LI+	c #983C25",
"MI+	c #963C24",
"NI+	c #9B432B",
"OI+	c #933A23",
"PI+	c #923721",
"QI+	c #90321A",
"RI+	c #943921",
"SI+	c #8F3A24",
"TI+	c #8C3823",
"UI+	c #97351F",
"VI+	c #93321C",
"WI+	c #8F3923",
"XI+	c #913824",
"YI+	c #842511",
"ZI+	c #822711",
"`I+	c #4B2319",
" J+	c #722614",
".J+	c #702412",
"+J+	c #792E1B",
"@J+	c #742B17",
"#J+	c #7B2B17",
"$J+	c #82341F",
"%J+	c #87351F",
"&J+	c #7E2A14",
"*J+	c #8E311B",
"=J+	c #8D341E",
"-J+	c #8F3720",
";J+	c #893720",
">J+	c #893620",
",J+	c #8E3C25",
"'J+	c #89351F",
")J+	c #8B341D",
"!J+	c #8D3620",
"~J+	c #873018",
"{J+	c #893722",
"]J+	c #8B3922",
"^J+	c #913F2A",
"/J+	c #88321D",
"(J+	c #923D27",
"_J+	c #8F3921",
":J+	c #92351D",
"<J+	c #9A3B25",
"[J+	c #913B24",
"}J+	c #8F3A23",
"|J+	c #953E26",
"1J+	c #8D3921",
"2J+	c #9F462E",
"3J+	c #8A351F",
"4J+	c #8A3922",
"5J+	c #903E26",
"6J+	c #8A3820",
"7J+	c #7B321D",
"8J+	c #8B3B25",
"9J+	c #5F1E16",
"0J+	c #6F5F5A",
"aJ+	c #421C14",
"bJ+	c #562110",
"cJ+	c #5E2312",
"dJ+	c #7A2B16",
"eJ+	c #7A2D1A",
"fJ+	c #742814",
"gJ+	c #792A15",
"hJ+	c #80321C",
"iJ+	c #7B2C17",
"jJ+	c #7E2E18",
"kJ+	c #86351E",
"lJ+	c #9C3820",
"mJ+	c #963721",
"nJ+	c #933A24",
"oJ+	c #8C3720",
"pJ+	c #9A3F29",
"qJ+	c #8E361F",
"rJ+	c #8E331E",
"sJ+	c #993F2A",
"tJ+	c #993F27",
"uJ+	c #983C24",
"vJ+	c #953923",
"wJ+	c #9E3D26",
"xJ+	c #8E341C",
"yJ+	c #973A22",
"zJ+	c #9B3D24",
"AJ+	c #963B24",
"BJ+	c #86351D",
"CJ+	c #86331D",
"DJ+	c #81331D",
"EJ+	c #7E351E",
"FJ+	c #7C2C18",
"GJ+	c #903521",
"HJ+	c #8C2713",
"IJ+	c #6B261A",
"JJ+	c #755B59",
"KJ+	c #32130D",
"LJ+	c #3B1509",
"MJ+	c #512213",
"NJ+	c #66210F",
"OJ+	c #742713",
"PJ+	c #732713",
"QJ+	c #772B19",
"RJ+	c #7C2C16",
"SJ+	c #7D2E18",
"TJ+	c #7B301B",
"UJ+	c #7A311B",
"VJ+	c #80331F",
"WJ+	c #82341E",
"XJ+	c #83321C",
"YJ+	c #812E18",
"ZJ+	c #782712",
"`J+	c #822C16",
" K+	c #973D27",
".K+	c #88321B",
"+K+	c #98341D",
"@K+	c #91371F",
"#K+	c #90341D",
"$K+	c #97371F",
"%K+	c #99361E",
"&K+	c #8E3521",
"*K+	c #88341D",
"=K+	c #83311A",
"-K+	c #923E25",
";K+	c #87351E",
">K+	c #90341E",
",K+	c #92301A",
"'K+	c #95331C",
")K+	c #98361E",
"!K+	c #8C301B",
"~K+	c #8B2C16",
"{K+	c #6E2715",
"]K+	c #2C1913",
"^K+	c #461C0F",
"/K+	c #391406",
"(K+	c #321207",
"_K+	c #451E12",
":K+	c #863520",
"<K+	c #782D19",
"[K+	c #6D2813",
"}K+	c #78301B",
"|K+	c #7C331D",
"1K+	c #882E19",
"2K+	c #993B24",
"3K+	c #943A23",
"4K+	c #933720",
"5K+	c #9C3D25",
"6K+	c #9B3D26",
"7K+	c #7A2410",
"8K+	c #83351F",
"9K+	c #983E28",
"0K+	c #984029",
"aK+	c #98412B",
"bK+	c #86341D",
"cK+	c #8E3922",
"dK+	c #91311B",
"eK+	c #902D17",
"fK+	c #822A14",
"gK+	c #682617",
"hK+	c #521C0F",
"iK+	c #421708",
"jK+	c #390803",
"kK+	c #453A36",
"lK+	c #40170A",
"mK+	c #341308",
"nK+	c #311408",
"oK+	c #2D1004",
"pK+	c #371609",
"qK+	c #672616",
"rK+	c #69210F",
"sK+	c #702310",
"tK+	c #782613",
"uK+	c #742612",
"vK+	c #81311D",
"wK+	c #77311D",
"xK+	c #722E18",
"yK+	c #6E2A15",
"zK+	c #953B24",
"AK+	c #963822",
"BK+	c #933019",
"CK+	c #9A3B23",
"DK+	c #8A311B",
"EK+	c #8B331C",
"FK+	c #87331C",
"GK+	c #883019",
"HK+	c #8E3923",
"IK+	c #591E11",
"JK+	c #41180B",
"KK+	c #5A2110",
"LK+	c #460602",
"MK+	c #341711",
"NK+	c #40180D",
"OK+	c #3B170B",
"PK+	c #3A160B",
"QK+	c #361207",
"RK+	c #2C0D05",
"SK+	c #2D0E05",
"TK+	c #411910",
"UK+	c #6E2612",
"VK+	c #7B2F1A",
"WK+	c #702F1B",
"XK+	c #712E19",
"YK+	c #73311C",
"ZK+	c #832A15",
"`K+	c #97361E",
" L+	c #952F18",
".L+	c #96361F",
"+L+	c #812F1B",
"@L+	c #8C3621",
"#L+	c #A34027",
"$L+	c #812C16",
"%L+	c #8A341E",
"&L+	c #953A25",
"*L+	c #893C26",
"=L+	c #7D311B",
"-L+	c #7F2E19",
";L+	c #8A2E18",
">L+	c #41190A",
",L+	c #4E1F10",
"'L+	c #8F5E4F",
")L+	c #401A0D",
"!L+	c #361307",
"~L+	c #270A04",
"{L+	c #471B0F",
"]L+	c #592013",
"^L+	c #702715",
"/L+	c #7B2E18",
"(L+	c #782914",
"_L+	c #782C18",
":L+	c #6A2612",
"<L+	c #6A2B18",
"[L+	c #762F1A",
"}L+	c #812A14",
"|L+	c #872F19",
"1L+	c #8E3721",
"2L+	c #993820",
"3L+	c #97371E",
"4L+	c #8D341D",
"5L+	c #863620",
"6L+	c #96331B",
"7L+	c #9B351D",
"8L+	c #8E3A25",
"9L+	c #80311B",
"0L+	c #843823",
"aL+	c #8B3D28",
"bL+	c #572216",
"cL+	c #37150B",
"dL+	c #3A1406",
"eL+	c #481D0E",
"fL+	c #5E0F03",
"gL+	c #371A10",
"hL+	c #40160B",
"iL+	c #391709",
"jL+	c #300F06",
"kL+	c #250A02",
"lL+	c #260C04",
"mL+	c #331106",
"nL+	c #2E0E04",
"oL+	c #572111",
"pL+	c #6B2312",
"qL+	c #7C2F1B",
"rL+	c #832C18",
"sL+	c #85301A",
"tL+	c #802C16",
"uL+	c #87311C",
"vL+	c #8F3721",
"wL+	c #822E18",
"xL+	c #3E160A",
"yL+	c #310C02",
"zL+	c #301005",
"AL+	c #551F10",
"BL+	c #8F3B29",
"CL+	c #632E22",
"DL+	c #3C1F1B",
"EL+	c #4A1A0C",
"FL+	c #321005",
"GL+	c #2A0D04",
"HL+	c #2A0E07",
"IL+	c #4F2014",
"JL+	c #8E3119",
"KL+	c #8B2F19",
"LL+	c #8D3019",
"ML+	c #86321E",
"NL+	c #95351E",
"OL+	c #83341E",
"PL+	c #81301C",
"QL+	c #8A351E",
"RL+	c #95311A",
"SL+	c #85301B",
"TL+	c #832D18",
"UL+	c #7D2A15",
"VL+	c #3C1408",
"WL+	c #3A1709",
"XL+	c #280901",
"YL+	c #3E150A",
"ZL+	c #481B0D",
"`L+	c #712D17",
" M+	c #410903",
".M+	c #451A12",
"+M+	c #602915",
"@M+	c #5A2311",
"#M+	c #501E0E",
"$M+	c #481C0F",
"%M+	c #3E1A0E",
"&M+	c #321409",
"*M+	c #2A0F05",
"=M+	c #360D06",
"-M+	c #2B1008",
";M+	c #3D1B10",
">M+	c #6A2412",
",M+	c #6F2713",
"'M+	c #832D19",
")M+	c #6D2610",
"!M+	c #74230F",
"~M+	c #852B16",
"{M+	c #903822",
"]M+	c #8B3720",
"^M+	c #8B3621",
"/M+	c #8C341E",
"(M+	c #8E321B",
"_M+	c #8D2D17",
":M+	c #9C3922",
"<M+	c #7F321E",
"[M+	c #87341D",
"}M+	c #8A321C",
"|M+	c #87311A",
"1M+	c #551F13",
"2M+	c #42170D",
"3M+	c #310D03",
"4M+	c #3F1307",
"5M+	c #3E1809",
"6M+	c #2B0D02",
"7M+	c #311005",
"8M+	c #391408",
"9M+	c #4A1B0D",
"0M+	c #7C361F",
"aM+	c #7B311D",
"bM+	c #843725",
"cM+	c #825241",
"dM+	c #250A05",
"eM+	c #491B0F",
"fM+	c #5E2413",
"gM+	c #562614",
"hM+	c #46190B",
"iM+	c #2E0E06",
"jM+	c #301308",
"kM+	c #3B140A",
"lM+	c #371006",
"mM+	c #2F0E04",
"nM+	c #300F05",
"oM+	c #431C11",
"pM+	c #562115",
"qM+	c #762B18",
"rM+	c #722511",
"sM+	c #7E2E19",
"tM+	c #7F2F1A",
"uM+	c #7B2A17",
"vM+	c #812712",
"wM+	c #8A311A",
"xM+	c #812D18",
"yM+	c #8A3622",
"zM+	c #93351E",
"AM+	c #89351E",
"BM+	c #833620",
"CM+	c #94321B",
"DM+	c #782C19",
"EM+	c #44170A",
"FM+	c #3B1206",
"GM+	c #3C1306",
"HM+	c #421408",
"IM+	c #441306",
"JM+	c #2F1004",
"KM+	c #381307",
"LM+	c #572210",
"MM+	c #73311A",
"NM+	c #81361E",
"OM+	c #8D4027",
"PM+	c #91381D",
"QM+	c #815348",
"RM+	c #4E3C3A",
"SM+	c #351D17",
"TM+	c #483935",
"UM+	c #2F1005",
"VM+	c #3B1308",
"WM+	c #431607",
"XM+	c #3E1306",
"YM+	c #361005",
"ZM+	c #341005",
"`M+	c #320F08",
" N+	c #230A04",
".N+	c #491E11",
"+N+	c #512113",
"@N+	c #5F2616",
"#N+	c #682614",
"$N+	c #7C2D19",
"%N+	c #7C2612",
"&N+	c #943824",
"*N+	c #883219",
"=N+	c #853019",
"-N+	c #7E301C",
";N+	c #7B301C",
">N+	c #7E3019",
",N+	c #8B2B16",
"'N+	c #4B1F12",
")N+	c #401409",
"!N+	c #401105",
"~N+	c #431407",
"{N+	c #481207",
"]N+	c #4D170A",
"^N+	c #50190A",
"/N+	c #561D0C",
"(N+	c #410E04",
"_N+	c #381608",
":N+	c #5F2716",
"<N+	c #67220E",
"[N+	c #835045",
"}N+	c #392621",
"|N+	c #46180B",
"1N+	c #421609",
"2N+	c #401307",
"3N+	c #361006",
"4N+	c #2D0C03",
"5N+	c #39180E",
"6N+	c #712A16",
"7N+	c #752B18",
"8N+	c #772C18",
"9N+	c #7C2813",
"0N+	c #782915",
"aN+	c #90331A",
"bN+	c #963B25",
"cN+	c #84321C",
"dN+	c #732411",
"eN+	c #521D12",
"fN+	c #300C02",
"gN+	c #401407",
"hN+	c #44160B",
"iN+	c #451509",
"jN+	c #481508",
"kN+	c #615956",
"lN+	c #39231F",
"mN+	c #451B0D",
"nN+	c #431809",
"oN+	c #431709",
"pN+	c #3D1306",
"qN+	c #381105",
"rN+	c #3C1107",
"sN+	c #3A1208",
"tN+	c #2F0F05",
"uN+	c #2F0E05",
"vN+	c #2C0D04",
"wN+	c #3A150F",
"xN+	c #471C12",
"yN+	c #532417",
"zN+	c #772715",
"AN+	c #762714",
"BN+	c #7F2C17",
"CN+	c #7E2612",
"DN+	c #7B2A15",
"EN+	c #802D17",
"FN+	c #80311D",
"GN+	c #832C17",
"HN+	c #882F19",
"IN+	c #842F19",
"JN+	c #87301A",
"KN+	c #84341E",
"LN+	c #7F2F1B",
"MN+	c #82321E",
"NN+	c #802D19",
"ON+	c #7D2B16",
"PN+	c #522213",
"QN+	c #492014",
"RN+	c #2C0801",
"SN+	c #3A1006",
"TN+	c #3B0F05",
"UN+	c #3D1107",
"VN+	c #4D1708",
"WN+	c #4B1709",
"XN+	c #531D0B",
"YN+	c #58200E",
"ZN+	c #554242",
"`N+	c #4B413C",
" O+	c #47160A",
".O+	c #461607",
"+O+	c #471909",
"@O+	c #391106",
"#O+	c #3B1309",
"$O+	c #3B1307",
"%O+	c #351005",
"&O+	c #341007",
"*O+	c #2E0D06",
"=O+	c #2F0D06",
"-O+	c #2C0B03",
";O+	c #321009",
">O+	c #3F1811",
",O+	c #491D10",
"'O+	c #542113",
")O+	c #5A2314",
"!O+	c #682210",
"~O+	c #6D2715",
"{O+	c #89331C",
"]O+	c #7E2B18",
"^O+	c #7C2914",
"/O+	c #7D2915",
"(O+	c #451C12",
"_O+	c #38150C",
":O+	c #290800",
"<O+	c #310E04",
"[O+	c #330E04",
"}O+	c #351004",
"|O+	c #360F03",
"1O+	c #380F04",
"2O+	c #441508",
"3O+	c #401005",
"4O+	c #401106",
"5O+	c #511607",
"6O+	c #5B1B0A",
"7O+	c #3F1004",
"8O+	c #42393B",
"9O+	c #3C170F",
"0O+	c #4C1B0C",
"aO+	c #481607",
"bO+	c #411408",
"cO+	c #411306",
"dO+	c #3A1205",
"eO+	c #361108",
"fO+	c #310F06",
"gO+	c #2A0A04",
"hO+	c #2A0C04",
"iO+	c #290A05",
"jO+	c #240603",
"kO+	c #2C1008",
"lO+	c #361710",
"mO+	c #3E1A10",
"nO+	c #4C1E12",
"oO+	c #511D12",
"pO+	c #5B2115",
"qO+	c #5F2316",
"rO+	c #722613",
"sO+	c #7B2512",
"tO+	c #802915",
"uO+	c #79230F",
"vO+	c #66291A",
"wO+	c #5C2718",
"xO+	c #552013",
"yO+	c #42170E",
"zO+	c #3B190E",
"AO+	c #301007",
"BO+	c #240703",
"CO+	c #3E1508",
"DO+	c #3A0F04",
"EO+	c #3E1105",
"FO+	c #411106",
"GO+	c #591B0C",
"HO+	c #5C1D0A",
"IO+	c #631F0D",
"JO+	c #571E0A",
"KO+	c #544845",
"LO+	c #45393C",
"MO+	c #481B10",
"NO+	c #451709",
"OO+	c #3D1305",
"PO+	c #411508",
"QO+	c #3C1206",
"RO+	c #3D1408",
"SO+	c #381308",
"TO+	c #340F05",
"UO+	c #340D06",
"VO+	c #2F0D04",
"WO+	c #2D0A05",
"XO+	c #2E0C03",
"YO+	c #2A0A06",
"ZO+	c #2C0E08",
"`O+	c #33130B",
" P+	c #37130B",
".P+	c #3A150C",
"+P+	c #3E190F",
"@P+	c #4D1E11",
"#P+	c #4D1D10",
"$P+	c #501F12",
"%P+	c #4F2214",
"&P+	c #512214",
"*P+	c #512010",
"=P+	c #4C1C10",
"-P+	c #521E11",
";P+	c #4E1D14",
">P+	c #491B11",
",P+	c #471B11",
"'P+	c #411810",
")P+	c #37150C",
"!P+	c #2A0D06",
"~P+	c #240804",
"{P+	c #250501",
"]P+	c #290903",
"^P+	c #320C03",
"/P+	c #360F06",
"(P+	c #3A1005",
"_P+	c #471306",
":P+	c #51180A",
"<P+	c #52180A",
"[P+	c #54190A",
"}P+	c #4E1F16",
"|P+	c #615555",
"1P+	c #2C0C07",
"2P+	c #441509",
"3P+	c #3F1408",
"4P+	c #401508",
"5P+	c #3E1205",
"6P+	c #381206",
"7P+	c #371206",
"8P+	c #320E03",
"9P+	c #350E05",
"0P+	c #300D04",
"aP+	c #2C0C04",
"bP+	c #2C0E04",
"cP+	c #270D05",
"dP+	c #230B06",
"eP+	c #371406",
"fP+	c #3F1809",
"gP+	c #4B2111",
"hP+	c #4F2212",
"iP+	c #4E2210",
"jP+	c #532716",
"kP+	c #4E2312",
"lP+	c #4B1F0F",
"mP+	c #4C2311",
"nP+	c #4B200E",
"oP+	c #552C1B",
"pP+	c #441E0F",
"qP+	c #3B180C",
"rP+	c #2D0E03",
"sP+	c #2F0D02",
"tP+	c #320E07",
"uP+	c #391006",
"vP+	c #391005",
"wP+	c #3B1006",
"xP+	c #401408",
"yP+	c #3F1206",
"zP+	c #3F1207",
"AP+	c #4F180A",
"BP+	c #58190A",
"CP+	c #5C1C0B",
"DP+	c #5F1E0C",
"EP+	c #483E3B",
"FP+	c #645752",
"GP+	c #311911",
"HP+	c #481A0A",
"IP+	c #46190A",
"JP+	c #421608",
"KP+	c #3F1407",
"LP+	c #401207",
"MP+	c #421D10",
"NP+	c #49200F",
"OP+	c #542211",
"PP+	c #612D1B",
"QP+	c #733D26",
"RP+	c #703923",
"SP+	c #77422B",
"TP+	c #6B351E",
"UP+	c #69311A",
"VP+	c #632E16",
"WP+	c #5A2A17",
"XP+	c #451D10",
"YP+	c #300E03",
"ZP+	c #350F04",
"`P+	c #662010",
" Q+	c #611F0E",
".Q+	c #621B0B",
"+Q+	c #6E2816",
"@Q+	c #3E2620",
"#Q+	c #535552",
"$Q+	c #291814",
"%Q+	c #4C1B0B",
"&Q+	c #43150A",
"*Q+	c #411609",
"=Q+	c #401305",
"-Q+	c #390F07",
";Q+	c #340D04",
">Q+	c #441D0F",
",Q+	c #4F2513",
"'Q+	c #5D2C19",
")Q+	c #64301C",
"!Q+	c #723B26",
"~Q+	c #733822",
"{Q+	c #73381F",
"]Q+	c #703A27",
"^Q+	c #602F1F",
"/Q+	c #5D2A17",
"(Q+	c #3B1005",
"_Q+	c #441308",
":Q+	c #621E0C",
"<Q+	c #601D0D",
"[Q+	c #66200F",
"}Q+	c #591E10",
"|Q+	c #382424",
"1Q+	c #352A26",
"2Q+	c #381103",
"3Q+	c #441809",
"4Q+	c #431506",
"5Q+	c #4B170A",
"6Q+	c #4C170C",
"7Q+	c #41140A",
"8Q+	c #3D1206",
"9Q+	c #3C140B",
"0Q+	c #300F07",
"aQ+	c #2C0D06",
"bQ+	c #653620",
"cQ+	c #68321D",
"dQ+	c #66331E",
"eQ+	c #5E2C18",
"fQ+	c #56240F",
"gQ+	c #5C2A17",
"hQ+	c #764029",
"iQ+	c #764127",
"jQ+	c #6C361F",
"kQ+	c #471D0F",
"lQ+	c #3B1105",
"mQ+	c #41150A",
"nQ+	c #4A160A",
"oQ+	c #4B180B",
"pQ+	c #631C0C",
"qQ+	c #621D0D",
"rQ+	c #4D4646",
"sQ+	c #343134",
"tQ+	c #2B110A",
"uQ+	c #3B1607",
"vQ+	c #42180B",
"wQ+	c #461609",
"xQ+	c #461608",
"yQ+	c #3E1107",
"zQ+	c #3D1309",
"AQ+	c #280D06",
"BQ+	c #6D3B26",
"CQ+	c #72371B",
"DQ+	c #7F4126",
"EQ+	c #7C3F21",
"FQ+	c #88492E",
"GQ+	c #935336",
"HQ+	c #915235",
"IQ+	c #803F25",
"JQ+	c #7F4125",
"KQ+	c #8B4F34",
"LQ+	c #44190B",
"MQ+	c #3D1105",
"NQ+	c #50190C",
"OQ+	c #521A0B",
"PQ+	c #601F10",
"QQ+	c #692314",
"RQ+	c #383235",
"SQ+	c #403532",
"TQ+	c #401809",
"UQ+	c #4C1F0E",
"VQ+	c #431808",
"WQ+	c #441506",
"XQ+	c #4D1B0A",
"YQ+	c #4D1907",
"ZQ+	c #4A170B",
"`Q+	c #411207",
" R+	c #451E14",
".R+	c #79422F",
"+R+	c #864A2F",
"@R+	c #935638",
"#R+	c #8E4D31",
"$R+	c #9A593C",
"%R+	c #945134",
"&R+	c #9A553A",
"*R+	c #95573A",
"=R+	c #80462B",
"-R+	c #5C3121",
";R+	c #681F0E",
">R+	c #662015",
",R+	c #4C4943",
"'R+	c #484647",
")R+	c #3E160B",
"!R+	c #4C1E10",
"~R+	c #4B1B0D",
"{R+	c #44140A",
"]R+	c #3F1106",
"^R+	c #350802",
"/R+	c #380903",
"(R+	c #4B2014",
"_R+	c #4B2212",
":R+	c #370400",
"<R+	c #411209",
"[R+	c #491709",
"}R+	c #5B1C0D",
"|R+	c #651F0F",
"1R+	c #631E0B",
"2R+	c #3D2E2D",
"3R+	c #343636",
"4R+	c #20110E",
"5R+	c #381306",
"6R+	c #471608",
"7R+	c #4C1C0F",
"8R+	c #431306",
"9R+	c #4B1808",
"0R+	c #501B0F",
"aR+	c #5B190A",
"bR+	c #642111",
"cR+	c #44130A",
"dR+	c #373432",
"eR+	c #504645",
"fR+	c #230F0A",
"gR+	c #34110A",
"hR+	c #3F1306",
"iR+	c #48190C",
"jR+	c #45180B",
"kR+	c #4A1A0D",
"lR+	c #5A1F0F",
"mR+	c #2D2321",
"nR+	c #423939",
"oR+	c #1E1110",
"pR+	c #511E0F",
"qR+	c #4A1808",
"rR+	c #471205",
"sR+	c #4C1709",
"tR+	c #4F190C",
"uR+	c #471709",
"vR+	c #4A190B",
"wR+	c #48170A",
"xR+	c #49180B",
"yR+	c #5B1D0D",
"zR+	c #5C1B0B",
"AR+	c #5E1D0D",
"BR+	c #692513",
"CR+	c #69200E",
"DR+	c #5D2514",
"ER+	c #383637",
"FR+	c #383636",
"GR+	c #1C100E",
"HR+	c #311109",
"IR+	c #3C120A",
"JR+	c #46160B",
"KR+	c #5B2415",
"LR+	c #511F10",
"MR+	c #501A0C",
"NR+	c #541B0F",
"OR+	c #4F190A",
"PR+	c #64210D",
"QR+	c #632414",
"RR+	c #5C1F0D",
"SR+	c #6D2614",
"TR+	c #742D1A",
"UR+	c #602111",
"VR+	c #542311",
"WR+	c #3F3B3A",
"XR+	c #50514F",
"YR+	c #322B2B",
"ZR+	c #47190B",
"`R+	c #48190F",
" S+	c #511E0D",
".S+	c #521C0D",
"+S+	c #50190B",
"@S+	c #591A0B",
"#S+	c #641E0E",
"$S+	c #631E0D",
"%S+	c #691F0F",
"&S+	c #622111",
"*S+	c #732A1E",
"=S+	c #6C2818",
"-S+	c #552215",
";S+	c #28130D",
">S+	c #4F5554",
",S+	c #48464A",
"'S+	c #525253",
")S+	c #1E2122",
"!S+	c #120605",
"~S+	c #2B0B06",
"{S+	c #461D12",
"]S+	c #4A1301",
"^S+	c #4D190D",
"/S+	c #501D12",
"(S+	c #42150E",
"_S+	c #361109",
":S+	c #382A27",
"<S+	c #5F5856",
"[S+	c #2C2E2E",
"                                                                                                                                                                                                                                                                                                                                                                                                                                                   .  +  @  #  $  %  &  *  =  -  ;  >  ,  '                                                                                                                                                                                                                                                                                                                                                                                                                                                  ",
"                                                                                                                                                                                                                                                                                                                                                                                                                                             )  !  ~  {  ]  ^  /  (  _  :  <  [  }  |  1  2  3  4  5                                                                                                                                                                                                                                                                                                                                                                                                                                         ",
"                                                                                                                                                                                                                                                                                                                                                                                                                                             6  7  8  9  0  a  b  c  d  e  f  g  h  i  j  k  l  m  n                                                                                                                                                                                                                                                                                                                                                                                                                                         ",
"                                                                                                                                                                                                                                                                                                                                                                                                                                             o  p  q  r  s  t  u  v  w  x  y  z  A  B  C  D  E  F  G                                                                                                                                                                                                                                                                                                                                                                                                                                         ",
"                                                                                                                                                                                                                                                                                                                                                                                                                                             H  I  J  K  L  M  N  O  P  Q  R  S  T  U  V  W  X  Y  Z                                                                                                                                                                                                                                                                                                                                                                                                                                         ",
"                                                                                                                                                                                                                                                                                                                                                                                                                                             `   . .. +. @. #. $. %. %. &. *. =. -. ;. >. ,. '. ). !.                                                                                                                                                                                                                                                                                                                                                                                                                                        ",
"                                                                                                                                                                                                                                                                                                                                                                                                                                             ~. {. ]. ^. /. (. _. :. <. [. }. |. 1. 2. 3. 4. 5. 6. 7.                                                                                                                                                                                                                                                                                                                                                                                                                                        ",
"                                                                                                                                                                                                                                                                                                                                                                                                                                          8. 9. 0. a. b. c. d. e. f. g. h. i. j. k. l. m. n. o. p. q. r.                                                                                                                                                                                                                                                                                                                                                                                                                                     ",
"                                                                                                                                                                                                                                                                                                                                                                                                                                       s. t. u. v. w. x. y. z. A. B. C. D. E. F. G. H. I. J. K. L. M. N. O.                                                                                                                                                                                                                                                                                                                                                                                                                                  ",
"                                                                                                                                                                                                                                                                                                                                                                                                                                    P. Q. R. S. T. U. V. W. X. X. Y. Z. `.  + .+ ++ @+ y. #+ $+ %+ &+ *+ =+ -+                                                                                                                                                                                                                                                                                                                                                                                                                               ",
"                                                                                                                                                                                                                                                                                                                                                                                                                                    ;+ >+ a. ,+ '+ )+ !+ ~+ {+ ]+ ^+ /+ (+ _+ :+ <+ [+ y. }+ |+ 1+ 2+ 3+ 4+ 5+                                                                                                                                                                                                                                                                                                                                                                                                                               ",
"                                                                                                                                                                                                                                                                                                                                                                                                                                    6+ 7+ 8+ 9+ 0+ a+ b+ c+ d+ e+ Z. f+ g+ h+ i+ j+ k+ l+ m+ n+ o+ p+ q+ r+ s+                                                                                                                                                                                                                                                                                                                                                                                                                               ",
"                                                                                                                                                                                                                                                                                                                                                                                                                                    t+ u+ v+ t. w+ x+ y+ z+ A+ B+ C+ D+ E+ /+ F+ G+ D+ H+ I+ I+ J+ K+ L+ M+ N+                                                                                                                                                                                                                                                                                                                                                                                                                               ",
"                                                                                                                                                                                                                                                                                                                                                                                                                                    O+ P+ Q+ R+ S+ v+ T+ U+ #+ V+ W+ X+ Y+ Z+ `+  @ .@ +@ @@ #@ $@ %@ &@ *@ =@                                                                                                                                                                                                                                                                                                                                                                                                                               ",
"                                                                                                                                                                                                                                                                                                                                                                                                                                    -@ ;@ >@ ,@ '@ )@ !@ ~@ {@ ]@ ^@ /@ (@ _@ :@ <@ [@ }@ |@ 1@ 2@ 3@ 4@ 5@ 6@                                                                                                                                                                                                                                                                                                                                                                                                                               ",
"                                                                                                                                                                                                                                                                                                                                                                                                                                    7@ 8@ '@ 9@ 0@ a@ b@ c@ d@ e@ f@ g@ h@ i@ j@ k@ l@ m@ n@ o@ p@ q@ _@ r@ s@                                                                                                                                                                                                                                                                                                                                                                                                                               ",
"                                                                                                                                                                                                                                                                                                                                                                                                                                    t@ u@ v@ w@ x@ y@ z@ A@ B@ C@ D@ E@ F@ G@ H@ I@ J@ K@ L@ M@ N@ O@ P@ Q@ R@                                                                                                                                                                                                                                                                                                                                                                                                                               ",
"                                                                                                                                                                                                                                                                                                                                                                                                                                    S@ T@ U@ V@ W@ X@ Y@ Z@ `@  # .# +# @# ## $# %# &# *# =# -# ;# ># ,# '# )#                                                                                                                                                                                                                                                                                                                                                                                                                               ",
"                                                                                                                                                                                                                                                                                                                                                                                                                                    !# ~# {# ]# ^# /# (# _# :# <# [# }# |# 1# 2# 3# 4# 5# 6# 7# 8# 9# 0# a# b#                                                                                                                                                                                                                                                                                                                                                                                                                               ",
"                                                                                                                                                                                                                                                                                                                                                                                                                        c# d# e# f# g# h# i# j# k# l# m# n# o# p# q# r# s# t# u# v# w# x# y# z# A#             B#                                                                                                                                                                                                                                                                                                                                                                                                                            ",
"                                                                                                                                                                                                                                                                                                                                                                                                         C# D# E# F# G# H# I# J# K# L# M# N# O# P# Q# R# S# T# U# V# W# X# Y# Z# `#  $ .$ .$ +$ @$ #$ $$ %$ &$ *$ =$ -$ ;$ >$ ,$ '$ )$                                                                                                                                                                                                                                                                                                                                                                                                       ",
"                                                                                                                                                                                                                                                                                                                                                                                                      !$ ~$ {$ ]$ ^$ /$ ($ _$ :$ <$ [$ }$ |$ 1$ 2$ 3$ 4$ 5$ 6$ 7$ 8$ 9$ 0$ a$ b$ c$ d$ e$ f$ g$ h$ i$ j$ k$ l$ m$ n$ o$ p$ q$ r$ s$ t$ u$ v$                                                                                                                                                                                                                                                                                                                                                                                                 ",
"                                                                                                                                                                                                                                                                                                                                                                                                      w$ &. x$ y$ z$ A$ B$ C$ D$ E$ F$ G$ H$ I$ J$ K$ L$ M$ N$ O$ P$ Q$ R$ S$ T$ U$ V$ W$ X$ Y$ Z$ `$  % .% +% @% #% $% %% &% *% =% -% ;% >%                                                                                                                                                                                                                                                                                                                                                                                                 ",
"                                                                                                                                                                                                                                                                                                                                                                                                      ,% '% )% !% |. ~% {% ]% ^% /% (% _% :% <% [% }% |% 1% 2% 3% 4% 5% 6% 7% 8% 9% 0% a% b% c% d% e% f% g% h% i% j% k% l% m% n% o% p% q% r%                                                                                                                                                                                                                                                                                                                                                                                                 ",
"                                                                                                                                                                                                                                                                                                                                                                                                   s% t% u% v% w% x% y% z% A% B% C% D% E% F% G% H% I% J% K% L% M% N% O% P% Q% R% S% T% U% V% W% X% Y% Z% `%  & .& +& @& #& $& %& && *& =& -&                                                                                                                                                                                                                                                                                                                                                                                                 ",
"                                                                                                                                                                                                                                                                                                                                                                                       ;& >& ,& '& )& !& ~& {& ]& ^& /& (& _& :& <& [& }& |& 1& 2& 3& 4& 5& 6& 7& 8& 9& 0& a& b& c& d& e& f& g& h& i& j& i& k& l& m& <& n& o& p& q& r& s& t& u& v&                                                                                                                                                                                                                                                                                                                                                                                           ",
"                                                                                                                                                                                                                                                                                                                                                                                    w& x& y& z& A& B& C& D& E& F& G& H& I& J& K& p. L& M& N& O& P& Q& R& S& T& U& V& W& X& Y& Z& `&  * .* +* @* #* $* %* &* ** =* -* ;* >* ,* '* )* !* ~* {* {* ]* ^* /* (*                                                                                                                                                                                                                                                                                                                                                                                  ",
"                                                                                                                                                                                                                                                                                                                                                                                 _* :* <* [* }* |* 1* 2* 3* 4* 5* 6* '& 7* 8* 9* 0* a* b* c* d* e* f* g* h* i* j* k* l* m* n* o* p* q* r* s* t* u* v* w* x* y* z* A* B* C* D* E* F* G* H* I* J* K* L* M* N* O*                                                                                                                                                                                                                                                                                                                                                                               ",
"                                                                                                                                                                                                                                                                                                                                                                              P* Q* R* S* T* U* V* W* X* Y* Z* `*  = .= += @= #= $= %= &= *= == -= ;= >= ,= '= )= != ~= {= ]= ^= /= (= _= := <= [= }= |= 1= 2= 3= 4= 5= 6= 7= 8= 9= 0= a= b= c= d= e= f= g= h= i=                                                                                                                                                                                                                                                                                                                                                                            ",
"                                                                                                                                                                                                                                                                                                                                                                              j= k= l= m= n= o= p= q= r= s= t= u= v= w= x= y= z= A= B= C= P+ D= E= E= F= G= H= I= I=  # F= J= K= L= M= N= O= P= Q= R= %@ S= }+ T= U= V= W= X= Y= Z= `=  - .- +- @- #- $- %- &- *-                                                                                                                                                                                                                                                                                                                                                                            ",
"                                                                                                                                                                                                                                                                                                                                                                           =- -- ;- A@ >- ,- '- )- !- ~- {- ]- ^- /- (- _- :- <- [- }- |- 1- 2- 3- 4- 5- 6- 7- 8- 9- 0- a- b- c- d- e- f- B* g- h- i- j- k- l- m- n- o- p- q- r- s- t- u- v- r- w- x- y- z- A- B- C-                                                                                                                                                                                                                                                                                                                                                                         ",
"                                                                                                                                                                                                                                                                                                                                                                           D- E- F- G- H- I- J- K- L- M- N- O- P- Q- R- S- T- %- U- V- W- H. B* X- Y- Z- `-  ; .; +; @; #; $; %; &; *; =; -; ;; >; ,; '; =; ); !; ~; {; ]; ^; /; (; _; :; <; [; }; |; 1; 2; 3; L= 4;                                                                                                                                                                                                                                                                                                                                                                         ",
"                                                                                                                                                                                                                                                                                                                                                                        5; 6; 7; 8; 9; 0; a; b; c; d; e; f; g; h; i; j; k; l; m; n; o; p; q; r; s; t; u; v; w; x; y; z; %; s; A; B; C; D; E; F; G; H; ;; I; J; K; L; M; N; O; P; Q; Y- Y- R; S; T; U; V; W; X; Y; Z; `;                                                                                                                                                                                                                                                                                                                                                                      ",
"                                                                                                                                                                                                                                                                                                                                                                         > .> +> @> #> $> %> &> *> => ->  ; '= ;> >> ,> '> )> !> ~> {> ]> ^> /> (> _> :> <> [> }> |> 1> 2> 3> 4> 5> 6> 7> 8> 9> 0> a> b> c> d> e> [% f> g> h> i> j> k> l> m> 2> l> >> n> o> p> q> r> s>                                                                                                                                                                                                                                                                                                                                                                      ",
"                                                                                                                                                                                                                                                                                                                                                                  t> u> v> w> x> y> z> A> B> C> D> E> F> G> H> I> J> K> L> (> M> N> O> P> Q> R> S> T> {> U> V> !> W> W> X> ;; D; Q> Y> Z> `>  , ., ., +, @, #, $, %, 6> &, *, X> =, d> -, ;, >, ,, ', ), ;, J; p; !, ~, {,                                                                                                                                                                                                                                                                                                                                                                   ",
"                                                                                                                                                                                                                                                                                                                                                            ], ^, /, (, _, <= :, <, [, }, |, 1, 2, 3, 4, 5, 6, K> 7, 8, 9, 0, a, b, M> %, c, *, d, e, /> *, f, g, h, i, j, a% k, l, m, n, o, o, p, q, r, s, t, k, u, $, v, w, r, x, y, z, A, B, C, e, z, D, ;, E, F, K> G, H, I,                                                                                                                                                                                                                                                                                                                                                             ",
"                                                                                                                                                                                                                                                                                                                                                         J, K, L, M, N, O, P, Q, R, S, T, U, V, W, X, Y, Z, `,  ' .' +' @' #' $' %' &' *' =' -' ;' e, >' ,' (> '' E; )' !' ~' {' ]' ^' c, /' (' _' :' <' [' <' }' i, |' 1' 2' 3' a> ., E; o, 4' 5' 6' F; e, G; 7' 8' 9' 0' a' b' c' d'                                                                                                                                                                                                                                                                                                                                                       ",
"                                                                                                                                                                                                                                                                                                                                                   e' f' g' (, h' i' j' k' l' m' n' o' p' l' q' r' s' t' u' v' w' +' x' y' (> 6' z' A' B' C' D' 4' E' 8> 6' 6' F' G' H' I' _' r, v, J' K' `> K' L' M' N' 3' O' ), a, 3' K' `> j, I' P' Q' /' R' 8> 4' S' T' E; U' V' W' X' Y' Z' `'  ) .)                                                                                                                                                                                                                                                                                                                                                    ",
"                                                                                                                                                                                                                                                                                                                                                +) @) @> #) $) %) &) *) =) -) ;) >) ,) ') )) !) (= ~) {) ]) v' ^) /) () _) :) <) [) }) |) 1) 2) 3' 3) r, i, 4) 5) 6) 7) 8) 9) 0) a) b) E; c) Y> d) I; e) '' f) 7' y, g) h) i) j) k) l) K' m) 8) h) j) n) o) p) q) r) s) t) u) v) w) x) y) z) A)                                                                                                                                                                                                                                                                                                                                              ",
"                                                                                                                                                                                                                                                                                                                                          B) C) D) E) F) G) H) I) n' J) R, K) L) M) I) N) O) P) Q) R) S) T) U) V) W) X) x' Y) Z) `)  ! .! +! W> @! m, c, #! $! %! x, 0> c) &! p, o) *! ~' a> t; =! -! v, ;! K' >! ,! '! )! !! @, x, k) :' ~! {! 8) <' ]! ^! /! (! _! :! C' l> <! [! }! |! 1! 2! 3!                                                                                                                                                                                                                                                                                                                                           ",
"                                                                                                                                                                                                                                                                                                                                       4! 5! 6! x> y) 7! 8! 9! 5, v' S, 0! a! b! P) c! d! e! f! V) |> n; g! h! i! U) j! k! l! P> m! n! e, <) d> m, y, o! p! q! &, %, r! ,! s, h) (' s! (' t! [% u! v! w! N' x! p, y! y, z! O' A! s, B! !' Z> C! ~! D! ^! m) E! F! C! G! y! r! 2) H! I! g> z; => J! K! L!                                                                                                                                                                                                                                                                                                                                     ",
"                                                                                                                                                                                                                                                                                                                                    M! N! O! P! Q! R! ') S! 2% T! U! V! |, W! X! Y! Z! L> `!  ~ .~ u' +~ 0, @~ +! #~ $~ %~ [) I; &~ *~ S> =~ R> -~ %, !> ;~ >~ '' i, t! $~ j, i) ,~ p, '~ )~ N> !~ O> ~~ {~ p, <' ]~ s, z! ^~ /~ j, :' :' (~ J' _~ E; :~ x! o, <~ [~ }~ 1' o, T' M> @~ f) |~ 1~ a! 2~ 3~ 4~                                                                                                                                                                                                                                                                                                                                  ",
"                                                                                                                                                                                                                                                                                                                                 5~ 6~ 7~ 8~ 9~ 0~ Y! a~ b~ }% c~ '> d~ e~ '> P) f~ g~ o; {> T> {> s; h~ -' i~ j~ k~ +~ l~ m~ p; n~ 5> o~ p~ f> O> k~ q~ r~ 1) s~ t~ d% s, (! 3) ~' <' q) u~ v~ w~ a> n) 8> x! x~ y~ z~ A~ 8> !' B~  , `> B! c% 8> E; C~ 8) ~~ 8) o, E' B, r! <~ D~ E~ F~ .! G~ H~ e= I~ J~ K~                                                                                                                                                                                                                                                                                                                               ",
"                                                                                                                                                                                                                                                                                                                           L~ M~ N~ O~ #> _, `' P~ t' u' t' Q~ R~ S~ T~ U~ V~ W~ X~ ]; Y~ Z~ `~ s~ 8'  { .{ J; g> o! +{ @{ #{ ${ %{ &{ *{ *{ Q) Q~ V~ ={ c, +' |> -{ 6> ;{ >{ b> ,{ )' '{ ){ !{ !' n, !' {' @! ., ~' ~' )' ~{ {{ k) ]{ Z> ~~ C~ ]~ ^{ F! C~ /{ ({ _{ _{ #, :{ <{ m, H; ), B, a, [{ .= }{ |{ 1{ 2{                                                                                                                                                                                                                                                                                                                            ",
"                                                                                                                                                                                                                                                                                                                        3{ 4{ 5{ 6{ 1! 7{ 8{ 9{ 0{ a{ b{ c{ Q~ X! Q~ b{ d{ q; g~ e{ f{ g{ h{ {> I; O> i{ A, t~ T> e= j{ k{ l{ &' %~ ;{ z' 1) f! m{ n{ o{ $~ p{ q{ r{ >~ s{ t{ {' u{ r, (' j, <' #, w~ ~' %, R' v{ /' w~ m) w{ x{ y{ z{ A{ B{ A~ k) !' G' [' C{ ]~ D{ D! E{ k) I' r) D~ F{ B, M> G{ H{ M) ]; I{ J{ K{                                                                                                                                                                                                                                                                                                                         ",
"                                                                                                                                                                                                                                                                                                                     L{ M{ N{ O{ P{ Q{ >) P) R{ R~ a{ v) S{ ') d{ 9= T{ U{ $; V{ W{ X{ Y{ Y{ ^> R> c, Q> Z{  , `{  ] .] j~ s, C{ ,~ +] %, @] #] $] e> %] &] *] =] -] B' ;] A, N> 7' ^' >] ,] '] )] !] ~] {] b> F; ]] ^] @, +] B! j) #, C, /] )! !' @, (] (! F! _] :] _] <] [] }] |] 1] D' 7' 2] G; >' 3] T{ 4] 5] 6] 7]                                                                                                                                                                                                                                                                                                                      ",
"                                                                                                                                                                                                                                                                                                                  8] 9] 0] a] A> b] c] d] e] d] .= $; f] r' g] h] i] j] k] l] !, m] -, n] S> b, H; o] #, N> Z{ b, p] ;' q] a) `> r] s] t] u] v] w] a> t, x] *{ g> y] O> z] /~ Q> k~ K; A] U{ B] 8) C] %, d> ^~ i) @! D] E] q) 8) '! ;' r! F] m) u, >] Q' G] H] s, I] J] K] L] *! p, ]~ M] N] e, O] P] Q] U~ >> R] S] T] U]                                                                                                                                                                                                                                                                                                                   ",
"                                                                                                                                                                                                                                                                                                                  V] W] X] Y] Z] `] .= b{ P)  ^ 4] X~ .^ +^ d) @^ #^ $^ %^ l; $' #, #, %, &^ i, *^ =^ -^ t! b> =~ a> B! B! `> ;^ >^  , ,^ '^ q! )^ {' L' !^ B' ~^ {^ ]^ q~ ^^ b> /^ h! (^ _^ H! o, 0> E; z] 6> :^ <^  , !{ [^ y~ ~! }^ m) |^ !{ 1^ 2^ 8> 3^ }{ 1) o) }] 4^ 5^ ~{ 6^ _] (' @! 7^ =~ 8^ 9^ ,, /> 0^ a^ b^ c^ d^                                                                                                                                                                                                                                                                                                                ",
"                                                                                                                                                                                                                                                                                                               e^ f^ g^ h^ i^ j^ k^ l^ S! m^ y] m; n^ o^ d{ p^ e, q^ r^ i^ `! ,, S> o{ G; F; m, r, C! 1' n, s^ e) t^ u^ v^ w^ x^ y^ z^ A^ B^ z, C^ $~ z, D^ &, E^ E^ F^ ^' G^ s^ W> /> H^ I^ J^ Z> 3' J'  ! K^ ;] z! u~ |^ _' L^ M^ 0) *! N^ ~{ }] B! ~! O^ g; <! C! (' :] D{ P^ Q^ R^ S^ T^ {! E' y, U^ c> ;; U^ V~ V^ W^ X^ Y^                                                                                                                                                                                                                                                                                                             ",
"                                                                                                                                                                                                                                                                                                            Z^ `^  / ./ +/ @/ k^ g{ #/ $/ %/ &/ */ =/ -/ ;/ f) f) t; >/ ,/ &, '/ )/ >; !/ G! G' 6' ~/ m, r! {/ I' [' ~/ ]/ ^/ // (/ _/ Q> p, h, g) 1' e) >' |~ :/ </ [/ `~ }/ c> ^] E; )' E{ |/ 8) u, +, =~ 1/ 2/ o] :] r] m) 3/ 4/ 9) o, E{ :] 5/ 6/ 7/ 8/ 9/ f> I] C~ N^ o) 0/ a/ M^ _] b/ c/ &! T^ x! d/ e/ f/ O] g/ h/ i/ j/ k/                                                                                                                                                                                                                                                                                                          ",
"                                                                                                                                                                                                                                                                                                         l/ m/ n/ o/ p/ q/ r/ s/ t/ u/ v/ 5) w/ x/ [/ y/  { O] 2] z/ y/ 2> a, d% G; b, #, 1' A, A/ %, ,! Z> /' B/ q] C/ D/ E/ F/  ! G/ H/ ~! e% '' I/ ={ ^> J/ L> K/ L/ _) E; M/ r] '~ N/ O/ <' 4/ 0> P/ Q/ R/ ;! h, S/ s! {' c) T/ (' U/ V/ W/ w{ 5/ X/ N/ Y/ C, C! k) B! Z/ `/  ( _] Q^ p) i) &! .( +( c> P] @( #( C; -/ $( %( &( .@                                                                                                                                                                                                                                                                                                       ",
"                                                                                                                                                                                                                                                                                                      *( =( -( ;( f= >( ,( '( $/ m^ )( !( ~( {( ;/ ]( *~ ^( >; /( (( _( (( D, ;; F; )' o, x! J^ d> j) =^ 0> 8> /' <^ :( <( [( }( k, |( Z> q] 1( e> <) @^ T> G~ 2( Y- 3( 4( n, 5( 6( 7( x{ 8( 9( 0(  , 8> w! ~/ a( {' b( ^] c( d( T/ <' e( U/ f( g( h( i( j( +, k( l( m( n( ~~ o( M^ p( 7/ q( r( s( P^ t( u( v( U^ A! 7) w( x( &; y( z( A(                                                                                                                                                                                                                                                                                                    ",
"                                                                                                                                                                                                                                                                                                   B( C( D( E( F( G( d] g{ H( I( '; J( K( K( L( 2> w( M( N( O( ^( P( Q( _~ v( >{ R( C{ D! z, '' $~ Z{ t! G; v, t^ h, A' o{ r! p, 8> n, C~ G' S( z] *, &, T( U( t; `! V( W( X( m, Y( Z( q, l) `> A~ R' `( ., |'  _ ._ P/ r] 7( :' b( +_ 0) @_ #_ $_ %_ 6^ p( t~ K^ n{ )] &_ (~ *_ _] =_ -_ ;_ v{ C~ >_ m, ,_ '_ c/ )_ !_ e/ N( ~_ {_ ]_ ^_                                                                                                                                                                                                                                                                                                    ",
"                                                                                                                                                                                                                                                                                                   /_ 4{ (_ __ -> :_ <_ [_ $/ )( }_ |_ 1_ 2_ 3_ 4_ ^( 5_ 6_ 7_ 8_ 9_ U^ 0_ >{ A/ B! a_ t^ ;] b_ c_ d_ 8) R' w~ e_ m) #, b) D{ 4/ s] M/ a% /~ J' z] =' f_ q~ s~ g_ h_ i_ j_ ,' k_ T^ c% l_ m_ K' 1^ n, ~! c_ N' n_ o_ `> 7( 8( p_ M' p, q_ g( r_ s_ t_ u_ v_ w_ x_ ;= )] J] y_ z_ A_ B_ C_ C_ e( 5/ Q^ D_ E_ F_ G_ H_ Y/ >{ s) I_ L; J_ K_ L_                                                                                                                                                                                                                                                                                                 ",
"                                                                                                                                                                                                                                                                                                M_ N_ O_ P_ +; Q_ R_ S_ T_ U_ !( V_ |_ W_ X_ Y_ Z_ U^ `_ 2] )/ V'  : 2] L' )] .: v{ ]~ t] $~ =' K/ +: U) d% @: #: $: @: %: &: *: s! ., m, J^ B] |) =: d> 2( `~ -: ;: Y, &; O^ >: `( /~ ,: -^ b% `> ': ): `> #: ': +_ !: ~: {: ]: w_ *! ^: /: (: _: :: <: [: }: 9^ |: %{ 5/ q( )~ A_ L] :] 1: 1: 2: 3: 4: S^ 5: 6: 7: 8: 9: 0: a: b: c: d: e: f:                                                                                                                                                                                                                                                                                              ",
"                                                                                                                                                                                                                                                                                             g: h: C) b; i: j: k: l: m: n: o: p: q: r: s: t: u: !] u: 7^ )/ !_ v: )/ F; ^{ N> !^ w: x: #, i, y: z: A: u' t^ B: q] {' u~ u^ |^ E{ `> C: h, D: I^ E: Z) F: G: _) H: `~ ;~ I: J: K: L: M: N: O: P: Q: R: S: T: u, U: V: W: X: Y: +_ j) 6( Z: `:  < .< +< @< #< 5^ $< %< &< *< q( &! -_ =< `/ -< 2: ;< e( >< ,< '< N^ )< !< ~< 5_ 7_ {< ]< =; ^< /<                                                                                                                                                                                                                                                                                              ",
"                                                                                                                                                                                                                                                                                             (< _< :< << [< }< |< 1< I( 2< 3< 4< 5< 6< 7< w( 8< 9<  : 7_ +( w: 0< a< ', k) D' -, E; r, s, b< c< d< e< l,  , $< f< $~ |' C! C! m) e_ v{ 7> ;] [% g< h< i< j< k< l< m< n< o< p< q< r< s< t< P/ M' u< v< w< 7> x< y< z< A< B< C< D< E< F< G< {{ H< I< J< K< L< ){ T/  ! M< N< O< ~! P< s! M^ :] _] Q< R< S< T< U< V< 6: i) W< X< @( a: C; W_ Y< i_ Z<                                                                                                                                                                                                                                                                                           ",
"                                                                                                                                                                                                                                                                                          `<  [ |: .[ +[ @[ */ +& #[ f& $[ %[ &[ *[ =[ -[ ;[ >[ ,[ '[ V' +( )[ ![ ~[ 2' G! Z) {[ >{ ', >, O> ][ ^[ /[ q] b( ([ _[ 5, Z{ j) :[ 7( p, b( A! }/ d, <[ [[ n~ }[ |[ {^ n< S, 1[ 2[ +' ;] l( 3[ 4[ 5[ 6[ 7[ 8[ 9[ 0[ a[ b[ c[ d[ e[ f[ g[ h[ 5( i[ j[ k[ l[ m[ n[ o[ p[ q[ r[ s[ N/ 6( 0) o( t[ Z/ u[ g( v[ v[ w[ x[ y[ z[ A[ B[ C[ D[ E[ F[ N( !( S% G[ H[                                                                                                                                                                                                                                                                                        ",
"                                                                                                                                                                                                                                                                                       I[ J[ K[ L[ M[ P% N[ O[ P[ Q[ S_ R[ S[ T[ U[ V[ W[ X[ Y[ Z[ 8: `[ 7^  } !< .} =~ +} @} 6, #} 8^ d% $} %} ${ &} Q: *} w' M, j; =} `> -} !{ ;^ a> B] d> 2/ (( 4> *{ ;} g_ p; >} ,} '} )} J; >~ F' !} ~} {} ]} ^} /} (} _} :} <} <} 8( O: _' [} }} |} a) 1} i[ 2} k[ 3} 4} a) r] q, ,~ a% C_ ){ 7/ 5} 6} ~{ :] B_ >< 7} j( <: v[ 8} 9} 0} a} b} c} d} 8_ e} f} g}                                                                                                                                                                                                                                                                                        ",
"                                                                                                                                                                                                                                                                                       h} i} 5- j} k} l} Q[ m} n} o} p} q} r} s} t} u} v} X% >[ w} 8_ X< !] 0< V' O' `) x} y} h! G; 2] A/ t! '' z} 7) A} >] B} N_ F> 9( 5( a) 8( 6( |( g) @! C} '' D} s~ E} F} ;: G} H} I} J} K} L} M} N} O} P} Q} R} S} T} U} V} :} W} #: X} Y} T} Z} `}  | .| 1} `: @< +| @| #| $| %| y{ }^ E] q[ 7/ I] &| *| U< =| ,< -| v[ ;| >| ,| 8} ;| B[ '| )| !| ~| {| ]| ^| /|                                                                                                                                                                                                                                                                                     ",
"                                                                                                                                                                                                                                                                                    (| _| :| <| [| }| || 1| 2| 3| 4| 5| 6| 7| 8| @* 9| 0| ;[ 8: a| b| `[ c| d| e| ', f| g| ^( ^~ w: :{ ~] N> s^ m( Y: 8> ., h| i| j| k| l| m| n| (' o| /^ x] 7) L: F' I/ p| J: K_ q| i_ }} o~ h[ r| s| t| u| v| w| x| y| z| A| B| C| D| V} p_ E| M' r| F| G| H| 5( r] I| J| K| L| M| #< N| 1) O| O} *^ t[ :] p( P| Q| R| ;< ,< [: S| x[ T| U| z_ V| W| X| Y| Z| I_ Y% `|                                                                                                                                                                                                                                                                                     ",
"                                                                                                                                                                                                                                                                                     1 .1 +1 @1 #1 $1 %1 &1 $1 *1 =1 -1 ;1 >1 r} ,1 '1 )1 5< Y[ a| !1 ~1  } :{ c/ M: {1 ={ v, N> !] D; #, 7) ]1 t! g) *{ D; 1) s[ B^ @, y~ |( q, s! a% t^ ~/ ^1 /1 d, (1 H: _1 :1 <1 v! j| [1 }1 |1 11 P/ 21 31 8, 41 =] 51 G| 61 71 81 91 01 a1 b1 C| c1 a[ d1 5(  < e1 f1 g1 h1 i1 j1 e( :^ k1 L: |/ w{ l1 '{ (~ l1 m1 n1 o1 p1 9} 9} q1 r1 S| V| s1 t1 X| u1 v1 w1 x1 y1                                                                                                                                                                                                                                                                                  ",
"                                                                                                                                                                                                                                                                                 z1 A1 B1 C1 D1 E1 F1 O% G1 H1 I1 x* I. J1 K1 L1 M1 N1 w} b| F[ !1 e/ N] )_ y, '! =~ O1 m, x! g) $, W> ~' '/ E_ N< A/ s{ P1 8> a> f[ ~' 6) ,! Q1 ~~ Z( /' x] p| m] Q] e} R1 S1 T1 U1 V1 W1 k< &} ~} N} X1 Y1 1) Z1 `1  2 .2 +2 @2 #2 $2 %2 &2 *2 =2 F] -2 ;2 >2 ,2 H< '2 )2 !2 ~2 W/ {2 #< >! >2 ]2 *_ ^2 *! -< ;< /2 /2 (2 =_ p1 _2 r1 :2 <2 q1 [2 }2 |2 12 b| 22 N] 32 42                                                                                                                                                                                                                                                                                  ",
"                                                                                                                                                                                                                                                                                 52 5~ 62 72 82 92 02 a2 b2 0& c2 d2 e2 f2 g2 X[ h2 i2 j2 k2 l2 m2 n2 w} o2 c/ p2 2' c| 7^ G! d> &[  : &! T^ e/ B' n! z~ p, Z> q2 r2 y~ C| /' J^ Z( x, K' R1 k< p< s2 W{ t2 u2 v2 w2 x2 y2 W1 (1 z2 >2 k_ |} Q: A2 B2 C2 D2 E2 11 F2 G2 H2 I2 J2 e[ :} ~} K2 L2 e[ v~ H2 M2 N2 o[ j1 M| j[ >! H2 x{ M2 *| O2 P2 R^ R| Q2 R2 *| S2 T2 U2 v[ V2 <: W2 X2 Y2 `/ Z2 b| `2  3 Y% .3                                                                                                                                                                                                                                                                               ",
"                                                                                                                                                                                                                                                                              +3 @3 #3 $3 %3 &3 t& *3 =3 K1 -3 a& ;3 >3 ,3 F_ '3 {| )3 !3 w} b| F[ i2 ~3 2' {3 c/ O1 ]3 ^] n~ ^3 /3 >, ^] y, c> A! m( a> /' A~ j) o2 )] O' #, a> J^ U: /~ 6> A^ (3 _3 :3 <3 [3 }3 J} |3 13 23 G~ w! m) 33 43 53 3[ 63 ]: 73 83 93 03 a3 61 b3 H| c3 [^ &] d3 B< e3 f3 g3 i[ h3 @< i3 j3 %_ l1 2: &| m1 k3 *| l3 m3 n3 ,| 5^ o3 e( p3 p3 q3 r1 r3 s3 s1 t3 u3 v3 w3 x3 y3 y3 z3                                                                                                                                                                                                                                                                               ",
"                                                                                                                                                                                                                                                                              A3 B3 C3 D3 E3 F3 G3 H3 I3 J3 K3 L3 M3 N3 O3 P3 Q3 R3 S3 j2 F[ T3 !1 U3 V3 a< U^ w_ d| L' W< 5| W3 X3 /> y, Y3 )< z, 6_ ,! 0< E: 0, E: 6) R' C] #, )_ B] T^ Y/ D] &} Z3 `3  4 .4 j! +4 E} @4 G~ -] d_ #4 $4 %4 &4 *4 =4 -4 ;4 >4 ,4 '4 )4 !4 ~4 {4 ]4 ^4 !} t, (] l) #_ /4 (4 J| _: -< _4 ){ :4 <4 [4 %_ -| _: S2 R< K< j( }4 R| j( |4 14 z_ >< 24 34 44 54 64 74 84 94 f& 04 a4 b4                                                                                                                                                                                                                                                                            ",
"                                                                                                                                                                                                                                                                           c4 d4 e4 f4 g4 h4 i4 j4 k4 >1 l4 m4 n4 o4 p4 q4 r4 R3 j2 s4 t4 u4 v4 w4 x4 F{ l2 7^ y4 v3 z4 K( A4 B4 C4 7: X< D4 8) (] k_ ~] x( E4 F4 G4 {' $, P/ H4 ]] >{ B, D, I4 J4 K4 L4 ;~ M4 N4 p| ._ C, ;} O4 <) P4 X: e[ Q4 R4 S4 T4 U4 V4 W4 X4 Y4 Z4 H| `4  5 5} N} n, *^ &: .5 +5 '2 @5 #5 $5 W: #5 %5 &5 *5 =5 -5 6/ Q2 R2 ;5 =< =< Q< >5 ,5 '5 )5 !5 ~5 x[ 24 {5 ]5 ^5 /5 (5 _5 :5 <5 2|                                                                                                                                                                                                                                                                            ",
"                                                                                                                                                                                                                                                                           [5 e^ q. w% `& }5 |5 15 n& 25 2| O3 35 K1 45 55 65 75 w} 85 s4 !3 95 l2 w3 n2 05 O( a5 64 b5 c5 <; d5 e5 f5 h) g5 h5 (' d/ i5 f; j5 k5 l5 m5 8> R' h) E; n5 o5 s~ p5 S) q5 r5 s5 l( f_ z{ c( !} |) t5 u5 *< v5 M' ^4 w5 y< x5 y5 z5 A5 B5 #2 X: C5 D5 E5 F5 +_ Y1 N| &: 5} p[ +< #5 %5 $_  ( G5 H5 n[ I5 J5 K5 L5 l1 M5 N5 O5 u[ P5 h( Q5 R5 S5 T5 U5 V5 W5 |4 X5 4) Y5 Z5 `5  6 -[ .6 +6                                                                                                                                                                                                                                                                         ",
"                                                                                                                                                                                                                                                                        @6 1& #6 $6 %6 I. &6 *6 &6 =6 -6 ;6 >6 a2 ,6 '6 )6 !6 ~6 {6 ]6 ^6 Y[ /6 (6 _6 S3 :6 <6 [6 }6 |6 16 26 !; N< s) Q' 36 M] 46 w3 a= 56 66 76 86 +, 96 96 z! z! 06 H4 4) a6 b6 c6 d6 e} d> e6 z' z' f6 g6 h6 i6 0) &] j6 {' P: >2 k6 l6 m6 h- n6 o6 p6 91 q6 F< r6 s6 t6 c) H< u6 #5 p[ v6 $_ B| y_ w6 3} v^ x6 6/ y6 z6 A6 B6 h3 C6 D6 #5 T| E6 S5 F6 G6 H6 I6 J6 K6 L6 M6 W% V3 }6 m2 N6 O6 P6                                                                                                                                                                                                                                                                         ",
"                                                                                                                                                                                                                                                                        Y& Q6 R6 S6 T6 U6 V6 W6 X6 Y6 Z6 `6  7 :+ `. B% -6 .7 +7 @7 #7 s: $7 P3 %7 /6 &7 *7 &7 =7 G! -7 Z_ O6 ;7 D, 2' >7 E[ 22 w3 V_ ,7 '7 X! )7 J( x, a_ P< J' !7 k~ ~7 {7 ]7 S} ^7 /7 2( (7 L: /~ ,' v, _7 :7 <7 |^ [7 t, P: A| P: }7 |7 17 <1 27 37 L^ *< 47 =2 57 K2 67 >4 77 87 m1 +< j1 97 07 a7 m[ b7 I5 H5 Q2 c7 {{ d7 -5 K5 e7 u3 I] f7 g7 h7 i7 j7 h7 k7 l7 m7 54 v3 n7 o7 p7 q7 q7 r7 s7 t7                                                                                                                                                                                                                                                                      ",
"                                                                                                                                                                                                                                                                        u7 v7 w7 x7 y7 z7 A7 4| B7 C7 D7 i4 E7 F7 G7 !* H7 W[ I7 J7 5< K7 L7 M7 /6 N7 O7 ^6 P7 Q7 R7 k2 S7 T7 f% U7 V7 E_ !_ F! 4_ {[ W7 R] X7 ,, m, k| _' Y7 {3 Z7 `7 w1  8 &; .8 {) +8 @8 #8 $8 %8 ~< &8 *8 =8 J' m_ D2 &] z{ Y: P: -8 ;8 G| >8 ,8 '8 l_ )8 e[ W: !: >2 !8 ~8 A} q_ ~{ ~2 o[ k[ {8 ]8 ^8 /8 (8 _8 6/ _4 @_ ;5 R| :8 <8 >_ [8 }8 G6 |8 18 28 38 h7 |4 48 58 68 78 88 98 08 a8 b8 c8 d8                                                                                                                                                                                                                                                                      ",
"                                                                                                                                                                                                                                                                     e8 f8 g8 h8 U6 i8 j8 k8 l8 m8 n8 o8 p8 q8 r8 s8 &* t8 u8 v8 I7 w8 x8 l4 y8 .7 z8 A8 B8 C8 `_ D8 E8 F8 85 G8 S3 Z_ H8 >; I8 9: z] J8 74 K8 L8 z! M8 k) L' N8 j& O8 u; {_ P8 Q8 R8 S8 T8 U8 1) -: I4 V8 W8 X8 Y8 O} k6 D< R4 %4 Z8 `8 w< 91  9 {1 .9 *2 ]4 +9 b1 @9 #9 $9 %9 $< x{ 7( &9 4} M2 :4 *9 =9 #< -9 l| N/ %5 ;9 $| e( r[ V( %] >9 ,9 '9 )9 )9 !9 m7 ~9 {9 ]9 ^9 /9 (9 _9 :9 <9 [9 }9 |9 19                                                                                                                                                                                                                                                                      ",
"                                                                                                                                                                                                                                                                     29 39 49 F& k8 59 69 79 89 99 09 a9 b9 q8 c9 =6 d9 e9 B8 f9 g9 h9 i9 j9 k9 l9 95 O7 m9 n9 o9 !3 (6 p9 h2 q9 r9 w} s9 T7 t9 e| G; G8 u9 =: L' z! v9 o, ;; _1 )7 w9 x9 L; y9 z9 F} A9 I/ B9 C9 D9 E9 F9 :^ C, u< ]] G9 o| F] H9 I9 J9 K9 L9 M9 ~} ]] c1 B< N9 O9 b3 |^ P9 Q9 R9 S9 [^ T9 &9 k3 U9 w6 V9 R| e( L2 /4 g3 k3 ;< +< e| W9 X9 h3 Y9 Z9 `9 U5  0 .0 38 +0 ]9 @0 [2 68 #0 $0 %0 &0 *0 =0 ]| -0                                                                                                                                                                                                                                                                   ",
"                                                                                                                                                                                                                                                                     ;0 >0 ,0 |5 '0 )0 !0 ~0 {0 ]0 ^0 >1 /0 (0 +* _0 :0 <0 [0 }0 |0 10 20 30 40 a| 50 60 70 z8 80 90 00 a0 P7 U7 Z_ u4 b0 '[ |6 w3 !_ E' '' u4 Z( $, )! }( c0 d0 e0 I{ %< f0 #& f2 ~< e| g0 1) H] h0 i0 j0 d, Y> k0 ~| o| m) 5( -8 l0 m0 O} n0 o0 p0 q0 r0 R4 ~4 s0 s0 t0 u0 v0 w0 @9 *< :4  < x0 R| y0 97 g3 z0 A0 O2 Q2 ;5 B0 C0 d7 +, D0 E0  0 F0 G0 H0 H0 I0 J0 l7 K0 L0 M0 64 N0 O0 P0 Q0 R0 S0 _5 T0                                                                                                                                                                                                                                                                   ",
"                                                                                                                                                                                                                                                                  U0 V0 I% %3 W0 X0 Y0 Z0 `0 09  a .a +a @a #a $a %a &a *a =a O% -a ;a >a ,a 'a )a !a ^6 ~a {a .a ]a ^a %7 ^6 a< /a (a @7 E[ <6 U^ E[ b| X% c8 r! Z{ k_ _a :a <a [a }a ]' |a 1a $8 x! 2a %8 F{ 3a |[ 4a c> ^~ %] &4 53 $< $< o| k_ 5a C/ 6a 7a b[ 6[  9 S: 8a 9a 0a aa ba l3 T9 ca da ea z6 x0 fa .5 p[ k3 *^ ga q2  5 a7 M2 ha Q< ia [8 T2 _2 24 ja ka la ma na oa pa qa ra sa ta ua va wa xa ya m2 za Aa                                                                                                                                                                                                                                                                   ",
"                                                                                                                                                                                                                                                                  Ba Ca Da s& Ea Fa Ga Ha Ia Ja Ka La Ma Na Oa Ja Pa Qa Ra Sa Ta Ua Va Wa Xa Ya ^0 Za `a 50  b .b a| +b @b #b $b u4 *0 {a u: %b &b *b L' H8 0, Z_ w4 =b  8 -b ;b >b ,b }( o5 D, $, 'b $, @, J^ )b !^ F9 !b ~b {b ]b -2 ^b {b k6 %| .9 /b i6 (b w^ _b :b x~ e[ <b +< [b ~4 }b |b 1b /4 g3 I5 l3 M5 -< v^ 2b 3b 4b 5b 6b 7b 6} _8 8b !5 9b _: :2 U2 0b ab bb cb db eb fb gb hb ib X2 jb X2 kb lb mb nb ob .a pb                                                                                                                                                                                                                                                                ",
"                                                                                                                                                                                                                                                                  qb rb 2& sb tb ub vb wb xb yb zb Ab Bb Cb Db Eb Fb Gb Hb Ib Jb Kb c9 Lb C7 _0 Mb Nb Ob Pb s7 Qb Rb ;[ Sb Tb Ub Vb &b N] F[ Wb b| R3 i2 F9 L8 Xb Yb Zb W% `b  c 49 .c 0< x] ~[ ,~ +c @c #c ]{ #c 33 6> $c %c &c Y: k6 <7 6) R' *c =c y~ -c 6[ ;c >c X: $< ,c 'c )c p_ 2} 2} {{ !c f( ~c 87 7b {c ]c ^c /c >] (c _c 6/ *| :c <c [c }c |c n3 1c S^ 2c G0 ja 3c 4c 5c 6c 7c 8c ra 9c 0c ac bc cc dc ec q7 fc gc                                                                                                                                                                                                                                                                ",
"                                                                                                                                                                                                                                                               hc ic 56 jc kc lc mc nc Gb oc pc qc Eb Ma rc sc Ma Ma t8 tc uc n} vc wc j9 xc _0 ^0 ^0 yc e9 zc <0 Ac [0 Bc {6 ~6 &7 S0 :6 b| Cc Z| h2 @7 Dc Ec Fc Gc e7 X> Hc Ic .6  : /' o| /' Jc Q1 ~~ <6 J^ $~ /] i! Kc Lc Mc d% A! Nc Oc /] Pc q2 r0 Qc _b H2 5( R< Rc Sc Tc x0  5 Uc Vc Wc ba Xc b3 87 ea Yc C: Zc `c  d .d +d @d ;2 _4 #d '5 r3 V2 |4 $d %d p2 &d *d =d oa 7c -d fb ;d >d ,d 'd lb )d !d ~d {d mb ]d /0                                                                                                                                                                                                                                                                ",
"                                                                                                                                                                                                                                                               ^d /d (d M* _d :d <d [d }d |d 1d 2d pc 3d 4d Fb :0 5d Ka 6d 7d 8d y8 9d 0d ad bd ]0 cd dd  b ed fd gd ~6 #b :0 e9 %b %b &a '/ hd id s9 Z[ N1 jd kd o5 9: Z_ R> ld md nd od pd 3/ qd rd Nc sd td 88 H8 C^ E] ud C, ~} 5a J^ L: vd 96 R9 x{ &] wd xd  < Wc yd $_ w0 7b zd Ad -9 Bd Cd O2 Dd Zc Ed H2 Fd Gd L^ Hd Id Jd Kd ]b Ld Md Nd Od Pd Qd U< Rd Sd Td |4 Ud ~9 ab Vd Wd 4c F6 Xd Yd Qd Zd `d  e wa .e +e @e #e                                                                                                                                                                                                                                                             ",
"                                                                                                                                                                                                                                                               $e %e &e *e /+ =e -e ;e >e ,e 'e cd )e !e ~e {e %a Nb ]e %a ^e Qa Eb /e (e Qa _e t8 Bb :e <e ]6 [e }e Aa |e 1e 2e ~1 3e v3 D4 :6 4e 5e 6e 7e x3 o5 Z| k0 J^ G_ 8e >{ qd }^ 9e 0e w: !] W< ae be j2 ce ~< a> s6 de ea ee fe u, &] A| Y: ge <7 Y1 H2 he ie je b3 w0 $| '2 ke m1 le me n[ _4 >! z6 ne oe q3 pe 3a qe re s{ se R| {8 te U5 ue ve d7 we xe ye ze 28 Ae K0 k7 Be =d Ce ~5 De Ee Fe Ge He Ie Je Ke Le Me                                                                                                                                                                                                                                                             ",
"                                                                                                                                                                                                                                                               Ne Oe Pe Qe E7 Re Se Te `0 Ue Ve We Xe Cb `a Ye Ze `e  f Za .f +f @f #f $f La %f &f *f =f -f 80 ;f v4 >f ,f 'f )f !f ~f A8 K7 9/ {f 7: F{ ]f Dc !_ Y7 +c fe +c ^f /f ^f (f _f ta {3 :f /] <f S0 :5 [f B' }f >] r0 |f u6 *_ |f 6( 1f 2f 3f 4f {: M2 01 5f /8 <4 {4 (8 6f 7f 4} x6 ha 8f 9f 6b 0f af 7b I5 A6 Rc 53 ;2 oe ;5 ha T2 te ja  0 bf cf df ef ff ,9 )5 I0 Fe Zd J0 Zd Xd 68 gf hf if na jf 9c kf Ke lf mf                                                                                                                                                                                                                                                             ",
"                                                                                                                                                                                                                                                            nf of pf qf rf sf tf uf mf vf wf qc xf yf Ze zf ]0 Af Bf Cf 3d yc Df e9 Ef Ka Ff Gf yb 4d Hf e9 If Jf f9 Kf x4 Lf Mf E_ Pb E8 6| Nf Of Pf %8 Q' 2' od Qf Y| pe Rf ua Sf ]~ 9e qd 8e ~| Tf Uf *7 Vf Wf Xf Yf ~8 Zf z{ `f  g v^ .5 .g *b C: +g @g #g v6 $g n[ $| %g &g J5 *g =g %g -g ;g P5 >g ,g 'g )g k3 p[ !g V2 +< 0b 'g ~g {g 9b m7 ]g ]9 ^g bb /g (g '< _g :g U| <g gb ~9 [g 9c }g |g 1g 2g 3g 4g 5g .e 6g 7g 8g                                                                                                                                                                                                                                                             ",
"                                                                                                                                                                                                                                                            9g 0g ag bg cg dg eg fg gg hg ig 'e jg Bb 2d kg lg mg ng 5d We og pg qg rg sg Cb tg rc Cb  f ug vg Za wg ]6 xg Lf yg zg Ag Ya Bg Cg Dg Eg Fg Sf D! B! M] q7 Gg t[ Hg ta (9 O< [6 Ig Jg L' o2 A8 %7 Kg W% Y< ce 'b Lg Mg f( Ng t[ Og Pg F5 0e a% Qg 5f Rg b7 +< L5 #5 Sg j[ Tg Ug *5 Vg L< R< p1 oe ,g P5 R2 >5 S2 r3 Wg Xg s3 .0 U| L0 Yg ,9 Zg `g l7  h .h Xg Zd V5 38 J0 +h @h ra Vb #h 2g $h %h &h *h &h .e =h Le -h                                                                                                                                                                                                                                                          ",
"                                                                                                                                                                                                                                                            ;h >h ,h `+ _+ 'h )h !h ~h {h Db We {e ]h ^h /h (h We Pa !e Pa ^h og pg _h :h <h )e [h }h |h 1h 2h 3h R3 4h >f 80 5h a< Y[ ]a K> 6h 7h 8h #} 9h t1 08 h5 7/ 0h 98 ah 08 ta bh ch q9 dh X| eh ua fh (6 _) R8 `~ n( gh ua hh :c Pg ih jh ih kh ~c lh G< q, 6( Rg mh k| nh Sg 5f M5 6/ nh 0f Ug 'g oh ph h( 6/ qh ,g rh sh te th uh |8 vh G6 th Zd wh 3c q3 D0 ze xh +0 yh `g zh Ah Fe Bh Ch Dh Eh na Fh Gh Hh &h Ih Jh Kh                                                                                                                                                                                                                                                          ",
"                                                                                                                                                                                                                                                            Lh Mh Nh Oh Ph Qh Rh Sh Th Uh Vh Wh Xh Yh Zh (h `h jg  i ug {e mg <h .i +i og zb 0d @i ng o4 4e #i @i 4d .f fc u8 $i Tf :6 %i 50 &i *i =i $i (6 *7 )_ -i ;i >i *b 6: ,i q7 'i )i !i Mc Y| d} q7 a_ 96 ~i {i g~ ^~ ]i rd ^i f( je A6 /i (i ^i sd A0 _i M/ fa u6 :i <i [i }i 8b 2b p1 1} |i 1i 2i >9 3i 4i 5i 6i P2 7i W| 58 8i Wg 9i 38 0i ai bi I0 ma ci na hb di 5c K0 ei fi gi hi ii ji ki li mi ni oi pi qi ri si ti                                                                                                                                                                                                                                                          ",
"                                                                                                                                                                                                                                                            ui vi ^+ E+ wi xi yi zi Ai Bi Ci Di Ei Fi Ye qg ]h qg ]e Gi Hi og Ii @f Ji /e !e %a qg #b yf Bb %i Tb Ki /6 50 Li $i Mi Vb 70 )! U3 <~ /a Ni H8 Oi F[  } `[ bh D6 Pi 12 Qi Ri Qf jb 8e N0 Si @c Ti Ui Vi 7e Wi |) Xi Yi 2^ Zi /2 ]~ `i  j .j l| +j q_ :4 p[ &| @j #j $j %j je ph j[ h3 m1 &j Pg T2 L< 2b s3 *j th =j -j ;j >j #d T| ,j th 'j )j ii r3 Zg !j ~j eb {j ii th Zg ]j hi <g Zg ^j /j Ih (j _j :j 6g <j [j gg                                                                                                                                                                                                                                                          ",
"                                                                                                                                                                                                                                                         }j |j 1j 2j 3j 4j 5j 6j 7j 8j 9j T0 0j oc aj bj cj dj xf )e ej fj *f :e fj Jf Jf gj Gi We Cb zg Ye hj {a @i ij u8 jj kj lj 22 bh mj nj oj pj Uf qj 7^ rj sj ~3 U3 tj ^f uj C[ vj Y7 wj xj yj zj Aj Bj X5 Cj 88 @! Dj Ej %8 Fj -| 24 ]5 Gj Hj z} &: {{ Og 6/ ph df q[ ,a Ij Jj ih Kj oe Lj Mj '9 B6 s3 -5 K] 7i Nj Oj ph Pj Qj Rj Sj Tj Yg Oj Uj if ^j Vj Wj li 2g oa 1g Xj J0 @h Yj Zj Dh `j Tj  k .k +k @k #k $k %k &k *k                                                                                                                                                                                                                                                          ",
"                                                                                                                                                                                                                                                         =k -k ;k >k H+ ,k 'k )k !k ~k {k ]k ^k /k jg `h (k ig _k :k <k qc ^h [k Fi }k 3d !e _e xc 0j zb |k %a Pa Ji 1k 2k 3k 4k 5k 6k 7k 8k 9k 0k &b h2 ak 2k :5 bk ck P8 dk b: ek [9 0c fk 64 gk `/ hk q3 d7 ik S< Gg Y7 (a jk kk id lk mk Lg Dc nk ]{ ok Yc pk df qk ue _2 rk #d m[ ih (~ g3 Jj sk %g te tk J| /2 Xd th uk vk wk xk yk sa zk ,9 :g Ak Bk th ,j 5g Ck 28 Dk Ek Fk Gk )j Eh Hk Ik Jk Kk Lk ni wj Mk Nk Ok Pk Qk Rk Sk                                                                                                                                                                                                                                                       ",
"                                                                                                                                                                                                                                                         Tk Uk Vk Wk Xk Yk 5j Zk `k {k  l  l .l Di +l @l #l |k Cb $l qg %l &l Pa *l $l =l 2d Cb -l yf ;l Fi ig (k Ob >l ,l 'l )l !l ~l {l ec ]l 8: 8: ]6 (a r9 ^l /l 56 (l _l :l #& <l p) [l d} }l |l 1l 2l t1 T< ~5 }c 3l hd 4l 5l 6l 7l fe `> n( fe ok ~8 8l R| 9l 0l C0 al n3 M5 bl o3 sa N5 t[ cl ~5 lb q3 dl el kb fl F0 28 gl hl il jl 44 kl ll Ek cc ml ,d nl Bk ]j ol pl va ql rl li sl Bk Vj Wj tl ul vl wl xl yl zl Al Bl Cl                                                                                                                                                                                                                                                       ",
"                                                                                                                                                                                                                                                         Dl El Fl Gl Hl $@ Il Jl Kl Ll Ml Nl Ol Pl Ql Rl Sl Tl Ul Vl Wl Xl Yl We Zl `l `h  m 2d Cb .m We +m xb *l $b @m #m $m %m #k rj &m kf *m jj =m h2 vg !; -m `- ;m >m ,m 'm )m !m ~m ff xa }l pe t[ pe uj S| u_ va ~d 7i P2 N/ ^2 {m Pi [9 ]m {~ q( ^m /m p3 S2 (m Qd _m :m 0b <m [m ^8 -9 }m De |m a/ <2 1m G5 k7 bb 2m fl L0 3m 4m Xd m7 5m if 6m 7m 8m 9m 9c 0m @h am bm cm Vj if dm em fm %k gm hm im jm 4l km lm mm nm >f om                                                                                                                                                                                                                                                       ",
"                                                                                                                                                                                                                                                         pm qm _@ Z+ F+ rm sm tm um ti vm wm xm ym zm Am Bm Bm Cm +l Dm Em |k Fm +l Gm Hm Fm Xl Im Jm 1d Km Lm fj Mm *a u} Xe kj a0 #k Nm Om Pm Qm Rm r9 Sm Tm Um Vm Wm Xm Ym Zm 95 `m  n .n +n @n Ij #n $n M^ Wj S| {l P^ X2 .k %n T< &n Hg *n |f we =n !{ -n hk 7} |m ;n tk o3 >n ,n 'n cf sa )n ;n !n ~n {n ]n M0 G0 14 ^n g7 fi !d /n 0l (n _n V2 :n <n N0 .n Xd pl [n bm na fl }n |n li 1n Ek 2n 3n 4n 5n 6n 7n 8n 9n 0n an #h bn                                                                                                                                                                                                                                                       ",
"                                                                                                                                                                                                                                                         A@ cn dn en fn gn hn in W+ vm jn kn ln mn nn on mn pn qn rn sn tn un }k vn _k wn Vl ]e Ff }d xn yn yf zn An Bn }+ {k Cn Dn En Fn Gn Pm >f M7 35 Hn In Jn Kn Ln Mn N7 Nn Pi On Pn <l t1 kb Qn Rn W| ni Sn 5i _i Tn Un Vn Wn Xn Yn Zn `n $5 6l }l  o d7 q3 .o oe D0 +o Q| @o (a #o $o Ce %o Lj j[ [: 2c &o *o Xd Kk Yg =o Vj -o ;o >o 5i Xd ,o 'o )o !o #n ~o {o ]o ^o [n /o (o _o Fk :o <o Fk [o }o |o 1o 2o 3o 4o 5o 6o 7o 8o                                                                                                                                                                                                                                                       ",
"                                                                                                                                                                                                                                                         9o 0o ao bo co do eo fo go ho io jo ln Bi ko {k lo mo Ol no tn Wl oo po qo /k ro Bm so Bm lg to uo vo Xe m9 wo xo Z0 yo {a zo Ao Ao ]d Hf Bo Co Do G{ Eo Tb Mk N7 Fo a} Go Ho Io Pi nb .n ,d Jo Ko  e X2 |g qi 4m Td Lo +j t[ 2l Mo 9h 3/ r( No R| 5i Oo Og U9 !n Po Qo f5 Ro So th T5 To Yg Uo bl Vo `n Wo Qd De !d Xo gi Yo bl ji Zo `o Fk  p .p .h +n +p @p 2m dm <o ,o #p $p &h <o 2m %p &p *p =p -p ;p >p ,p 'p )p +f !p                                                                                                                                                                                                                                                       ",
"                                                                                                                                                                                                                                                         ~p {p ]p ^p /p (p _p :p <p #@ [p }p |p vm 1p 2p 3p 4p 5p 6p 7p 8p ]k 9p rn lo 0p ap bp cp zm dp ep @l fp /e <k gp hp aj ip jp kp lp mp gj np 85 op pp Z2 qp rp 5k {d sp tp &h up vp L6 wp ql xp yp 6m Ij zp `o Ap Bp Cp ;< Dp D6 ]{ 0h Nk Ep 96 7i _4 P5 Fp 1l Gp 7l xj Hp Cj 2c r3 Xj xh Ip x[ Jp bb Qd cf S| (n /9 Kp Lp Mp gf ~o Np Op Pp Qp 7m Rp Rp Sp Tp ji Up Vp Wp @p Xp Jk Yp Zp `p %p  q :n .q +q @q )p 8n #q Gi $q                                                                                                                                                                                                                                                       ",
"                                                                                                                                                                                                                                                      %q &q *q ]p =q |@ -q ;q >q ,q 'q )q !q ~q {q !q kn ]q ^q /q Bm (q _q mo :q 7p /q <q [q }q |q 1q 2q ]k zf sg 3q 4q %m 5q ym 6q [e 7q 6k 5k za pp <n 8q 9q 0q aq bq cq dq Zo eq fq 3n Lk Fh gq M0 hq ~m 2c lb On iq hq X2 Vo ~d 7l Nk B! Rf  o P^ On ;< &n *| p1 Z/ 2c .k jq kq ob lq mq [g ab nq la r1 na Vj oq /j 5g pq *d `j !j 5i (9 @k Tp qq rq sq tq $k uq Lk %k Fh #p vq Tp wq xq Xp yq &p Zo zq 4o Aq +q Bq Cq Dq {e Bb Eq                                                                                                                                                                                                                                                       ",
"                                                                                                                                                                                                                                                      Fq Gq Hq Iq Jq Kq Lq Mq Nq Oq Pq Qq Rq [p Sq Tq Uq Vq Wq .l Xq Yq ko Zq `q  r .r {k lo ^q +r @r .r #r Ql $r +i %r &r *r Wl *i yf =r -r kp ;r >r #i )p ,r 'r }f )r sp !r 8k ~r {r {r Io &h  n ]r ^r /r Pn (r zl od fh #n qq _r 'd %0 :r :r df <r [r }r Ap |r Nn 1r >n fh 2r 6} 3r 4r <: T| 44 5r Ce ue ,j /j ol He ,j 3g =j 6r 7r 8r 9r 0r ar %0 br =j $k cr  n dr er 8m dr qq wq Lk fr gr hr ]r ir jr qp Mo kr lr Cq @q mr nr or                                                                                                                                                                                                                                                       ",
"                                                                                                                                                                                                                                                      pr qr rr sr tr ur vr wr xr yr zr Ar Br Cr Dr Er Fr Gr Hr Ir Jr Kr Lr Mr io Nr Or Pr Kr ^q Qr Rr Sr #r Tr `0 .m Ur Vr }h 2q Wr Xr Yr Zr `r  s .s +s %m @s #s s4 $s /a %s $s &s jq *s Sp =s 8r -s hm Xn ;s 98 %7 >s O3 F{ ,s -j 's .o )s !s ~s {s kq ]s Ch mb ~m Nc ^s C8 qi uj 2c V9 ql Sp /s :m ue vh na I0 ~9 (s (o Pp vp _s #n :s 64 <s [s }s qi |s 1s *s uq  p 2s 3s 4s 5s 'o 6s 7s 8s 9s 0s as bs Aq cs ds es Yl rg fs gs hs is                                                                                                                                                                                                                                                    ",
"                                                                                                                                                                                                                                                      js ks ls ms ns os ps qs rs E@ ss ts us vs ws xs ys us zs kn As Bs Cs Ds Es Fs As Gs Hs 8j Is Js Ks Ls Ms rn Ns Os Ps Qs Rs Ss Bb Ts Us Vs Ur Ws 80 [0 Xs Ys Zs @s `s  t .t rp +t ~s Nn @t fq #t $t %t &t *t =t mg rg 1o -t Td Al ;t u3 X| 3l >t ik fh @c n2 ,t 't rd Bj )t !t =_ !5 L6 Xd ~t {t Xd ,j na 3c ]t la ^t )5 mi hm /t (t _t :t wa qi *p ya <t [t }t ;s .t |t 2s 1t 2t tq 3t 4t yq 5t 6t 7t 8t 9t 0t kr cj at bt ct dt et                                                                                                                                                                                                                                                    ",
"                                                                                                                                                                                                                                                      ft gt ht it jt kt lt mt nt ot pt qt rt st tt ut vt wt Cr Es jo xt yt zt At Bt Ct Dt io Lr Et Ft .r 3q Gt T0 Ht It Jt Jt *r Kt 6q Lt Mt Nt Ot Pt Qt Vr Rt St Tt  t pj jm Ut Vt Wt Xt Yt  n Zt `t Jk xa  u `s .u pp +u wl 6: }o {~ xj Lo @u /f #u a} 68 Mi $u %u Cc &u mk *u =u Vj kb 4g 5r Vj /9 On ~g -u li pl <g ;u Zp >u _s @e Jk }l ,u 'u nm yl |o -r Mt )u as `s !u ~r ~u {u ]u ^u /u (u _u :u <u 0t [u }u |u 1u $r 2u 3u 4u 5u                                                                                                                                                                                                                                                    ",
"                                                                                                                                                                                                                                                      6u 7u 8u 9u 0u au bu cu du eu fu gu hu iu Bs ju ku lu mu nu ou pu qu ru su pu vt vt tu uu vu wu xu yu Hm zu Au Bu Cu Du Eu Fu Gu Hu Iu m9 |u Ju Ku t4 B8 3o Lu Ao Mu Nu :u Ou rj _u Nu Bh Pu Ge Qu Ru Su Ao Tu k2 Sf +k Uu Tn Vu Wu )o Xu ef _j Yu q7 tj Zu wg `u 5n  v M0 .v if +v De /s @v +o  e #v $v kb -u 5g Pp %v &v ah zq xa ^r vq yl *v =v -v }o Su ;v >v 3s ,v 'v 0t )v !v ~v {v ]v ^v /v (v _v :v <v [v }v Qs $r |v 1v 2v                                                                                                                                                                                                                                                    ",
"                                                                                                                                                                                                                                                      3v 4v 5v rs G= 6v 7v 8v 9v 0v av bv cv dv ev qt fv gv hv iv jv kv lv mv nv iu uu ov gu pv qv rv sv tv gc uv vv Cm 3q wv xv .l Ns yv zv Av Nu Bv Cv Ot Dv Qm Ev Fv Gv Hv Ys #s Iv Jv 70 Kv 4o 2s Lv :s Mv Nv 1a Ov Z| !_ Pv |s Aj Qv >p 4l Rv id Sv 4l Tv Z5 Uv Vv Wv a5 [9 Qd 8r Td /r Un xa Xv 0r ]5 Qn Yv ,j Ik Lv Zv `v ec 3t  w .w  q .t :n .u $s ]v .e 6g +w @w #w $w %w &w rg lr !e *w =w -w bt ;w >w ,w 'w )w !w (q ^k ~w {w                                                                                                                                                                                                                                                    ",
"                                                                                                                                                                                                                                                      ]w ^w /w (w _w :w <w [w }w |w 1w 2w 3w 4w 5w 6w 7w 8w 9w 0w aw bw cw dw ev ew fw gw hw hv ys vm iw jw ^q kw $q lw mw po cp nw @r ow pw qw rw sw %m tw aj jm :e Ob Qa bj ,p }g sj &b Ov O7 nj Tp pi Su ,r uw vw ww xw /v -f yw `v M6 zw +7 Aw Bw r: Cw Dw Ew ,r @f Aw Ws Fw Gw O< !s  p qi Hw 08 :r !o Iw }t (j Jw Kw Rp :s }t 'o :n Lw Mw Lw Nw <u Ow :u Pw Qw Rw Sw Tw Uw dp Gf Vw 5q Ww Xw Yw Zw `w  x .x +x @x #x +r wu $x %x &x                                                                                                                                                                                                                                                    ",
"                                                                                                                                                                                                                                                      *x =x -x ;x >x ,x 'x )x !x Nq ~x {x ]x ^x /x (x _x :x <x [x }x |x 5w 1x 2x 3x 4x 5x 6x 7x 8x 9x 0x ax bx vm Ll cx Tr dx ex fx pn $l Zl gx hx ^h ix jx kx lx xf mx ng Ii _v Uw qw .q Ye Gf Kn Mf ~s ya nx ox px qx (e rx sx 64 tx Uv ux ^6 vx 65 wx n2 xx pj yx &i zx _u )i x, yw +k +k 7m Ax .e Bx Uw Cx Ou Dx Ex uq 6t Fx Gx dq Hx sx vl rj Kv Ix Jx Kx Lx cq qw _v Mx !w Bi Nx Ox Bu >e ej Px Qx wu lo ep Rx Ls Sx Tx Ux Vx Wx Xx                                                                                                                                                                                                                                                    ",
"                                                                                                                                                                                                                                                      Yx Zx `x  y .y +y @y #y $y %y &y *y =y -y ;y >y ,y 'y )y !y ~y {y ]y ^y /y (y _y :y <y [y ts }y ru Et Sq |y At Pr 0p 6p on Ha 1y 2y Em 3y 4y Yh Ff Mt 5y Yr 6y Ju 0d 7y }k .m _k 8y Or 9y 0y wx jm ay =m =a by cy dy ey fy Wt ,f gy hy rx /] iy Z7 vx #q jy (e 4e ky ly 'p Mk -f my ec 9e w4 ny sx oy py qy 5k ry sy Tt Ws Mw ty uy ,v *s vy >l wy xy ay _v yy zy Ay ep By Cy Dy Ey Fy +l Gy Hy Iy Jy Ky Ly My Ny Oy Py Qy Ry Sy Ty                                                                                                                                                                                                                                                    ",
"                                                                                                                                                                                                                                                      Uy Vy Wy Xy Yy Zy `y  z .z $y +z @z #z $z %z &z *z =z -z ;z >z U. ,z 'z )z !z ~z {z ]z ^z /z (z _z :z ut hv Uq <z [z }z Vx |z 1z 0j 2z 0p 3z to qc 4q qw gx 4z Nb 5z 6z D7 gg 7z 8z 9z 0z az vo jj %m rw bz cz dz ez Ve fz 90 gz hz iz jz kz lz mz nz oz pz qz rz sz tz z3 uz y8 +m vz xy l9 wz xz `e Mx yz zz Ii Lt Bq +f %m Az Bz Cz Dz Ot Ez Fz 4y Gz Hz Iz Iz Jz Kz ~q Lz Mz rv Nz Oz Pz Kz Qz Rz Sz |y Tz tt Uz Vz Wz Xz Yz Zz                                                                                                                                                                                                                                                    ",
"                                                                                                                                                                                                                                                      `z  A .A +A @A #A $A %A &A *A =A -A ;A >A ,A 'A )A !A ~A {A ]A ^A /A (A _A :A <A [A }A |A 1A 2A 3A -y 4A 5A 6A 7A 8A 9A 0A aA bA ig cA 3p dA -l Vh eA fA [q Co Kr gA 9A hA o. iA jA kA lA mA ez |k vo kg 7n nA oA pA qA rA sA tA uA vA wA xA ez Ag yA zA AA BA CA DA EA P_ FA GA lz fd zg HA IA JA KA Mb LA MA op NA OA PA Bq QA RA `a SA TA ~e |v UA xn VA WA XA iw YA ZA `A 6A uu vm  B .B +B @B #B $B %B &B *B eo =B -B ;B >B ,B                                                                                                                                                                                                                                                    ",
"                                                                                                                                                                                                                                                      'B )B !B ~B {B ]B ^B /B (B _B :B <B [B }B |B 1B 2B <B [B 3B 4B 5B 6B 7B 8B 9B 0B aB bB 0B cB dB eB 6v fB gB hB iB jB kB lB mB nB oB pB tu qB rB +B sB tB uB vB wB $B xB yB zB AB $e BB CB DB EB FB GB HB IB JB <x KB LB MB NB OB PB 6A QB Il 7j RB SB TB UB VB WB Lb XB YB O@ ZB `B >a  C mA .C +C !k @C `B #C Rq $C %C &C p@ *C =C -C ;C fg [z >C uB ,C 'C )C ^p !C ~C (y {C ]C ^C /C (C _C :C <C ns [C }C {y |C zB 1C 2C 3C 4C 5C                                                                                                                                                                                                                                                    ",
"                                                                                                                                                                                                                                                      6C 7C 8C 9C 0C aC bC cC X@ dC eC fC gC hC iC jC kC lC mC nC oC pC qC rC sC tC uC vC wC xC yC zC AC BC CC DC /y EC FC GC HC IC JC KC LC MC NC OC PC QC RC SC TC UC VC WC XC YC ZC `C  D .D +D yB @D #D $D 4A co %D sb .@ &D *D =D -D or ;D >D or ,D 'D )D e+ !D ~D {D @+ ]D ^D /D (D _D ^D U= :D L+ <D [D }D lA |D Gl bo [D 1D 2D 3D 4D 5D J+ 6D )y 7D 8D 9D 0D aD yB bD cD dD eD fD gD hD iD jD kD lD g: mD nD oD pD qD rD a# v. sD                                                                                                                                                                                                                                                    ",
"                                                                                                                                                                                                   tD uD vD wD xD yD zD AD BD CD DD ED FD GD          HD .A ID JD KD LD MD ND OD tC PD QD RD SD TD UD VD WD XD YD ZD `D  E I= .E +E @E PD #E $E %E &E *E =E -E ;E >E ,E 'E )E !E ~E {E ]E ^E /E (E _E :E <E [E fo %+ }E |E 1E 2E 3E 4E 5E }C 6E 7E 8E 9E 0E aE A- bE cE dE eE fE gE hE iE jE kE lE mE y- rf n. c+ nE oE pE qE rE sE Vz tE uE vE wE xE yE tb 2E zE AE (p BE CE Kq DE n@ EE FE oA GE DB HE bv Wk IE JE KE LE yB ME NE OE PE jt QE RE SE TE UE VE WE XE YE ZE `E  F .F +F @F                #F $F %F &F *F =F -F ;F >F ,F 'F )F !F                                                                                                                                                                                              ",
"                                                                                                                                                                                                   ~F {F ]F ^F /F (F _F :F <F [F }F |F 1F 2F 3F       4F 5F 6F 7F 8F 9F 0F aF bF cF +A dF eF fF gF hF iF jF kF lF mF nF oF pF qF rF sF tF uF vF wF xF yF zF AF BF CF DF 0D EF FF GF HF co IF [+ ,k e+ JF n. NC KF J+ LF =B MF NF OF h% PF QF u= RF SF TF UF VF WF XF YF ZF `F  G .G +G @G #G $G %G &G *G =G -G ;G >G =D ,G 'G )G b4 !G ~G JF {G &D GE ]G ^G /G -G (G |@ _G :G <G [G }G |G HF 1G ,D 1+ MF 2G co 3G 7D 4G VC V+ q@ 5G 6G 7G 8G 9G 0G aG bG cG dG eG fG gG hG iG jG kG lG mG             nG oG pG qG rG sG tG uG vG wG xG yG zG AG BG                                                                                                                                                                                           ",
"                                                                                                                                                                                                   CG DG EG FG GG HG IG JG xD KG LG MG NG OG PG       QG RG SG TG UG VG WG XG YG ZG `G  H .H 2$ +H @H #H $H %H &H l$ %% *H =H -H ;H >H ,H 'H v@ )H !H ~H {H ]H /@ ^H /H (H _H :H <H [H n+ }H |H 1H co 6D 2H XB 3H 4H ^+ 5H 2H 6H 7H 8H 9H [* u- G@ 0H aH bH cH dH eH fH gH hH iH n$ jH kH lH mH nH oH pH qH rH v7 sH tH uH vH wH xH yH zH AH BH CH DH EH FH GH HH IH :H JH KH LH MH NH {+ OH PH ++ QH RH lA SH TH UH W+ VH WH XH YH ZH `H  I .I +I @I #I $I %I &I *I =I -I ;I >I ,I 'I )I             !I ~I {I ]I ^I /I (I _I :I <I [I }I |I 1I 2I                                                                                                                                                                                           ",
"                                                                                                                                                                                                   3I 4I 5I 6I 7I 8I 9I 0I aI bI cI dI eI fI gI    hI iI jI kI lI mI nI oI pI qI rI sI tI uI vI wI 9I xI yI zI AI BI CI DI EI FI GI HI II JI KI LI MI NI OI PI QI RI SI TI 1j UI VI WI XI YI ZI 1j `I  J N* .J +J Pe >& @J #J $J %J &J *J =J -J ;J >J ,J 'J )J !J ~J {J ]J ^J /J (J _J :J <J =I [J }J |J 1J 2J 3J 4J 5J 6J jc 7J 8J 9J 0J aJ i% x. bJ cJ dJ eJ fJ [5 4J gJ ,& hJ iJ jJ kJ W. lJ mJ  J nJ ,h oJ pJ qJ .D rJ rJ sJ ;- tJ uJ vJ wJ xJ yJ zJ AJ BJ CJ DJ EJ FJ GJ HJ IJ JJ KJ LJ MJ       NJ OJ PJ QJ RJ SJ TJ UJ VJ WJ XJ YJ ZJ `J  K                                                                                                                                                                                           ",
"                                                                                                                                                                                                   .K +K @K #K $K %K &K *K =K -K ;K >K ,K 'K )K !K ~K {K ]K ^K /K (K _K :K <K [K }K |K 1K 2K 3K 4K 5K 6K 7K 8K XJ 9K 0K aK bK cK dK eK fK gK hK KI iK jK kK lK mK nK oK pK qK rK sK tK uK vK wK xK yK zK AK BK CK DK EK FK GK HK IK JK KK LK MK NK OK PK QK bH RK SK TK UK VK WK XK YK ZK `K  L .L +L @L #L $L %L &L *L =L -L ;L >L ,L 'L )L !L ~L {L ]L ^L /L (L _L :L |* <L [L }L |L El 1L 2L 3L :L 4L B& 5L 6L 7L 8L 9L 0L aL bL cL dL eL fL gL hL iL jL kL lL mL nL BI oL pL qL rL sL tL uL vL wL xL yL zL AL BL CL DL EL FL GL HL IL JL KL LL                                                                                                                                                                                           ",
"                                                                                                                                                                                    ML NL OL PL h: QL RL SL TL UL VL WL XL YL ZL `L  M .M +M @M #M $M %M &M &M *M =M -M ;M >M ,M 'M )M !M ~M {M ]M ^M /M (M (M _M :M <M [M }M |M 1M 2M 3M 4M 5M 6M 7M 8M 9M `H 0M aM LK bM '- cM dM eM fM gM hM iM jM kM lM mM nM #L oM eM pM qM rM sM tM uM vM wM xM yM zM AM BM CM DM EM FM GM HM IM JM KM LM MM NM OM PM QM RM SM TM UM VM WM XM YM ZM `M  N .N +N @N #N $N %N $N hM &N l  I@ *N =N *N -N ;N ui >N ,N 'N )N h} !N ~N {N ]N ^N /N (N _N :N <N [N }N |N 1N 2N 3N 4N 2N 5N 6N 7N 8N 9N 0N aN bN cN dN eN fN gN hN iN jN kN lN mN nN oN pN qN rN sN tN uN vN                                                                                                                                                                                  ",
"                                                                                                                                                                           VH wN xN yN zN AN BN CN L- DN EN FN GN HN IN IN JN KN LN MN NN ON PN MN QN RN SN SN TN UN VN WN XN <. YN ZN `N 1.  O .O +O @O #O $O 6* %O 2* &O *O =O -O ;O >O ,O %6 F. 'O )O !O ~O {O ]O ^O /O (O _O :O <O [O }O |O 1O 2O 3O 4O 5O 6O 7O 8O 9O 0O aO 4O bO cO q. dO eO fO gO hO iO jO kO lO mO X  nO oO pO qO rO sO 4& tO uO vO wO xO yO 8& zO AO BO CO DO EO FO GO HO IO @; JO /& KO U6 LO MO NO OO }H PO QO RO SO '0 G3 (& TO &3 ;3 59 *3 UO VO WO XO YO h8 M! ZO `O P-  P .P +P @P #P $P ][ %P &P *P =P -P ;P >P >P ,P 'P )P !P ~P {P ]P ^P /P (P _P :P <P [P }P |P 1P 2P 3P 4P 5P 6P                                                                                                                                                                         ",
"                                                                                                                                                                           7P 8P 9P 0P aP bP cP dP eP fP gP hP iP jP kP lP mP nP oP pP qP rP sP tP uP vP wP xP yP zP AP yP BP CP DP DP EP FP GP HP IP JP KP LP MP NP OP PP QP RP SP TP UP VP WP XP YP ZP `P  Q .Q +Q @Q #Q $Q %Q &Q *Q =Q -Q ;Q >Q ,Q 'Q )Q !Q ~Q {Q ]Q ^Q /Q (Q _Q _< :Q <Q [Q }Q |Q 1Q [  2Q 3Q 4Q 5Q 6Q 7Q ic 8Q 9Q 0Q aQ bQ d^ cQ -a D1 dQ `O w% eQ fQ gQ M[ hQ iQ jQ 9/ kQ lQ mQ i- nQ oQ += pQ qQ rQ '( K_ sQ tQ `| lQ uQ vQ c; wQ xQ yQ tQ zQ X- AQ BQ CQ DQ EQ FQ GQ HQ IQ e; JQ KQ LQ @P r* MQ NQ OQ PQ QQ RQ SQ TQ UQ VQ WQ XQ YQ ZQ `Q  R .R +R @R #R $R %R &R ZQ *R =R ZQ -R ;R :3 >R ,R 'R                                                                                                                                                                      ",
"                                                                                                                                                                           )R !R ~R {R ]R ^R +J *D i8 4| /R (R _R :R q} S_ <R [R }R |R n^ '( v; 5, e~ 1R Y! 2R 3R 4R 5R 6R 1% 7R 8R 9R 0R aR bR cR dR eR fR gR hR iR jR kR lR mR nR oR pR qR rR sR tR uR vR wR xR yR zR AR BR CR DR ER FR GR HR IR JR KR LR MR NR OR PR QR RR SR TR UR VR WR XR /, YR ZR `R  S .S +S @S #S $S %S &S *S =S -S ;S >S ,S 'S )S !S ~S {S ]S ^S /S (S _S :S <S [S }S |S 1S 2S 3S 4S 5S 6S 7S 8S 9S 0S aS bS cS dS eS fS gS hS iS jS kS lS mS nS oS pS qS rS sS tS uS vS wS xS yS zS AS BS CS DS ES FS 6= GS HS IS JS 1{ KS LS MS NS OS PS QS RS && R8 SS TS US VS C* WS XS YS ZS `S  T .T +T                                                                                                                                                                      ",
"                                                                                                                                                                        @T #T $T %T s= &T 7G hD *T 6j sm =T -T ;T >T ,T 'T 6j Th )T !T 26 A7 ~T {T H* ]T 1O ^T 7| {0 n8 /T (T _T :T <T [T }T |T B% z3 1T 2T 3T 4T 5T x_  8 .6 ;: 6T z* 7T 8T 9T 0T aT bT VQ cT !Q dT )) eT c6 fT $& [{ gT hT O_ iT jT kT lT mT nT oT pT qT pS rT sT tT uT vT wT xT yT zT AT BT CT DT ET FT GT HT IT JT KT LT MT NT OT PT QT RT ST TT UT VT WT XT YT ZT `T  U .U +U @U #U $U %U &U *U =U -U ;U VT >U ,U 'U )U !U ~U {U ]U ^U /U (U _U :U <U [U }U |U 1U 2U 3U Y1 4U .9 7( 5U 6U Yc +, n_ ^~ 7_ 7U 8U 9U I4 0U DQ F> aU v/ X[ bU cU Z% dU eU fU 6e gU hU iU jU kU cz lU s8 mU nU oU pU qU                                                                                                                                                                      ",
"                                                                                                                                                                        rU sU tU uU vU wU xU |+ yU zU AU 4H NC Il {h BU 8z eg CU DU Pr EU FU dg GU G+ HU 6z IU JU KU LU MU VB >T VB ]T Bn NU @- OU PU QU {* RU SU TU i4 vc UU VU WU XU YU ZU k: `U  V .V +V >6 .& k& @V )7 Vi <5 #V X[ p& $V LQ f; %V &V *V =V Q; -V ;V >V &i Vf ,V O' g! 74 |[ (1 7U 'V &< )V !V ~V Q} O4 {V ]V ^V ;} /V (V _V :V <V -4 [V F2 c1  | }V |V Y( 3[ C2 1V 2V a( 3V 4V 5V 6V 7V 8V |1 S: e3 u< Q4 9V 0V &2 Pc !} &] 43 a> 0< aV 4f bV cV dV eV O1 j( Rc u6 'b fV ;t X5 2c ha ve Oj (9 }^ Xu ak hd za N7 A8 gV hV iV jV kV x3 .n 5o lV mV hj Gi %b nV Ia oV ry pV Ji qV op rV sV >l tV uV vV                                                                                                                                                                      ",
"                                                                                                                                                                        wV xV yV zV AV BV vU CV in DV 1G V+ EV FV 6j GV HV IV 7j ~h JV KV LV EE MV NV OV PV QV fx Vh RV 1v SV TV 7z UV VV WV Co XV YV YV 8g ZV ZO -1 `V  W .W +W @W ^T #W $W RB %W &W *W =W bd +W -W Um ;W zg >W ,W 'W #f ;/ )W !W Mb ~W Cc F{ U3 2a jb Sd W< Z| 7_ Y8 {W Zb ]W ^W <7 /W (W _W :W :8 f_ <W [W }W q7 A0 >_ |W ok 1W |f 2W 3W 7/ Q| 4W 5W ee &| 8( ee ea 6W 7W 3a 8W 9W k_ 0W 3l Ij hq Ij ih R| }] ~5 a7 -n /9 -j aW P2 we k0 bW v! cW dW eW Rf 3W So V9 fW gW 5i 4i hW iW 0l jW kW A8 #u Mi )l lW mW Ag dU nW oW pW qW +W /f Pv ,W 'W rW Sv Za sW tW uW vW Ji vW 'W wW xW )r bq yW zW AW                                                                                                                                                                      ",
"                                                                                                                                                                        BW F@  E g: CW /G DW EW FW GW xE 1G HW IW JW KW LW `k MW NW OW Th PW :p QW ZC $@ DU Rx (k .x Ks ,T Gf RW SW TW UW PV VW WW +r cp 59 XW YW ZW mf Te `W  X .X +X FU @X %W cz #X $X %X |d ~W hj &X vg *X jy @7 vx +W 'a Mb =X ;e ly fh ~s -X Kv Ok ;X >X A8 ,X 'X )X !X ~X ua ye {X ]X u2 3V Zf ^X /X O: `> ~{ So Q| $5 (X _X :X <X _i M5 M5 &9 e1 Qg [X w{ }X Lo Rc  g .g <W <7 J^ [7 }^ &| +o |X ;< R9 E_ 1X >n A6 '9 Qd 2X _: 3X <s 4X 5X 6X 7X ~8 ]n we .o 8X 9X uj 2l .g .n Go  p kq 0X aX `5 bX cX dX eX ey IA fX gX hX iX jX kX lX mX nX yx 5l =f vf oX pX qX pV Sv Dq rX sX mX tX uX .X vX                                                                                                                                                                      ",
"                                                                                                                                                                        wX zV )I xX yX zX GU _p 5A AX tu BX 6A 7j xi =C 4j CX Dr DX {q EX B- FX GX HX ti IX JX KX Xr LX NU vo ;e JV `k MX NX cy Ks nc m8 Re ag OX PX QX RX SX TX uz UX j. VX WX XX YX sz Db o& ZX rW Cw Sw 5h Nw )o W< %b (a `X  Y r9 *t p7 .Y ob Ri q7 oj lX +Y @Y jb fh w1 w: B[ @u #Y b8 $Y %Y 8l &Y 4r }m %n /2 _i 's  o _4 1c (X 7( d7 Qj *Y !g +] xk P5 ~n 1c Z/ .o ^c ha 4W =Y -Y ;Y >Y #5 ,Y 'Y iW )Y !Y ~Y )Y {Y V5 ]Y Fh ^Y Ik |m 7i /Y (Y _Y C: 3g +o :Y 0l <Y [Y +u Nk gk Si }Y |Y 1Y 2Y 8n 3Y 4Y 5Y 6Y 7Y 8Y pX 9Y 0Y aY bY cY )o dY eY Tv Ou qj fY gY hY iY jY /v kY Uw nx vz 'W lY mY nY                                                                                                                                                                      ",
"                                                                                                                                                                        oY o= pY qY CW rY sY <x oB !C tY uY m+ Dt cy vY EV sm CX wY Qh Zk xY yY zY AY 7j Ft Hb Zw BY CY DY EY FY GY HY JW >C 7z IY PA JY KY LY MY NY Ib %f Ic OY Tr LA PY QY `W 'e 1k py Ni RY #f Ep SY TY C8 ]i `v C8 +7 UY Yh hy 88 7/ VY pe ar %n (9 ;j O1  h WY v{ Ui XY 5n So YY >! ZY Mc N7 `Y *n 8X  Z .Z ha 0b B_ ~m 5i gk '< On (~ +Z @Z Sj #Z $Z %Z 5r ha &Z *Z =Z R| 6b -Z ;Z >Z 4r |l ,Z 44 ve Dd 'Z )Z d1 M5 !Z `j kl pl Mp Vj `m 5e ~Z {Z Pn gW !j *u [s ]Z ^Z #8 Ke 't 2t Ri /Z (Z sX Mk _Z yW :Z <Z [Z Aa xw }Z sz |Z 1Z uW rx 2Z mU 4l 9n 1k 3Z 4Z hX WV vf >p ky kY {e mX wW gs 5Z 6Z                                                                                                                                                                      ",
"                                                                                                                                                                        7Z 8Z 9Z wU 0Z aZ bZ FE cZ !C CU dZ 5A eZ ;C JF Hl `B %C 8A Qy IX Wr fZ gZ hZ yi )k iZ mn qx KX Ey jZ Bo IY kZ lZ Ml ,T mZ %x nZ oZ pZ qZ rZ =W sZ uz XV tZ uZ iz ]a vZ wZ 'i ob #s 2k rx .p xZ fk jb yZ Bh :6 =0 Hn zZ AZ BZ CZ `n DZ p7 Fp EZ FZ my a5 py GZ <f Xu HZ z2 Mg ua |W 5a !i IZ *! (f +Z M/ JZ U9 U< KZ 3r LZ lb 7l -j ;j Yn :X MZ ;5 j( De iW #d r3 Md 4r NZ OZ !Y PZ QZ $d T2 RZ Jp xk SZ TZ UZ VZ nq WZ {n XZ YZ %o +o ZZ `Z  ` la .` fl rl +` }o Kv 3Y 0c @` 7m 1s ~s -f #` $` %` &` *` =` -` ;` >` Wi ,` '` )` zl !` ~` Tu 'W {` pX eX <Z ]` ^` /` tX (` nx &w _` :` <` [` }`                                                                                                                                                                      ",
"                                                                                                                                                                        |` 1` 2` aZ 3` 4` CV 5` FW )y 6` 3j @@ xs .C Yk PW 7` 8` 9` 0`  C Oy a` [D b` !k CX `k c` qx Co d` e` RV pn zA >T WB f` g` Ib h` Se i` j` k` l` m` IY n`  W o` p` q` r` s` rj $n t` #h u` v` fk Aa w` /f E_ hj x` y` z` A` B` C` p7 98 D` kq E` F` ey vx G` 7e H` ef <f p| I` )s ha J` K` my L` Qo M` gk 1c %Z Go ih 4m N` 0b !g O` So P` }X ]2 [s {g |m Q` sa ;n R` Mp S` |X :X _4 6} T` !t 3i De U` V` `X W` X` :g Zg Y` ai Fe )5 Z` G` `` Vf Zg Ah   .li . .>o + .%u 0X rj |r ar }l @ .# .$ .% .& .)` * .Mk BZ `W YX = .- .Uv ; .sX km ; .> ., .' .Kn ) .! .~Z ~ .qw kr 6n { .] ./` bY ^ ./ .                                                                                                                                                                     ",
"                                                                                                                                                                        ( ._ .: .< .[ .} .| .yB yB 1 .2 .GE fn wE |z 3 .;C Qy 4 .5 .6 .Vx c` 7 .8 .9 .~q 3 .Th 0 .IY GY 6z WW a .'T 8z b .c .d .xb e .f .d .g .h .i .WX L7 j .k .TV l .m .3Z n .Kv Ke SY 0c o .Oi 5o m2 ]i Nk )i Ni jy }R $- p .q .r .tx s .Pi On ff t .w} jk u .v .OY w .x .Bw y .z .X9 ~s A .B .m2 Ok ,V |Y .n 1l ^c C .!g 3X ac Yd Rp O` D .,n $Z C .*Z De 'j 8i 3s sa *Z E .D0 Ng F .lk 'b 3W G .D .H .6} I .J .K .L .uk !j J0 Zd hW %n $` M .N .O .gW P .2m br Q .Yd R .@` S .0q 7m }o 9n T .U .jk V .W .X .Y .RY Z .` . .....+..ey )r @..#..$..Sv IA 2o pX %..&..*..=..nx -..;..JA >..,..'..)..!..                                                                                                                                                                     ",
"                                                                                                                                                                        ~..{..]..<p ^../..(.._..:..M. (y <..[..}..|..CX 5j 1..nu 2..3..dZ 4..5..5..6..6j 7..CX 8..9..SW QV HV 0..a..c .b..SX c..SW d..e..f..g..h..i..c .c9 hY j..k..az h. l..0d m..n..o..7g zw p..+e q7 v` -t -i q..r..{` s..t..u..v..w..x..kq dc 'd w..)r y..z..`S A..B..sW C..zW D..,X km 9n s` ~` 5n _f  h ;Z {s #v E..,< ~g #o Vo 6l .Z 4W %n F..A0 G..4r 14 _2 Gp %o H..$o I..Oj !s &Y }^ xj 64 >X J..(~ + .K..L..*j  0 14 Xo M..(t w4 N..O..P..q7 6m Q..jl R..[s an S .jq S..Ke /f 0q [Y 1Z T..1Z uW Qv sX U..n` V..W..nW X..tW Y..Z..`..%u 1X  +.=` .+.MA ++.@+.#+.$+.op lr fY %+.RV &+.*+.=+.-+.                                                                                                                                                                     ",
"                                                                                                                                                                        ;+.>+.,+.:p 0D -B #B '+.|@ )+.eo !+.~+.{+.]+.px 4j Yk 4j ^+.(p uY TB JW 7j >T 5../+.gz (k qx (+.QV _+.:+.<+.[+.Ta Re }+.[+.|+.}+.cz 1+.{* 2+.qE 3+.4+.cz 5+.&V 6+.7+.8+.9+.T..0+.a+.)` 5k N0 *t b+.Bh Fp [l 0X Cj dY c+.d+.e+.dh +e Pi 1X *b A8 f+.g+.K4 m. J_ h+.2( i+.j+.D..k+.0e v3 l+.=i m+.F`  h n+.o+.6} D0 Nn }X g3 fV 't M` q7 p+.q+.I` D6 .o r+.+Z #u >t s+.>! jl pk .n ;t 1W t+.u+.kX v+.w+.1X 1c ^m Xg ma  0 x+.]n fc y+.Eg z+.A+.B+.C+.D+.H..8r E+.gk F ..h F+.G+.^W H+.I+.jY J+.K+.dY dY L+.sW M+.N+.O+.P+.Q+.R+.lW S+.& .T+.U+.RY V+.KA W+.X+.hY Y+.Z+.Ns (h `+. @.oZ .@.W+.k9 +@.                                                                                                                                                                     ",
"                                                                                                                                                                           @@.#@.eD ^p $@.%@._z $@.!+.Sz $@ &@.]..#@ 6..*@.0..OW =@.-@.tY ;@.>@.,@.Cy '@.`k )@..x !@.~@.{@.eg ]@.-C ^@./@.'@.tf =e tA WV QV oZ (@._@.:@.<@.Ea [@.}@.`= |@.1@.tf 2@.3@.4@.5@.3u vz 6@.7@.Xu *t Hx 2l gk ~s Ri kz 8@.9@.(6 R0 Ri G_ Mi 0@.a@.b@.c@.!G w] d@.e@.f@.g@.h@.i@.tx j@.k@.l@.m@.]{ Y> ^s w_ 4W n@.o@.ri }X }^ ;t  h ^s p@.q@.r@.}X s@..Z 4W 1W t@..n On S< 4m On ;j u@.Hp v@.w@.x@.y@.z@.@Z KZ A@..v B@.yk b8 C@.D@.jV E@.F@.G@.6r C+.(j H@.L .&v +Z ah Rp I@.& .& .>s J@.K@.m .L@.M@.j9 N@.O@.P@.Q@.hX R@.S@.U .6n wW mz T@.mU }Z Cu U@.=` YV V@.3@.tV W@.mZ fY X@.Y@.Z@.`@. #.                                                                                                                                                                     ",
"                                                                                                                                                                           .#.+#.@#.##.$#.L@ %#.&#.*#.HF =#.-#.;#.3..h+ IV >#.Co J+ ,#.'#.NW )#.!#.~#.EX {h Ll qn :` ,T zi 7j `k 6z {#.]#.TW JV ^#.G* /#.gz '..Ga e+ )D (#._#.:#.<#.[#.}#.|#./D ;a 4G 1#.2#.3#.; .0X .p pj }t 4#.1s ob {s [9 w..%Y 5#.o+.96 fh =h A8 pp 6#.7#.TM 8#.9#.0#.a#.b#.c#.d#.NA )l m( za pp Mc od `u fh .p e#.ua 4W 5W ;j EZ bh /m [Y f#.g#.h#.ga D6 Xv i#. h j#.k#.an 8X QZ s@.Lo l#.1W m#.n#.o#.y .ak {s p#.q#. o Ij Ed r#.Ag s#.t#.u#.Pf Vf qi v#.^r .k 't xZ [6 Ok aq w#.hj  +.;..~ .x#.v .1Z .+.y#.z#.A#.B#.C#.D#.E#.F#.G#.vW H#.~e XX vf nZ YX SW f .I#.J#.ZW %f K#.L#.kZ M#.N#.O#.P#.                                                                                                                                                                        ",
"                                                                                                                                                                           Q#.R#.S#.T#.U#.V#.W#.y@ .E X#.Y#.Z#.`#. $..$.+$.@$.#$.$$.%$.)C &$.zr LE 2+ *$.=$.-$.4j ;$.IX >$.,$.Z< #X '$.)$.>T !$.mZ $a ~$.g` {$.!h ]$.^$.f. /$.($.1D _$.pZ pE $W :$.<$.[$.U .@Y yw vl .u qi *p Ex Op }$.:r Yn EZ $..Pv 08 Hx WY )o fk |$.-{ 1$.2$.3$.4$.!6 5$.}@.Re 6$.ae M8 !b zw ay 6@.Pv Lu rj Fp *b SZ VZ 7$.^s {X 8$.9$.0$.ZY 3l a$.^i u` b$.c$.d$.`v ;Z 53 e$.7m Lg f$.g$.8$.ZZ h$.mz _5 i$. h ]5 mk >t <Y j$.k$.G@.ZZ l$.9U ye m$.$..{m 3W 6g n$.{s :n 95 nx Yh QA r..`2 o$.p$.q$.r$.s$.t$.gV u$.v$.w$.l..f` x$.y$.dz z$.A$.B$.C$.DB N@ D$.E$.F$.G$.G= qD qD H$.I$.J$.K$.L$.I+                                                                                                                                                                         ",
"                                                                                                                                                                           M$.N$.O$.P$.I= Q$.R$.S$.T$.U$.V$.W$.X$.Y$.Z$.`$. %..%.+%.@%.#%.$%.%%.&%.*%.=%.sC -%.;%.>%.,%.'%.)%.!%.~%.(A (A {%.]%.^%.HC /%.(%.{x _%.5E 0u :%.<%.[%.+# }%.|%.1%.4@ 2%.3%.4%.Lb 5%.6%.%i +u 7%.8%.Li ,t |] z8 R3 O7 !3 od TY 9%.*X Y8 ye Wv 0%.a%.b%.c%.d%.e& e%.f%.g%.Q) h%.`v  v uj x, ,i 12 h) -f X9 u6 Z> TZ i%.*b sd sd o7 I` j%.OZ |f k%.LZ ,n No 4r !g l%.Og m%.n%.o%.]2 ZY L` J..p%.q%.q4 GZ r%.s%.~| ^f q7 Ac !3 C8 b$.t%.nk t%.rX tx yw 7o u%.^6 `W v%.w%.- .QX oX x%.y%.z%.A%.B%.C%.D%.JC E%.F%.G%.ur eD H%.I%.J%.K%.L%.M%.N%.O%.P%.Q%.R%.S%.T%.U%.V%.ms W%.X%.Y%.@C tE Z%.`%.                                                                                                                                                                        ",
"                                                                                                                                                                            &..&.+&.@&.#&.$&.%&.eD DC &&.{y *&.=&.-&.;&.>&.J%.,&.'&.)&.!&.~&.{&.]&.^&./&.(&._&.:&.<&.[&.}&.pr }&.|&.1&.2&.U#.3&.P. 4&.5&.wC 6&.7&.8&.9&.0&.a&.9&.b&.c&.d&.e&.d&.f&.g&.h&.i&.j&.k&.l&.m&.>y n&.o&.p&.q&.r&.s&.t&.u&.v&.w&.x&.-z y&.z&.~E A&.B&.C&.D&.E&.H$.E= F&.G&.H&.E%.I&.J&.K&.L&.M&.N&.O&.Sz P&.Q&.R&.S&.T&.+B U&.tE V&.W&.Uz X&.Y&.Z&.+C `&. *..*.+*.@*.#*.$*.%*.&*.**.7j =*.-*.^+.;*.>*.,*.'*.IF )*.!*.~*.K&.{*.]*.^*.xB /*.(*._*.:*.<*.[*.}*.|*.1*.2*.q&.1*.3*.4*.5*.6*.7*.U%.8*.9*.0*.a*.b*.c*.d*.e*.f*.g*.h*.i*.j*.k*.l*.m*.T= W+ -G n*.^p r+ o*.4@ p*.q*.r*.s*.t*.M+.u*.v*.                                                                                                                                                                        ",
"                                                                                                                                                                           w*.x*.+&.A= O@ y*.z*.NE A*.B*.2 .C*.D*.E*.F*.eD G*.H*.I*.3C J*.K*.aZ L*.M*.N*.O*.r- /..P*.[..C*.|C L@ Q*.R*.S*.AV T*.wr U*.V*.H%.W*.a. X*.Y*.Z*.~H `*. =..=.+=.@=.`*.@=.#=.$=.%=.&=.*=.==.-=.;=.>=.,=.'=.)=.!=.~=.{=.]=.^=./=.1&.(=._=.:=.<=.[=.:&.}=.|=.1=.2=.3=.4=.5=.6=.7=.8=.9=.0=.a=.4B b=.c=.d=.I%.e=.f=.g=.h=.i=.j=.k=.l=.m=.==.n=.o=.p=.q=.r=.U%.s=.t=.u=.i=.v=.w=.x=.y=.z=.A=.B=.9*.C=.h=.D=.E=.F=.G=.H=.I=.J=.K=.L=.M=.N=.O=.P=.Q=.R=.S=.T=.U=.V=.W=.IF V+ X=.Y=.6..Z=.BU yi 7 .5 .`=. -..-.+-.@-.#-.$-.%-.&-.~@.,k *-.=-.--.;-.z$.B- >-.,-.'-.)-.!-.LH ~-.{-.]-.^-./-.(-.x$._-.                                                                                                                                                                        ",
"                                                                                                                                                                           +$.:-.<-.xV [-.-B z*.)+.}-.(..(..|-.1-.;q ^%.;q <p 2-.3-.4-.GU 3E 5-.hJ 6-.7-.8-.9-.0-.a-.AU Xz b-.c-.}-.d-.e-.f-.Sk g-.h-.1+ #+ /z i-.6D j-.k-.l-.lA m-.n-.o-.=T p-.J+ 3..W+ q-.:+.WB Zw dA 5Y 5q Gy )w mZ TW r-.s-.<..t-.1G 3@ u-.,@.;@.'h v-.w-.4j x-.FE y-.^p z-.A-.gn 2..B-.C-.o-.D-.E-.F-.G-.H-.I-.J-.K-.L-.M-.N-.1@.....C O-.oZ P-.Q-.QY R-.S-.T-.U-.w$.V-.W-.X-.Y-.7j b .Z-.`-.I-. ;.v$..;.+;.+q xz @;.#;.$;.%;.Kx &;.*;.Aq xZ .u nj 8q r` U..`e 8y Ki eX @+.=;.-;.;;.:` Rl x#.>;.nZ ,;.PY y$.';.O@.);.!;.~;.{;.k..`+.sz &+.vf Ye VX 0 .];.^;.;a O../;.(;.O.._;.:;.<;.[;.= .I#.f..                                                                                                                                                                        ",
"                                                                                                                                                                           };.|;.1;.{..:p 2;.3;.4;.2+ 5;.}-.2 .6;.7;.BV 8;.: .9;.ZH 0;.aZ a;.N#.b;.Dg c;.d;.e;.1D f;.g;.q-.h;.i;.yE j;.k;.l;.m;.n;.o;.p;.q;.r;.d+ s;.Re ZW FU t;.u;.v;.BU p8 Dy D@.TW UX w;.x;.'e #f iy ,r  +.y;.z;.A;.3h 7g .f B;.5$.RX k9 C;.7Y mU U .A;.H` o$.o$./7 ;a D;.E;.F;.y3 Y..BZ zx RX v} G;.H;.I;.J;.K;.@Y ;V L;.kd M;.Jh N;.O;.+Y P;.f$.ob Fp Iv q..+Y my #h %7 km Ew cY *` Ag Q;.vW R;.S;.T;.Dw  +.]Z -Y U;.$n fW C+.fW V;.xa V;.W;.Rf Ij uq *t &;.hU X;.Y;.Z;.`;. >..X eX .>.Za wZ ~W nr +>.<Z `V X..D@.<$.@>.#>.$>.%>.0Y gV &>.~w mz *>.9Y uZ qX =>.->.;>.>>.,>.'>.)>.dz U-.eX $a !>.                                                                                                                                                                        ",
"                                                                                                                                                                           ~>.{>.`C >q ]>.^>.n@ />.Kq (>._>.CV :>.4C <>.[>.}>.}>.|>.1>.4` dn j` 2>.3>.4>.C*.5>.6>.7>.3j 8>.9>.~-.d. 0>.a>.b>.c>.d>.FU e>.f>.g>.h>.i>.j>.NY k>.sf l>.Re m>.n>.b9 9z o>..;.DU w-.rV *a 8n p>.cY Aw q>.$7 @` zl r>.Mb ox W[ pp q` s>.ey t>.`X u>.v>.w>.x>.y>.z>.2+.v2 A>.B>.fc C>.D>.E>.Dc )` F>.G>.!X SZ H>.p>.Nc rd sd !Y j%.I>.'d o@.0s Hg u3 }o Ri }o J>.MZ $i K>.88 L>.Z..@ .Z..Ep Tu c$.nx Hz #s M>.64 .n Fk Mp %k -t E..=| Vp =j &k Qo my m..N>.u*.O>.P>.Q>.$ .dY [Z #` vW XY Uv > .R>.S>.T>.U>.V>.W>.X>.Y>.Z>._+.C#.`>. ,.SV OA U...,.+,.mW @,.#,.$,.%,.8z sz fs U-.&,.e .*,.=,.                                                                                                                                                                        ",
"                                                                                                                                                                           -,.x*.;,.>,.,q ]..,,._p ',.bZ ),.!,.~,.lD {,.],.^>.:>.^,./,. E (,.4E _,.:,.Y%.<,.c-.[,.},.|,.1,.2,.:$.3,.d>.d>._-.4,.5,.@+ 6,.pE .3 7,.8,.9,.P..(@.0,.a,.4+.XV (-.~#.r-.b,.c,.d,.e,.f,.g,.Kf T3 [Y h,.$7 i,.w4 Qv )p j,.w#.k,.>r $` 1h n..{e l,.f#.r#.m,.n,.P@.o,.p,.q,.r,.p5 s,.Y .Yf t,.u,.cY l+.Bw rx 8l g#.g#.v,.5l w,.x,.~s D .&Y @` 2l >X 7i )s 9X y,.8f So *n z,.ul &u #h (a @! 1W my A,.v@.E` Nk S .Lo {t  k B,.@0 ji  o /n Wo C,.~o oi 5l jy sW m .c+.D,.p%.vx E,.4l F,.rX G,.zo `v Kv H,.I,.J,.K,.'# L,.M,.N,.x#.O,.2o Kn mz P,.ry @;.& .Q,.9Y KY R,.tZ !#.9..rg a .)>.JA ^#.S,.                                                                                                                                                                        ",
"                                                                                                                                                                           T,.U,.V,.`C D@ W,.ur X,.Y,.} .Z,.6-.`,.9;. '..'.;q +'.@'.j` _,.2>.(,.#'.{H $'.Gl %'.&'.0z <;.:;. ;.x-.o*.o*.*'.='.-'.;'.>'.gA 3@.<+.O@.T>.,'.<+.9` rZ ''.hX )'.b9 !'.~'.u*.n>.{'.]'.xA KA Fg <n r..+W hU H7 t%.vZ ^'.R>.sV Ni b0 & .lf /'.C>.@7 {6 zw A;.('..* _'./l x>.:'.<'.!X ['.}'.|'.1'.2'.3'.^W k,.tx s%.4'.5'.0W Ro H .-j #Z c| ok %d Nc !s Ng 3W _i L5 6'.ok YY fV f$.7'.ae ;i 0q K>.Xu k0 F+.8'.V;.#Z 9'.0'.a'.@0 `d Fk 6r *u   .jl Mp oi oj b'.c'.lW ['.d'.(Z e'.Uv R>.f'.wZ $;.Tu 1o Cx g'.h'.t-.i'.j'.k'.{'.#` ' .eX 8Y * .)p l'.m'.n'._v o'.`-.p'.'#.q'.oZ +q c..ox HA {'.@*.                                                                                                                                                                        ",
"                                                                                                                                                                           r'.s'.t'.u'.v'.w'.:p x'.y'.*+ z'.A'.B'.C'.D'.E'.7G -G F'.G'.H'.I'.J'.K'.VH m-.HH L'.k;.M'.N'.O'.P'.t;.q;.Q'.R'.S'.T'.U'.x;.V'.W'.{T eg 'h tf X'.~#.2,.Y'.Z'.OY `'.WV [;.Bn Bn  )./7 X-.j .8Y zg .).@x dY kz @ .+).ch TY Ig /'.nr @).ak F>.zw #).$).%).Ag &).*).M .=).v .k1 ,` -).{X 4) ;).nV im *0 'p >).p>.,).K` ').!b sd )).+ .(X <j 6l G .PZ Nk R2 %Z G .JZ uq B@.!d u3 q7 !).S .~).'d G .~s :f $Z Sn #o =u {).]).(n _n E0 !d ^).Mp /).Xd 5g uq Tn S..5l -p ()._).:).<).[).*+.k9 rz ^Z rj Kv 8n I+.J;.}).P'.|).1).];.-..2).Fz 3).* .fz Sv 4).(v lr 5).x#.RY k@.XV 6).)>.7).6%.~e wo 8).                                                                                                                                                                        ",
"                                                                                                                                                                           9).0).a).b).c).d).3C e).9Z f).g).h).i).j).sr >,.O*.4C [G k).l).m).n).2 .o).TU &'.BE B$.p).MX q).r).s).t).!-.Yz ~'.u).v).<+.[+.w).x).y).z).9` f..A).B)..3 #W [;.C).D).NY X-..;.E).t$.@+.dX F).G).Hn t>.Mk rx ^Z ry H).I).pp s9 )l bW J).Mk GZ k,.w..70 K).+>.@& q>.L).nz Wi H,.M .Xf s$.M).vx A{ ef N).O).#Y `u P).&{ P;.;Z -n N` Q).+o 's Qf R).S).Vp U9  ( E+.wk T).af U).!s G_ fh $).1Y V).W).*b 1c LZ X).Y).Z).hl He 4i Xd Ek xp Yv Op _o #v v` `).G .lX  !..!.+!.@!.,` t$.#!.$!.%!.&!.*!.=!.N;.-!.vW ;!.>!.,!.1@.&+.'!.-..fY , .)!.)p Ut Aq nr !!.~!.~!.{!.&+.gY gY RV ]!.@,.6%.1+.^!.                                                                                                                                                                        ",
"                                                                                                                                                                           /!.(!._!.:!.F= ZH <!.[!.M= bD }!.|!.1!.ns `,.2!.3!.aZ ^..4!.5!.6!.rY 7!.bo 8!.6>.9!.0!.9>./@.a!.(@.b!.>'.{-.FU c!.~#.tA d!._+.e!.f!.g!.h!.i!.V= _D :@.l+ #W 5$.a#.j!.c .EA 9,.k!.T..uZ l!.`V m!.n!.oX o!.BZ p!.I+.b'.q!.![ _Z r!.C6 fk rX r..W .i@.kz u>.s!.=0 uW Uv v>.lz 4Z 0%.t!.^_ Z .P;.p>.C6 u!.v!.Z` ZY 6e ['.)` w!.x!.P2 |X t[ ^m y!.z!.]{ hl C+.lb A!.Go On :t #n fe @` -p ;` B!.$u Nw Ow 4#.mk C+.C!.{n D!./s E!.F!.Gh )).|r Nk N0 &Y i#.L` oi )Y j,.G!.H!.I!.J!.2#.@- $Y <).2'.K!.rX g'.@ .8n 8q ~e d..=>.Fz k,.mr +q +q ky Iz Dq ~!.N;.c$.L!.1u 3u yf p$.Se M!.1v 9..N!.m>.O!.                                                                                                                                                                        ",
"                                                                                                                                                                           P!.Q!.N$.R!.H'.3C S!.T!.U!.ns T!.eD V!.^>.W!.X!.6-.EW Y!.Z!.`!.3-./..9-. ~.3+ .~.3+ +~.x-.@~.tf #~.x).nA Dy b .px $~.O..%~.)'.#a OY az {D  ;.$C &~.4+.}+.5@.[+.lQ b .$W ^_ *~.`V k@.r,.=~.V..-~.;~.>~.mU ,~.[f j@.'~.N7 nX 5e i@.t .*t td 5#._Z 3Y +>.G>.n ._Z ak Sb Ec )~.K3 !~.~~.{~.xA 4l 2a >X W).]~.^~./~.GZ ;` %} {3 H .V;.hh mm (~.pp x` t+._~.%o :~.<~.,u 2s [~.<j 0h }~.|~.1~.2~.s%.3~. h &v 4~.Vj v#.5~.:Y 6~.Wo Yv s@.7~.MZ S .qp 8~.o+.lX WY =p 9~.0~.a~.b~.c~.d~.e~.- .f~.xW k,.Dz g~.h~.i~.rj U..I).H#.j~.im m'.k~.lY ct Iz bj vo fz l~.qw m~.;w fp %x eg z$.O@.M!.n~.o~.p~.                                                                                                                                                                        ",
"                                                                                                                                                                           q~.r~.s~.t~.Z@ u~.v~.lD ,+.w~.x~.W%.pY 1>.S*.tU y~.^>.|>.z~.2>.2>.9E A~.B~.C~.D~.E~.F~.G~.i..,k {@.HY ...b9 4../#.{'.6).LW sE RB H~.:+.e..I~.0,.J~.K~.L~.M~.!'.v;.0,.N~.T-.*~.O~.kU X'.P~.0%.Q~.9+.R~.=W rV KA nk l,.za u,.q>._Z %d ye @m n+.S~.T~.U~.;7 &i r4 Q,.{` ey R;.tz V~.ZU t#.e~.f#.W~.88 Mc t+.0$.bW w..'X e7 X~.'d .k aW J..:f 9n Y~.D,.Z~.n| s3 De R` No xk  p jq %).J;.F>.G` # .`~.XY  {.9l %o 3g /n v#.`o wp 9m <s Fw .{.Lu 'd I>.t .`v Ro 3'.+{.@{.#{.)..pW ${.%{.mW %!.h,.;` wW 3Z nz -p &;.^Z kz R;.&{.)!.ry wW ky *{.S;.;..I+.I+.={.9Y vo m~.Ks -{.{-.+C ;{.>{.,{.'{.){.                                                                                                                                                                        ",
"                                                                                                                                                                              !{.~{.{{.]{.^{./{.({._{.:{.R. <{.[{.jD }{.lD |{.GU |!.1{.YH z~.2{.3{.4{.h-.vY 5{.6{.7{.8{.TW 9{.by ;@.0{.a{.j. HY <+.b{.h>.c{.,6 cy ;-.d{.RB tf [@.e{.jV f{.D~.g{.h{.i{.by j{.k{.2,.l{. -.Re 4..R~.I#.~i 0{.;p sZ @- RA R;.-` my 1Y ae fU Dc m{.=>.Tm !6 lW n{.65 %8 o{.p{.q{.r{.s{.t{.65 $` w#.Vb >X u{.GZ $).v+.MZ *n v{.D .8X *b  h 0c $7 w{.b'.G .(9 ,n }4 Hg !d uj bq F>.x{.y{.Q@.z{.A{.h,.7'.+e 9l O` p3 9l A!.B{.V;.Sp C{.'t $u wl 0c !` &!.D{.;7 E{.xA F{.G{.$>.H{.I{.-;. >.J{.K{.ww tV 8Y >s xw R;.xz L{.M{.N{.N>.0 .O{.P{.Q{.R{.S{.T{.U{.V{.W{.X{.Ux Y{.h{.XB MB Z{.`{.wL                                                                                                                                                                            ",
"                                                                                                                                                                                  ]..].+].@].#].$].%].&].*].=].H*.-].;].>].,].'].)].!].~].{].v~.]].^].M&./].(]._].:].}-.<].[].'k )k k{.UW ~#.}].$W |].8 .b4 1].2].L#.<+.3].4].0!.5].6].7].8].9].0].#W Re a].>a B$.b].c].d].MX /-.e].VW <@.f].0{.`-.8d o..& .g].6o Rm Dz O6 nU .X dX o$.MA BA w%.eX zW y#.h].i].j].^7 l!.#8 l9 Mk W .vx k].l].~Y td w..ZY m].^f IZ 1o Fp lV n].8Y oi nm Go o].~` uW p].8Y J-.q].r].s].t].u].t$.t+.u` [9 @Z er v]..k %v }l 2t kq 0q w].(Z 0q P;.w#.x].@).7g y].z].A].B].C].D].E].F].G].X..2o H].I].J].&w 7).-{.SX U-.M+.K].L].M].N].O].{k P].}].tu m+ <..Q].Q= R].NE S].T].U].V].                                                                                                                                                                              ",
"                                                                                                                                                                                          W].X].Y].Z].`]. ^..^.+^.@^.c&.#^.$^.%^.&^.*^.=^.-^.;^.>^.,^.Oq '^.)^.4; !^.~^.{^.]^.^^.x'.:../^.3G p).i;.XB (^.R= _^.K].2..9` eo Y%.:^.<^.[^.}^.|^.1^.p;.B$.A) 2^.3^.4^.K% 5^.1%.$D 6^.2^.nA 7^.8^.9^.0^.0y I#.2o 7Y 1h >W % .a^.oX RX VU d~.b^.x#.c^.d^.u .*~.e^.f^.g^.I{.3Z iz N;.![ h^.i^.wz *>.S+./'.Y..$` j^.yz j@.2'.nx a^.X..wg $n S).Qi n+.gy +X 1).k^.l^.ZD m^.n^.o^.p^.q^.r^.8$.s^.km Fw t^.@Y u^.*X Nw _` lr %` e'.Y..R;.jY Ye v^.sz w^.x^.y^.z^.A^.B^.C^.D^.E^.F^.DU g..G^.JW [].Qy HB MX H^.I^.J^./>.K^.5;.L^.M^.J^.N^.O^.P^.Q^.R^.S^.T^.U^.V^.                                                                                                                                                                                       ",
"                                                                                                                                                                                                W^.X^.Y^.Z^.`^. /../.+/.@/.#/.$/.%/.&/.*/.=/.-/.;/.>/.,/.'/.)/.!/.~/.{/.]/.^/.//.`*.f*.(/._/.:/.$$.-&.</.[/.}/.|/.1/.2/.jD 7+ G= G= X*.{H 3/.R. 4/.ns }%.L*.jD sr )^.5/.4C D'.[!./>.6/.OB eo Z+ 7/.%@ B-.m!.pE BU `k >!.8/.9/.0/.a/.Nh ;'.0].nA dg rZ az M~.:;.V= tE RB ~T b/.rc c/.~ .d/.o$.VX e/.b/.qA cy f/.g/.{@.kU h/.i/.KA { .j/.k/.(-.7/.|j $-.l/.m/.n/.o/.p/.q/.r/.s/.8z Ib t/.:` m~.Fi qV ~$.u/.v/.w/.Y&.e` x/.6..y/.J&.A%.z/.A/.L^.gZ B/.g@ C/.^>.D/.E/.F/.G/.~^.H/.I/.J/.K/.J= L/.M/.N/.O/.P/.Q/.R/.S/.T/.U/.V/.W/.X/.Y/.Z/.`/. (..(.+(.                                                                                                                                                                                          ",
"                                                                                                                                                                                                @(.#(.$(.%(.&(.*(.=(.-(.;(.>(.,(.'(.)(.!(.~(.{(.](.^(./(.((._(.:(.<(.[(.}(.|(.1(.2(.3(.4(.5(.6(.7(.8(.9(.&E 0(.a(.b(.c(.l=.d(.e(.f(.g(.h(.i(.j(.0(.k(.+=.l(.m(.n(.+=.o(.p(.q(.r(.aB s(.t(.u(.0u v(.w(.0u x(.y(.!^.!^.bu z(.A(.B(.1A ,^.C(.N/.D(.E(.F(.G(.H(.1/.I(.J(.K(.L(.M(.N(.O(.P(.Q(.R(.S(.T(.U(.V(.W(.X(.Y(.Z(.N^.E*.`(.Z(.J^. _.L^.._.+_.S. @_.#_.$_.%_.&_.*_.;x =_.-_.F$.;_.W(.>_.,_.'_.)_.z&.^x !_.~_.{_.]_.^_.'^./_.$$.(_.__.:_.<_.[_.}_.|_.E= 1_.2_.R$.3_.4_.5_.6_.7_.8_.9_.0_.a_.b_.c_.d_.*(.e_.f_.g_.h_.i_.j_.k_.l_.m_.n_.o_.p_.q_.r_.                                                                                                                                                                                          ",
"                                                                                                                                                                                                s_.t_.u_.v_.w_.x_.y_.z_.A_.B_.C_.D_.E_.F_.G_.H_.I_.J_.K_.L_.M_.N_.O_.P_.Q_.R_.S_.T_.U_.V_.W_.M_.X_.Y_.Z_.`_. :.d_..:.+:.$(.@:.#:.$:.%:.&:.*:.=:.-:.;:.>:.,:.':.):.!:.~:.{:.]B ]:.^:./:.(:._:.::.9(.6+ <:.;+ [:.,%.N%.}:.|:.1:.;+ 2:.3:.l(.4:.5:.6:.8(.7:.h(.'/.7:.8:.9:.0:.a:.b:.c:.`#.7:.9(.0(.d:.e:.f:.g:.h:.U%.y=.i:.j:.k:.l:.m:.n:.o:.p:.~>.q:.r:.s:.t:.<:.u:.v:.w:.x:.y:.z:.A:.`#.B:.C:.D:.E:.i(.+=.F:.PD G:.H:.I:.J:.K:.L:.M:.N:.O:.P:.Q:.R:.S:.T:.U:.P_.V:.W:.X:.Y:.Z:.`:. <.Y^..<.+<.+<.@<.#<.$<.%<.&<.*<.=<.-<.;<.><.,<.'<.)<.!<.~<.{<.]<.                                                                                                                                                                                          ",
"                                                                                                                                                                                                ^<./<.cC (<._<.:<.<<.[<.Y:.}<.|<.1<.2<.3<.4<.5<.6<.7<.8<.Y:.9<.V_.0<.+<.Y^.0<.a<.b<.c<.d<.e<.f<.g<.h<.R:.S:.i<.R_.j<.k<.l<.m<.n<.o<.p<.q<.=(.r<.s<.t<.s<.s<.u<.v<.w<.Z_.x<.y<.z<.z<.A<.B<.x<.C<.D<.E<.F<.y<.y<.G<.H<.F<.Z_.Y_.Y_.;<.I<.J<.K<.L<.M<.N<.O<.L<.L<.}<.Q_.P<.Q<.R<.S<.T<.U<.S<.V<.G<.W<.X<.S<.Y<.b<.Z<.T:.`<. [..[.+[.@[.S$ X<.T<.S$ #[..[.W<.T<.#[.a<.X_.W<.$[.R<.%[.R<.&[.*[.*[.m_.&[.z<.=[.v<.`_.T<.v<.-[.;[.a<.J_.>[.,[.'[.)[.-<.Y<.b<..<.![.~[.{[.][.^[./[.([._[.:[.<[.[[.}[.|[.1[.2[.3[.4[.5[.6[.7[.8[.9[.0[.a[.b[.&%.c[. $.d[.                                                                                                                                                                                             ",
"                                                                                                                                                                                                   e[.f[.g[.h[.i[.j[.k[.l[.Q<.m[.n[.o[.p[.q[.r[.s[.t[.u[.v[.|[.w[.x[.y[.z[.}[.A[.Z<.bC B[.C[.[(.D[.E[.F[.G[.H[.-[.S:.a<.W:.I[.J[.K[.L[.M[.N[.W<.O[.P[.Q[.R[.@[.S[.T[.U[.Q[.V[.@[.W[.X[.Y[.Z[.W[.V[.#[.T<..[.;[.`[. }..}.+}.@}.X<.#}.X<.T:.$}.%}.j<.&}.B_.*}.r<.S:.=}.-}.;}.>}.,}.'}.)}.!}.~}.{}.]}.U[.O[.^}./}.T<.S$ Q[.R[.P[.U[.P[.(}._}.S[.:}.Z[.Q[.<}.Q[.Z[.[}.}}.|}.Y[.1}.2}.3}.4}.5}.6}.7}.8}.9}.0}.a}.9}.b}.c}.d}.e}.f}.g}.h}.i}.j}.=(.U<.k}.l}.m}.:<.n}.o}.p}.q}.r}.s}.t}.u}.v}.w}.x}.y}.z}.A}.   B}.C}.D}. [.E}.F}.G}.H}.I}.,^.J}.K}.L}.                                                                                                                                                                                             ",
"                                                                                                                                                                                                   M}.N}.O}.P}.z_.Q}.I_.R}.S}.D}.T}.      U}.V}.W}.X}.Y}.Z}.K$ `}. |..|.`}.+|..|.@|.rF #|.$|.%|.&|.*|.=|.E[.-|.;|.>|.@|.S<.Q_.,|.'|.)|.!|.S<.(}.V[.P[.~|.e}.{|.]|.3}.^|./|.Z[.(|.9[.^|.5}._|.:|.<|.[|.Z[.d}.}|.||.1|.:|.||.Z[.X[.X[.<}.2|.3|.V<.N[.Q}.q<.4|.5|.6|.7|.8|.9|.0|.a|.b|.c|.-|.d|.e|.f|.g|.h|.l_.%[.@[.i|.j|.c}.k|.e}.l|.b}.}}.9[.c}.9[.m|.l|.:}..}.n|.o|.n|.2}.p|.q|.r|.s|.r|.t|.r|.u|.r|.v|.w|.t|./|.d}.}|.x|.4}.X[.T_.,|.y|.;<.z|.A|.B|.C|.D|.E|.F|.G|.H|.I|.J|.K|.L|.M|.N|.O|.P|.Q|.R|.      S|.T|.U|.V|.I[.W|.X|.d_.Y|.Z|.`|.                                                                                                                                                                                                ",
"                                                                                                                                                                                                   N<. 1..1.+1.:(.)  `:.@1.S<.#1.$1.      %1.&1.*1.U_.=1.-1.;1.>1.,1.'1.)1.Z|.!1.~1.{1.]1.^1./1.(1.W!.H'._1.8_.:1.<1.[1.6|.;<.}1.|1.j<.11.@|.X[.h|.h|.8}.Y[.x|.^|.21.31.41.51.61.t|.71.61.81.91.01.1}.a1.r|.^|.b1.t|.61.c1.u|.1}.d1.1}.#[.e1.5|.z_.W:.f1.g1.h1.i1.j1.k1.2&.l1.m1.n1.%%.o1.p1.q1.r1.s1.)1.W<.z|.>|.9[.3}.,<.t1.2}.7}.Y[.21.5}.u1.:|.v1.w1.x1.y1.7}.^|.b1.z1.z1.A1.t|.B1.C1.D1.^|.E1.F1.r|.t1.6}.G1.H1.21.2}.I1.i|.T:.J1.K1.L1./|.M1.N1.O1.P1.O/.Q1.DW R1.S1.T1.U1.m/.([.V1.W1.X1.Y1.            Z1.`1. 2..2.+2.@2.#2.$2.%2.&2.                                                                                                                                                                                                ",
"                                                                                                                                                                                                      *2.P$ =2.-2.B|.;2.>2.,2.'2.)2.         !2.~2.{2.]2.^2./2.(2.<[.O:._2.:2.<2.`}.((.[2.}2.|2.12.22.s'.32.#L 42.52.62.72..[.82.q<.R_.@1.>2.92.02./|.v|.a2.b2.H1.s|.t|.c2.d2.A1.e2.f2.21.71.f2.v|.b1.g2.h2.b1.f2.i2.c2.y1.H1.j2.3}.k2.i|.g}.l2.`<.;<.M[.m2.n2.:1.o2.p2.q2.r2.s2.t2.$A u2.v2.c[.w2.x2.y2.b}.!}.:|.s|.z2.f2.i2.A2.B2.h2.C2.D2.E2.F2.G2.H2.I2.t|.y1.t|.J2.K2.L2.M2.N2.O2.P2.f2.c2.Q2.R2.M2.S2.D1.i2.T2.C1.z1.f|.U2.V2.W2.C_.X2.Y2.Z2.`2. 3..3.+3.@3.#3.$3.%3.&3.*3.h[.=3.-3.;3.>3.,3.            '3./}.)3.!3.~3.{3.]3.^3./3.(3.                                                                                                                                                                                                ",
"                                                                                                                                                                                                                                             _3.:3.<3.[3.}3./2.|3.13.23.33.b_.43.53.Q:.63.73.83.]I 93.03.a3.b3.c3.d3.e3.U|.j_.!(.K<.f3.`:.g3.h3.i3.w1.j3.6}.q|.N2.z2.T2.f2.k3.l3.m3.T2.A1.A1.T2.T2.M2.D2.)<.n3.o3.p3.q3.A1.r3.c2.31.w|.a1.o_.[[.&(.R_.s3.t3.-<.@1.u3.v3.w3.x3.y3.z3.A3.B3.C3.D3.E3.)  $[.Q[.21.71.F3.G3.H3.I3.J3.K3.m3.L3.M3.N3.O3.P3.Q3.R3.-|.S3.A1.T3.U3.T3.V3.M3.N3.W3.X3.Y3.M3.V3.T3.Z3.D2.E2.S3.H2.`3.H3. 4.3}.e1..4.82.g_.+4.`}.@4.#4.$4.%4.&4.*4.=4.-4.;4.a[.>4.,4.'4.)4.                                                                                                                                                                                                                                             ",
"                                                                                                                                                                                                                                             !4.~4.{4.]4.^4./4.^4.^4.(4._4.:4.<4.[4.}4.<2.|4.14.24.34.44.54.64.74.84.k[.&}.94.r[.04.![..|.a4.b4.c4.N2.r|.s|.d4.P2.T2.h2.e4.F2.L3.R3.E2.T3.f4.g4.h4.i4.j4.W3.k4.q3.D2.l4.f4.k3.m4.n4.c2.b1.v|.m}.o4.p4.U<.K<.q4.N[.r4.s4.t4.u4.v4.w4.x4.y4.z4.A4.B4.<}.4}.t|.C4.Q2.D4.E4.F4.G4.H4.I4.J4.K4.L4.E4.M4.N4.O4.P4.Q4.R4.S4.T4.U4.V4.W4.X4.H4.Y4.i4.Z4.`4. 5..5.O3.+5.L3.@5.#5.Q4.$5.E2.B1.{|.%5.X2.&5.*5.=5.-5.;5.>5.,5.'5.)5.!5.~5.{5.]5.e*.^5./5.(5.                                                                                                                                                                                                                                             ",
"                                                                                                                                                                                                                                             _5.:5.<5.[5.}5.|5.=5.15.i[.25.35.L:.d|.v}.B|.45.55.65.75.85.95.05.a5.b5.c5.m[.r<.7<.d5.e5.f5.[1.'<.F[.)<.Q2.g5.W3.T3.S3.h5.K2.J3.i4.$5.i5.j5.k5.l5.l5.m5.n5.o5.p5.N3.q5.r5.T4.T4.R3.s5.W3.f4.t5.u5.v5.{|.w5.x5.y5.z5.A5.oG B5.C5.D5.E5.F5.G5.H5.I5.J5.4}.c4.E2.R4.K5.L5.M5.N5.O5.P5.Q5.R5.S5.T5.U5.Q5.V5.W5.T5.X5.Y5.Z5.H4.F4.`5. 6..6.+6.N4.@6.`5.F4.K5.#6.$6.Q3.%6.H4.P4.Q5.&6.*6.I2.i3.01.=6.U:.~}.C|.-6.;6.>6.,6.'6.mO )6.!6.~6.{6.d=.i:.[_.]6.                                                                                                                                                                                                                                             ",
"                                                                                                                                                                                                                                             ^6./6.(6._6.:6.<6.+1.[6.}6.|6.16.26.36.46.26.56.66.76.d2.B1.H[.86.96.W[.o_.z|.@<.d5.06.)}.a6.b6.c6.8|.0[.k4.X4.$6.#5.d6.e6.H4.`4.f6. 5.g6.V4.h6.N5.i6.j6.r5.l4.$6.d6.G4.Y5.k6.l6.E4.m6.n6.o6.p6.q6.d4.r6.s6.{}.t6.R[.u6.v6.w6.x6.y6.z6.A6.B6.C6.D6.E6.F6.G6.$5.H6.I6.O5.J6.K6.L6.M6.N6.O6.P6.Q6.R6.S6.T6.U6.^=.V6.W6.X6.Y6.Z6.`6. 7..7.+7.@7.#7.U5.$7.%7.H4.&7.F4.n6.Q5.*7.=7.-7.;7.i5.d4.>7.,7.,7.'<.r3.-|.q5.K5.'7.)7.!7.jC ,4.~7.*=.{7.]7.^7./7.                                                                                                                                                                                                                                             ",
"                                                                                                                                                                                                                                             (7._7.[2.:7.o}.<7.]B q1.[7.}7.|7.r1.0_.D[.17.&7.27. 5.37.47.Q2.d2.B1.x|.~}.w_.-}.h<.a4.53.'<.57.67.77.Y4.87.W4.I4.I4.97.07.G4.a7.b7.c7. 7.W6.O4.d7.J6.e7.F4.f7.g7.h7.i7.j7.P5.k7.l7.l7.i6.m7.n7.p5.o7.p7.J2.G2.B|.G2.a6.y}.y}.q7.q7.Y2.w[.H[.r7.s7.t7.H4.u7.l7.v7.w7.x7.y7.z7.A7.B7.T6.C7.D7.A7.E7.F7.G7.H7.I7.J7.K7.@6.uC k7.L7.K7.M7.N7.O7.P7.K7.Q7.R7.S7.T7.T7.e7.^=.U7.V7.L6.W7.X7.p1.!<.i4.s5.i4.R4.Y7.M5.k1.Z7.]5.`7. 8..8.+8.@8.]%.#8.$8.%8.                                                                                                                                                                                                                                             ",
"                                                                                                                                                                                                                                             &8.*8.=8.-8.;8.>8.,8.'8.)8.m1.!8.~8.{8.]8.^8.jC Z7./8.`5.n7.#5.(8._8.N:.:8.<8.I1.[8.76.c|.}8.s5.|8.p1.$5.`6.^=.V5.U5.18.`6.J6.28.38.$=.48.28.58.L6.68.68.V6.n5.78.N7.88.28.98.08.a8.w7.S7.R7.n7.b8.q5.c8.d8.c8.c|.e8.f8.P3.t5.d4.g8.h8.g5.-|.47.Y6.i8.j8.k8.l8.R6.m8.n8.o8.p8.q8.y7.E7.r8.s8.t8.u8.v8.w8.q8.x8.y8.z8.A8.$%.wC  7.B8.C8.N7.D8.x7.U7.E8.w7.98.28.V$.F8.68.G8.s8.z7.H8.58.I8.J8.%6.Y5.K8.L8.T7.M8.N8.O8.P8.Q8.R8.S8.T8.(x E%.~+.OE U8.                                                                                                                                                                                                                                             ",
"                                                                                                                                                                                                                                             V8.W8.X8.Y8.Z8.T$.3:.`8. 9.w2..9.]:.+9.@9.#9.$9.B8.%9.%9.97.&9.n5.67.8|.*9.8|.=9.-9.E3.36.p1.Y5.78..%.;9.>9.,9.'9.)9.V5.w7.!9.~9.{9.H7.]9.^9.z7./9.(9._9.E8.E8.48._9.:9.<9.[9.n8.P8.U7.V6.a7.K4.m5.|8.78.}9.k6.37.m5.87.m7.36.O3.|9.19.29.l6.39.I8.49.59._=.69.79.89.99.09.a9.b9.c9.d9.a9.e9.f9.R@ R@ R@ g9.h9.i9.j9.k9.l9.`7.m9.n9.o9.E8.x8.p9.q9.q9.B8.#=.[&.r9.s9.t9.u9.v9.w9.x9.y9.S6.P. W6.z9.fC A9.J6.U].B9.C9.D9.E9.o=.F9.'y G9.H9.D%.*&.I9.                                                                                                                                                                                                                                             ",
"                                                                                                                                                                                                                                             J9.K9.L9.M9.N9.{&.;+ O9.P9.Q9.c:.R9.#=.'8.S9.T9.3B U9.48.M7._B }9.k6.b8.n5.K5.V9.W9.@%.:1.X9.Y9.I8.Z9.~6.`9. 0.~9..0. 0.+0.@0.#0.t8.$0.x9.%0.&0.*0.=0.-0.;0.^9.;0.>0.,0.99.#0.'0.)0.y8.!0.z9.~0.{0.]0.^0./0.X6.W4.(0._0.L8.39.:1.:0.<0.[0.}0.l8.|0.10.20.c*.cB 30.&0.40.50.e9.60.70.80.70.s=.90.00.a0.b0.70.c0.d0.e0.f0.g0.e0.d0.h0.i0.j0.p8.k0.l0.d(.&E m0.n0.o0.c(.p0.q0.r0.s0.t0.u0.v0._9.w0.U9.x0.$9.y0.d=.z0.5+ A0.B0.-z C0.D0.E0.F0.G0.LE H0.                                                                                                                                                                                                                                             ",
"                                                                                                                                                                                                                                             )|.I0.J0.K0.L0.M0.N0.i:.O0.P0.Q0.a(.R0.S0.S0.T0.U0.o9.V0.W0.U6./8.W6.X0.Y0.R7.z9.%9.Z0.`0.Y9._9.o9.|B  a..a.k0.+a.@a.#a.$a.q8.w8.%a.g9.&a.*a.*a.=a.-a.;a.%a.v8.>a.,a.'a.40.)a.!a.~a.~6.{a.S7.]a.^a.i7./a.(a.M7._a./8.R7.M7.U].fC :a.<a.[a.}a.|a.1a.2a.3a.d0.4a.5a.6a.7a.l&.8a.9a.)# 0a.aa.ba.ca.da.ea.fa.ga.s=.0a.ha.ia.e9.ja.ka.la.ma._C na.JC oa.ka.pa.qa.i*.ra.sa.ta.ua.va.wa.xa.ya.za.Aa.ha.Ba.Ca.3a.Da.Ea.Fa.C0.Ga.Ha.Ia.Ja.Ka.AX La.Ma.P@ Na.                                                                                                                                                                                                                                             ",
"                                                                                                                                                                                                                                             Oa.Pa.Qa.M9.Ra.{&.t(.Sa.i:.Ta.(A Ua.d&.Va.3a.t9.^9.Wa.n8.38.Xa.10.Ya.Za.]5.U7.s9.`a. b.}B m8..b.+b.@b.t8.#b.$b.%b.ia.&b.*b.=b.-b.;b.>b.=a.,b.'b.)b.!b.~b.{b.]b.^b./b.(b._b.:b.&=.V$.k7.<b.~0.Z0.~6.]5.W6.|0._9.Xa.<B 08.[b.s9.n8.r8.!a.}b.>0.j0.d9.#0.p8.|b.1b.2b.3b.4b.5b.Aa.6b.7b.8b.,E [*.9b.0b.Is ab.bb.8` ~C cb.db.eb.fb.gb..B hb.ib.Ds jb.NE T8.O&.kb.K(.lb.mb.nb.ob.pb.jb.qb.tv rb.us sb.tb.ub.vb.wb.xb.yb.zb.Rq jb.Ab.Bb.#C Cb.@*.Db.'-.Eb.                                                                                                                                                                                                                                             ",
"                                                                                                                                                                                                                                             Fb.Gb.Hb.Ib.Ib.Jb.Kb.Lb.Mb.Mb.1b.Nb.Ob.Pb.Qb.Rb.Sb.(9.^9.Tb.Ub.Q8.Vb.n8.]9./9./9.,0.:9.Wb.w8.v8.Xb.Yb.:b.Zb.`b. c..c. $.+c.:b.@c.#c.hc $c.%c.Ea.&c.Ea.*c.=c.Ea.-c.;c.%c.;b.>b.Qb.>c.uC uC ~6.[a.[B x0.U9.,c.h9.j0.'c.)c.h0.!c.~c.{c.&0.]c.^c./c.)# (c._c.:c.|@ 3j g;.<c.[c.}c.vu |c.J&.}+ F%.5{.1.. B 1c.8p 8p 2c.Xr 3c.ep iZ 4c.6p +r 4c.5c.ya.6c.R= 7c.8c.9c.0c._+ 2q !w ac.bc.cc.dc.ec.fc.gc.@@ Ha.V(.&$.hc.ic.jc.kc.lc.mc.nc.oc.La.sA Y{.pc.qc.                                                                                                                                                                                                                                             ",
"                                                                                                                                                                                                                                             rc.sc./I J0.Ib.v@ +z tc.uc.vc.wc.@$.xc.yc.Ta.*0.zc.&b./9.Vb..b.Ac.i0.%b.!c.v8.40.)a.p8.>a.Bc.Cc.Dc.{b.Ec.&c.%c.Fc.Gc.Wb.Hc.Ic.Jc.Kc.Aa./x Lc.Aa.5b.Mc.Nc.Aa.iB /x ea.;c.Oc.Pc.Qc.Rc.S0.Sc.Tc.e0.5B Uc.D:.Vc.3a.Ua.d=.Wc.Xc.Yc.$z /x Zc.`c.9w  d.IB |].Ka..d.+d.i{. B @d.{k q'.c` a..#d.$d.2` %d.&d.Am Am  x *d.Ql Hm $r xn Am oc *>.=d.3c.3q  r }c.Cy 4 .i-.DW =G -d.;d.#;.>d.,d.'d.)d.!d.~d.{d.lc.ta.&B ]d.^d./d.(d._d.:d.vu <d.Z&.[d.`k w^.}d.|d.                                                                                                                                                                                                                                             ",
"                                                                                                                                                                                                                                             1d.2d.3d.4d.5d.3_.6d.7d.Wc.Wc.8d.9d.70.0d.>=.40.G8.-0.ad.Wa.bd.cd.dd.e9.*a.ed.Zb.fd.ja.gd.(b.hd.id.q0.jd.kd.q0.ld.md.nd.od.=c.pd.qd.jd.m&.rd.sd.td.ud.vd.wd.xd.yd.xd.N(.zd.Ad.Bd.s=.u8.e(.Cd.e&.Dd.e&.Ed.Fd.&E &b.{%.l&.sd.Gd.3w Hd.Id.2p Jd.Kd.7j Oy 9{.[z Ld.Md.zb (h m~..m 1q HV nE L+ =q px Nd.wy yy >l Od.9k #i Pd.]s Qd.Rd.jg bj Ku }v Sd.Td.Gs Ud.Vd.4C }*./-.Wd.Xd.Yd.Yd.Zd.`d. e..e.+e.@e.#e.$e.IB %e.&e.*e.cx Qz v/.=e.-e.;e.gz 9 .9].>e.                                                                                                                                                                                                                                             ",
"                                                                                                                                                                                                                                             ,e.'e.)e.!e.9v ~e.{e.]e.^e.i:./e.2b.(e.e=.g:.Qb.Da._e.4a.:e.&=.<e.3a.[e.i0.nd.ga.}e.Ec.Ad.|e.1e.2e.3e.jd.4e.5e.6e.7e.8e.9e.&z Aa.iB 7e.0e.v&.Ec.>E ae.Yy be.Wc.ce.de.ee.fe.ge.N(.he.ie.|b.xc.4a.je.cB C9.m0.ke.le.Pc.<x me.ne.oe.nu IW 6p Kz pe.qe.c` !#.re.]#.Cq :e se.te.ue.-w +;..C ve.Ry we.mX xe.<u [u ye.ze.Ae.wy Jv Lw ty $w Be.Ce.Ce.ze.De.Ee.Fe.nw H-.J~.Ge.He.Ie.<t Je.Ke.Le.Me.Ne.Oe.Pe.Qe.Re.Se.+e.Te.*d.Ue.Ve.~@.We.Xe.VA &d.Ye.Ze.`e.                                                                                                                                                                                                                                             ",
"                                                                                                                                                                                                                                              f..f.+f.@f.'x #f.$f.@z @z %f.wc.9e.wc.&f.*f.=f.-f.;f.f9.-a..$.O9._:.>f.a9.,f.#c.%c.Lc.rd.jd.'f.)f.!f.~f.{f.]f.^f.7e./f.(f.>E _f.:f.!z <f.[f.}f.|f.1f.2f.{e.3f.4f.5f.6f.!f.7f.'y 5f.(x }f.8f.,E $z 9f.0f.PE af.GW bf.ne.cf.AE df.Ry /@.on .x ef.:q c` (-.ff.gf.hf.cq .u )u .w if.F,.jf.c..] .bj 7@.kf.C{.(r lf.Jv Ix $w cq mf.;v nf.of.o .|s pf.qf.<v T;.;e Ux Z%.4Y rf.sf.tf.uf.vf.wf.xf.yf.zf.P-.ya.nc.Td.Oe.Af.Bf.Cf.H^.X&.Df.P{.P-.qx b .Ef.Ff.                                                                                                                                                                                                                                             ",
"                                                                                                                                                                                                                                             Gf.Hf.X  If.w+ 9+ 5a.Jf.</.Kf.Lf.Qc.Mf.p0./c.od.Oc.Ic.(b.Nf.Of.cB }b.7(.]c.tb._f.Pf.7b.0e.Qf.Rf.Qf.Qf.Sf.Gd.Tf.7w ge.!z 8f.Uf.LC ge.Vf.7w Wf.o&.A0.R^.Xf.o:.av Yf.Zf.3w `f. g..g..g.dv +g.@g.#g.6w #B (*.&@ $g.%g.8` &g.*g.re.*-.*-.X{.JA #l <k KX =g.4+ L|.&~.-g.Xt ;g.>g.,g.{u %m Fz ct ow Rm 9n 5l Lw 2t 'g.)g.0t !g.~g.jr 5s dr  {.!u {g.$p )g.]g.^g./g.(g.TV _g.:g.<g.[g.}g.|g.1g.2g.3g.4g.5g.6g.Kz Ku 7g.8p 8g.*-.L$.9g.2z Yl =d.iY 0g.ag.bg.                                                                                                                                                                                                                                             ",
"                                                                                                                                                                                                                                             cg.dg.eg.fg.gg.hg.ig._%.jg.8d.kg.lg.mg.ng.ng.og.pg.qg.rg.sg.tg.ug.t:.Of.5a.5b.vg.wg.wg.s0.xg.yg.zg.Ag.!_.Bg.Cg.Dg.Eg.Fg.i*.W*.,E Gg.5w Hg.qt Ig.Jg.1A 9u ps -q Kg.0w Lg.Mg.xa.gv gv Bs Ng.Og.iv Ds Pg.C+ ~C `B Qg.Rg.Sg.Tg.XV Bi {@.c..ig Ug.Yh 7Y %f FB L*.O'.<n cq ]g.6t Lw %;.n'.De.Vg.}u Wg.kp Xg.1s )g.Yg.Tp .w (r tq Zg.`g. h.dr C,.pi .h.+h.@h.cr #h.3Z $h.ry %h.&h.yq }g.*h.=h.&h.-h.;h.>h.,h.Bf.'h.)h.!h.@x *-.-d.Kz Td.~h.+;.c/.a!.:$.{h.                                                                                                                                                                                                                                             ",
"                                                                                                                                                                                                                                             ]h.^h./h.*_.(h._h.nD :h.<h.@$.[h.)# kg.}h.|h.1h.rg.2h.3h.ed.4h.5h.C9.xc.lg.ea.6h.r0.7h.8h.`f.xb.9h.0h.S8.~_.ah.E0.;*.bh.]%.|E O&.ch.@B dh.eh.fh.Kg.bo gh.K+ tY 6..,C hh.!C ih.mu }p %*.IV zs jh.kh.Pg.lh.#C |z re.mh.ti +d.jZ d .9` g..=` yc Zh kY HA l..o>.g` nh.,p ,r Gx .u 5o %m r` Sv oh.7@.ph.;s -i Go .k #p )g.qh.tq tl )g.dr rh.sh.th.Tp |g.dr uh.*p vh.Cq !u wh.xh.yh.zh.Ah.Bh.Ch.Dh.yh.xy Eh.Fh.Gh.Hh.Ih.Jh.Kh.Lh.pe.Mh.~h.2u Nh.Cy [#.Oh.                                                                                                                                                                                                                                             ",
"                                                                                                                                                                                                                                             Ph.Qh.Rh.@f.Sh.N/.Th.<h.Uh.Vh.Wh.Xh.Yh.sd.=c.Zh.`h.8a. i..i.Of.40.+$.+i.@i.^x ge.ge.#i.$i.t0.%i.&i.*i.=i.-i.qt 2x ;i.>i.|C }x ,i.'i.)i.+B !i.}c.~i.`=.{i.JW 9{.6..7..Sz cb.tY Vq ]i..B ;@.!i.oB ^i.ih./i.(i.vu `k ~k {k CY |v ;;.fZ rm ]e Qt #i ay ,f -..ww <n ; .Gx )r cq /u $..*X Cw tX 7@.5t .u _i.5k yz &;.Rp *p  t (t @k Zo hr Lv :i.7t Jw Jw Lk  v ]u Sp kf.(u <i.[i.}i.yq |i.1i.Ah.2i.3i.4i.5i.Xw Qd.6i.7i.Jt 8i.9i. x Fh.~h.0i.c..b .6^.ai.                                                                                                                                                                                                                                             ",
"                                                                                                                                                                                                                                             bi.ci.di.ei.fi.R^.$f.gi.DC hi.ii.ji.b0.iB ki.vg.2h.9d.li.O0.xc.[h.p=.mi.ni.^x oi.wg.pi.qi.ri.si.zg.0h.JC ti.ui.E0.Cg.[A vi.ri.wi.Qz xi.um Gs u/.yi.zi.JW EX Il Ai.[z Bi.|z }c.7` !k Ci.X&.Di.,C 9w I+ Ei.B- Kb Nl Fi..x ;e 6d IY h/.TX HA ^v Rm Sv Ur ~!.Gi.q..~!.g].Hi.S..*p :n  t Li t .Ew =m 8t lX Ii.o..^Z -i _i.Ji.Fo >X Ki.:i.Li.`g.2t 8m Dx yl 5o Z..Mi.Ni.Me.Oi..h.Pi.Qi.Ch.*h.Ri.Si.Ti.uy Ui.[u Vi.]s Wi.Xi.Yi.Oe.Zi.3q `i. j.VA &,.MX .j.                                                                                                                                                                                                                                             ",
"                                                                                                                                                                                                                                             +j.dg.@j.#j.$j.%j.Nq &j.*j.=j.-j.;j.Ea.:f.!f.>j.,j.ng.&f.'j.sg.4f.9e.)j.5b.!j.~j.qi.Ha.Dg. g.{j.]j.Ja.Hd.ev ^j.I&./j.`c.(j.Ll _j.nn Fi.`k $*.Wq ;e.:j.eZ Dr *-.{h <j.}z iZ [j.9x Uq ]+.f;.}j.:D 1G EV wi |j./i.pz 1j.2j.Ss Rl ;;.0 .3j.n..t%.Dv im zo Dw Tu wy 4j.rW Sw t^.Xt v` &;._v Y .xw xw 4l ; .p+.p%.c$.r^.t%.; .Ii.5j.}t 0s 6j.cr _t 7j.8j.9j.*{.& .0j.aj.<t bj.cj.sf.}i.dj.}i.ej.fj.gj.hj.ij.jj.kj.4i.Xd.lj.^v mj.nj.oj.Od.Iv P{.-C l>.pj.                                                                                                                                                                                                                                             ",
"                                                                                                                                                                                                                                             qj.rj.di.sj.tj.v+ S. uj.>E &j.-f.=z v&.vj.wj.xj.ld.ie.yj.8a.zj.)j.)j.!_.-z 5f.Aj.Bj.Cj.'*.Dj.Ej.2x '*.Fj.Ng.Gj.Hj.8c.)k $q iw Ij.rn Xe.Jj.-e.{k Jj.Hs wY Kj.kn Qz ~q Lj.XA sm Mj.wB JE Wk ',.FE Nj.XB Oj.G+ =@.Zk Se cp v^.Ab dX 6Y Ye xw )o Ew %u 5l Kv TY @Y 8n _v Ou 8t ue.vl 0c k,.op Pj.RA l,.v@.`..2'.Xu &X &!.nj p>.S .}o |r Dx 3s 4o xZ Dw 4Y Qj.Rj.Sj.Tj.Uj.Uj.Vj.Ch.[o Wj.Xj.|i.Yj.Zj.`j. k.0j..k.`d.Vi.+k.@k.[u #k.$k.%k.Jt ef.h>.Ua &k.                                                                                                                                                                                                                                             ",
"                                                                                                                                                                                                                                             *k.=k.-k.;k.7v >k.Lb.=i.Nc.,k.Uh./f.ee.'k.)k.!k.~k.ea.4f.(c.=y {k.s&._f.5f.]k.^k./k.2x (k.T&.)i._k.~C w/.Es w/.7..!i.Oy %e.Ey 7p qn :k.Cm Yl Gm zm gg Ll HV VV e` {q ~i.&C $B -#.CB 7D 9].z'.KB <k.zX V!.[k.1,.1@.hg DY sc |k B;.iY { .f'.Sv ; .qw 7o Vs 5o }k.xg Bl Ax (r yw EZ |t 8n ry sX rX cY fy r..6n Tu P;.u,.t%.9n (t |k.qq Xp cr o .4s l~.Q+.1k.2o t^.)g.@v 2k.3k.4k.5k.6k.7k.8k.9k.0k.ak.bk.ck.Ce.dk.of.ek.)d.fk.gk.Yd.hk.ik.ef.&,.t;.<*.                                                                                                                                                                                                                                             ",
"                                                                                                                                                                                                                                             jk.kk.@].lk.8v U/.W*.mk.=z ni.mg.ee.'f.Vf.nk.ok.pk.qk.rk.Jc.s&.v&.*i.Zf.Vf.sk.ju tk.xa.uk.vk.Bi.wk.xk.>@.Wr Bi >@.nb.yk.Ey Or zk.-e.Ak.Bk.Am ig }k Ck.{k Hs Lj.,k Il Ma.Dk.n*.6/.%'.6/.$D Ek.go (@ [@ Fk.BE fZ cy jf.%f kg 4y -..'e (h 70 70 Dv 6o 'p Ou Ws jm 8t Sw *s Pw }t Jx *s u` t .sX jx Bq O6 Gk.o$.-e Hk.iV x` -i cr /r hm 4s /t 5s Ik.^Z Jk.0,.Kk.4o ]r Lk.Mk.Nk.Ok.Pk.Qk.Rk.Sk.Ah.Tk.Uk.Je.Vk.Wk.Xk.Yk.Zk.kj.:v `k.gk. l..l.FY LX E+ +l.                                                                                                                                                                                                                                             ",
"                                                                                                                                                                                                                                             @l.#l.$l.%l.&l.ig.ce.;E ,k.Uh._c.-z yd.pi.nk.)k.5f.~k.vj.]x Gd.*l.ge.=l.7h.-l.;l.>l.,l.Mr 'l.)l.!l.`&.~'.we.qe.Qx Sq Ci.KV Jl X&.iw .).|k ~l.%x |v Px #r 0..`=.[+ Z+ {l.3  |j ]l.-G N@ ^l./l.Fl (l.Y,._l.0-.:l.`+.Q-.<l.7d Tb >l Az #i ,p  t ue.#h.-v :u 6o 6o Pv .t D` :s _j :r !o Ke Ok Ii.im Ig rX nr [l.LY d;.}l.VX Aj %v `o /t Jw Qu ni  h.N;.|l.1l.2l.Pw ej.3l.4l.5l.Wj.6l.9k.4k.uf.zh.1i.7l.8l.Ne.9l.0l.al.bl.cl.dl.gk.Vi.#k.Ce.*d.el..-._*.                                                                                                                                                                                                                                             ",
"                                                                                                                                                                                                                                             fl.gl.)6.hl.C(.0u {y il.E9.jl.mi.kl.Ad.7e.wg.ll.0h.2x (k.ml.C0.Vf.nl.ol.pl.us 'l.ql.Ms ]q Rr lo |z rl.CB s-.um sl.Ms ax sl.=e.Tx ~$.Ss tw pn DX Xe.tl. ,.ul.vl.++ 7>.3{.wl.M+ $@.X(.L^.w- xl.yl.zl.NC Al.^@.px Cy 4Z 3j.n~.Bl.Qs Fz , .'W hf.Ix Wt Aq Ew  +.ay ; .`s Cl..w Dl.{u sx Ew 4l t%.vg vW @i >W n~.m>.El.Fl.Je Gl.jf :o Fk Up Hl.Il.Tn F>.`S Jl.+q :s Kl.Dh.Ll.Ml.Nl.Ol.Pl.Ql.*h.Mk.}i.pf.Rl.Sl.Tl.Ul.Vl.Wl.kj.Xl.Yl.ze.Zl.%w `l.Z-.(]. m.                                                                                                                                                                                                                                             ",
"                                                                                                                                                                                                                                             .m.+m.@m.#m.$m.%m.&m.*m.+i.=m.u0.!z -m.;m.Zf.5f.>m.,m.wa.'m.)m.!m.~m.'i.{m.tn ]m.dc.^m./m.0p +r (m.ZH _m.='.Kz Kt :m.<m.mn 4..LW @d.<k mg JX 7n Hm RW B- [m.PH IE .~.u- CW 2E ',.b` NB n+ !C }m.N'.|m.$C {-.Vx ho 1m.;-.,T qn Kh.ep Rx =d.Ov p].2m.& ./'.3m..q Dq Ew _i.4m.7o Ig r!.3~.nx -X tV QY a+.R>./f bX wl 5m.6m.5g ql 7m.wp Xp Fk wq EZ V+.8m.9m.U..Go Mk.0m.am.Qk.bm.cm.dm.em.0m.fm.Ll.gm.<g.hm.Je.im. l.jm.km.lm.Zk.lm.Ne.mm.nm.om.pm.gn qm.                                                                                                                                                                                                                                          ",
"                                                                                                                                                                                                                                             rm.$2.sm.tm.1f.kg.{y av @i.*m.oi.0h.!z 'y um.vm.wm.xm.=*.ym.zm.Am.Qz Bm.Cm.Dm.~d.Em.Oe.`w Fm.ZA Gm.Hm.A'.UW }k mx ~l.Ay 9j XX Im.3q Gv +r Ck.<m.Ox 4..;'.Jm.^^.Km.f).Lm.%T ;q hD OB J+ Mm.k-.q-.Nm.^$.HW ,k SX Ye.Z'.}m.{@.&+.cp Om.R~.cp Gy n .TA Pm.Qm.fs Ii 7Y -w @q ]h rg Rm.I).$u tX P,.RV k^./].Sm.Lk uq up Qp Tm.Tm.]o (o &h yq Um.$k %v Tn %9 <Z !v Vm.bm.Wm.Xm.Ym.Xm.Zm.`m. n..n.+n.@n.uf.;v #n.$n.%n.&n.TA kj.dk.cl.*n.&m jm.=n.Lh.-n.Z'.;n.                                                                                                                                                                                                                                          ",
"                                                                                                                                                                                                                                          >n.,n.di.'n.)n.!n.~n.9f._c.@i.>E ^f.ok.{n.8h.aw ]n.^n./n.Ng.(n.iw _n.:n.<n.[n.}n.|n.Cm.Ht Bk.1n.tt 2n.3n.;#.1..|v 1z Dm ^m.Em Ck.mn Fm Bu Ak.)#.1v ;@.4n.5n.$d.f).]l.6n.7E |!.7n.8n.7D 4%.AU ;#.|D 9n.zE BE r;.nA 0n.;a Y+.oA `-.KX JA 4Z I,.cy an.]!.bn.7Y za +7 yf 3u TA `a Ye Vg.Os Sv -X hj cn.o*.Q@ X@.~s Qu  n dn.en. k xp %v xp fn.jl {o `p )g.gn.'!.hn.zq Xm.in.jn.kn.ln.mn.nn.on.cm.Qk.pn.uf.qn.rn.sn.0l.Xl.tn.un.Vk.vn.wn.xn.Gz yn.qn sA zn.An.Bn.                                                                                                                                                                                                                                       ",
"                                                                                                                                                                                                                                       Cn.)e.Dn.En.Fn.Gn.Hn.~n.tc.>E Uh.In.7e.Jn.Bj.'m.Kn.Ln.Mn.Nn.On.Pn.Qn.ql.Ck.3q Rn.Sn.Tn.Xq Un.Vn.wu oc.Wn.tU r@ vm Xn.Px }k Ak.5p ZA on !w @l WA ~$.Ai Yn.(#.EE 1D }-.%B GW eo 4;.%'.BE o-.IE o-.A+ co Zn.`n._#. o..o.+o.@o.#o.$o.UW %o.Ta r{.&o.gX Z;.oU W-.l` , .f'.b'. i *o.`a $f =o.:e 6n s>.=o.RY Vm ! .@q -o.4o Aj u@.Nn @v xp Yv @p ql <o Tm.;o.Gl.Vu >o.,o.Zg.'o.+n.)o.!o.in.~o.{o.]o.Dh.Rk.^o.ej.sf./o.(o._o.:o.bk.Lx <o.km.[o.}o.Wk.Oe.8p OW xE |o.PI 1o.                                                                                                                                                                                                                                    ",
"                                                                                                                                                                                                                                 2o.3o.4o.5o.6o.7o.0@ 8o.9o.0o.*j.u0.ao.^x bo.'k.co.ri.nk.wm.'l.do.eo.fo.1n.6p Ck.Xq Ht +x go.Ij.<n.ho.sl.&g.io.[{.cf.uA {k <m.Bu @l zi 9{.IW )#.Nr Ly XA Jy bf.}j.3G jo.FW $g.Sz cZ F+ r;.lA ko.lo.kJ [,.mo.no.oo.po.qo.J% Mh ro.so.,# to.uo.b@.a/.6^.vo.{* wo.xo.yo.Hn J;.q` e9 zo.#f q` jf.#l gz 'e 'W Ao.TW #` ry bX *s Ni.Bo.}l Co.pi pi |k.Do.Ik Eo.cm Kw Lu Fo.I+.Go.Ho.Io.Jo.Ml.Ko.Lo.Mo.No.Oo.Po.Dh.Qi.Qo.Ch.Ro.So.4g.To.hm.Uo.`k.Vo.5g.Wo.Jh.Xo.Ue.GB n-.X%.Yo.;@ Zo.                                                                                                                                                                                                                              ",
"                                                                                                                                                                                 `o. p..p.+p.@p.#p.$p.%p.&p.*p.=p.-p.;p.>p.,p.'p.-k.8F )p.!p.~p.{p.]p.^p.&y 0o.mk./p.oi.qk.oi.(p._p.7w 7w >m.:p.<p.As [p.Xq }p.|p.2z 1p.2p.Pz tn /m.6z IW dZ 3p.4p.|..BU 3q Vw 8g.5p.6p.yi vu jw sc pn xv +d.CU zn.cb.7p.8p.=e );.9p.0p.ap.bp.z. cp._#.dp.ep.fp.gp.hp.ip.jp.kp.hp.lp.N*.mp.np.op.pp.<@ qp.>k rp.sp.tp.~;.`O up.vp.wp.^< xp.e/.j .6Y &w {e pX IA =o.Ug.ay Hi.<s F .(~.yp.jq .t zp.Lk [o Ko Ap. k r` Bp.R;.nm Zm.Xm.Cp.Dp.Ep.Yo Fp.$p Gp.Ol.Pk.Hp.Ip.Ip.Jp.Ri.Kp.Lp.%n.%k.Mp.Np.Op.)h.Pp.>w Bi gn n. YH Qp.c4 c4 Rp.Sp.Tp.Up.Vp.Wp.Xp.^A Yp.Zp.`p.                                                                                                                                                                                             ",
"                                                                                                                                                          q..q.+q.            @q.#q.$q.%q.&q.*q.=q.-q.;q.'M >q.,q.'q.)q.!q.~q.{q.]q.^q./q.(q._q.:q.<q.8o.[q.}q.)j.md.6h.fe.r0.|q.2w C0.E0.Fj.xm.4~ 1q.4c./m.2q.6p Te.@x 3q./m.5p.#r @d.%e.Z&.!C S'.4q..l 5q.Ci c..YA %e.6q.ym Zw dj 8g.]k ~$.Ml uf Il rm NX ^$.2%.0!.7q.|%.8q.9q.0q.Jq aq.bq.cq.OL @D dq.[].eq.5 .PC CU xY 6j r).xY )h xY fq.LV 5@ 6/.gq.hq.C/.iq.jq.kq.lq.j- mq.nq.oq.% .Ln TV hY jY t%.pq.FZ as .e :n qq.#k dn.th.Gh `o /t Q .pq.];.=` 4n rq.0m.sq.tq.yq ^r Kw 2t Qu uq.vq.wq.Zj.xq.;h.yq.3g.zq.lm.Aq.Bq.Rd.;d.Cq.H).Dq..r ;@.EV ^@ m).Eq.Fq.Gq.dn Qe Hq.u;.jV b` Iq. J S- |: Jq.Kq.Lq.;= 2%.Mq.                                                                                                                                                                           ",
"                                                                                                                           Nq.Oq.Pq.Qq.Rq.Sq.Tq.Uq.Vq._- Wq.Xq.Yq.Zq.      `q. r..r.+r.@r.#r.$r.6F $r.%r.&r.*r.=r.eK -r.;r.>r.>r.,r.~p.YG 'r.)r.!r.~r.u@ {r.]r.^r./r.5b.da.3w vm.sb.(p.(r.ym.gb.My 0x `q Cm.}n._r.`w Ql =n.=d.:m.)w $r (k Rx ~k :r.<r.;e Wr 1v =e.[r.wY ho.(k ^m.CY OW Tr no }r.=e |r.1r.2r.8q.3r.4r.y~.5r.6r.y*.y*.Z+ >$.4n.7r.8r.5z Zw dp qc =a fj +i Df 6q P,.6q }h rg Ye dp h` Lj.9r.E+ 0r.ar.br.cr..D dr.er.fr.gr.r .^_ 2].tf kY yc -X hr.ir.Sw (r zj jr.3n _o Zo Gh ,u jr.=r .,.im kr.dm D!.5l.Yg.8m lr.mr.nr.8k.or.Pi.[g.Sl.pr.qr.2g.rr.sr.tr.gk.ur.vr.wr.Hh.xr.Td.!w ]q zA FB pY yr.zr.G@ ># Ar.An.6H Br.Cr.q;.Dr.H~.lU b{._@.NO Er.Fr.Gr.Hr.      Ir.Jr.Kr.Lr.oQ Mr.Nr.Or.Pr.Qr.Rr.Sr.Tr.Ur.Vr.                                                                                                                     ",
"                                                                                                Wr.Xr.Yr.Zr.`r.q-.r8  s..s.+s.5| @s.#s.$s.%s.&s.h8 *s.=s.-s.;s.>s.,s.      's.)s.!s.~s.{s.]s.^s./s.(s.:q._s.:s.!p.{1.<s.[s.}s.|s.1s./q.4M 2s..3.`H 3s.S^.4s.5s.6s.7s.ee.=i.8s.zg.'y 2x 9s.vt fb.Qz 0x cx #x ^m.Du Du 3q /d.Kh.Ql =n./m.0s.as.bs.7` !k DY wu JV Ls cs.IU $x <m.qn Zw @r LX Yn.s;.ds.Y& es.fs.<* W!.L*.]p gs.j-.2G xi Uh 9..Fi 2d Df Ot Bz Bz zz qj hs.;r `r zo }g is.0k js.Yr ks.:e Fv 6q rg 9..'#.9` FE lb.ls.ms.ns.os.ps.;a qs.tc c'.%` yv & .3o Ou Xt -v rs.xp Qu 5s _s yp Ek ]r .{.:j Wj 6l.br xp Tj.ss.Ap.Q .Q .Ok.Dh.ts..h.Ch.us.vs.Sl.gj.ws.dk.Zd.+k.xs.ys.zs.Fy As. j.Bs.qx c!.Cs.L@ Ds.Es.Fs.Gs.Hs.MC Is.o-.Js.Ks.Ls.Ms.Ns.Z< Os.kq.{* Ps.Qs.   Rs.Ss.Ts.Us.lq.%3 Vs.Ws.c' Xs.Ys.El.)1 >/ Zs.X- `s. t.Fb $a .t.+t.@t.#t.                                                                                             ",
"                                                                                          $t.%t.e0 &t.a; *t.=t.4* -t.;t.>t.,t.'t.)t.s& !t.~t.{t.]t.7O ^t./t.8L (t._t.:t.   <t.[t.}t.nO =x |t. y 1t.2t.3t.'r.4t.5t.ZG +].6t.7t.8t.9t.0t.at.bt.ct.A@ dt._h.$f.I%.ce.et.C0.ft.-i.O&.T(.gt.ht./n.it.gb.&*.jt.Cm.dc.kt.Bu 3q rn dc.Ql lt.Ci Em Ak.lo we.ko Om.eZ CX OW hg ox Co Ox WW JV mt.]$.i..nt.ot.0o pt.YC kB 8D qt.Nr.rt.st.]k Wl S{.Xe /e :e js.tt.ut.4m.Rk :u 6t ,g.vt.wt.0t 0j.]g.8k xt.Fx Gx  s qj =t yt.yo +i cj XX ;T =D zt.<@ 2;.<@ At.U= Bt.wp.Ct.=a 9k Jv Cw Sv 5k Dt.dr Dt.#n.Zo Et.Ft.Zp &p >u Gt.Ht.pi `s ^g.It.:i./t Jt.Hp.Jp.*h.Kt.%n.Lt.Mt.lm.Nt.Ot.ze.Wk.jm.Pt.xs.Qt.Rt.zv St.Tt.XX DU HW W+ _y Ut.]@ Vt.VH Wt.9z Xt.uz QU sc Yt.A7 m8 m8 ,* Zt.`t.    u.V<..u.+u.@u.#u.$u.%u.GQ p} 't.p} &u.*u.N[ =u.-u.z3 ;u.j: >u.k] ,u.'u.#[ )u.                                                                                       ",
"                                                                                    !u.~u.(Q {u.]u.^u.6* /u.&e (u._u.:u.<u.[u.i/.xo.}u.|u.1u.0& 2u.3u.4u.5u.6u.7u.8u.9u.0u.au.bu.cu.du.&q eu.eu.@3.fu.## gu.!r.hu.iu.5t.ju.ku.lu.mu.nu.hu.ou.pu.qu.ru.AB ]r.su.tu.B0.]x 8b.6f.<f.Zf.W(.si.:p.Is Is uu.)l.Jz Xe.Am +x  x ^m.mn mn !w vu.:m.po 7p WA (+.Hs |c.h>.9j Gf cp hg OW wu.sE j+ xu.yu.]..zu.9D /E Au.Bu.Et d` Vh Eu %a Iu Ps 4y 6q *f Cu.Du.)^ Eu.Fu.)^ Gu.H: Hu.ES Iu.Ju.f| Ku.Lu.Mu.(1 H_ Nu.Ou.g].Xg.Ao 7o >l xw Zh ig !#.PV Oh Pu.A~.Qu.BE 2,.u$.-W 'W [Y Ru./'.C{.4o Lw -r [j 6i Su.Pi.>u Tk.Tu.Uu.Wo Su.Vu.Aq !u }t Wu.ak.Ip.Xu.Yu.im.Ul.ek.Zu.Yk.`u.Zu. v..v.+v.Fy 3q @v.Gh.Us ~!.Os , .VX gg LU #v.E+ 4p.Zn.mb.pm.b9 $v.%v.&v.*v.=v.@W t>.7d wu..* H* -v.;v.>v.,v.x. 'v.)v.D% T; 6T !v.ZS Fl.7| ~v.{v.]v.^v._T /v.(v._v.S; S; (T md m< r4                                                                                     ",
"                                                                                 :v._Q <v.[v.}v.K! |v.1v.2v.3v.B1 4v.fQ 5v.6v.7v.n} 8v.6| ;3 9v.0v.r& 4$.av.bv.y[.;(.cv.dv.ev.fv.gv.Lm.hv.iv.jv.kv.mK lv.'+ yF mv.nv.ov.:s.pv.qv.rv.`H sv.tv.uv.vv.BV wv.xv.~^.Oq 4f.Tf.sk._f.ge.6f.yv.uk.Rg.:d.zv.Av.ho.dc.1y #x rn dc.Xl qo dc.Bv.#x vu.jw lo HV {q tB Sq Uh {k Fe.Cv.KU *v.Dv.Ev.Fv.Gv.Hv.1 .c+ Yk Iv.@r Hb Xa Jv.dp ct s>.2_ Kv.Lv.o~ *{ a4 37 :5 zg jY hy Mv.WX Nv.=W  W c9 m>.kU t$.Ov.Pv.[T B; Qv.Rv.Sv.Tv.Ni )v 9n e9 @f js.[h 7z /#.Uv.F-.JE :G Vv.Wv.z3 cn./'.Ou.Xv.#n.4m.0s tl {r W;.`j ^o Tm.3k.Tm.xp [j 7j.Ev Yv.Zv.`v. w.8m ~r .w.xe.4i.Lx +w.`j.Zu.@w.Dn #w.$w.%w.Qt.'d.&w.Wi.Ur Ix Fv 2d Ns zf Xa IY n>.d!.Xt.cz Ls.hg sc wo Ct.% .8%.yg r4 35 vc F7 *w.=w.-w.g2.;w.>w.,w.5T .P )0 'w.)w.`2 )1 w( )w.9| Wv.e5 !w.~w.{w.-u.R[ N1 Z7 ]w.|R -m                                                                                  ",
"                                                                                 ^w./w.(w.E% _w.z( f- :w.0Q i| <w.[w.}w.|w.H( 1w./T 2w.=3 'w.3w.wc 26 ]T 4w.5w.6w.'|.7w.8w.9w.N* 0w.aw.bw.cw.dw.-N hv.~H MI ew.du.fw.sj.gw.hw.iw.gu.jw.cu cu kw.sU wv.lw.mw.nw.+$._c.ml.Cj./*.V(./r.H9.ow. d.ln 6p oo <m.Xq pw.Pl dc.Cm.qw.+l @x ln ]i.Ck.rw.IW Dr ib.vu Lr Kd.~k gg Cv.Kb f+ sw.*( tw./p AU ,k Sh Hb Te NU uw.qV vw.p^ E} X' ww.}T xw.jU yw.<l.zw.8z Ai 3 .~'.rm  ;.Aw.^@.`B Bw.Ma.Cw.Dw.#C `B ^@.t*.m .*~.sz d& %! Ew.Fw.}V Gw.ty zz Ys %m vW ~e Hw.|@.c-.hZ a/.Iw.Ln *X Jw.$..)v )g.`g.]u #k qq Xp %k Kw.%k Hl./t {v ]g.gm.5s Lw.Pw {v Mw.*n.Od.Nw.kj.Ow.Yl.jj.>h.lj.`i.#k.5i.Ku Pw.Ow Qv #h.:u Wt 3d Cb Qw.GY RW jf.QY Ia Rw.7d dd $f #b ~a wj 08 'i :6 ~6 L1 8g @V Sw.Tw..2.Uw.Vw.|u.Ww.Xw. 3 Yw.md W_ Zw.`w.v/ w8  x..x.+x._a @x.#x.)w._6  } $x.74 %{ %x.                                                                              ",
"                                                                              &x.g^ << *x.[< Z- [< =x.-x.;x.>x.,x.d2 l} `% >3 K7 #V >3 M1 'x.)x.d9 l8 !x.~x.{x.Z^.]x.^x./x.hs 5H X+ sw.(x._x.:x.8Z <x.[x.}x.|x.C@ 1x.2x.qu.C@ 3x.4x.5x.zr.6x.D'.cq.7x.0D 8x.9x.5a.0x.pt ax.F9.6f.bx.pt kh.:p.zv.ko Ay Pz Js cx.vu.dx.1p.zv.lt.ex.Er |z Im.XA fx.lh.xs mc.gx.hx.HV ix.RH FX jx.kx.gh.lx.QB mx.]k NU Db xb 9| nx.q5 ox.G3 px.qx.,$.EV rx.q).Ls.Se sx.tx.+* j!.ux.)* OU an.yw.)* Os.ub vx.(& wx.xx.yx.ko.zx.>*.Q].8 .>T 5z 3h Ax.g6 Bx.Cx.t^.Vt p..5k Ov Ii gg Dx.6 .M#.(@.=W '3 nj xZ n@.)g.!u ]u Ex.Fx.Qp ,o kr.up 7l.Gx.o .Dt.fr Hx.xe.Ix.Ce.Jx..k..k.Kx.Lx.Mx.*n.Nx.Ox.Mp.)d.Px.Qx.Ae.Jv 5o Ch bq Nt #f RW Nh.yb Af Nb _0 @W Ab 1h pp ,W 8%.kj <e Rx.~f Sx.hd T3 Tx.Ux.Vx.Wx.i<.Xx.Yx.Zx.`x. y.;[ K).#7 .y.q}  3 |R UU _6 >[ i2 a: u: Vv `w.+y.@y.'[ #y.$y.|~.%y.                                                                           ",
"                                                                              =+ &y.*y.j: 42 k] =y.'t.Z- HQ -y.;y.p> >y.-[ ,y.'y.)y.P3 P3 g2 !y.~y.{y.]y.^y./y.V<.,[.(y._y.:y.15 |r.yx.OH L. <y.sU 5/.zV [y.}y.8Z |y.}y.1y.2y.2y.{H ]>.cw.w'.3y.n).6H q@ KB }q.4y.6s.Wf.9h.7w 0e.5y.,i.ew RC 6y.IV lt.7p 2z 7p Xr Ci 7y.Ij..r As <c.RC G^.G^.qv &C _z nv 8y.9y.Ev.z. .D ]>.lw.|@ zn.0y.>T R~.~$.wc w/ ;u.0^.ay.*6 Cr.7D (].rt.IX Oa o8 ^e xf 3d og yc by.cy.Ji Ot =t sx sx bq 0k ed C;.b/._0 &f ~ .gU r& UV m8 :d dy.ey.fy.eq.uz &{.q%.gy.hy.Z7 .t $s Rk =f KA NU yi %C >C XV q9 nd m2 yw as Ch 6g It.rs.Xp #n.Sp @h.mf.iy.jy.=v |t 7j.ky.`j.of.Yd.Vi.Vi.Qw ly. e.my.ny.oy.un.py.^v qy.Mt Ou Ix l'.0k oV *` Nv.q` J;.zb yb Qw.Sb rW 2h xx ry.yp.:6 Ep ,t 9X jb u4 Y .sy.ty.uy.vy.wy.t!.-[ ld 00 xy.yy.zy.Ay.By.-: 5< Cy.Dy.X| Np Ey.Fy.[l Wb }e <6 Gy.g5 u4 Q3 Hy.                                                                           ",
"                                                                           Iy.Jy.Xm Ky.>x.e- tQ k} XU Ly.My.yQ Ny.0& Oy.~6 b| t4 P7 Py.Qy.Ry.Sy.Ty.89 z7 Uy.Vy.E<.T|.Wy.T6 89 Ms.c{.#v.L& W& Oj.x- Oh Xy.Yy.zX Zy.`y. z..z.zX OL <>.+z.@z.4` }!.9q.Br.2E 6n.hw _%.{y ^C yg.#z.Ln.ht.$z.eh.+B }p 7 .<d.tv ep 1c.po %z.ep as.+r ;e.mu &z.tY %C ,C &C &@.*z.a-.z-.u= `,.sr Kq Xk NX a` Lj.=z.-z.qQ (v.;z.>z.,z.A~.^..w-  + 'z.DY `h xf 4y Bz Ys )z.tt.)z.]l 4k sV ,f Bl EZ oj .e +t jq mV #s '~.ww !z.Rv yc $f ix gd Qb ~z./l {z.FW ]z.t*.l..>o.^z.{U /z.|s Lu Mo ,p Yr |k i{.(z.d..hj Kv _z.:i.:s nf.hr <t :z.<z.!u ak.;h.1t [z.}z.|z.{g.<z.`j.7j.sr.Tt Uo.1z.hm.2z.Mt.3z.`j.4z.%k.uy 2t )u oi fd Tv Nt Jf vg $7 $f Hn 5z.6z.sZ 'a o{.Aw Rv 7z.Zv Zn yj ta +e _f u1 }~.'X T,.8z.M[.w+ {_ P7 Kf S7 [l 9e 9z.Om N] |~.k1 7_ y4 hq /9 0z._r iq C[ 9< c| }6 t3 V3 w3 {v.                                                                           ",
"                                                                           az.bz.cz.dz.ez.[u.fz.1| i& gz.0& 49 hz.Vw.1w.F_ 9@.85 '3 Rm.WU iz.A7 jz.X6 z7 kz.Y0.lz.mz.nz.oz.4$.pz.qz.rz.sz.%D tz.uz.vz.Ta fq.wz._+ xz.yz.C+ zz.Y. @D Az.Bz.1 ..@ +@ 2H 9n.Cz.Dz.Ez.@6 s&.'*.Fz.Gz.|y Ds ru su gx.Hz.6q.-e._r.0s.#x so Iz.+B Zq gx.Jz.{k Kz.Lz.`&.vY 5-.Mz.Nz.Oz.3/.Pz.*T Qz.Rz.Sz./+.Tz.P8 Uz.Vz.2r.^G Wz.q@ Xz.9p.Yz.Zz.`z.pw  A..A.Fx +A.@A.#A.ec Hx !r $A.Bh %A.&A. v #k _j ~m .n uj [9 _f od sy Hv pj Ys Fx sx Ao bq ]d e9 *A.=A.0p.-A.EX SX o$.<5 ;A.>A.,A.5o  +.yv Df by 'A.|0 }Z 7o wj -r )A.!A.Sp  q Xk.~A.Gh {A.Ti.vf.bk.jy.Rl.]A.(o..w.Qw ky.Yd.gj.xf.^A./A./A.(A.Aq.+w.Yd._A.(u 4k U..Hv }g Eo :A.QY d^.<A.oU hY L7 [A.+7 q9 Z| Zv ,s Y2 {l }A.12 N0 @c ![ Ov.|A.1A.L<.`#.L7 w} R7 `[ pe Y2 ,V <6 >7 7_ 2A.a: [2 T| 3A.4A.5A.6A.7A.d} <6 o( ik 8A.E` 9A.!l.                                                                        ",
"                                                                           }L 0A.aA.{u.bA.fQ o} cA.*[ Fl.G3 F& SO f2  3 dA.eA.N3 t8 l4 Ty.<& sf u-.p8 r& 7H @%.M[.fA.0E oz.&v.'* gA.hA..) iA.Va B7 wz.jA.kA.kA.MU Ls.lZ [].lA.mA.nA.oA.Hl pA.Oh qA.Y+ oA.rA.HF *B sA.t0.tA.|y uA.#z.Ai.:d.Es jc.vA.vu kc.lt.-l jw Gt Kd.~k 0x kw As Jz.Ci.KV ul.6w wA.2J xA.!].9D 1H ,k yi {h j!.yA.U; zA.+'.8;.(*.rA.OV AA.bA Qw.Jv. f sX nh.sV kf +k BA.v` 1X Nw &7 fk ~3 8e Jg S7 Ui yj L5 Hg xj 0h 68 98 9X _f Zn CA.DA.EA.FA.kf GA.}Y #h #s r>.gj @V HA.1+ jo.7r.eX IA.JA.KA.;v LA.Bl MA.>e qe.{h m` nx qp (u }g.#p (t rs.hr $p Zo NA.8m ]A.Me.;h.OA._t iy.9l.Zu.hm.PA.Yd.QA.~u :o.Nu al.Bq.$k.*s Xt Tv l,.Za Hf Bb a^.rc Gb ,6 <A.e~.Wi RA.!3 hd Yu Np <l ,s Qn {l )| v3 nd %[ A>.qJ SA.TA.$9.qz UA.64 UA.ik Oo hk VA.!] `7 h> WA.XA.Ey.YA.ZA.`A. B.*d *d _X yj @Z Sx.X| {| .B.                                                                        ",
"                                                                           +B.@B.#B.$B.;z.@s.%B. & 5%.V[ 7: &B.*B.Bc s4 .a =B.Tx.-B./l '0 ;B.V~.Wa W6 H3 >B..5.,B.'B.6H )B./0 jz.!B.~B.J* yx.j+ B7 ]T C;.b/.$a ~ .f` {B.UV )0 z7 ds.sb L& f+ 2^.b!.*6 ]B.^B.h+ ew /B.(B._B.(r.:B.dv <B.[B.ex.Iz.tv IW lo Md.mn (q }B.jo Kj.|B.Kr 1B.w/.5 .uu <+ Cr.2B.3B.ot Gm.4B.5B.tB tf iQ H. 6B.7B.^%.0D 8B.9B.}r.g` qg |k un ej Ji xg En .Y dc _X Z/ ^f !i Z5 t( 0B.i2 <f m+.aB.bB.}^ &| (g n1 >g cB.dB.c( 8e eB.fB.No )Y Td DA..e yp.gB.o].0c /f 0X >f hB.iB.jB.J+ {-.=W kB.;A.lB.mB.(r :u pV RV nB.dX 3h @k 0s dr #p en.oB.[j Yg.rs.pB.qB.|z.!A.rB.Kx.wn.Qw sB.tB.uB.vB.QA.ws.Nt.al.`i.tw -X m'.Tu #f e .nX Ov ux wB.M7 Ov.yA Fg $7 }R xB.iz 2k S7 #u yj t[ ga fe P2 G_ }f yB.zB.IH AB.BB.@7.CB.W~.,i /9 j( 7} s( `[ DB.M; .& 9_ d} V| EB.;< =_ 5A.FB.GB.u[ we ,V *b Wv w1 HB.                                                                        ",
"                                                                        IB.JB.KB.M[ LB.j{.7v..6 MB.!< NB.`w.NB.S3 *7 ]6 '3 /T o& Bt.OB.PB.4| #a QB.e^.9,.RB.SB.TB.L[.UB.=6 VB.WB.0& y% XB.r& YB.%* D7 ZB.xw.g/.`B. C.Y;.~ .g` )B..C.Wt.+C.@C.mA.]$.=z.uf #C.7r.io 8` $C.Hg.qt O&.`c.:z Uz %C.[j.Vq .B jw Xq jw Yq bx &C.0x *C.Sq Id.Id.hh.bf.Sk =C.2n.ot 7x.co (z.1..dz.-C.Y= ;C.>C.hD ,C.'C.by Km Cb Ye )C.yv Rx.!o Ke )` W .ua LZ 7l q[ J' !C.U) +' L} z2 b> 2f !4 -8 !: >g {4 b1 ~C.{C.#2 z5 u5 ]C.^C./C.B{ }7 7^ L>.9X ah ^r (C.(C.0c sp Gn @m _C.:C.<C.[C.:+.*` }C./1 Sp lf.tX n'.PA |C.k../v Ki.en.Kw th.1C.nr.@h.aj.2C.xq bj.bj.'g.iy.3C.3i.4C.~u 5C.6C.Tl.Lp.`u.9t Yl [v %;.Ok Ws 4h >` za 0k %b .f 7C.=X Fg Ub 95 q9 O6 _C.Ec &! Rc ^f $j ,< S^ D0 M` z{ |V  y.8C.9C.f_.`5.0C.m+.U/ d7 1r :c C_ >{ aC.bC.n! 12 C[ (~ 7} T< S< '< 9} r3 R2 ;_ g5 SZ fU l2 k4                                                                         ",
"                                                                        cC.dC.eC.fC.@x.gC.o: g2 ~W F{ t9 t9 G8 F8 05 8: g,.WU e& &u.&3 b2 hC. ).UO r& r& 7x.iC.jC.kC.lC.Zx.mC.*6 Jb E).nC.>1 oC./v.O3 [l.Hn w%.]a uw pC.cn.ez qC.Oa /0 Kb rC.26 Cv.Ct.<l.|0 Cv.{q ~i.eh.sC.2x _x O&.tC.!i.uC.$q Mr vC.^m.#r  B gx.wC.<c.:j.w/.xC.ih.ew :x iA.*w.sr yC.zC.8D fn ^@. =  * %3 CE AC.BC.xz.CC.hg Ue [d mg .q %b w3 M;.DC.Ec 6) '' EC.Y> <^ FC.GC.HC.IC.JC.KC.LC.Rv.9[ MC.NC.-c OC.PC.QC.RC.SC.TC.UC.VC.WC.XC.YC.ZC.`C.c: $, x, E]  D.9e !s .e kf yZ pq.*o.Mv.Wa .D.b` +D.JA @D.#D.Qo Wn sV Sv P,.$D.%D.Ws (C.:s &D.*D.sB.~g.Ou ue.xe.tB.QA.%;._u #n.Dt.Je.xf.=D.$n.4g.-D.Ne.C{.;D.De.70 70 S..>D.5e V .u%.m..*` .X O6 o{.9@.,D.'D.2a :8 #8 D[ E` _X T/ ,< T< /2 >g S9 06 2| j_ )D.!D.%6.kq.b: q( ~D.-| z_ 1] {[ {D.]D.v/ ^2 ^D.<: u[ [r hk R^ /D.A_ (D.B_ C[ Y| >7 Vv 5l _D.                                                                     ",
"                                                                        :D.;y.$B.<D.zQ #x.[D.Q3 '[ 9_ }D.j2 )< -7 |D.!3 ;[ 1D.4< 0| (T 2D.2D.!v.n} G3 3D.6r.4D.n<.5D.M3 6D.o` ZS 7D.o4 3k Nb 9d -6 'a )a yA /6 b0 8D.|e Oy.dd Ja g/.IU @a 9D.0D.Bn 35 Jn e .Db [r.7 .aD.bD.cD.Hg.dD.eD.fD.IV vA.#*.By :q OW cc.xa.T&.gD.FV ew xC.hh.s-.^y..z.hD.iD.BF TH ,D jD.[v.kD.lo.|o.:..Nr.#C.~h Ue Eu DY ]e 95 ]i P| o2 P} lD.mD.nD.oD.pD.qD.%> rD.sD.tD.uD.vD.wD.xD.IS yD.zD.AD.BD.CD.DD.ED.FD.GD..U HD.ID.JD.KD.LD.MD.ND.OD.(c PD.i< M} f_ Nc Z( Bj w` Bh $i |e a^.D7 QD.RD.SD.U'.]` TD.o|  h.5k Fx /e Md.KX Ao Wt Hi.*v UD.5t VD.#..WD.XD.XD.C{.ds &m YD.ZD.`D.rB.4g. E.8l.*D.,g..E.'g.wj WY YY o+.,f ,f %b +E.oq.;~.Gk.,D.c8 @E.yj q[ #E.,V Z( 6'.^{ 'b _] y_ -9 J] Z( |V yB.$E.%E.&E.o6.in a< 5/ U< q3  ( e/ *E.^> 1'.^] a_ Z/ 5/ (~ ;< z_  ( y_ /D.(m j( ^i ^i bh wg (a =E.                                                                     ",
"                                                                        -E.[w.0& )v.}w.!w.,; ;[ )3 S3 u: 8: ;E.,3 1_ !< >E.1w.,E.h+.'E.)E.ww.f2 S% !E.}T ~E.{E.]E.^E.7| /E._C.i& 55 (E.Ki Ki 04 $7 32 za $b 85 95 pp $b _E. b (E.}0 :E.Gb Qw.=W j..K3 C;.Nv.Ct.ap vA.Kj.<E.[E.}E.E0.wk.<p.kn &C.&*.~k iZ Ck.$q +B Uz |E.(r.1E.4D co 2E.3E.4E.wr 5E.0D OB 9O 6E.k@  z.]^.M. iA 7E.d` 8E.Wl qc 9E.~1 v{ M: B{ F' 0E.aE.bE.cE.D/ dE.eE.fE.gE.hE.iE.jE.kE.lE.mE.nE.oE.pE.f#.qE.rE.]c N` s` ^7 sE.tE.uE.vE.wE.xE.yE.zE.AE.BE.CE.DE.EE.FE.GE.2A.K` X9 3l a5 3e id 3k ~z.~t.HE.n).)+.X'.IE.u, e#.=r Tv Kn Js RY m'.Ri JE. h.{u _u 5t hk.qy.KE.Dl.LE.ky.4C.xf.vs.0l.rB.Ul.%n.vs.aj.7@.+k F` eh *n ye ,D.9h *7 ME.y3 zB.NE.fU td OE.1: )' *| P< bB.*_ PE.2: {{ R| m1 #< y~ se Kg *{ QE.RE.M4.SE.2] :' ~' we Z[ 7h TE.UE.B` vd x! x! !' P| ,V Hg VE.T< c7 (m Q2 7/ 6} eq WE.v4 XE.                                                                     ",
"                                                                        1%.SO =1 YE.XU RA.Yw.`7 q: t: j2 w1 md X[ ZE.}_ `E.Ty.@V  F.g2 .F..F.Z7 Fl.-m W[ [-.^[.+F.@F.#F.*u.%D.7C.<5 $F.Y .T7 9E.32 5e 85 [f r9 (6 l2 w3 3e ,f E9 jy @b m..5%.-W Pv.Jn .X Gb %F.Qw.5z VV gb.Bb.$z.eh.vu uC.)l.)l.Sg.Oy Nz &F.;e.!l.*F.bb.~C =F.#B -F.;F.'].-&.>F.,F.'F.)F.!F.~F.{F.RF xU cg )h Om.Tr zb Vv /a !_ ]F.B^ l! 2/ Lc ^F./F.(F._F.:F.Kr.<F.[F.}F.W..|F.2@.1F.s/.$X 2F.3F.4F.Bw I>.0r Aj X5 b8 5F.6F.7F.8F.p!.9F.]f 51 0F.aF.bF.cF.dF.eF.fF.gF.hF.g_ R1 iF.n~ jF.[9 ya a5 _0 $v.c. kF.|-.5@.B+.2: .o ; .op e .Ue.KX 1k @w bj.8t lF.]v mF.bk.]g.,g.o .LE.[z.Rl.nF.vf.oF.vB.Lp.pF.Lu :u ae qF.jF.tj 8e n( 7'.rF.sF.tF.,u.k1 T~.qF.EC.C: 9e *_ &| uF.ee {~ H2 k3 :4 U< >g *_ l_ vF.O' wF.xF.yF.^p n! zF.8W )! ]7 =V AF.BF.@g )! 1: M8 f_ vd vd I] CF.6/ a7 _: M2 I5 <: s1 9'.'r ny.                                                                     ",
"                                                                        DF.:C.EF.3D.K1 V[ X% .>.$F.)3 |D.Zw.FF.dC.GF.0A.wH '( hC.`E.`7 $x.$E.H4 HF.^< IF.2/.4D.7w.JF.KF.LF.MF.NF.a4 >E.&i &i ~< 0< T7 5_ w4 c8 N] nd  6 TY &b GZ :5 $7 @E.OF.Yw.,~.PF.PF.C;.3j.m` ig no zi eb.On.Mr %e.QF.%e.)l.io >@.rA ]q um Id.8x T&.I^.RF.Ez.SF.TF._h.L= UF.[D VF.WF.XF.wr 4` >k 5H 9p.=z.IY )e $E.I4 YF.ZF.`F. G..G.3> +G.@G.lh C: #G.$G.q9 9E.p!.%G.E{.k$.Pv.t$.]` e].h].vZ $b Pv 5l yj jb Cj %d oX m .w^.gU 8l #Y q( o7 &G.*G.=G.-G.;G.>G.,G.'G.)G.!G.~G.{G.}) 1'.i$..p Ni wx % .nC.*V ap.fy.b .kX 6} ]G.3o rW |k k/.Fz Xg.3s u` xe.^G./G.7t  E.#n.7j.Me.OA.Sl.QA.xf.Rl.|z.aj.$w Ou.v@.!b jF.(G.D6 xj k_ _G.G9 3V :G.<G.*).74 {3 D[ |f !4 &| x~ |^ U/ C~ [G.|^ z6 l| ){ }G.r2 Jg ]W II OG (8.6G 0F.|G.v| ~7 1G.0[ 2G.-2 x~ Yc ){ }^ 3G.', <7 Z( y_ >5 4G.S2 h( y6 ih Td 5G.|g m'.                                                                     ",
"                                                                  6G.7G.8G.|& 9G.0G.}T g2 {| '; F_ aG.S% bG.cG.dG.g= eG.H} #x.fG.~7 $x.]f i2 h%.gG.Z% -: hG.iG.jG.hM kG.tF.lG.k& 1a w4 i2 :8 78 ce e| sy.!] o2 ~| 88 (6 @( +( 7: +7 &i &i s9 &i =0 Vi =X &).+W a^.dp mG.KV /B.Ds <p.<p.rv xi.}p Z&.qB mu nG.oG.iv <B.pG.P*.qG.m@ rG.a+ sG.7x.;#.tG.uG.vG.H/.wG.xG.B+ QB ix.xb 55 #y.[[ 5V yG.I~ zG.AG.3> A2 BG.de M` *b +c 4X k0 sy.Ke <n 3Y CG.U .DG.1+.EG.y].FG.aq rj }Y :n aq @k *t $7 jY mU V+.#s Ok lm _X wj GG.e,.HG.IG.JG.KG.LG.MG.NG.OG.h6 PG.QG.RG.SG.TG.=X p{.!W bk kG.a,.UG.z%.$).,< vj nj VG.EY Dm .).Vt jr .t .w jy._A. h.]v !g.Me.rB.YD.Zv.WG.]A.XG.Mi.Cw yg Wv S~.Y8 YG.SZ bB.53 ZG.`G.D>.;}  H..H.+H.(7 o7 de [i l| v^ n[ l3 !{ *< de 1f q, 8( O/ 7> 2/ A, @H.)(.e4.),.#H.$H.|[ u| ^4 Y( #_ J| /! q_ $_ '~ 6'.Dj EC.]~ *! K] >5 %H.a7 n3 >5 0b A[ p7 $` &H.*H.                                                               ",
"                                                               =H.-H.jK ;H.>H.Da c& b2 T[ g,.}R ,H.'H.q} )H.,; !H.~H.s,.+4 {H.;! V7 )] 96 {3 8^ +{.A; C; Q*.]H.^H./H.@V e~.9| aG.(H.$E.B9 {1 8^ D; ~3 ce ,] W< bh g5 0h w: ef M6 !^ )1 Ac w4 c8 )1 |e =i za W[ |e #f cj qn Nx Is uC._H.xi.`=.Og.Uz :j.gb..B eh.1x }x _.._@ Gq.:H.8v 9u os <H.:| Nz.tU [H.}H.|H.MF Th )$.CB.>y.g< 1H.2H.3H.4H.JS 5H.)V 6H.>_ M5 N` 7H.8H.;j ]i -i 8j.rj %u 9H.rX uW vZ ;;.];.4Y %` Tv 0H.aH.K).+u .p bH.lX cH.vZ 2'.e#.{l }l w` Su py %` UZ lz 9F.`X Z% dH.eH.fH.gH.hH.iH.N} %4 5a 4f i@.v@.ak ^'.<5 jH.kH.pm.}Z ee Ok Zs Zh Vw qe.5q Lu {u Rl.1i.Je.]A.+w.Ow..w.lH.mH.mH.Ul.lm.kp |o zo vz {[ &8 aB.rE.]] `c nH.53 7) c8 1a )m oH.ce p2 y~ C| [^ &2 6} y~ 57 &] _} 9W ~C.@! p_ pH.1f n, qH.rH.sH.B|.sr tH.uH.vH.s5 wH.xH.|^ yH.'2 /4 Y: r0 {: y< :' >_ o| R' M2 qk {{ i[ B6 Q< Rf 1W GZ F&.zH.AH.                                                            ",
"                                                            BH.CH.DH.EH.FH.GH.HH.:& p> bG.IH.'t.JH.f% k> H4 3G.e| I/ =~ KH.^^ J^ N).r( 3W @( yB.J_ %{ {[ nw.z}.LH.|H.MF.K^ k( K8 %} s[ iF.;; ce ', z] ce 8W #c 2' j, ~~ ^f C6 Wv f#.~7 $c :8 D>.Aw .F.Ay.&i MH.I).Ii 7g.rn NW NH.&C..B 7c.K&.OH.nv 1p ib.Ds 'm.PH.QH.F*.F*.}y.RH.SH.<{.TH.UH.VH.G@ WH.yV aw.XH.hA ** T..g& c: s[ YH.ZH.`H. I..I.+I.@I.Mc Rj #I.fB.LZ 9l W;.Fp !s eh 'p Ri 4k @Y r..wZ OA *A.$I.ww 0X Qf rj *{.%I.xl e#.Ex Qi [9 zl Lk cj.{u <s Xn 0r :f &I.V).{s sd f$.>X p@.Jg SG.*I.=I.F2 [i -I.;I.>_ Qf *b Ok  +.CA OU -#.>I.2o EC.m].nj fj Ey cy ,I.Uw ~r Le.pf.'I.+w.tB.ze.Zu.Je.@h.Ul.)I.Pw bs 9n !I.~I.u!._G.eB.{I.Y( K..#g xH.`) ]I.s,.Wv D] w_ O: L^  g ^I.D< &] m( T} /I.U8 (I._I.5a L2 :I.:^ <I.[I.}I.>7.),.M4 |I.1I.2I.'} 23 N} }G.3I.4I.nH.;2 p_ 5I.}b a[ ,4 M4 =: *< 6I.7I.>! 8I.7l R0 nk 9I.0I.aI.                                                            ",
"                                                            bI.cI.dI.eI.yx.9/.YE.fI.gI.R} hI.`x.bC.x( Aw )_ bB.}^ w: 2G.Kg ._ M` yj Z( (f o2 iI.*~ r~ ]1 jI.kI.lI.mI.f& {_ |3 L} _I.t~ (} bW A! s{ I8 V7 J^ D[ @c ,V Mg {3 @! Oc @g =~ 8^ nI.T8 I4 B!.$x.i$.m+.kd Yh /h cj xv oI.pI.>l./B.*z.-*.zs gb.Rg.qI.rI.mw.sI.V!.<{.u+ ;@ <!.L*.tI.ZI v'.uI.vI.wI.n+ xI.7z KA _a e} yI.A^ p{ zI.AI.BI.CI.DI.o{.}X Sn 1l .n Td Gh gW @e @k u%.1o yl lf.Ok u` 9n #h Dw >V 4j.#h OA.xa .E.WE.lb Lk Xn .w `s Lo EI.uq Fx.FI.#n yp w` |s Nn P2 68 4m 9X ff #E.}X ff  _ mh GI.'c 47 ]2 se eh E` +A.@s Fg nC.HW gb.n~.U3 +k Wg.=o.%*.yi P-.HI.qf.(o.Rw +w.II.Zl.Lx *v JI.KI.Ul.Pw ^u Qt LI.Wv I/ K;.P} 3G.R' 53 Fj B] d| Oc TZ 3G.@! o| MI.Y1 m_ B< NI.c1 OI.,/ GE.PI.QI.RI.SI.TI.83 UI.tH.VI.WI.XI.YI.$y.ZI.`I. J..J.+J. | l6 @J.Fj w< &4 #J.$J.%J.f3 m( s[ <) s< &J.57 C~ #d [~.68 *J.=J.kv.-J.;J.                                                         ",
"                                                         >J.,J.'J.)J.!J.!'.~J.K% {J.RU B* ]J.f} ^J.86 Yb E[ T^ ^] r2 g) TZ 8W t6 $j yj 6: c% !] /J.(J.{^ |f.Y2.>v.b9 r: _1 (J.%& I^ Y( k6 k) n, TZ 1) $, {3 Nc Y3 w: ]] w~ @, U: _J.l( d_ r@.=b 1) iF.m@.Kg v@.ny Xe 0d Bs.Sx bs.:J.>l.7A za.iv <J.[J.ui.}J.|J.1J.U!.2J.3J.S+ 4J.vr rb 5J.6J.a+ 7J.8J.9J.UB 0J.Zx.aJ.{) bJ.H: H: x9 Hj cJ.BI.g{.dJ.f$.B,.eJ.G .:Y t1 uj  v ul Nw fy Cx 4m.9n Pv Sp oj u` A8 j,.zw #..Sp Pi #n xp fJ.Fx.Su.7m gJ.en. q $v V;.4s nb Qp `p _~./r Zo Qo hJ.}l :Y hh ~n >t u+.Ub r2 iJ.jJ.kJ.lJ.qF.SZ pe Lo v` % .mJ.3 .Bi.'W E` :n Yr }r.|].GB +i nJ..w.Qw ,g.Tl.oJ.pJ.^A.]A.WG.sB.xt.kp sX B+.V7 r%.ZZ R1 qJ.2) 7> ,X Kg ]] }f e6 &] 53 21 n_ n_ CD.B< 'c @9 2/ rJ.sJ.tJ.^} uJ.vJ.{b wJ.xJ.yJ.zJ.AJ.-}.jl.p~ BJ.CJ.DJ.EJ.FJ.F2 GJ.HJ.BD.IJ. 9 jJ.JJ.KJ.6[ +G.LJ.MJ.NJ.OJ.d1 0V :c Q< 9X 9%.D. PJ.QJ.RJ.                                                         ",
"                                                         SJ.TJ.UJ.VJ.%6 |r.WJ.XJ.YJ.ZJ.q5 `J.R] B; 5_ L' J^ ~X k_ P/ Fj !b {3 ,~ P2 -_ P| k) J' {W j! [{  K..K.+K.=;.W[ n~ O| _J.21 53 P/ 5a '! !C.Oc 0[ g) z! OE./] E_ {b @K.#K.$K.%K.1) h[ 1) &K.d, {1 s9 32 Tb Hf Ff 7y ]k Ls |B.*K.Fj.uA.qv (r.lv lv =K.3*.]H -K.;K.>K.|w ),.,K.,K.'K.)K.!K.#D 0A ~K.|0 ;6 Fl.,E.{^ t,.{K.]K.^K./K.(K._K.+H.r#.s@.Gp p7 :f hJ.L .{m 'o  v Dw ny j@.rj Ws $.. v 'd ]d Wu Ig mV 68 oi $n B,.6r }n Ap ec Aj )u wj vq aj.`m +p zj ql 5g Fh pi Pk Gp U).:r dr  n A!.Rp 0e 3l .g :K.dB.<K.[K.}K.i%.$5 Yn 6g 0k gj bd eq.v/.n..-i |K.:` 4j {i.ap Pd.Rt gk.gk.1K.2K.Rl.;h.YD.Lw.3K.XG.ay > .!X ch 4K.s~ 5K.d, 6K.t| 7W n_ 8W r| qJ.se @K.;2 7K.&c -c 5b 8K.{4 nH.9K.0K.{G.aK.bK.cK.dK.eK.fK.gK.3@.hK.x}.be.iK.jK.kK.lK.mK.nK.oK.pK.GJ.qK.rK.sK.tK.8a uK.vK.N} wK.|1 D< xK.yK.L2 8H.n1 !s zK.Yx.42.AK.BK.CK.                                                      ",
"                                                         DK.EK.FK.GK.HK.G. YE.b#.IK.JK.{i A5 ^5 c: I8 v9 M8 *< c( t! J^ 7> J^ @c }^ (f ]m M` EC.K` s^ KK.hG.LK.lz..& k> $K.P} Y> /1 $9 {I.n5 MK.l! I/ @! )! V7 e| iy t( NK.;4 OK.'8 d_ d, t< e6 u{ i$.{1 p5 Y .t>.pC. @.PK.gz {k we.gb.QK.wi.)i.RK.pt ti.lB *&.SK.fi.TK.UK.AF 6H VK.ms.WK.1y.Fl XK.BU wv /T El.YK.g| ZK.}C.;V Fl.`K. L..L.$!.+L.9X Rf @L.Vo %n dc Pk *D.&h 2t k,.ME.bW kq .t Hx [9 Bl mX 9H.I>.ni tq _s hm 4m .o Go as Fo )i qi Uu 3s qq #L.5l.&p 2m ql pi =j 6r wq <j  o pk Mp 44 _s Go #n ;t >_ Lg |f B9 $L.%L.3W ih &L.sy 70 l9 0D.[m.L$.Tb 'd Sv WW A%.Pe.rn *L.>h.Od.hk.Yd.5C.Le.QA.*v Je.,v =r ]d *!.~| %7 qF.@! G9 =L.-L.e6 TZ ;L.X8 @K.x~ y~ >L.,L.z5 'L.)L.D5 !L.*< ~L.{L.j6 ]L.^L./L.(L._L.:L.<L.[L.}L.|L.1L.2L.&G.3L.QG.ez.4L.5L.6L.7L.6a w^ 8L.9L.0L.aL.bL.cL.i6 ge w< u< x< y~ dL.@L. D.Mk q& eL.fL.V! gL.                                                      ",
"                                                         hL.iL.jL.kL.lL.mL.:d jQ nL.oL.c#.pL.qL.|V {3 w~ Q1 /c |^ ga Z> c% w~ 33 q2 x~ Jc &n $< #, =: 4R [h.rL.3|./l d: sL.L: tL.2G.X1 uL.vL.&{ wL.%L.x] D] ;! 7U }C.-] 8[ P1 B{ {L.T} (V xL. _ |) 51 T8 :8 In jk hy uc gz P-.Sx yL.[p |E.|y Bb.zL.Zf.0h.=z i*._{.AL.,z BL.CL.DL.[* EL.FL.GL.HL.h+ xc 55 ;~.u! i_ TD.HZ Xb @D.C#.IL.z..v} 88 eh /f 5i On hW _~.}n `o +n Gh 2t Mk @s |r wt._j 98 ar /f 8%.ul v` &v pi 6m Qk |g mb wj )r Xg.Sw )u }Y  p Vp Uu.[o 8r $h JL.Vp  k Ih @Z 2l S).Gp Fx.nm %v mk /n gW }c Pg fe [7 _V KL.t, Sj 8H.u!.ae Jf +W  W )*.zA 7o Ri `h tB IF zk.Fm LL.ik.ML.NL.ky.sB.]v &m OL.`s 5t %u E_ Cj Wf kW o| PL.F| QL.!8 RL.SL.51 |W N| S9 d1 TL.UL.6[ VL.Sc [V WL.XL.V} YL.%K.ZL.`L.W4 B5  M..M.+M.Sw.@M.#M.$M.%M.&M.*M.=M.-M.;M.>M.qK.,M.(b 'M.)M._b !M.~M.(I.TL.{M.]M.^M.&J.r6 #_ n3 .Z Eo Tx./M.QJ.w| (M.                                                      ",
"                                                         _M.:M.<M.[M.8g or }M. * ]J.EQ }R (i 4a |M.O' ;! m5 0) Z( |/ P< /~ 1M.2M.0$.q[ k) 4/ C~ k) 1) 3M.Nf.4M..:.2].w9 p~ N8 /1 !8 -L.5M.&c BJ.1'.s^ n, 0[  _ `) 6M.2H.YF.6' 7M.RL.zF.67 8/ Z1 8M.9M.0M.aM.N1 !W Kn <l.6z EU Kj.[p  d.jv ri.(B.bM.^x cM.dM.4y.$j.6:.eM.2/.vi es.R^.fM.gM.hM.<+ CB./E.i& `E.]| xA ~< td P;.rV z../7 iM.j,.w!.J>.Ih (j Yv jM._o :Y Ex &k /r Ex.Qv lX _j jq Su 3n Pu JE.'g.'d .k vq Io [j Rf Hx Hi.#s 9@.#s Ax  t Tt 5k tl xp  k kM.&p lM./t Gl.Un v{._X %v ar 0r #n }o tq Nn wp ^).yk mM.P< *4 R/ ^^ !4 A6 }W nM.K>.r>.t>.(@.Ia.;;..n )u dj oM.=*.qw.Rt Be.Ae.pM.un.Yk.Ne.3z.-v 'g.Ao (G.fc V7 -Y 3G.+g B!.<3 M4 qM.vH.rM.l( {} M' Z8 sM.tM.m0 uM.D| iJ.vM.wM.XL.xM.P1 yM.zM.AM.QL.*8 BM.CM.DM.EM.FM.GM.xE.HM.IM.JM.KM.:L.LM.MM.fK.NM.OM.PM.v< QM.RM.aQ /L.SM.TM.UM.VM.WM.ge Ti ,g C .XM. F.YM.ZM.`M. N.                                                      ",
"               .N.+N.@N.#N.$N.%N.&N.*N.iJ =N.f-.-N.;N.>N./t.,N.FK.'N.VW )N.9/.b#.!N.~N.3> l@. 2  2 {N.u{ ]N.f6 J^ y~ 57 u, $, +, 53 !' PE.$4 N/ y{ ^N./N.(N.*2._N.:N.;u.X7 }V Oc w! R: <N.R/ [N.s{ M: <7 |M.}N.%{ |N.1N.JA.21 (I.2N.g0 `} 3N.51 j< KH.r%.A; 4N.~ .d..NW NU [j.IW Z&.5N.eD.xg.1E.~j.av lg.4y.6N.^p.8@ 7N.8N.9N.4E.Hn.0N.cq.aN.dg Z;.t,.bN.cN.dN.Q]  h #h fy }Z eN.x` b^.kz k,.Aj @e |g Un `o Wo fN.dc kq EZ 0c |r |Y as mB.D` _t tl ,g.08 2l  o ql #t ~o V;.~s A8 H8 gN.Rv od n( *t fU pj M` w` :9 cc 9l -s =j :Y H .`n uj uj hm 6l Nk )).J>.U;.dn.U;.(9 6l eh hN.iN.jN.9V [G.YG.jb tq bX l` s-.:*.4j.X5 Ix 6z kN.(i.Fy `i.[o.#k.Op.jj.%k.Zu.Ex.|s fz vx 'D.YG.n( z{ n5 l( lN./I.RI.mN.&K.nN.+g :} {: $9 a[ T4 oN.pN.V} !4 #2 qN.rN.sN.tN.uN.[N.jJ.vN.wN.xN.yN.5<.zN.AN.p! BN.CN.DN.EN.*I.FN.GN.HN.VM.IN.JN.KN.8V RS LN.MN.NN.41 ON.PN.QN.RN.YL.Mg N6 SN.|$.TN.so.UN.e~.VN.WN.XN.YN.)k.ft.ZN.`N. O..O.+O.                     ",
"         @O.#O.$O.`' %O.~, &O.q| *O.=O.C4 <; -O.;O.<K >O.,O.'O.)O.!O.]` }H =A.~O.{O. y.qH.&} eW ]O.|M.]] 33 vd 9W Z> $_ d3 A} E] Nc  g ,~ #_ {{ ga ^O./O.]c.(O._O.#- :O. y.(7 6W >] $K.jN.<O.t| /1 [O.1) p~ }O.|O.Z1 1O.2O.{b 3O.QM.R/ 4O.Z} 5O.%& 5K.b: O6 ,a 6O.@* dX 7O.Te Ls }p Mg.|@ :C 8O.o&._c.@i.x+ 9O.0O.'x aO.vi tU RH.bO.cO.lb.*D dO.eO.)m V% fO.>V gO.b: Nw km hO.F>.!W o{.E,.tx yx s@.hm 0r :r Ex @e uj yl Lo _j (t ~g.}l vj Qk /f ~s N0 Lu 0c iO.5i Gy.xZ e#.bX ]d 'p Cx ^'.gd jO.Ws ij.=h  {.EZ $k Fk Gl.lb ql #n 's 0r Pn O` :Y ~m t@.%n :f #Y k%.^W ^Z td %u `f kO.nN.P1 [^ >Z (X So Ax %i Bn lO.|].W .Aj yf ~q @*.=d. j.Fm mO.nO.5g.Ev :o.(u .t Li u>.#8 O;.rF.@! _V oO.lB.3O.pO.3U ]W R/ )Z qO.@G.rO.)Z -L.sO.uK.tO.uO.vO.wO.xO.(b {L.yO.zO.w5 WM.AO.BO._& >v.CO.DO.EO.+J.FO.GO.HO.IO.JO.KO.sN.LO.MO.NO.AD.:V /L.OO.PO.QO.RO.SO.vT TO.6K.UO.VO.fh #` +u WO.XO.YO.ZO.`O. P..P.g= +P.:O.W- @s.@P.:& LB.d; #P.$P.            ",
"      7Z %P.&P.^| *P.=P.__ ;x.hI.-P.<| 9Q +) ;P.>P.,P.'P.)P.!P.~P.{P.]P.^P.B7 k..^l {^ c: /P.(P.(7 $c )! u, xH.a[ {: O: ,~ a[ ^~ +, /X 87 l1 |f y~ sM.|3 _P.:P.<P.^ .i/.[P.}P.4f D: f_ TL.,4 e6 ^^ {: >] b6 |P.G, 1P.8V T} {b U8 2P.zF.3P.vH.*M.wH.7U T~.f% @- Y6 4P.Kn Ue.Js EX 5N.O&.5P.6b.-z 4b._%.7d.6P.7P.oC 8P.tK XH 9P.0P.aP.bP.cP.dP.4| .c aJ.eP.#7 ![ kz H` (6 9%.1o Dc A;.NA ^s Ke Gx Ri (9 :i.yp ~m e#.I>.Ii.Vu :j wq |g  h.dr _j Ri 0r Ax 5h j@.@e $n 2t Lo 'i 08 ; .Gi.Ig @ .R>.bt l'.&X Ix $..jq km $k A!._~.hW fP.Pk =j 's !n 4n ar gP.s@.t@.6l aX +Y BZ _Z -i ff Jc iF.hP.y< zd d3 Pg Un 1s hj iP.bD.LX Nk )r (q [d.(n.jP.kP.lP.mP.yy nP.oP.&m 'g.0X ak pP.d| r#.=b 0M.'4 <7 63 tL.ud MI.qP.rP.Q4 sP.tP..9 uP.ge vP.5b wP.xP.yP./F.G9 zP.-2 k_ AP.Z8 j< BP.CP.DP.(}.EP.0/.w' 9K.FP.GP.HP.VM.IP.JP.KP.LP.MP.NP.OP.PP.QP.RP.*I.+J.SP.TP.UP.D] 3a O5 &b `W *A.hI $J VP.jU jc WP.XP.YP.,t.yQ -y.ZP.[u.`P.M[  Q..Q.+Q.@Q.         ",
"      #Q.$Q.%Q._3 &Q.e0 k5 *Q.42 M[ =Q.K{ -Q.;Q.>Q.,Q.'Q.VI )Q.!Q.~Q.@+ B-.]T M3 PF.Gk._5 :8 KA.S( e| Y( q2 C: t6 xH.,~ ;Y 3G.ye ga de n1 0f R< 5W ^b Hc ~%.{Q.]Q.^Q.bG.1/ b: V8 /Q.ZK.(Q.iN.6) ud ,~ $< $E._Q.{f $c (7 M8 /] '4 3U :Q.RI.<Q.%Y TZ |) ;L.Y .e~.t$.f,.QX 6Y Im.<d.Ka.[Q.}Q.af.=i.;E E9.|Q.1Q./:.m(.2Q.3Q.fM.4Q.lv.os %D ub 5Q.m. 6Q.$7 @b u%./'.h2 W .py oj rx 7Q.%I.yx <n  +.Xu #v  q Ex .k (C.Aj qi <l ob oi yp.+Z +k Lu Hi.Ao bX Ug.K>.fk 8Q.as {u o+.pj  v Fw C8 vl 5o ly HA jY UY ak Hp |o ]Z 9n JZ fq Do.9Q.!t Yv 9'.`o *u S).E+.0r .o }l 0Q.(9 5l A,.ff  o &o VO.Xi aQ.t6 bQ.}W }m :r cQ.dQ.Z. Cb.op Fo }h |c.eb.:q dc.Am )h.Ae.Ix.`v.Fv l'.Ep cH.,D.g#.eQ.fQ.l( gQ.j6 hQ.67 kJ.Oc Jg bQ.]] wd BG.TI./F.bQ.iQ.A6 'c jQ.kQ.;2 lQ.rO.mQ.2^ nQ.;8 R/ e5 oQ.pQ.qQ.QD %- rQ.sQ.^U RI.tQ.uQ.HJ.vQ.wQ.xQ.yQ.zQ.AQ.BQ.QN.RN.R1 RI.CQ.DQ.EQ.j6 <f FQ.x .>s r>.<s.GQ.HQ.v} iB.IQ.JQ.KQ.Wm LQ.Bg MQ.NQ.e5 :O.OQ.PQ.QQ.xD.RQ.      ",
"      SQ.TQ.UQ.VQ.J[ WQ.z( +P XQ.YQ.ZQ.j- `Q. R..R.+R.@R.FH #R.$R.%R.+C.^D &R.b/.Yh *R.p{.h%.9: |V Y8 =R.u, de x! M8 Y8 u, ]N.>2 ^X M8 |/ Rc xd t6 Y: n7 .8.-R.;R.e/.>R.N4 <Q.:8 :).^5 ,R.;L.2G.0W ]N.$9 G9 [[ `} ud IE.N8 <7 'R.{1 _J.n! _I.%L.[[ wH.iU x( ,/ ,7 .x.tz  C.yi.)R.zL.FC zd.!R.-z }h.z0.~R.{R.a&.$f.T+ cD |A ]R.V!.~@ -1 ^R./R.(R.{_ *` =t Vr *X l'.Oi Ri 9n Aa Rv |e UY 3Y Tu kp e#.$k 4s uq n@.EZ oi o].}t 6g 2t kp _R.b+._v 8q jy TY Ew Ri Ro TY %i Cw :R.tX Tu aq 6o }g F,.2l.++.65 4q )r sX Cw sx `s  n zj qi uq  o hm ]5 @e Gp Yn Un !n Vo vq <R.xk &v &v X)..v [R.>t }R.77 G9 t| |R.9l Xp fy *v.3G re.,r sx Ao.5N.ib.1R.2R.3R.al.Ox.Mw.2m.ry A8 u%.!i M6 6W }f z .r@.S~.i$.2G.Jg K..63 Oc WY  g v~ ]] F] :} >g 4R.5R.X: 6R.^X >2 }b <V +G.7R.x< 3N.j_ 8R.9R.11.0R.aR.wN.bR.FP.FP.cR.)M.wQ.dR.eR.fR.gR.OM.RL.ZI.5O.hR.iR.t| t< jR.kR.aM.lR.o{.6e pX =f mR.nR.oR.pR.~J.qR.rR.oo.sR.6T bG.U% K_ 42 ~t.p> tR.uR.`J.&O vR.   ",
"   Na.wR.xR.yR.__ KN 8#.zR.AR.ic BR.d5 CR.]D.DR.ER.FR.Wn.GR.BR.HR.IR.JR.KR.c{.LR.ny u,.i2 %8 M6 UO.~[ `c Sd fe fe xH.p2 ]{ vd ga uF.3G.1M.$9 MR.NR.j6 OR.8=.PR.QR.u .RR.(H.%L.[3 `J.SR.TR.ce ^~ 2G.6) 53 1M.x] vd 53 >] L: 6) ^~ lB.n7 0B.{1 ').H] G` oq.8R.UR.NQ.w$.9..-;.`+.HV aD.Ja./r.VR.WR.^c.XR.YR.ZR.,z `R. S.TF.&l.3` .S.HW [$.+S.@S.#S.=* [Z 'W }g Mo b+.8n Vs sx nj +7 cn.qV Nv Li Bl kq lm EZ .u Bh Xg.fk MZ Ri mV A8 $S.k,.vZ Nv 4j.op ~e 0 .+W @q 3Y .f Nv tx Mk nr rX /'..q Tb =0 Sb NA ]a BZ 8l &b Ws Ki./f _j (u ,u %S.&k .o `g.Sp  p W;.*u #n =j  k &S.De [~.Ij 4r *Z 0l ~d *S.0[ =S.-S.+j Nn 4k 'e rZ ;S.%x pq.no fx.iv Nx ;d.Jt Ae.Dn fj vW Li x4 %8 u!.Mg 0$.}f |~.qF.e7 b8 g#.n5 Yi rE.TZ <O.m5 ~: %| YG.Z4 Ad F< >S.,S.'S.nQ.zd @G.)S.}K.{I.]b !S.~S.{S.]S.P<.^S.`U /S.QN.o6 (S._S.:S.MR.<S.m6 [S.}S.|S.vQ.6[ :V 1S.2S.uL.3S.n5 4S.5S.Fc 6S.7S.3Z bq 8S.9S.0S./Y aS.L  bS.cS.dS.eS.fS.'t.B* $B.gS.hS.iS.=x.jS.kS.      ",
"   lS.nQ `' mS.X~ nS.oS.pS.4L.qS.K/ l} rS.to.sS.tS.uS.so.Z& PQ.vS.wS.xS.yS.&v.tz ny +).g#.g#.![ D>.zS.A9 8W ,] Y8 g$.Wf UO.X9 bB.N).xH.pO.3S.9A.L).~b pQ AS.BS.CS.Ab ,; 2A.n7 z!.UR.yJ.fQ.(7 C6 DS.qO.qE.P/ t6 ]b s6 [7 bB.-2 ES.Gc /Q.DS.A,.D>.B!.{W Fc %G.FS.RX d@.=v.GS.P-.u/.!C bM.~j.HS./e.IS.zC 6+ JS.KS.y-.LS.N%.MS.NS.#D 1r.OS.Vz.PS.QS.>!.sX Ep ,p Mt l'.Sv K>.:u Nw pp hj Vi Nv 8q Gx .u *t ri <Y D` Lo /f 98 u3 rj ZX RS.'T >.. W f,.2l.f,.wp.SS.pV !z.bd `a wW sX kz Tt.Bs.MA JA TS.*d.>..US.VS.zg vz fy Ke 1Y 3t Sp  p <s .E.kq -t ni $n .n Fx.Lk =j &h Ek gW 9'.fJ.4r ~n 5r 44 Sg rP.WS.XS.af 9'.:r /'.*~.i-.YS.(r yc <d.<B.yL./m.Fh.Qd.Us #q Cx #..hd Wu 3~.Ch L>.M;.v@.<f ZS.r@.t< !X 1M.`S.uF.GI. T..T.(4 @< ;9 +T.@T.)L.#T.}b fa }b nQ.^~.ud  g *_ ZI.$T.c~.X|.N[.%T.&T.IO..J.*T.F| =T.MI.~} -T.2O.m6 CJ.tL.i6 iN.;T.>T.3f 63 ,T.'T.)T.(Q.F| E{.6$.#` 'W !T.zr.~T.{T.px.]T.^T./T.aQ 02 h_ jU x8 y* sR.=V BQ CR.IQ (T._T.   ",
"   :T.K4 '= <T.[T.}T.|T.1T.2T.mQ 3T.Bg uR.4T.5T.6T.7T._#.:y.fL.8T.9T.0T.*$.SX aT.|e 5h bT.cT.j_ dT.eT.fT.4a Y8 !b $8 =b gT.,] 0W ]i EC.hT.J..>_ I/ nH.{T.y0.iT.jT.Wi >E.75 kT.$c lT.UO.DS.6W N).'X 7'.C: hT.mT.se nT.YG.0W (X J..e7 bW m+.{W 6e Wv c8 $c .W ;7 eP.t>.*` [h Or )l.oT.1x ti.pT.=j.qT.rT.rC sT.tT.JR.uT.Xf.2J.0D 5H vT.:C.&~.XO.ap. V m..8n )o 3h .q nj :u sj qp 0j.FG.Yh sX qj  t bX Cj @u VY ec e#.Ax yZ yl xZ LI.wT.PX pA xT.yT.O@.M+.9m.Y6 ,T <+.zA c^.zT.OA S{.x` j..BY qX 8..MA xp.uZ y#.DG.t>.n~.3h ,r @s :j 3t F .Lo :j [9 6g  p #v 58 v#.3m AT.if *u +n ~g 5i V2 Wj =| 6m )2 t| BT.Rc CT.*u }t ~e M'.DT.[v $..WB eb.Bb.tv Rn.Pm.9k 9q t ..p ET.]i 12 E` M` -Y s{ s,.`~.u( FT.:W Wf Rc 9W se ea 8b i3 gq GT.HT.IT.JT.i3 KT.LT.^m MT.NT.aQ.mQ.aQ.OT.G!.PT.QT.2|.`8.r5 UP.RT.ST.TT.)T.0[ de wd +g MK.3S.5I.}7 UT.2V Zf VT.u, Y( p| K;.WT.XT.mU u,.T{.vz YT.ZT.u* `T. U..U.+U.@U.#U.M% fS.f& @x.$B.$U.`M.%U.&U.*U.=U.-U.   ",
"   ;U.>U.,U.z^ `' 'U.)U.!U.~U.{U.]U._Q.^U./U.(U._U.:U.jA px.<U.[U./{.}U.%@ 4..|U.q` Ig 88 n#.1U.2U.3U.4U.5U.b$.7^ }f iF./Q.,D.Y8 }W 6U.F..(f &L.f$.4f 7U.j(.8U.9U.TV sF.&i K` v@.(a 8/ }f ,X bW f5 J^ F.._i 5W 8H.we Ti Rc Rc 3W 6'.Sd eB.mT.0U.]f !i <f +).dY 3h Nv yf ] .aU.zi Bs bU.;i.cU.lg.Wh.Rc.dU.eU.fU.gU.eU.hU.V!.J. Fa iU.jU.kU.)G !'.lU.q` js.#w BZ pp Za hd :n vl 0X vy Jv rj 5o ]d yx 5n {s 0c Ok G .mU.Sj.wq N6 mz /-.(R.Dy s).+~.^D l-.T= r;.d].Z. c{.x;.i+ /@.Ai nU.{-.(-.zw.j>.bd ox j..I-.7+.uc .).>;.#w Ou EZ }o /f -i Xu oU.Pk 0r fW Ap.Yv fN.2c pU.KZ 5i Gh +p 4m Qn LZ Yd 3r qU.NM.rU./X mM.~o 8q nc GW =e.Vt 2u !i.dh.vA.sU.m~.Pd._v [Y rx 1X 0h 0X Rp tU.0e 5'.:W dJ.B` ];.uU.vU.j%.wU.4W =n 3r #< xU.yU.zU.;g Pg AU.BU.CU.DU.0V Gd Rc VZ c( Pc EU.FU.GU.HU.i9.0U NJ.IU.JU.#H.KU.^^ eB.J^ z{ o5  _ %L.*4 rP.A} d1 <W uF.u!.I/ z .LU.s%.v>.MU.=` hn.NU.tv.OU.PU.s8 QU.RU.SU.TU.UU.^7 AZ VU.rS.WU.XU.YU.ZU.p! QS  I.   ",
"   `U. V..V.+V.@V.#V.$V.%V.&V./3 *V.W{ e{ =V.-V.;V.>V.A) ,V.cG.'V.)V.5A !V.WW ,T a@.B>.BZ ~V.{V.]V.^V./V.(a ik I` e7 b8 ]I.vx Mc bB./m :f .g 'b eB.Y8 In AS.(V._V.Bn zo.:V.<V.vx nI.0< V7 n( ,X Dj :f @L.eJ.$5 af =< [V.$Z tU.1c 3r 1r Z` Tf B+.M;.*0 ch wg *` { .Ab cj e .Fi.[z 9s.5w <f.Ic.}V.Ta.|V.1V.2V.NV dt.3V.it .S.8G.;* 4V.OS.OS.9/.,6 sZ Ye !v >r 6o ay !o ]d $s *p <j Lo !o U;.mV py *X 5V.Ok 'd aq SY Ok ya Ri 3h >..[;.oA 6V.A) 7V.A- 8V.gq.=G 9V.yu.0V.aV.7D =D bV.G~.x-.:;.RB BU DU %~.I~.(@.pm.1m.k..+W 2'.Ri Ii.U;.{u 5l mU.0r }l 4o 3s xp %k cV.dV.fl Y).ql +n +o %Z v#.2c yk fB.rE.eV.fV.MT.{c %Z )r 6Y ,$.-*.yf ,p kw 1x ~m.Ql =w Ur r` <n lX k+.z,.1X j%.gV.J..hV.iV.vp.jV.u2 nI.kV.F] OZ ,i ;I.$5 Mp &Z lV.mV.'n 2X nV.oV.dl pV.nh ha T` 9W IZ td ,8 }5 qV.%}.rV.sV.eW tV.uV.vV.wV.+..oq.DS.aB.xV.<[ 2P.BT._G.-_ o| Dj 7W N8 Xi qE.s%.A,.h#.j^.2#.Cw yV.zV.AV.Pf {T BV.CV.DV.EV.xT FV.GV.HV.IV.JV.KV.LV.MV.NV.OV.PV.   ",
"   QV.RV.Pe.SV.ZB #@ TV.eo UV.Wz [m.H^.]+.#@ x'.kv.VV.rz.c{._R WV.XV.oB ~i.DX N!.JA !z.u>.-W YV.ZV.`V.B+.ta WE.j%.#).7%.%Y g#. h X` (9 0h pd xj 9h 'X jk l:. W..W.6d =v.+W.)W |e u%.Vf Mc b8 4X #Y A0 =R.0Q.+Z ;I.yk mM.p7 (X $5 @Z .o gV.my `Y 95 C8 W .wg |e #f `e Kt Cm 6z Qx p-.E0.Gd.@W.#W.79.i9.R0.$W.x= 1L.%W.L@ /z xT.QU &W.zH *W.0].~ .{e +;.kY ,p :u mU.mU.mU.Hi.Qk 0r EZ 8n aq *t }g Sv Ub )r (G.-f pj  v Aq f9 o'.0 .,!.=W.-W.;W.1D >W.4` J'.3y.,W.'W.3y.)W.!W.D$.9;.~W.0q.{W.3p.a-.rZ 0y.2,.8>.PW ~'.]W.]!.Kn [Z ,o.1o Ke 7o Zv }l +n kq :i.Gl.hW |n JL.ji 6m _o _o Ex 9m gP.bl /n N` (X z6 cB.-I.n%.<X wj *` n>.^W.#r Nt wu (r.vk.7p Fm Jt 6n Uw 4k lm 0c 'r Bj |Y Ke /W.B` (W._W.:W.^~.<W.[W.;I./c ee 1c 8I.5^ %_ To }W.A6 |W.{{ v6 je 8b p1 Ij aW 1W.6) 2W.$!.!|.QT.<:.3W.{H.%Y :V.4W.8R.7S.n#.5W.HZ gT.:V.6W.q@.qP.7W.aQ.wd SZ m+.X9 lk ;X Wt ph.w..yf Vg.8W.9W.mE.0W.aW.bW.K= cW.dW.eW.Y-.6..fW.gW.bc.hW.iW.jW.kW.Vv.lW.   ",
"   mW.4x..o.S].=W.8 .k-.+~.IE |-.&@ nW.FW VC zu._ .oW.2D dg (#.(q.S^.Lz !C Or rg NA -f z,.1o hU h0 ;7 xx Un gW dc +Z xj sy.Jc yj pW.-Y Mi fe xj 64 O;.jk qW.94.rW.Hw.=v.F>.dY i@.4X O;.i@.2a Mg #E.D .*n 4W u3 3r On Ap 2l vq v#.Ng uj 't O .yx Ew Xu ey vZ nX BZ op .m QY Wr 7..sW.-i.kl.uc.tW.Cd./:.@=.[ .lt M0.uW.CV vW.]T gA.]$.]D wW.a+.dp |k *a zo te.ay Ou (r zl }o Xn kf D` 1X Li 0k %` fd vg Yw.vz vg  +.r` 1k *{.ox xW.M'.yW.]p wA.)I _L zW.AW.BW.CW.DW.EW.FW.GW.s'.HW.IW.LK GX c).ip.JW.8V.F-.C-.0!.3%.KW.);.pA 4Z =v.Cx Kv %u ^u 'o .w rs.ec M0 ,o Vj LW.4i sa lb fN.9'.-j Fh ar !n U9 7i MW.o%.77 1M.4X ec #i mf 3j vu NW.FY iv OW.lt.PW.mx De.mX Wt 1X Nn Aj Jc (9 M6 )` z!.+>.QW.b$.ok ZS.k].RW.(g eh SW.|X 14 +` TW.UW.VW.'g 4r Rj <m I5 6/ 9'.D6 mQ.j%.vV.zW 3|.Z<.WW.Um *J.4f (a XM.{W UO.TZ sF.XW.YW.pP.sF.!X ZW.K` Z` #E.(g `W./m >t C .Qi 5l %I.UA +i  X.~^.Vv.8,.<;..X.2y.1>.+X.@X.q).-d.7..:r.=@.Z'.#X.MB $X.i` K=    ",
"   %X.&X.[C.*X.=X.-X.p+ %B ;X.>X.gh.,X.7D 6c.'X.)X.!X.;#.oA ~X.YG {X.Ci.wB QV L+..q *;.#n @k fy zx 'r }$.-t ~d Rf M>.q7 6g uj (9 }l ff X` I` tj )i &0 3Z e0.I_.]X.}+. C.Fg 0U.Z..o+.rd z,.K>.Hp o+.pd @u kq #n Rj +p gP.JZ [R.`n .k +e 4k sy )o _Z pp 32 Rv 8q oV Zh |k Ox {@.Rg.Mg.ni.^X.m0./X.Tc.(X.Ob._X.uT.:X.yX y*.D+ xT.[+.<X.~ .kz #q Bq nX -..j@.6t Mw )u cq oj e#.Gx.4k sx )o jm Sv *o.{!.OA *>.n~.Kn MA hU jf.7z [X.vo.}X.ZH |X.1X.2X.3X.4X.5X.6X.7X.8X..D 9X.0X.4-.,W.gp.aX.bX.qr cX.dX.eX.es.O@ N= $'.fX.gX.MX <+.~i Yh 6n 5o Ex.6k :r dc ^r Xp ^r /r hX.`o 7s Mp ~o YY H .@u LZ gP.iX.Yd :c rE.jX.kX.6U.[V.pj Xe lX.tC.T0 uo }p dh.cc.kt.*L.8n gk..t $k )t #v So ]Z zw vx dY G>.0@.jF.X| ef P;.{X =h wU.O` #o ,j L0 mX.r3 E0 @L.7b Ti nX.oX.#o 0b $Z /m }X Le 5U.pX.qX.f&.rX.Z5 sX.P;.9H.f$.kW tX.h#.Z` eh uX.!i vX.wX.I` ^s -Y &L.x..YY QZ N` s@.2W wl xX.;;.{B  '.yX.Ic rZ zX.WH.AX.>C.gn x-.h{.(m.Y{.oM.o;.BX.CX.DX.EX.FX.   ",
"   GX.|y.HX.=C IX.nE JX.vY =B r@ p+ bo l*.lB AB hl.KX.1{.l-.%-.L0.LX.zl.TC PV SW Ii :n #n 'o Fp FZ |Y hm Fk ~o Pn CA.Qi hm JZ &v X5 !s G .@Y @Y )o >o :A.`8.8u.MX.n` 2#.#` t%.@s NX.jb 4l W .NX. h Pk (j ~g OX.Pk gq v#.E+.Yn {l Ex Gp i#.Mi 5n ~` K!.-p uW Sb /e @f ky K#.6q.*g.PX.3*.i:.Vc.QX.q9.RX.SX.xU E&.%W.TX.rA.z%.Wt.az Ga L;.&I.Eo R;.U..n .Rm mV Tp BA._R.UX.:n Xt +k 70 Ws =h $` Rv l!.a^.rz HA d..aU.!@.>!.b9 VX.^W.W,.WX.XX.YX.;F.P@ a-.ZX.%f #& n{ `X. Y..Y.+Y.@Y.#Y.$Y.%Y.9].vI.&Y.cM *Y.=Y.|%.9;.=C.^@ 5D {-.gY *{.m..-X ,f 9%.Xt 3s Qu  e -Y.lb  n (j _~.Ap./n yl L+.;Y.t%.1l X).5i 4r _X 13 >Y.c( >j /f &X d .&@ zi.o'.Tx `&.Gj.,Y.[u Ix.'Y.+A.Tj.+Z 't .k ob o+.%d Z` h,.)Y.!Y.e#.~m No b8 p>.G .4W }m (n Wg ~Y.'n s3 yk 8f tU.,Y He =Z |X >j nV.)s 5e D..{Y.%(.l(.RB p@.]Y.7'.kW I` !Y W~.o+.bT.sd D[ ]~.ok bT.^Y.[O.!b ye =R.#Z /Y.Pj |l (Y.Ri iY ww _Y.:Y.dU |U.Ai <Y.[Y.}Y.|Y.A%.&k.Di.1Y.|].Xz 2Y.VX.3Y.B%.4Y.G%.   ",
"   CO.,q 5Y.-A.ZB [m.!C >I.A%.LB hZ RF.o-.RF.6Y.7Y.8Y.'X.)y -#.9Y.0Y.=B aY.K].&,.bq (r qi 2t _j }o }o _s fN.v#.(j /r ^r $k ff Zn Lk _j Ax 1Y tx 9@.Fw f .E8.bY../.=z.`0 #f r>.b$.hJ. q %n Zn _j Fo .k |g |g .n #n Bo..E.@Y .p Pv 5n Tn EZ Uu +k K!.R;.FG.wZ 0@.>` 1u 2u xn 7 .ta.-i.}h.4a.+c.cY.]5.Uc.lt dY.eY.vv.FF fY.gY.hY.iY.La )r Wt js.n..4j.fd &a *s ss.rp {u ^u Lw 4#.}Y Dv #i ry m..2l.RX ) .Ab YV Gm IY 1@.Aw.]+.FX u- jY.ZC Fk.h+ kY.lY.mY.${ s; =;.1Z nY.iY tA Y+.oY.pY.qY.rY.sY.k& tY.zz.uY.vY.wY.aX.xY.yY.NC ^B.Ye.ox fs $` Gi.Ji Fv 'd ni CA.Yg.%v 5i *u ~o ^r $k N7 zY.AY.` .NA q7 #Z X).1c *T.BY.oO.Jc M>.qj x#.Xk BC.&{.Ud.CY.ya.7g.'h.Wo.Qt 6t Dx }t }t <Y -t DY.hJ.l#.r#.p+.7$.Qk 't rd 9A.HZ 9H.F` E..{g Mp EY.,| Xg t[ lk ff Kj 6i 5i  o $d pd W< ^Z 65 FY.}[.b=.)@..p `f %d GY.HY.;X .g xj .g #u ri Nk 8f H ./~.IY.JY.KY.y!.#E.Qo s@.yl DZ xZ el.I,.-2.)^._+.DY Yn.zX.LY.zW.MY.p+ m+ Ma.L$.La.+D.ZB NY.OY.nE PY.Uh.   ",
"   X<.QY.RY.SY.TY.G0.UY.VY.WY.XY.YY.ZY.sa.[A ^7.`Y. Z.yC.bf.S,..Z.+Z.vY 6 .tY X{.im <s )u D` *p {s Rp  n [s Gh rq ql C+.!t L .#n Gp :j .k Fw W).Tv SY ,T S0.TB.@Z.#Z.}0 !z.Xg.|s 6g hm Ap.@p Zo 5m.Lk Jw 1s zp.kf $s .q Pm.9q 7o lf.*p :i..t Qm ay 4j.-..uW KA 6%.qV bj Bs.$Z.%Z.s&.E9.*=.&Z.*Z.(X.Ca.=Z.P/.#y -Z.VC Ph eq.;Z.9+.FG.Rm Li Tu 8q Dq Ps Vr mV :n (t EZ Ou 4o m].Pw $..Aa gd o'.y#.Bo o8 Ox VA a+.TW $~..-.>Z.,Z.'Z.)Z.zE Y6 !Z.)> ~Z.PY m>.Gb %D.&{.l9 w%.{T {Z.]Z.%V _@.^Z.,'./Z.27 (Z._Z.(l.jY.GX :Z.Kq <Z.x-.[Z.K#.nZ .,.`e r^.&a *t Rp Qp De _s pi Yv %0 hm Pi o..,V.dy.}Z.^ .ny Lo /Y..p /W.|Z.qH.B!.j$.Ep bn.#v.Q&.Bo Gf Hd.uu.1Z.Cq.+s 2Z.Kv m].}t wj *n 'o E+.Fw Tn J).F` #u Wt @Y 3Z.Cq gy ye |r .k L .}n Wo /)..o `n >t ]5 %Z ~d cf lb 9l F+.Ch =i l..qV.U[.4Z.`-.4X #Y nM.f$.&L.#Y &Y hT.mb %n -Y 7'.]i .p B!.5Z.6Z.7Z.^W 't Z~.Pk Gp t@.yz y;.bd 8Z.ms $+.Z .Py 9Z.0Z.aZ.bZ.cZ.dZ.eZ.>I.Di.KF kN.5{.fZ.fZ.gZ.hZ.   ",
"   iZ.{y jZ.kZ.F0.nE lZ.mZ.K&.z/.X(.Wz.Wz.nZ.R^.]p.oZ.gi.8n.Wz.'@ pZ.$g.SV.(i.cx.4).|t |o Xg.S..bq tl Gl._o jl iX.JZ (~.Gh n@.}l M>.'d ob $..jO.[Y /v ]0 qZ.,B.rZ.sZ.Gv @;.Vs +Z ss.tZ.uZ.0s vZ.3t Ni..t *p Mv :n |o 5o sj wl  q oi Uu .{.wZ.)u Li vz Nv { .Vw 0p 5).mn uB xZ./*.-z 1b.&b.Fd.(X.yZ.Rc.zZ.O0.AZ.BZ.CZ.qA Ns.4$.m` tt.DZ.(r 5k Ok $).1o yg Mi.5o 6k ~g.Bo.}o 4o Ok Ep -p N;.IA nZ y8 >;.mZ Se eg 1].(j.n*.uW.EZ.PE |].-[ o2 LI.rc FZ.|#.]` Ln GZ.|U.RX HZ.v .Vv.IZ.->.D@.7+.u*.LA M).M).JZ.KZ.d` } .LZ.XF.L|.9c.MZ.pA ;;.jf.&{. X Cq ~s o].w` `o E+.fW =j v#.+o |Y >` 1@.NZ.M,.9 .&` FZ n$.7Q.OZ.PZ.QZ.=L.@c 0X cd mt.Kg.NW cj @B RZ.jw +s +i  i 9q <u Xg.:n Jx 4k [t [t Rp SZ..{.Ax &u 5n zw t%.+u `v ]5 ,i .E._s 3m &h `o H .X~.*n yl qi H@. o Zo TZ.xj N..y8 UZ.h1.I$._+.@).w#.6$.M .#).F` t+.Z` F+.So .g ee #Y hh cY VZ.WZ.XZ.ae (G.&Y }l xZ wl 6o k~.!e YZ.3C 0g.N>.M#.ZZ.`Z. `..`.JB S= fy.|m.$g.T&.Ma./^.+`.n;.[#.@`.   ",
"   #`.I%.$`.%`.&`.=l.&@ mZ./^.6c._*.~E r&.*`.=`.M0.-`.;`.>`.RF.,`.'`.0w wE dZ )`.Jv ^u S..Wt lm F .zj @v gP.2m /r 'o gP.JZ gP.2t Q).Al jq  v Ax nj 6o rn %%.!`.~`.wb Ur f9 W).{`.kf.]`.4s vl .{.{r uq Nn Ex.-r ,v v` lf. t |o cr Ni.}t Su rp !g.Ow }u St.!w Kh.vf ^`.Nr 9w |J.iB nd./`.(`.>f.p2.(X._`.:`.e&.<`.zC.rx.;C [`.h/.jx  t  t tq oi ss.#h ss.o .Oi D` :s  p :i.:r S..wj ry lY ++.Hb 0 .RW Ct.NU kZ H^.}`.x- |`.tv.1`.e .2`.cY %i 3`.4`.<+.5`.6`.Qj.>..xp.f,.&>.k@.3].7`.TU 8`.rE _+.WV ;;.|U.j..up.9`.~i _p 0`.a`.b`.BE H+ u*.*~.=g.Kn b'.%u |Y 1r Op =j Fh gW 9l yk Un $).6$.c`.d`.&).)l ~s %n %I.e`.f`.g`.h`.Ro pj 3h XX zn.rA fs i`.j`.k`.)h.l`.Qd.jm.|u se.$;.qy 7@.K>.lX m`.yl Fw v` $s g].w..Lo S..[9 ss.n`.S).Ih o`.6g Fx.#v 0n NX.k%.rd p`.q`.0e .h ul r`.9+.UZ.i|.Q9.h/._Z Q,.s`.dU XM.'p hJ.P` %n Z~.|Y (~.S` t`.v@.=G.u`.v`.Bw {s Aj @k pj $..Kv pe.JA w`.x`.`@.QV #@ y`.7Y.z`.A`.B`.%B D%.Ja.&C tt RC cf.C`.D`.E`.F`.   ",
"   G`.O/.}*.H`.I`.J`.[Q.K`.4D L`.h*.M`.N`.nw.J%.Xf.O`.4y.K^.P`.3V.Q`.bv S= F-.R`.-w Gi.Ou Aq 3o cq S`.pi 3s 3s th.T`.Bo.7m (t }o }o 5l ue.SZ.lX se.8q cp $9.Oa.U`.pu n .Sv lm zo rj :i.3s ~g.#h S..3s tl ue.hf.V`.qp lf.7j.5k :j 2t W`.wt.8n cq _v l'.kY {e ~e h~.Jj.Ky y&.N(.Qc.l&.a9.*f.!a.48.(X.X`.!y ;+ Y`.VC Yk ux.xW.~$.r` Rk v` :i.Su /t yl D` U;.lf.sV +k Ho EI.Je 4k nx q` nZ VX sx.zw.Bo 7z /#.HB bf. ~.AF hM P`.;e NB.fd jY pV 7).LX :+..3 Z`.Kb {@.qA sm Re Uv.4+ h@ < .``.  +rE yi ]$.az v$.}+.'>.@g Yb |m.. ++ +Z!.f-.0z {-.c .Ab d'. +.t .0X @e dn.wp ~g ,d Ih >o J>.tx oj s` ~s Nn #E.'o NX.kW w!.B>.@ +eQ.CZ ,r dX 8>.AX fp >@.# +ec.Rn.Zi.2R._v #;.Be.}u dk.0t Ix.Fo yl B{.0s :r S`.+k 6t Ok Q).zp.mB.an 0r Q` /r ^r $ +o].Ch j^.F` Qo 'p % +L` p7 Ep & +Q>.* +d}.P9.h/.$` w4 Jh nx = +]i T).6~.)s v` A!.~d =u 3X !Y.NZ.- +; +yx n$.mk Lo .h 0H.wy JX Q-.> +li.NX '#.Dz., +' +=`.*&.K^.) +_*.9w =C ! +:B.X(. _.B$.-A.~ +   ",
"      II {C { +'^._%.&&.._.] +CV nZ.I`.^ +uj. K.f(./ +Fd.CV B/.%].( +_ +8c.AX *-.ct De.Ut 5o Tn Lw `s rs.*p :j ^r %v 6g Xg.U;.U;.4#.Lw _u 4m.Jx %m jm rn : +< +[ +Hs 2R.9n <s kr } +_v Xt :z.Rw kr {u Me.0H.qw Aq Ui.| +|K. {.#n.*s 1 +Tt 2 +3 +Jt Dn H).Yl J].Vw pz bD.s&.4f.a0.7a.a9.4 +5 +6 +7 +)z i*.8 +|Y.9 +N'.c .M!.jx }g tq tl -r Ni./t 1t 0s bj.)g.Pw Bh 0 +vl *s tX .,.0 .9+.bn.gU PA R`.a .a].wE Vk mt a +pm a^.!3 U .d^.jZ b +jZ c .c +F* d +a!.KY ,k pm.B%.|m.e +gp.+&.f +6{.k^.|@.!-.{-.0y.E).1m.g +Ov.I_ [..fw.h +7X.i +-T Bn 2#.Ep *t nj Xu ob mb S).WE.%S.fW s@.U).Fp |Y ni wp WE.On :Y Q).Nk .h kX @ +k].FZ ,r YV K~.M&.Vl Cf.j +k +Cm.ec.l +qw qw Ut 9k [u Wi.2m.Gi._t 2t Qk bk.)u Gx 5o Mi.m].Ex.2s /t m +Lk Dx u@.|g )g.mU.my 9n -o.z@.s^.rj I>.*X y].w$.n +i3.o +X{.4l 7j.7r e#.G .Tn Gp !t fJ.Ng fW T).^).9Q.p+.p +p@.Fw #u :Y t`.rq wq :n Dq nB.,..q +uT.x/.W{.]H r}.r +G'.s +t +g).u +EB v +K&.(>.w +/j.AC._*.x +   ",
"      y +z +A +A&.uT.hG.B +I/.C +D ++8.E +$8._/.%].*:.F +G +{^.H +I +J +=X.~C 6..K +yf V`.7@.xl Xn Xp 2C.~g.LE.cr 3s Qm 5t Pv xl tq .{.Hi.S..tq ,v Ut @l L +M +LK.A%.~!.0q (t |o vl ,v !).:n gJ.|t 4m.*s Qm Dv Jx as _t ky.Su 0t Qm {u Rt }h wy Ps De.Dm.xs.N +-e.eb.O +de.Nc.P +Q +R +%b.S +Ya.T +DF Kb.{e.U +V +Lj.!$.Ii Sv -r Jw ,u L .mb ni W +Sp Io tl Xn (r ue.ze.oj oV qV JA bY >..&d.oZ ^T Hw.KW 4H X +Y +;&.a .Z +'~.mW dX F).dX OY Y0 ` +-A.4G  .+..+d+ HW +.+q@ 7E @.+9W.#.+&@.%'.p;.8>.8/.b .PV $.+zw.PU ch 8_ %.+&.+!,.4C MZ.TV , .Mo }g qj )r o@.wj V;.3t ,d Pk xa j#.Rp )t B,..v *.+.v Fx.s@.=.++ .O;.G@.').L` K>.Nv a{.-.+Vw !w oT.5p./d.;.+>.+ j.,.+'.+Dn jm.7g.Ez y;.Ou.4o Lw qp {v [t 7@.W).Xt :i.Bo.Ih vq fW |r Jw.}t Ri rj Kv b$.'t 2W |r my  h X .YX !@.).+U[.!.+~$.S .~m  o Qi v#./r Pk 2m 9m >o ]r [s E+.mm FZ km #Z *Z ~o @p _~.qq L .lf.!!.SS.Hw.~.+8P.S'.Y{.{.+~&.].+^.+/.+(.+Q= _.+I&.l*.:.+EB ^W.<.+[-.[.+      ",
"      }.+|.+1.+ra.YB 2.+8f.{_.*`.|C 1J.3.+4.+=- w2.5.+o}.I(.Oq 6.+7.+6c.',.$g.Ao.,o.#w 6o vy 8.+`g.dr .t n@..t *p Dw ~!.-..hn.wt. w.Xt 6k |o t^.^u -X |v n0.h}.`_.mv 9.+0.+Bl @w |o #n.1 +ue.7t 'g.KI.]v XD.Jx XD.Gx.#n.*s ]g.a.+ty _u #q ,.+Ae.Qd.Zl b.+Cm Ue.**.c.+8O.B0.s+ P +'a.d.+e.+f.+g.+h.+i.+f:.j.+k.+U+ HV +m Uw :u }s >v Fx.|l }o Zo zp.{d Su Io l.+Go ;s 5k zo *!.uV P,.KA C#./#.U-.LW BU gn bP.m.+n.+(z.o.+mU QY {$.Uh BY >T px p.+q+ q.+5r.}{.r.+4` NS.s.+i@ t.+u.+v.+w.+7X.NV x.+6>.8^.MX yT.Re %,.{#.U..+Y D>.e).y.+z.+ar.n>.%F..q Ov j@.Xg.aq ob +Z Ng C+.`o 7s x../f +e Ex ql ~g Ft.ml &k U).2l /f ek eQ.w..I>.ly XX A.+Gt Yl B.+C.+*e.;.+D.+'d.E.+.v.F.+G.+Fh.9i.H#.Xd.dk.&m .w.8j.Hi.Aq Ou.:u EZ lm 4o Dx )g.+k hJ.|o t^.9n 0q tZ.1s hm Bo.5o H.+r..R;.f .I.+Z[.//.!@.v` D` FZ 5m.o`.Gh |g.Ap.Fk |n J.+K.+Lv Nw 1Y L.+I>.M.+(~.N.+Lv &p Ih !).*{.@l }z O.+J%..o.%*.P.+Q.+R.+S.+!].T.+U.+XY.M^.V.+W.+X.+Y.+Z.+`.+ ++      ",
"         .+++++`R.x&.YB *j.|f.xv.@++mD YB #++$++%++&++*++~n.Lf.=++-++[Q.KE Y=.;++St.>w p].De.kp Vu (u *s `s Gx.n'.gY ; +>++-` w].ay tX ck.,++Ug.if.Cq.Nr '++=(.S_.)++<m.6q 5t ]g.iy.Lw <v kp ]v XG._t 0j.Ut <v ,g.ky.^u Mv XD.3 +Dn !++St.Ae.tw Bk.Xl <m.Xr Qz fh._p.Bg.(c.%c.]b.~++{++]++n8.*Z.~a.^++f(.mw.{G -T 1m.>e [e ,v )u jr.:i./r vq :r  q iy.Su 2s Sp )u @s Wt yv ww IA qV /++N!.nU.0y.(++rm _++jt EL.}E lG.c9 TW f>.1,.xi .C KY xY S,.^G vI.:++@3.<++[++}++dM + +m= jw.|++^w 1++0`.2++3++}d. .+4+++C 0{.!#.at 5++ch $f [H.6++:@ ]#.SS.rW zo 8q _Z Tu bq o+.ss.Xd 4n Rp ~m Po Bo.!t Fh oq .` ml (j 'o $n J>.&Y 7++K>.I>.%` mZ 9b.ko -w 8++9++0++a++b++c++d++e++Ce.mj.f++mj.-w Zr XD._i.{u lf.dk.cq m'.kr g++Pv rj zp.:n ,v g].g].'p Pv .E.Aq 4o kf.'d h++$).c$.`l.a].J1.X[.l:.iY aH.{u *;.xZ <s dn.X).,u yq i++Kk Wo 4s Lu %u g++v` .h  {.mm &p /t j++k++#q l++NX rW.m++|,.Z&.n++o++,^.p++q++G*.r++s++AE t++SY.u++kN.e).v++         ",
"               w++5=.x++y++z++A++B++C++D++{,.I/.S$.E++F++G++H++sC +|.}Q.GF I++gx.8y ~h.;w Nu 7j.bk.@w ]u {u Mw ug NZ.J++K++c$.m'.3 +Wu.kr !!.H).L++Ss Gs |a.L<.+4.M++/k N++O++7t ,g.VD.zv Wk.Aq )v 'v 3 +<v V`.[u Xk.qy.C{.Kx.5g.H).P++jm.Lt Zl Dm }p.:n.Pn.eh.Q++R++qd.qk.S++T++wc.70.[e.U++V$.j0.V++W++Lq FW X++4Z zb ,p Xt Su 3s 1s Ex )A.mU.Gx mV sp :s Ex.Ri Bl :u Y++rX * .NA KA QX vC.^@.B- mb.8;.<%.%$.kA.H~./D :D Z++W.+`++ @+i;.xE %'.y~..@++@+@@+64.#@+<Y.$@+%@+I0.&@+%@+*@+=@+-@+@H.2-.9c.r;.^D NX ;@+X{.Ib tV lY f[ |m.>@+@&.*'.{$.++.A;.^Z 1o 8$.T+.dQ.)o Bo.C+.Wo >o &o  n _o KZ 5r .v 5g ~o gk Rp 4m v{.i#.WY Fw vW &{.#g.Nr ,@+ow.'@+dl.)@+5i.l`.P++Nw.!@+~@+{@+.k. l.wn.dk.l'.p].Ix.Nt @;.Qs H#.%` 6t }u oy 5o $w _i.0H.Qv ay l'.X .8t lm F .kf.'p ~!.Md.4].RE.CO.]@+pz B .Vu *;.tl Su <s 0r yq T`.fq Hl.It.Go B{.lf.xZ gJ.wt.5t Jw.Tn ^@+ q 4o L++P{.NX 57.cB _l./@+(@+_@+:@+<@+o= 2++6E < .[@+}@+|@+1@+2@+3@+            ",
"                        4@+5@+6@+7@+8@+9@+0@+a@+b@+c@+d@+ z Ob.e@+$(.UF.y&.Ka.Qz |v L++<u oh.t^.ue.!u Pw |t Iw f@++C E`.`e g@+Ow #h.ds 3 +8Q.-w bt -!. x '++M<.h@+i@+mn Od.lH.vt.Mw.Od.Tw es `i.'.+#k.Ae.Us .k.Tw e++3m.Pm.Qs #;.4q De.Ku ys.Dm.>.+!w iw [z 7f.;c._f.j@+k@+2h.{b.:b.9a.[e.l@+m@+n@+o@+8(.p@+6D q@+Wr ng Qv Ou .w ;s zj :s `s Ou ~!.kY _u ;s 7t qp )v Kv fk ly vz Aa 5q Wr Lb {'.4j r@+:H.]/.s@+bd [+.=W.t@+XB Zn.gX.[D KB P*.L@ u@+v@+w@+x@+y@+z@+A@+B@+C@+D@+E@+F@+G@+H@+HW.I@+J@+K@+yS.` +s8 yi x$.E).RY g9 ) .ME.L@++ +Z+ Uh jf.b'.+E.iM./7 Pf c'.*X &v Ik fm ql 0l %k %k ^Y [s .v 9l 9l hm 9'.~d ~d %Z So Qo 'p {e oB %e.M@+N@+O@+b++P@+Q@+Op.E.+kt.R@+S@+Gu Dn <v $w Be.9t $w xy Ez T@+XX hY *>.R;.j~.1u Kx bq oy xw He.;w |u 3 +%;.C{.8t 2Y %m  i ,I.GB '|.U@+V@+rA W@+.E.Lu as :n <Y X@+3s :j }s |k.V;.v].;g.<s t^.=p Pv aq Aq u@.4#.4#.Y@+ow Z@+n+ `@+ #+.#++#+@#+                                                   ",
"                                                         ##+$#+<6.P:.%#+~+.C`.Gj.1j.Qs kr ay C{.{u lm &#+*#+<v 9.+e` =#+@q *;.#..vy _u Jv 1u )`.Hm kr Pp.-#+!D.|1.)z ;#+>#+gk.:v 5y 2R.jm.Hh.Rd.mP.Dn `i.HI.4).$k.~h.,#+jt.9i.=w 2R.3R.Pd.'#+0s.ec.cx &C.cD.na.)#+!#+-z ~#+;j.{#+'b.70.&=.x0.]#+n@+ur 8=.P*.m+ '@.M!.ng Jv qp Ki.V;.:s ye.l'.Tb R;.vW m'.Vt )z.Dv 9n 8n ir.ry oy Ts ^#+ W c .~'.*C ),./#+(#++* _#+FU :#+Dk.0z ^+ >X.}-.hD g: <#+[#+}#+iq. o.ZV h. |#+1#+1[ 1[ 2#+A] 3#+3@.DH dX.4#+t~.5#+g-.+C h>.y$.R~.P,.}Z tz F[ 6#+7#+RI Yk Km hU 8#+v$.9#+#- +Y Fw $k ^Y Ge wk Fk iX._~.Ex =j 6r Ih E..Pi 4m 2c =u _o %n .k wl * .gn vC.4).0#+a#+d++b#+c#+d#+e#+f#+xr.g#+h#+i#+,.+,.+&w.,.+xy ^v g~.j#+k#+l#+X-.K#.9+.Bo fz m#+n#+o#+p#+}u 5g.*#+.k.Gi.-X ; .q#+Wx Rx W.+j_.x|.5h.}z r` Iv r#+=m 7t gJ.*p 8m #n.s#+qh.mB.3s 7t :z.aq xZ 9n WD.Ou.XD.qh.<z.g].t#+u#+<E m5.};.v#+w#+                                                      ",
"                                                         x#+y#+z#+A#+[y.{C UY.qv OW B#+C#+<u xe.Ix.ty %;.Ou L!.G#.*>.D#+E#+#w wl wt.#n.m'.8Q.om.SS.>w sU.P8.I[._5.F#+]q >w G#+Rd.G#+`w H#+-e. x Ts Xw Ce.F.+$k.Hh.`l.we.tY.$*.I#+Ww Nw.Eh.J#+Bm.ac.K#+L#+7b.4f.Oc.;c.*c.qd.N+ fd.M#+>a.N#+[9.O#+P#+Gv.5B o@+<E Jl (k Ps xg Vt Kv :u js.7Q.OA .@.dz B;.W@.0j.t^.(r l'.,r Us %m .q ly .).LX &g.mb.V++xv.Q#+]E 6Y e!.xE .~.R#+B%.3@ }j.N@ 2n.S#+T#+U#+Vt.l& T1 }} G> V#+W#+;: :) }) }} X#+G_ ~1 i+ Y#+Z#+(,.UG.Qy eg oZ =d.7Y nx jY l,.90 sj.1y.kA eg I#.z;.)'.`#+ $+ny tl Ap.fn.7m.fl wp Ek Gl.Xp lb C+.=j 9'.:t WE.ql _o  o Ih #v Xg..,.8/.ya..$++$+@$+#$+P@+$$+%$+!d.&$+/d.*$+^m.Tn.,Y..v.mm.#;.>w }v Rl tY.=$+^Z.<@.fW.-$+tY.k/.@;.N;. j.L++zv :k Cz n'. j.;w if.-..JX  C ;$+>$+1}.ke.cy ,++Jv ,$+aj.7t  h.qB.0s .t .{.6t *s n@.3t :s !).V`.oy %u iy.Mi.se.$;.'$+Fe.)$+_>.!$+~$+{$+                                                         ",
"                                                            yj.,:.]$+{H ^$+zl./$+;++Dm Xh HI.Iv if.vy ;r dk.Ew .,.lY ($+`e .,.{`.<z.2R.L!.3m.~e ;e Hm `l.c=._$+*<.:$+Mr !w <$+g#+[$+}$+IW <d.jP.ys.|$+Xw {@+1$+tn %C.Kj.Bi.2$+yk.O{.Bf.ac.`q 3$+4$+5$+6$+7s.7$+(%.!#+(c.(%.v9.8a.Mf.8$+Ac.Wa.zc._P.$#.i&.9$+^i.gg =o.Mt {u  t =r 4j.PX 7,.HG.YS t).%,.0$+vW _u &;.#w /v a$+& .9q >` .).eg tu p@ V++R^.^S.{B.)@.sA :l.9y dq.&C 7/.yY.b$+c$+Xy d$+9o.k+ sZ )6 Dc F>.W` n{.Dc D6 ua Mg 1r }^ N0 k,.g: e$+f$+0E +.+a!.sA !#.RY 2m.u@.H+.>n %B g$+;q y1 0 .RX =).h$+[X.im Fw Un vZ.:o %k Ex VY `m `m lb gf =j  o $Z fW jl =u Mp gP.On tq fs <E Tz 3R.i$+j$+Fm.Pt.k$+l$+m$+n$+k`.1p.o$+jt.Bf.>.+Dq.Te.k/ lo Bi B- o;.p$+S].PY.s).^B.q$+Dq.Mh.r$+mm.$l Fh.Sd.s$+zv Lt )w ~h.t$+oe.'X.*<.h|.u$+t$+Gz 1u #w )v *s t^.gJ.~g.gJ.8t v$+#p qq ;g._A.dk.w$+g].x$+.E.$;.}u Gi.F,.y$+TS.z$+A$+B$+C$+                                                         ",
"                                                            D$+|5.P:.E$+/j.F$+ws -e.5).Cu -w 6n ,o.Mw.:v ut.fk.#l g~.Gh.G$+b.+} +<v }v Cm k/.Fh.xs.;w $r H$+n +I$+J$+vA.K$+P++Zl Td.4c.L$+2$+@x 1Z.+l &$+&e.Te.M$+Sx tY.N$+ib.&*.vC.Ai.Pg.ys iv O$+P$+Gd.Q$+ub.)b.R$+S$+T$+%a./c.U$+R +.b.V$+W$+%y X$+Y$+$B Z$+#r Ts Wt !).Kv Ew =v.`$+ %+.%++%+@%+#%+m!.a^.zo se.3m._v ry .,.Yh X@.gg GV ..+',.$%+.z ,f.QY ;-.DU 7j N'.[].%%+Z+ `y.A(.&%+*%+=%+-%+qg 2o 8Y &).5%.;%+>%+Uz.,%+'%+9e .n So v{.Wj y$.)%+!%+~%+=q Xz Nm.O~.X@.Tu rj Fw B,.+m {%+j@ x- tA RV =v.lW )` bX 'd Ni. q <R.Qp Un Lv fW H..fN._s o+.Y8 ss.Gp Oj ]%+_n v#.$ +.h QA N'.^%+.k./%+(%+_%+:%+%w.<%+[%+}%+Oz I#+|%+zv.{d.1%+2%+3%+:q Sg.k#+4%+OY.]-.},.5%+6%+#e.7%+1j.kg =d.Td.9i.8%+/++Fh.y;.Hz ,I.#l 7n CX G$.7w.,<.V*.v/.Yw 5q Vr <v Wi.0j.kf.Us #w 8n ut.Il.7l.uh.sq _t 5t wl qp [t Gi.oy De.Fe.9%+P-.iM ~<.0%+a%+                                                         ",
"                                                            b%+!$+c%+lM _*.jB .*.sZ.y$+d%+7g.Dm.G#+i~.;w 9n /v Ao.=e.Bo , .e%+#;.Ts G#+jt.f%+g%+]h Yl h%+*b.!|.i%+hg.yL.,#+@x ec.Bk.Nr j%+-e.5q.9++9++*e.Bk.Td.1n.cx [z yL.cc.xi.eD.k%+C0.l%+Q++n&.m%+R +(e.Nf.l&.Ic.fd.n%+s=.)b.o%+p%++b..b.P8.q%+r%+s%+i@+Fr Tr Qt hf.Vt {u #w #i b9 t%+u%+v%+w%+x%+[#.XV +f Wg.@s Rm kr y8 N!.X{..C 1H lh.}-.wr y%+z%++..&R.KY Zk lZ 5j 4p.}X.A%+B%+C%+D%+2Q.Db [h $f Ai E%+<p Fk.n).8-.F%+bw.ar.O@.b8 <r _~.!s #+ ju.G%+F*.]z.Xz -d.0#.{`.kp vq C+.*n H%+I%+J%+3].V'.PA nz )` Ep Ii.Gx.e#.K%+w` .o ff L .!s *n g< L%+M%+Jh 6l 0l 3g Ck ~g tl Lu 6n -T [J.2R.N%+o$+[n.O%+P%+k`.(d.[p.pb.Bm.Q%+a#+3$+Xr Tn.vu.J#+R%+Y{.d>.z- =X.DX.S%+/].Di.k#+T%+Bs.qw.U%+We.V%+W%+Bl.*d.kg *d.8%+Df.t$+P+ i%+,<.|f.@*.X%+R{.!w Vr g].L!.wt.p].Bl.3u oy {u 6t zp.~g.U;.%;.L!.0j.g++Y%+9t Ce.8g.pz ] .Gn.Z%+`%+ &+                                                         ",
"                                                            .&++&+C2.@&+#&+jB 7c.$&+%&+P{.kg Fz $l As.#;.Op.Dq.5..f>.&&+*&+=&+Ee.-&+Bq Nz O!.VA ;&+I#+iZ >&+O_.7w.=- QK.Wq My M$+jt.jc.,&+/m.Ck.bs.rv '&+o$+Bm.,#+fo.rb.)&+fb.oG.yt 0e.~j.8O.mk.ji.'=.yj.f9.!&+ga.F=.=a.v9.&a.n%+%a.R +~&+(`.{&+5h.]&+^&+/&+GV qx ~!.Nt Mw Zs qp 8n +m s8 }`.B~.(&+_&+^D d^.u^.se.%m 9q 'W `e ;e 'T 5..La.-q UF.:&+<&+[&++;.LX ]#.9A <J.uY h-.}&+|&+1&+2&+S+ =T x$.'T y+ Y!.XH Z++3&+9 .-T YW 4&+cn ],.3].rj ~m ,i R>.0N.8G 5&+xU (p H+  C &w k,.}o [s Qn 8d.6&+7&+!>.&,.OA vW zw 5o sy 6@.Bj Rf |s I>.P;.)` ~` 1o 8&+9&+0&+Vi 't /n gW 5r Ik +p Ri %m Ph 'i.:k.a&+Hr Ht b&+c&+d&+e&+f&+g&+$*.:d.h&+kc._r.i&+5p NH.vu Py 8c.LB n;.(].Y,.S].zi.j&+qw.k&+qn Oz qn 8g.Kh.Sd.l&+m&+`l.X{.7j 1..B&.,[.v|.]_.X&.n` .x =d.f++xy _v C{. j.n&+kW.Nh.#;.Aq | +lH.kM.qq.#w He.,$+7j.$w !!.o&+p&+Rl q&+r&+s&+                                                            ",
"                                                               y|.t&+u&+v&+af.Hd.<J.Qz Mh.w&+Dq.Ez 2m.Ug.~h.Jj.x&+Wz @*.(-.Js y&+nj.z&+H#.Dm Ww Cm Xn.IW A&+B&+fA.C&+yL.D&+E&+Iz.Iz.kw ko `q Hy F&+G&+hb.H&+I&+J&+K&+L&+Is *K.i`.RZ.'m.M&+Q++mg.ha.tg.R +N&+v8.*a.l&.)b.O&+70.aa./c.aa.v8.p8.j0.Ua.P&+m0.@@ <j.Wl 3R.Nu .u )v :u nj :e KA 5d !$.Zk Q&+$+.H#.%i 8q #w Rm Ut TA VS.`+.TW 8/.T= R&+S&+T&+;T zx >T mc.%C ^@.fn z'.xY.U&+V&+W&+kH.tA ]y.aq.n= ;k Yx.^= X&+Y&+Z&+Z&+`&+m-  *+.*+MZ.R;.+*+6U.K#.@*+'r.mp.%'.v;.k@./e &!.J).'o 58 go &_.;X.g+ Hw.0 .pX l'.]d $..aq $k /r $k 2'.zT.!V xA NE.#*+$*+%*+|9 |r 6~.wk sa !t &*+oU.Qv [].Dr tn Bj.Hr **+:%+=*+<%+-*+;*+kc.>*+,*+'*+<n.ax e&+,#+)*+Hz.!*+mc.wk.~*+{*+3+ Y=.]*+ob.qw.^*+,d./*+(*+Kz.Xn.Oe.8%+yk.wu !*+.d.;@./:._*+c2.M%.Bb.:*+<*+jf.Hz :v fk.VD.2u [*+Wz }*+tl.if.#k.<u Qw 0j.Vl.n'.}u qy.Vr } +|*+~$.Ye 1*+0C 2*+                                                            ",
"                                                                        3*+{+.yl.,C Ud.1c.Ck.:m.ow  j.{@+xs.4*+YA &z.5*+6*+uu.7*+VA 8*+9*+0*+jP.Rn.a*+Uz 9(.b*+c*+d*+N$+kn Ds e*+Gz.'l.*K.4~ @$+xi.Ds f*+Ej.g*+h*+|y xm.i*+~m.xa.$Z.%i.co.ll.j*+k*+j:.=f./`.Qb.:b.yj.R +l*+i0.Da.e9.N#+ia.Rb.d9.Ba.0f.{6.]E GV 7Y $w is.bk.Ax sy m'.Nt #;.9k >p %m m*+kY 9k @f i~.9k jm Ot L++Ks pz ;T 3j bZ #'.Fn.i7.IU +q 8j pm.5j Bw.{G Pz.vv.n*+o*+jl.q@+@+ 1!.p*+!K.q*+x; r*+s*+/7 t*+u*+v*+w*+x*+X>.I%+; +@m Xv H .&@.y*+z*+RF.o+ WB zf 6n Rm 4#.CA.ev A*+B*+3G /@.(+.Ia =t Ix /v +Y e#.&h  k Dc C*+D*+E*+F*+G*+H*+I*+F` vq [s  k /n Xd Fh F .mX }m.$*.J*+OH.Pn.|n.K*+L*+M*+N*+O*+,l.,l./n.f*+hc.My We.ex.P*+<c.On.XA *g.ZB 2+ Q(.{l.y).Q*+R*+S*+Cm @l rv N$+T*+U*+$*..*.&&+V*+4;.j%+W*+X*+r|. K.`=.Y*+N].Rx wr.fz <v  j.sU.Z*++D.Re.R%+Mh.`*+Wi.Ce.wy Gz  =+Ae.Xk.tr.L!..=+$h.+=+@=+#=+                                                               ",
"                                                                        $=+[-.Z(.G9.%=+6p :q lo 8p Dq.&=+ys.Sn.@v.yi.~@.A%.*=+ZB ==+Nx 6g.cc.-=+'&+=e.Xr d(..4.;=+>=+Hd.qb.db.,=+'=+h*+)=+!=+~=+Ln.B.+8++{=+]=+8w ^=+/=+Hd.c.+(=+wa._=+wg.iB 7$+tg.*f.:=+<=+&f.*f.k*+N#+#0.=f.i0.*f.[e.!c.[=+Wa.,0.2Q.5h.}=+Js.Vw tt.]g.'g.|=+t^.mX 0k sw 4).kp 4m.5k Xt 5k Jx xw %m Zs MA.{!.c..O~.fZ [E _p :{.1=+#7.B;.%x Vx Qy tE OC zx.2=+3=+4=+5=+HF /+ 6=+7=+8=+9=+x% c. o~.D#.[Z >++gy 0=+a=+b=+c=+8q.N#.d=+1Y Pj mf }#+e=+f=+gh.1H wu op qw Ou.:j [p .@+xA.g=+JW QV ]h oy ;r -..UA %u h=+dn.xZ t{.i=+N~.Mn M).#- j=+n$.+p JZ 3g k=+C!.Ik <Y 6n 4j lt.#*.JC Pn.PW.:%+K*+O@+l=+m=+va.uA.n=+*F.o=+yb.$&+}%+l=+p=+zm.4~ Og.',.q=+r=+s=+/j.IB mu t=+My Gz.<d.Nx %C.Oy sA fD.u=+kN.},.v=+w=+'|.x=+y=+z=+4..f%+jt.<*+d%+`*+yn.gz A=+`B 4++YS.V%+Dq.)w >d.Xl.De.B=+Qd.Xd.fp es C=+dy D=+                                                                     ",
"                                                                        E=+9;.r++Yf.@B $&+0*+F=+Td.l +a++l +Jt =&+w&+Tx <r.H^.fy.G=+v/.H=+I=+gx.Uz J=+K=+L=+B&+8z.':.:B.M=+N=+fx.Fj.dh.Gz.O=+wa.P=+yg.nk.Q=+Bj.7h.R=+Bj.S=+S=+yg./=+{n.fe.T=+aa.(`.ha.n%+0a.t=.40./`.U=+Da.:=+V=+d.+e9.+b.79.W=+}b.X$+!c.}=+7..kg 9k tt.Gx zl *;.m'.bt F,.)p Mt lf.8k qf.LA.X=+4l fd 6o 4y EY Bi 8/.`B en .S.fM.Y=+k7.Ia [v P].:r.G=+FB IC p++.Z.ov.(H ,@.9y w~.Z=+&e `=+b!.a!.$!.4j.L!.Dz sz cz 3.. - d5 g{.i +~G ry 2W .o NC  -+yr Kq wE (-.Kt Uw Ew S .~C .-+5/.7D Z%.{@.&w Vs n'.* .2#.hO.#n >o W;.z@.n{.U .Uf nr ('.jk Ui 6~.Wo 4g `d ^n Fk Bo.~!.cy 9i.+-+qb.ac.@-+#-+$-+@-+%-+:*.Y=.o=+&-+o=+m=+>m.G&+hb.Hz.*-+)&+oT.=-+&`.--+4; ;-+J`.cD.Ng.hb.ht.&C .d.Lz.Ny $*.qB nc.IB La.nE >-+,-+]x.t|.{%.Bb.'-+rA ;e.sU.@v.{@+Oe.)-+ *.6 .!-+~-+n&+sU.~@+yy ^v Xd.Xw f++ik.ys.Ih.Ts dy                                                                         ",
"                                                                        {-+]-+^-+/-+T&.6y.[j.N +K$+>.+Jt Fh.Ih.`w '#+(-+_-+! +p+ >I.#*.cc.Dt :-+)i.wC..g.e*.<-+mz.[-+}-+Ja.|-+-l.{=+ax.1-+2-+8w Rf.sb.R=+Ig.vg.3-+4-+5-+6-+7-+8w 8-+Gd.hd.v9.R +9-+=b.`b. c.0-+@0.>%.a-+~&+b-+=f.c-+w9./c.(`.79.e0.d-+~%.e-+rt.7n L!.Ut _u :n +k @m +m a^.f-+Ov Ws p.._z.xZ Ou.qj _v Az by.HA IU i{.`=.B$.N`.g-+h-+n7.oZ .).xn zk.vs 6A i-+j-+k-+l-+=z.(-.m-+]1.Oz.9^.O@.VW D#. +.pq.jF.Mo fd Ab uz W'.n-+d+.Oj.o-+dX qp -Y kY p-+(w +D /^.bc.0j 2u mX @k wi q-+r-+&'..C on mg %m rW P,.U..6o Ap.!m Ih 't o@.km #v Mi P;.#k -j |l Op Mp (o 7m.C+. q vy $x .x s-+t=+e&+t-+u-+c#+Un.v-+w-+v&.'*.Ng.O=+J&+x-+zm.)&+[c.0x Gj.y-+z-+y-+(y /_.ra.h*.Og.uk.A-+B-+P=+C-+Bi.Bm.5c.Bs Og.D-+E-+fy.,&+F-+'[.G-+Wc.A%.(n.My Qz %&+1c.Ww 6g.)R.H^.K&.H-+]z.1,.j&+`w xs.!++Qd.h#+I-+Rd.9i.=n.Qm.J-+K-+                                                                     ",
"                                                                        L-+M-+C++N-+JC DT.!=+[j.1c.Zi.1Z.%e.Bf.Oz qw.j%+fD.fy.T(._=+.d.M=+O-+'*.mB P-+Q-+38.Z_.8z.R-+Ga.^%+I&+T&.8s.R&.ml.S-+V(.Q-+)#+T-+T=+ie.S$+Ec.pg.U-+id.V-+pd.R@ ia.t8.v8.>a. i.Da.Qb.Q0.&=.N#+9-+=f.Mf.W-+fd.aa.8a.Qb.X-+Y-+L/.a9.eD Sz dA Uw p..(r $s Pw ye.>p @f { .}v +i oy Vr hr.Xt 0t ty Dv >d.<m.7p Co !h OC }@+!x Z-+E3.Jl 7n DX `-+#C PB  K. ;+[7..;+{@.uA ^p %].6/.]W._;.KA pq.as }o mb 08 lX hO.*` Qj.T>.Hk.+;+@;+Z%.& .im YY {h #;+lD N@ Py 7n (h $;+wt.4D %;+'K.|-.qA 3j.$l Xe Dq op -X yl  e  e Qi 0r %v Pn /r 5o Tn Qp qq Ih ~g ,d }n hW :r Hi._v IV IV &;+4c.wm Te.0++'w *;+4~ Rz =;+'C /k.O$+-;+;;+!m.>;+,;+';+x-+yg.`f.8s.P-+o&.&$.);+qb.,=+9s.,i.Dg.O&.cD.Rg.|-+_=+E-+!;+#8.[..Di.~;+n<.G1.{;+Ia.AX ,C Pe.];+Sx /m.[p.w/.^;+nE L&.AX >'.}z cx.!w ,d.;d./*+/;+(;+vr._;+sZ.Lz :;+                                                                     ",
"                                                                        <;+[;+};+|;+1;+D%.2;+.B nG.NH.s-+3;+3$+`q lc.Hz.4;+S&.5;+F0.7c.Bi.6;+5y.z +7;+};+8;+B&+9;+qX.0;+a;+b;+A-+{=+0e.7-+v&.c;+d;+Bc.f9.4x e;+v0.x9.f;+g;+pk.*c.{b.t8.c*.G8.@a.D9.<=+Rb.h;++a.k0.w8.i;+*a.j;+k;+7$+zj.fd.O&+/`.W$+N0.l;+2n.`++Bi mg -..Ou {u ]l cq 4).|u lr Tb kr g].De.Jv 4k .w ~g.{u 0k ]e Tt.Or vu z).]l.m;+n;+o;+yi ig +d.uB cZ p;+2:.dC q;+<j.&d.4n.+_.>x 8V.1).y#.jy ul .u 0c L .:s I>.K!.Tb `W v ..* PX r;+s;+`e km uW A%.n.+t;+XC ]#.H#.-!.$..u` u;+v;+cr.;#.y).'..We !v 3h Sm.Kv 5t  k E!.Vp Fk DA.|k.(~.*t 1X /f 5i bl hl fJ.KZ !n ar Ou.Dq ~k KV w;+@x xs.Rt.x;+7g.{d.j%+'i.:z y;+z;+P=+A;+B;+C;+D;+E;+F;+G;+H;+c.+yg.{=+yv.I;+q&.Ia.ch.h*+Fa.);+'y S&.*=+R=+E%.Y(.}-+ss J;+kx.K;+9C.d2.$=+WY.P$+G9.L;+M;+N;+5p 3$+**.qB O;+AX tt P;+Q;+S*+oj.>w 2z R;+1Z.8p nG.By S;+T;+                                                                        ",
"                                                                        U;+eu hG.};+J(.Zf.V;+y-+ch.oT.RZ.W;+X;+H&+,l.)i.Y;+|J.=F.C-+4;+fx.ri.~E Z;+Lf.le.`;+ >+i%+pQ.8d.T8..>+Jn.Vf.O +5-++>+@>+#>+$>+%>+&a.$>+ng.ed.=c.&>+Q-+*>+k0.=>+!9.->+n9.;>+>>+,>+'>+r8..b.Qb.)>+!>+^b.{b.~>+og.#c.!>+8a.`a.Dd.{>+qs *B ,k dz QY ++.7@.]g.Vt Wt 7o Az kY Dv %A.]>+0c }o dr tl /u ^>+o'.=W )@.'h ve.J(.EL./>+(>+RC js.0p (i._>+]%.0O.:>+<>+[>+yi EV }>+@y 3j c,.+f mX Kv Ex._j {r 3t }l 5o j@.2o =X |>+j].3{.1>+{e /v Rx Q8.'&.2>+bo Qy P-.6n Ix.tt.y=+wS.3>+tw.Yz (+.Yl -w L++=W Hw.nk Pu Vp iX.fn.tl oi Gh 9H.*X Ok Nn t`.v#.M0 `n |l Fw 5o Vg.vA.Dr }%+Bv.9i.a++Em.4>+5>+_d.*F.@e.^%+6>+7>+|q.^=+8>+9>+wg.8-+B;+0>+b;+/=+a>+b>+T8.c>+d>+nl.e>+f>+vi.g>+ah.pt bM.ki.M&.[Q.T8.h>+be.&<.|1.l4._/.bM.!*.] +i>+~+.<d.J*+%&+Qz ys Ja.lZ.eb.Tx 4c.j>+5p.V%+k>+}$+l>+N +&z.ya.4 .m>+                                                                        ",
"                                                                           n>+[;+o>+2*.U=.=l.p>+Fz.qb.oT.q>+~m.i`.<B.E-+d;+/-+P-+za.ol.r>+s>+8O.*`.t>+u(.d&.u>+h_.v>+w>+=j.x>+6b.y>+{k.z>+z>+]b.A>+B>+)b.g9.>a.gd.Aa.rd.;c.W-+&f.C>+H7.!9.|0.: +o9.+0.D7.(9.Wb.D>+w8.>b.E>+=a.F>+G>+1h.|e.(b.b0.h9.H>+I>+a. P*.v;.r).J>+(-.*X S..]g._i.C{.r` [v nj rj pj lf.]v Ni.8k sV r^.+m m&+K>+`=.0` L>+)&.):.63.M>+:k ^q |E.me.jg.N>+[(.O>+P>+J +Q>+!A R>+7).q` )o aq hd Ke jq jq vj tq I>.@Y R>.HA YB.:@.#&.!-.Qs J].Q*.<(.6N.S>+T>+uu as. j.&#+-..U>+.-+V>+r+ {h Bi ej ly Tb op zw._` @w  p rq /r Gl.Hl.A!.|r _j  q Yn .v 44 KZ ]n Gp Fw Jv H#.Kz ,&+W>+X>+sZ.>d.$$+ec.Y>+Z>+,*+L#+va.`>+!m. ,+.,++,+@,+#,+$,+%,+|q.0e.fe.8-+$,+&,+*,+bM.S&.sb.S-+7b.s>+_=+Q++~E =,+[*.-,+W(.Z;+,z cv.;,+k3.>,+Fg.:c.P(.kx.,,+@B ',+),+oT.j +zL.`&.!,+'&+{d.6q.,l.Gz.[J.~,+)-+R*+z=+lZ.hW.{,+                                                                        ",
"                                                                           T +],+R&+^,+8b.&,+R&.*=+Q=./,+(,+_,+:,+<,+S-+Ha.Pf.6f.ll.D0.Ig.Ig.4b.)# @$.+z .=.[,+},+},+KS.uj.|,+)#+1,+pg.@>+2,+ga.3,+4,+5,+6,+u9.90.ba.&a.)b.$0.7,+(9.|B p9.T6.D7.n8.H>+(9.8,+-0.*f.N&+s=.ed.W-+og.!#+9,+0,+fa.fd.ia.y9.a,+u. T>+gn _^.y- b,+o'.Rk Mo Wg.8n l'.Qt /e Ao Xk.,g.Su /u xl :u 3m.rg j .{@..*.Qg.c,+d,+e,+f,+g,+Ci P].Id.EC h,+i,+sC j,+k,+<w l,+xc.w(.#f ,r >r Xg.Qm lm.Xt 6t OA.:j Bl Bl j@.tV R-.x-.m,+;Z.>;.$g.q1.n,+H*.ur fy.}y 6q.Zh zo ]i.>3.9v ^.+h).TW dX Fe. i zo @s K>.6g 'o o,+Gk @v  n Pn Sp <s L .[s }n  e Mp 4i Fh Xn Qk oh.o!.[j.My p,+zv.Ck.>d.Np.a++'#+zv.i*+=*.Lz./n.q,+O$+{n.7b.Pf.|q.8-+r,+s,+t,+rd.;c.u,+);+vg.v,+vg.v,+7b.$,+S&._=+*i.7s.8O.w,+5P.1*.!z i&.x,+82.N3.y,+l,+^ +G$.hG.3b.gt.(r.z,+P$+~+.K&.C-+wk.Es ,l.A,+W;+Hd.4;+*g.B,+;S.OW.IX.C,+                                                                           ",
"                                                                           D,+1>.E,+F,+;m.pT.0;+G,+k%+ll.O=.H,+I,+Cg.J,+v&.la.ki.J,+V(.z&.v&.K,+L,+M,+WW.`7.N,+,[.uy..9.y=+Ic.fa.s+ B>+v9.{b.O,+s+ =a.P,+Q,+U=+R,+=b.*0.D9.Hc.S,+D7.T,+!9.d*.+0.U,+@b.Wa.C>+l0.#0.k0.V,+4,+|e.W,+X,+G>+Y,+2e.S$+l*+Ub.^&+Z,+_H xs k-.2r.(R.Qj.-f ry wy Tu Gi.fd 8n _i.V;.{r `,+*v  '+as =f 5q T0 >@.zi.p-..'+m(.sF `@+G[.4j bx 5A (N.&A +'+@'+;:./2.#'+]y Sa.{^.jj Bl 6t xZ .h ua )r >X +k yl (r 5o zo -..$'+d>.J^.5..7..%'+&'+*'+H/.|@ ='+7r.K>+=&+Ou -'+;'+>q W%.1D >'+n>.*~.|k ,f 8n .{.,u tl pi |n 3n rs.dr Gp ec Gh Pn 's 6r ,'+Kk /r 5m.Dx 9n Bo Wq Uz )-+Xr Bv.a++''+)'+I-+!'+~'+6y.{'+fb.]'+%,+7-+^'+/'+('++,+v&._'+:'+Pc.F=.ub.<'+Ad.Jc.w&.^x 6b.Cg.*i.['+vj.c>+}'+u&.S8.]7.Ic.|'+1'+m2.2'+3'+/_.4'+5'+nD 6'+nl.ow.^%+)C :c./*.vB M=+I&+7'+'i.a&+8'+2;+CY.H-+9'+0'+nE %@.a'+                                                                        ",
"                                                                           b'+7d.(1.c'+|J.5'+d'+~#+z&.s,+T8.v&.^x da.#c.%$.H=.D +z&.*i.-m.e'++i.Kb.f'+l:.}b.g'+h'+'(.i'+j'+e;+Yh.R@ {c.c-+E>+%a.{c.D9.q8.D>+k'+R8.l'+3a.a-+d*.n9.m'+J7.:a.m9.a-+a-+n'+%0.b9.70.c9.&a.R$+Dc.pg.g;+pd.o'+k@+~k.z>+b0.h0.3a.p'+q'+$@ ~i.fq.'..:` =f 6n cY Uw >l 9q #w lf.[j Il.:i.0X Xt Jx sX o!.ct Ue mA HW r'+s'+t'+u'+v'+;y 'i.|J.w'+%=.6+ vC x'+y'+E}.0O.z'+30.}d 2n Op hm A'+Xg.-f -X 5n e#.I>.kp -!.H#.iY (>.TH L$.tc.B'+!/.C'+]y H9.#C NW Ks [v ]e D'+3V.V*.LS.FE uE >'.Z-.{e > .)r as {r ni fN.Kw.jl 3s ~m L .S`.lb qq Pi hm `m WZ ]`.tl S .&;.cx.cc.@$+p,+QF.S*+Rt.dl.E'+$$+F'+*-+pb.G'+H'+I'+9>+J'+j*+Mf.ed. c.K'+L'+eB M'+0d.yj.4*.(%.N'+(f.kl.$$.'=.%>+S8.O'+Lf.]_.};.4h.Ta.L,+P'+SA.-<.Q3.3'+Q'+m%+H(.Vh.=,+R'+S'+sk.T'+U'+1*.V=.O$+vk.g*+^%+V'+=l.F$+;*.W'+X'+L^.Y'+Rf.                                                                           ",
"                                                                              Z'+`'+}/.h>+(%.n&. )+~#+=y (f.Oc.!_.;j.}h..)+]7.,j.Q$+Oc.j*++)+|A [_.@)+&E R9.^|.h'+#)+}7.$)+%)+e=.R,+U=+k0.k0.k0.C>+&)+*b.(9.8,+k'+)c.*)+!9.:=.T6.l8.z8.s9._9.=)+Ub.k0.E>+Nf.&a.v8.Ic.rg.z>+z>+|e.Y,+-)+;)+jd.~k.s+ >)+,)+f:.{E %.+$@ oZ :` U..Sv Sv %m *o.7Y dp ng 5o Ri yw Hi.Lu Gn =m n'.De.Ss 8g.by M#.lw.6v ')+))+:8.^:.fh.cU.)@ BC c[.]#+L8.!)+~.+~)++y Vc.>*.FA.(t :s ]u )r *X Uf 8k S.. v %b op Ye #Z.3b.#e.R= W1.{)+)n.L/.M&.J&.|c.@x {!.Ps ])+^)+8+ /)+n-.MZ.(#.()+k+ b/.>..RY pj _)+$v fn.|n 4g Gl.2t :r yl Sp fW vq B{.>v Hl.H@.Bh ay }v sZ.Uz R*+Sx (*+Bf.Np.:)+<)+[)+9++cc.})+|)+]'+,m.D;+7e.'b.1)+2)+}b.$)+3'+j(.3)+4)+5)+3f.%$.F=.v0.j(.6)+7)+(A ]c.Q0.~7.j(.7=.Wb.Of.//.x5.8)+f_.%7.f*.hi.e'+ )+ka.T8.1x H;+P$+u&. )+9)+0)+a)+f>+b)+a&+j +8s.c>+~E c)+d)+e)+EB f)+                                                                           ",
"                                                                              *8.g)+(#+h)+i)+j)+k)+#>+j*+%$.%$.)# 0a.>=.l)+'j.tg.p0.%>+m)+80.*b.D'+I7.0=.^S.f2.C_.8z.=9.2a.*b.j:.9-+l0.a-+=)+-0.;0.`a.y +n)+,>+o)+`a.58.z8.S6.58.=7.=7.|0.!9.d*.a-+>=.v9.]b.fd.!&+Ad.p)+#c.fa.id.Pf.~>+2,+9>+q)+('+Zb.Ub.Dd.r)+$B xs c..vo #i 3 +Ur 6n >..n` e..0{.&w _u sy Wt .{.6t se.r` -w ]h Yw }r.Vz 8n.Lb.'/.s)+t)+i3.u)+7a.v)+&E %=.I7.8&.78.c|.:8.}(.w)+Wa.Nm.Tv nj yg 1k Sv Cw Ii.sx 0k oy KA }r.ss $8.!+.Va.x)+y)+z)+;y jb.zi.Jj.lY }u Wl A)+B)+Lb.8n.{G wi 8>.;@+9..QV fW.<+.[h yw Xp Up !j xp Xn dq _j Tn Su _j Rp +k Oi 6g It.kf.9k Jj.G0.2$+5p Bv.=n.C)+D)+E)+D)+a++F)+v-+o=+})+hc.G)+ah.O,+H)+I)+J)+K)+-0.L)+I$.R8.i0.c(.h:.2b.Xh.M)+N)+6&.O)+P)+ $.'c.WW.d&.`;+Q)+j(.R)+S)+T)+U)+p1.V)+W)+h>+x>+Q++R=+H,+8w X)+Y)+!_.Z)+]7.Oc.A;+a)+`)+'*.Q++ !+.!++!+@!+#!+$!+                                                                              ",
"                                                                              %!+&!+-_.*!+y=+=!+=!+p0.(e.4*.90.L,+K%.yc.3'+-!+;!+IS.&=.]c.M'+d=.>!+i9.^S.$9.h5.,!+'!+-}.)!+!!+~!+{!+F7.]!+*b.1a.^!+q9.:a.58./!+(!+_!+~6.}a.T,+48.D8.J)+:!+<!+20.}b.*b.[!+H=.F=.T++Aa.ea.#c.T=+}!+|!+pk.rd.1!+q)+rd.2!++0.}b.]&+!+.`=.ap {e r` fy r` Ye N!.3!+&~.Z'.1].j ., .kr 7@.Mo Ws Y++Nv 7Y xn Ld.7..;i.#z n@+sC 4!+~`.5!+/e.:/.6!+c:.D'+'4.7!+8!+9!+0!+ZR./X.p9.a!+lX.`W nx vz nr 70 ey V+.4y b!++i.WR.F$+B(.c!+d!+;&.oa.:B.#C rv on ~h.Ts Oq.e!+Nq [;+go FC ]+.4n.Tg.vf -e [,.f!+L+.kf ,u `m /).Vj Fk 8m Bo.yw #h D` Bh aq g++5k $s v` n'.<*+g!+Ky Nz ,Y.h!+C)+&e.Em.Rt.i!+*;+j!+k!+H#+l!+m!+ca.n!+e=.!9.o!+'c.s8.>%.~7.Of.;!+p!+q!+r!+IS..$.!%.qZ.-3.Z0.s!+`8.`;+`7.t!+u!+AS.2:.v!+i%+$}.w!+x!+y!+v0.z!+A!+B!+n&.T-+j;+j*+le.1A 4h.C!+5P.w&.c>+t,+Y)+K,+Vh.5'+D!+E!+gg.                                                                              ",
"                                                                                 F!+G!+H!+I!+.8.J!+i:.v0..c..c.K!+L!+N)+M!+N!+ 8.WW.-0.7)+0*.f'+O!+L +U$.P!+Q!+m<.R!+S!+DO.T!+O8.1&.: +!9._9.:!+V6.U!+X0.W$.N6.V!+O4.a7.W6.W!+X!+Y!+$=.69.:=.`a.]!+r!+t=.C!+gd.(f.Ea.jd.0,+Nf.+>+C;+5-+3-+Z!+`!+U-+(b.j:.s9.jl.4D oc.HV +l MA._u 5o Fz SX 7#. ~+Of z>..~+Dy oV Vs Ax se.vz +~+cj GY .C ul.2E.eD x+ [B @~+#~+!1.$~+$$.w'+%~+&~+*~+p2.=~+V9.<>+b_.2:.-~+p1.F!+|E ;~+8d cn.Fb uz rC.6H >~+N0.r&.ot ,~+'~+)~+c,+l%+rm Sq lo 9i.*{.!~+~~+v@ ~^.[-.}+ (p U'.'#.1v QX {'.sp.PH ~` Ni.qq {~+Xp mr.@p Ex :i.v` Vs 5l m].X .Tu ]Z .E.Ix.FY :r.Y=.Kz.!h.Lt b#+]~+P++a++g#+^~+/~+<%+(~+_~+H#+:~+W,+L=.w9.P8.<~+!!+-#+{!+[~+}~+>!+|~+1~+: +2~+e(.|~+W!+3~+4~+59.r9.5~+A)+6~+c[.7~+;3.8~+9~+s<.0~+b(.4h.dd.J!+&f.l=.dd.c(.9-+R8.t=.a~+b~+Xh.:'+O,+O,+c~+d~+e~+f~+oD g~+h~+i~+                                                                              ",
"                                                                                 j~+k~+O+ l~+m~+n:.K!+n~+b(.R)+)%.o~+p~+l1.q~+r~+:&.0=.j(.d(.s~+e*.t~+S%.u~+q5.T_.>(._5.]#+5&.qZ.|&.P. 8&.v~+0~+,~+w~+;9.~0.e7.w!+x~+Z7.X$.4~+U#.y~+P. z~+q~+}b.0(.'c.R8.tg.F=.Oc.A~+1h.pg.ng.7e.B~+C~+`!+3e.D~+ld.R$+k*+U0.y0.oa.mv rA Ss MA.,v Lw >p 3+.$-.E~+F~+G~+ar.DU Pd.ue.*;.C{.Vr !v *d.Wr Ky Qg.fy.IC ^7.9(.H~+X9.I~+J~+<h.K~+L~+u$+&b.%=.Z9.M~+N~+O~+P~+7~+5=.Q~+/a.R~+S~+}j M%.T~+U~+V~+BC =j.A0.W~+3(.X~+Y~+)C Mg.1..lo 0 .dp IV T0.>8.8+ Z~+Gm.'D ` +w-.1y Fz { .O@.XB Ls.<n 'g.ni 2s  w `~+T`./r (~.b+.Li Nw .h -f  {+.{+aq l'.P-.uu.^;+Iz.Zi.<)++{+@{+#{+a++${+%{+&{+x;+*{+={+@$+-{+_=+;{+>{+,{+'{+){+<&.n)+20.[&.!{+~{+{{+'{+B8.O7.4=.{{+_B 5  ]{+^{+O7.{{+/{+{{+b&.26.8~+,[.p4.({+_{+j(.Ba.d=.Pb.Q8.d&.WW.)%.d&.:{+_{+<{+.i.z!+h:.[{+@8.}{+e;+e~+|{+1{+2{+                                                                                 ",
"                                                                                    3{+4{+5{+5{+6{+7{+<:.k(.8{+9{+0{+/5.a{+QD b{+p~+`7.)%.T0.zc.'++T,+p9.c{+U4.7[._*+]E.i[.0~+3&.]{+-3.a7.`5.L7.Y$.d{+:1.e{+a7.a7.i8.;9.X$.f{+Z$.g{+w!+1&.N)+b=.~7.cB J!+$)+h:.mg.Oc.j@+k@+h{+}!+i{+)f.j{+jd.V-++>+k{+R$+IS.<e.:h.l{+pz 8y 4q Aq kp [v 5..m{+n{+l/.o{+qE ~e Cw Xt Gx 3o )p qw 2q `k (i.v/.JW zl.]%.p{+h9.)8.67.U[.q{+sg.~c.~c.4a.Ba.l@+P7.r{+h7.O~+s{+(:.M!+r9.[a. 7.t{+x~+<a.1=.*A U%.Z,+u{+v{+5:.]&+J +5A `B G^.IW >@.HV &m.}6.w{+x{+kx.S= oM.{h jw =l Zw KX 8..U-.[h _u m].(r Nk 3s hm 4s Un |r [Y jF.Pv Cc j@.C=+> .Gi.Dq ko y{+/$+0*+>d.z{+A{+Mx.B{+Lx.Wl.ek.=*+C{+D{+E{+(%+F{+/,+('+R,+'++G{+Q7.H{+b7.I{+J{+<~+~6.Y!+/7.u~+K{+59.L{+/8.M{+-3.N{+{a.t{+M{+O{+P{+.}.Wx.1<.|}.#9.Q{+6=.2~+b=.d&.'++R{+;%./5.v~+S{+T{+U{+A:.V{+W{+X{+Y{+Z{+`{+ ]+.]++]+                                                                                    ",
"                                                                                       @]+#]+$]+%]+&]+*]+=]+)/.o0.-]+;]+:{+>]+,]+']+)]+u!+rV.!]+8:.~]+{]+x2./a.]]+^]+/]+(]+5&._]+:]+L{+A8.y~+e{+T&+;9.y~+M{+x~+Y6./0.y~+@6.Y6.w~+<]+W!+:=.n0.j:.j:.Pb.[]+<e.}]+Nf.gd.$c.Ea.Ad.pd.|]+C~+1]+kd.3-+D~+2]+od.a9.ia.9f._C 3]+8y Lt LA.Ou lr aU.L#.4V.t*.4]+IY (e se.<z.tX tX _v l'.`e GY zi.uA ~i.7c.lB 5]+l;+6]+7]+P'+h1.&A 8]+fd.2!+aa.Wa.9]+0]+17.a]+b]+g|.c]+*A d]+C:.e]+Ed.(:.ug.P9.%T.f{+f]+w)+mk.g]+h]+Y=.Ka.re.KV io i]+j]+k]+[%.</.1+ pu `k dx cj oc ap cp Qw.Ve /v Cw Xt as 7t 0r )t $k U;.fk Pv mU.|o 7j.Ii.xw Cx mX ~h.[z fZ.l]+l>+m]+Wk.n]+%k.%k.o]+p]+q]+r]+s]+t]+u]+e*+,;+S=+v]+w]+x]+y]+0~+z]+A]+B]+C]+D]+_]+E]+y~+F]+-3.]{+`$.G]+,~+~<.f{+;3.T#.H]+I]+5!+J]+K]+,!+}|.L]+M]+}=.~{+4=.z:.m1.N]+O]+P]+Q]+R]+S]+T]+a{+U]+A:.O+ V]+S/.W]+z'+X]+                                                                                       ",
"                                                                                             Y]+Z]+`]+;8. ^+.^+s:.-^.{R.+^+&^.@^+#^+}b.b*.$^+%^+&^+P{+*^+=^+;3.&(.-^+;^+>^+,^+#%.'^+^0./0.X6.<b.~<.y~+y~+)^+X6.i8.W4.d{+G]+^0.!^+w~+-3.~^+6)+*b..b.IS.g=.D9.H)+Ic.mi.Ea.ld.{^+9>+]^+4e.('+{^+6-+~k.#c.pg.fd.|Q.*=.pa.bb.Nr mx Jv :n sx *;.r>.^>+^#+~e Ab De.nj Mt es C{.8n 9k #;.$l 6,.Ld.nu +*.}x mi.^^+L=+`0./^+^2.6|.(^+=c.Gc.R +-0.)0._^+jC :^+E3.[-+<^+[^+h3.}^+O2.|^+|^+g<.1^+a_.2^+3^+_/.TV.4^+Og.;S.2..tY.A=+_y X4.5^+H*.pD L>+UG.%C um T0 :k 2R.Fy :A.Zh nj p..:n Rp :s Io Go }l 0c Fo Ax Su Po Lo ,v MZ tX )v -..&d.6*+cf.z=+R@+}u kj.6^+%n.7^+1z.Mt.8^+9^+0^+M*+F)+a^+b^+Q=+D~+c^+d^+8&.e^+f^+.%.L]+g^+h^+L]+.%.i^+j^+^0.k^+g{+<]+,~+y~+]6.({+e{+)^+l^+m^+n^+o^+S_.p^+~<.~~+q^+Q{+6~+5~+r^+EP.s^+t^+u^+v^+w^+x^+y^+u@ z^+A^+v:.B^+C^+D^+                                                                                          ",
"                                                                                                            E^+F^+G^+H^+I^+~.+J^+*%+K^+L^+M^+7:.r(.N^+O^+P^+}7.Q^+R^+      S^+-3.T^+U^+B[.-3.N{+V^+V1.7]+j^+}9.J^+W^+X^+=3.Y^+a[.Z^+`^+{{+,c.a-+yc.Of.M,+p0.V%.vb. /+(f.Ea../+)f.+/+Pf.g;+@c.{^+~k.*c.og.od.Qb.30.1A 3x ,&+, .Gi.Wg.*;.8n  t 'p }u l'.De.9q #w dk.@/+=f Tw Wu.Zr +l ;e.}].{q <c.5w [A 8d.eU.#/+$/+,:.N:. [.%/+~++>a.]++&/+h9.|B N7.A8.+%.*/+%7.+%.n7.=/++%.=/+-/+;/+M8.KS.{x F$+zi.lo wu PV IB Ye.>/+,/+<7.'/+]H m,+@'.9-.{G BU R{.hs.hf.;w 9q XD.gJ.7t wZ./u Tn }t @e .w Fo 5n (9 vl Sp 7r Aj v` qp Jf =d.tm C-+JX.)-+s$+dl.Qd.Kx.ws.)/+!/+9l.~/+Wl.''+{/+]/+v-+^/+//+da.(/+_/+z]+77.:/+:/+a[.</+U#.~<.[/+</+([.}/+F]+t{+|/+y~+:]+U#.;3.w~+1/+2/+3/+   4/+5/+6/+7/+6~+8/+.^.z^+9/+#M.l9.0/+*%+a/+|^+b/+c/+d/+e/+f/+g/+                                                                                                      ",
"                                                                                                                                       h/+i/+j/+k/+l/+m/+n/+F1.o/+p/+      q/+r/+s/+t/+u/+v/+w/+3~+7]+56.E[.x/+<]+%7.y/+z/+A/+Z^+Y^+}/+B/+|~+9:.F!+Q0.i:.Xh.+i.}h.mi.Ad.pd.rd.]f..,+7-+~k.C/+~k.{^+ld.9e.b0.8$+Qb.^c.D/+bb.(q 2R.}h ,r Ou vt.rp ; . v E/+Xt Ut >l 4).se.#h.0k MA.{e )>.{#.Ky }m.!C bh.=m.F/+dU.G/+H/+I/+n2.<}.J/+2b.90.8$+Qb.X-+l@+*Z.i7.k7.K/+L/+]a.]{+/a.]a.N7.h.+3a.m%+Y(.`&.Z&.6g.M/+Pe.mc.N/+F6.O/+Q+ P/+5-.RF./>.lw.}D 5j Rx Os %m sV Lu Tp  q ]u 1t 4s }l L .Qk Vn u` Tu Xt 6g ~o <j Gp n$.tX ZX ;++ta.;*.Bb.U%+;d.Q/+R/+n]+S/+T/+1z.U/+R/+V/+z{+=*+W/+X/+,;+Q=.J'+Y/+Z/+`/+ (+G]+j^+i^+.(++(+,^+@(+i^+B]+J^+#(+P%.$(+%(+&(+*(+=(+-(+;(+>(+         ,(+'(+r1.'(+)(+!(+~(+{(+{(+](+^(+                                                                                                                                 ",
"                                                                                                                                                                              /(+((+0[.!3._(+:(+<(+[(+}(+2=.>c.:(+n++|(+1(+2(+W^+3(+;3.#%.4(+)!+R)+5(+6(+|h.2b.=j.7(+|e.ea.Gd.1!+3-+C~+da.ld.G>+da.id.k@+gd.b0.Zb.yj.9f.5A **.1y Gu [k js.v` #A.sp }t lX u` Xt t^.:u Wt =m _i.Ut 4q ,I.US.Nm.!C zx.8(+qT.9(+H +0(+/:.$%.a(+b(+f3.:^+Qc.#c.R@ e9.bd.,c.|0.69.Z9.]5.w7._a.08.20.j0.eB {x Ia.ys ]*+6..zi.c(+}y d(+'<.e(+;].1/.N`.S(.sY 7n. ~.4H Dw.mt.Bq wy ue.Zv.3n B{.zp.(t :z.`n -i xx mU.5l q..Wt <s }o F .Tn .E.js.bj ib.:*.&k.*g./*+Hz ze.Mt.ZD.PA.Tl.`u.B{+f(+z{+Px.$$+g(+h(+i(+['+j(+Na.9:.0~+87.w~+k(+l(+e{+m(+B/+n(+o(+V#.p(+q(+r(+[(+E[.s(+t(+~~+u(+!:.v(+                                                                                                                                                                           ",
"                                                                                                                                                                                                w(+x(+y(+z(+G^+A(+B(+C(+[0.D(+v{+B[.;(+E(+6~+F(+N^+V{+i:.(e.2b.9e.-z da.7e.4e.D~+rd.7s.|,+@>+ld.g;+ld.Q-+g;+)#+Ic.>a.Zb.G(+gD.H(+Yl !v lr 8n zj Cl.`s Lw nf.sp OA.<t Uu 'g.Hi.4m.Mt Ts WW `B I(+Y;+{x 7d.c0.n(.&E I7. =.J(+K(+L(+`^.(|.&A ao.a0.v8.u8.j0.h9.3a.n8.|0.1=. b.3a.i0.;E Pq .*.}c.iZ Sx Dt M(+g5.N(+=++z'+1/.O(+~+.P(+B/.h~+8{.F~.5D O'.ow 6o rp Je Pp [j .w Ni._s _j 1X ul yx P;.]d h++U;.Vu lf.t .Xg.P,..x I+ F0.Mz nb.oj.zs.ky.Q(+1z.)/+R(+Zd.S(+B{+T(+U(+c&+g(+V(+W(+6$+6b.4*.r!+~^+Y!+Y6.L]+X(+ ^._(+Y(+Z(+`(+ _+ _+._++_+@_+#_+$_+%_+                                                                                                                                                                                       ",
"                                                                                                                                                                                                                           &_+26.*_+=_+:[.-_+DO.n:.;_+P0.=j.m%+=y ;c.w&.('+{^+pk.1,+7$+Oc.>_+q0.)#+&c.Zh.~k.%c.;b.s=./`.jI.fy.i`.@d.bt )!.#..rs.cr Wn 'o 2t ;g.:s ,_+{r _t ]v o ._i.+i $r %C vl.9b.'_+#z e:.XR.8(.5=+Va.H~+<a.)_+!_+c3.5|.)<.Rc.}V.}V.>)+yj.w'+W$+~7.Wb.ia.9d.)j.'y Dg.W;+Bm.lv ~_+O3.x5.;H Q#+1f.au C +{_+^W.}+ 3/.Hq o-.~G h'.7*+Xe Ou.Ki.Zj.Pp 4n M0 {r ^r 3t Bl  +.r>.Ep _u Ii.ay Xg./Z 5n j@.8y v/.]_+w-+eb.vu j#+Qd.oy.^_+/_+!/+)/+kj.(_+__+8^+m]+:_+<_+X/+G&+c.+[_+7$+x!+~!+}_+|_+q;+=_+1_+2_+                                                                                                                                                                                                                        ",
"                                                                                                                                                                                                                                 3_+4_+5_+6_+t!+7:.//.=m.hi.%$. )+Gd.iB ea.Zh.Q-+;c.9e.pg.Mc.T=+Oc.hd.Ad.Ec.Ad.(c.90.ia.[h.Fg.h]+we.ig @;.6t 0s 2t @h.5s {~+3t rs.dr Uu -r 7t 6t Zs ;w zm }r.Lz.0w 7_+8_+[h.Kb.9_+d:.m0.D'+0R.m@+)7._0.0_+a_+U:.9[.b_+&~+c_+@i.;j.2]+8_+/f.~j.!j.Yf.d_+e_+f_+.K.g_+h_+i_+j_+R^.[/.A~.bZ.8{.3j cb.OE k_+s++l{.DU )>.Ug.Mm Wt vq Q .{o T`.Ik Ko ~o `v my ul kp zl I>.w..S..Nw Ou.St.4c.&`.'_.IX.Id.)-+2z Ox.Zu.S(+ e.l_+m_+p]+n_+o_+f(+p_+q_+D{+O*+r_+s_+t_+u_+h:.L)+<{+l^+v_+w_+                                                                                                                                                                                                                              ",
"                                                                                                                                                                                                                                    m<..E x_+y_+z_+8 +]_.@++de.@i. )+Mc.Q$+iB ./+]f.;j.mg.;c.Jc.k@+1h.=c.ao.9e.mi.zj.V=+40.A_+7w Ei.|z Ez ue.:i.]u  h.as 3s }o up 5s rs.2s B{.:s 5t 6o :m.ho.:j.za.B_+}x e'+[h.M%.P#+Rc.|V.C_+1V.N]+D_+H:.E_+F_+G_+-}.H_+Y<.P:.I_+J_+K_+V~+L_+M_+2}.N_+A[.v_.O_+2(.U>+P_+:_.s +W%.(y ne.Ry |].Q_+pm.9` q-.Aw.~K.cp ng f@+Dl.Oi.Ih vp [o a'.R_+%v %u Ew Ch Ii.lX oj rX 7@.5t #w Nz /B.p&.;*.S_+.*.iZ Jz xn.Mx.Wl.3z.mH.T_+Nt.U_+V_+vn.W_+I-+O@+X_+Y_+~m.Z_+B!+`_+ :+.:++:+                                                                                                                                                                                                                                    ",
"                                                                                                                                                                                                                                       b<.@:+#:+H!+1_. ]+4.+*m.=j.Q$+lg.(c.~k.vj.6-+da.rd.$:+Pf.2e.ki.Sf.Zh.Ea.S8.S$+~++Q0.|Q.j*.pt :E pn vz Lw @h. h..u (t 1s xq  p {r yq Fx.L .Hi.es 8g.ob.Uz ih.Ka.%:+,E ;E Th.Wc.5h._:.N0.n@+Rc.e0.U9.&:+K_+r1.*:+72.=:+-:+;:+O:.k,+>:+-++,:+':+):+!:+~:+{:++z ]r.)^.L(.JE :..`++5 .nU.6,.qe.'T }].TW nU.XX &{.De.Mo .u Ex.]:+{A.hW ^:+:o qi 5'.w..Fp Xv 'd Ri 5n $...k.Fi qv /:+{C i`.(:+T%+=e._:+Qd.VD.::+<:+p]+6C.[:+}:++{+6^+W_+C)+|:+j$+1:+@e.2:+3:+4:+5:+6:+                                                                                                                                                                                                                                       ",
"                                                                                                                                                                                                                                          7:+}:.6x 8:+9:+1A R&+e'+4f.tb.8O.Sf.ea.0:+8-+7-+vg.s,+pk.pk.:f.Gd.Ea.!#+sg.ii.a:+b:+9_+[*._>+G^.qV tX (r #k 2t wt.c:+wZ..t ~g.|t Ni.@w Wu.Gh.lo uC.On.d:+e:+Ia.}x ^r.wb.r%+8d.3'+uc.ji.f:+g:+c0.1B -~+U].o2.P!+`0.&7.h:+i:+j:+17._B v{+z9.M$.Ca.P0.^e.G +L*.] +OB pB j-.xs k#+i{.NW 7z jZ XX SW QV 6z >;.4j.rj mU.Sp ,u 5g  k mr.Up  o Dx xl .k Gp F ._z.Lw Ou Za ;e.a)+$8.Tz k:+3$+l:+cx.sU.Ce.m:+NL.NL.Vi.6C.Lw.n:+o:+p:+q:+i!+g(+K&+_H.r:+s:+t:+u:+v:+                                                                                                                                                                                                                                          ",
"                                                                                                                                                                                                                                             w:+x:+y:+'x z:+!^.=j.4f.-m.da../+Q-+C~+9>+q)+#,+vg.da.na.vg.$,+pd.rg.Ic.)# O9.b:+{6.P^.ME RC ho.Ts Wt E/+Uu bj.Ex.1s ;g..t Cl.Gx.A:+lX bt :q ax [z +B #g.E-+7w Tf.N(.9e.8]+B:+qa.sg.N/+7a.{++C9.P9.C:+Y$+y8.g,+1=./X.D:+^S.4B 5=+F/+7(.qD 3.+y'.go _p ',.%@.E:+%*.%*.`k mA 1v Rl D#+$r &{.[h jf.nw &{.I).hs.4m.V;.3s xp |n Ek B,.T`.<R.,d Qp <s 0c ec pj Ov 3c.Y=.8f.,*.F:+1c.@v.G:+H:+/*+'d.4i.Zu.I:+hm.PA.1z.ek.r]+d#+J:+l`.D{+K:+N;+L:+M:+N:+kg.O:+                                                                                                                                                                                                                                          ",
"                                                                                                                                                                                                                                             P:+Q:+R:+F|.9:+S. S:+sd.-z T:+-m.Y)+pk.$,+4e.|q.vg.S++na.ll.6-+g;+Ea.;j.ie.Cd.h.+U:+|A y(.V:+rA 8E.tX _j ~g.~g.*v Tp lM.B{.n`.:s 5t Od.~l.,h.6..**.gv ,i.Mg.xa.qt W:+_C X:+4b.Qc.Y:+Z:+*m.`:+ <+Nb..<+tg.50.(A u$+l;++<+@<+#<+su.kg.cU.P`.L+ Cw.&C <c.<E.pG.d+ E).Fi.~$.Ey P].*d.RA *` .).$<+&w pX nX ,~.Qv Lw #k ~m xp pi xp Hl.wp wp Vp JZ gk Tn n`.5o >;.**.%<+FC l]+R*+b.+&<+cx.8%+wr.Qd.NL.mH.}:+*<+=<+Uo.-<+;<+ur.c++tn.><+We.+-+,<+cZ.'<+C9.                                                                                                                                                                                                                                             ",
"                                                                                                                                                                                                                                                D= )<+!<+~<+{<+G&.,k.tb.n&.{k.md.Pf.Vf.5e.B~+R&.Rf.w&.Q++pk.Jc.u0.Jc.[h.w2.]<+^<+(:./<+p=.8x #x &;.6t ~g.<t .w 8m 6s `,+dr gJ.!g.1u Jz T0 %*.%*.!i.w-+iv ua._k.cv [x (x G(+S>+4f.HS.u0.6s./%.(<+_<+Bg.8e.9e.>E 3*.c,+8]+R&+:<+-*.lh.5 .ys 4 .IW Nl ~T Ld.(j.EU c` 9Y KX RY m~.3m.xy [v Uw (` >` * .U..[Y pj e#.Go 4m Yv !m Qu Qp Xp Nn tq Vu km 0q wZ kn mB <<+g!+a*+[<+d%+wr.vr.+r sU.4i.Ui.}<+Mx.Le.(o.Uo.tr.P@+T(+Jx.g#+'#+O!.N;+|<+!;+;X.1<+                                                                                                                                                                                                                                             ",
"                                                                                                                                                                                                                                                2<+5_.3<+>x 4<+jI.DC 8]+3*.vb.Aa.Pf.8-+0e.B~+8w Qf.ll.Gd.md.;E }h.ie.&f.5<+6<+x0.Uc.1=.7<+=K.gx.+r 7i.Qv Hi.!g. q :i.8<+:s 4#.XD.fz ct =n.K#.kn 9<+Qq Bb.Bs S_+_k.ts 0<+LE :<+a<+G(+Yf.V(.bx./f.h*.Wf.2A b<+c<+;*.ri.A/.4H Bb.Z&.|c.v-.LU 8y Ox .x qn #r x$.1v ct * .RY fz sV yw Ou -X Bz Ix rX Xe *` kY -X yl 0r &k Vp Gl.(j ^r %n Rp K>.E,.9q Ii Kz d<+%<+E-+<J.1j.Oe.It {@+7i.b.+~@+Lx (A.Yk.9l.Lx ZD.lm.e<+o_+W_+ek.,d.O!._d._H.f<+Y=.!;+g<+                                                                                                                                                                                                                                             ",
"                                                                                                                                                                                                                                                h<+i<+i<+0+ u+ 5E GC 8f.d~+4f.8O.vg.Rf.j<+xg.!k.k<+(p.;c.Q$+l<+l<+ii.N0.-^.&A 2)+e&.1V.D'++i.ui.Lz.a .]h 8q {u Pv EZ <t Qw Lw :u ~!.Ts Hm Jj.(+.vC.<c.+B +B ~=+m<+n<+,y Y;+Tf.sA.Zf.B_+,*.E-+o<+eD.Dg.p<+q<+&*.vu wY nU.d{.9{.a..Co on S*+Hz y&+Nd.Ss {!.pX _g.l'.Uw tX 5o 7t lf.sx zo ry zg FG.lr >s vZ )v |s ~g.wq dn.dn.`v I@.ef P;.,f l9 m~.6q.9w de.<*.Bb.QF.jP.H).~v .v.yy mj.Pd.)@+Ow. E.Zu.Xk.0l.`u.6^+m:+W_+ek.,d.l>+I=+]*+r<+BX.s<+t<+                                                                                                                                                                                                                                             ",
"                                                                                                                                                                                                                                                u<+v<+w<+x<+$m.##.^r.8e.8f.s&.Cg.Cg.&,+(,+xg.R&.ll.ea.Q$+Uh.$$.ji.Mb.y<+l(.d0.>f.e&.T0.0R.Cd.td.I++Rz ;@.rg r` _` :n yw Mw Pv Mt xW ~!.(h Jz OW *g.[p j%+1p :j.Ds Ei._k.5w n<+nk._B.jb.Is wm Kz  B z<+)#.iw iZ NW 8p VA $x Ks ef.!e  i Dq mX ~!.=a (` %m }u Lu 5k rp |t :j Tp ]u 0H.Ew )p 3Y 'W Cq R;.sX 5o Bo.Lv On }o `s >).dh =g.x` XX Z-.sA AX A<+O&.<B.X%+/;+7g.} +Ee. l.B<+As.Cq.>h.Wl.xe.Yk.hj.C<+`u.Jx.T(+D<+>d.E<+2z 4c.#*.V*+:.+F<+                                                                                                                                                                                                                                                ",
"                                                                                                                                                                                                                                                G<+H<+I<+ei.)K.P/+J<+ni.!z 8O.K<+0;+V(.Rf.B~+*i.T:+8O.$>+Q'+5a.Xh.M%.8=. $.O9.30.&/+30.T0.L<+&Z.&z M&.sW.Vx >..)p ,r lr n'.ty t^.Tu Qv oy =a Tt.Av.Mr 0x }p On.qv 8A /B.5N.Lz.Gj.h&+U%+Ql Gv Cm jP.gx [k .m Fm }v Yl Yw &{.Iz rg Xw 9q L!.<u M<+Ix Jx 1 +.u Mw @w o].qi Xp up cr )u se.Cw ,o.!v F>.4e f-+sj gP._~.$v |r :6 p%.) .N<+Vz.r@ O<+jB v(.Z(.P<+0x 1c.vr.b.+s$+}v Wk.Mw.NL.}u km.Xk.Xl.#k.Q<+*#+R<+S<+Mp.D<+p_+)h.2p.$&+<J.S;+T<+U<+                                                                                                                                                                                                                                                ",
"                                                                                                                                                                                                                                                V<+W<+9v X<+Y<+:{.ka./:+T8.F9.C0.vg.0;+8w Z<+Pf.Pf.na.sd.]7.l&.1b.]c.Mb.tW.g:+Q0.=f.tW.b:+2B `7.R9.Kf.|J.4w N'.b +o&+R;.h^.4j./v Wt Vt S..Pw.fz |v ym ym iZ Wq Nr ;++nb.Wq $*.&d.Yl tw Be.'h.Pd.}v $w #w H).0i.-w Mx -w `<+ze.Mx -g.Ev | +:u Lw .w.$s ~g.Qm @w +k  h.Zo fq 5s  q 6o <n X .l9 nX Vi +W cH.Tv )).On uq *p 0X 8Y :Z 4Y.P(+9c. [+M%.P(.va.(-+ep |*+Pm.~@+E.+`i.WD.*n.0l.oy.VD. l.zs.ik.Rd.Rd.B=+al.9^+::+.[+)h.Nz $&+P&.ZB _].xY.                                                                                                                                                                                                                                                ",
"                                                                                                                                                                                                                                                +[+R  If.}w L@+@[+{_+Jg.V(.ge.5y.0e.B~+ml.vg.vg.z&.*i.-z mi.tb.)# 1b.Wh.^c.(e.#[+70.*f.4 +bd.Uc.)8.$[+r%+/y |@ >'+9+.qX ~e H#.7g Sv Pv lf.>D.Ew 3m.Ye T0 VA .).Hm Yl (k |v #;.<u Qw ut.Ev ut.*s <z.Ou Rt kr _v zo (v tX <v _i.ze.qy.Rk *s 3o /u ~g.W`.'g.qp 4o ]g.wt.Ki.>v 2t tZ.6o Kx ry NA }Z mU t$.2o m'.rj }l 68 `v tX fY '..B-.r'+eu [_.v(.<B.%C.=e.Bs.y;. =+G#+Xw 5g.ck.Lx v$+`k.Mp.ik.s$+ik.Rd.Ce.Yk.m:+Jx.Wl.%[+&[+!p Kz }c.0` l;.*[+                                                                                                                                                                                                                                                ",
"                                                                                                                                                                                                                                                =[+-[+;[+>[+,[+'[+{_+);+~j.Vf.sb.s,+&,+{n.(p.C0._p.4-+w&.v&.=y e'+,j.]7.ba.R +8a.n%+8$+40.&/+2B +'+)[+`#.A_+![+! +YS.a!.~O.~[+= .&` sx ul Ew yz K!.js.-..=a ,I.{[+qw by.6n Lu 3K.-r `D.'g.Ni.Cl.`s @k wt.4o 4m.{u Qm ;r yw 'g.Lw :u Rw 'g.@w 6k o .;g..t rj @k (r +k U;. q 3t Xt @w 3e 5o r.._g.Ln ][+&` ak #v as v` $..-..9Y .C zL.m++.i.sd.-l.4$+Y*+4*+oj.Ku ^[+f++Vg.%w VD.KI.gk.m:+%[+L*+2Z.#w.2Z.xn.&m /[+<o.Vi.8^+~@+oj.1c.rA 1,.ar.xY.                                                                                                                                                                                                                                                ",
"                                                                                                                                                                                                                                                ([+_[+:[+<[+9u xv.oa.h*.G9.0;+S-+R&.*i.Rf.P-+^=+a>+C0.[[+fe.{k.Oc.W)+}h.Uh.f9.ba.b0.90.&f.tg.ad.2)+l8.k9.~%.<h.}[+z/.PB lA 9^.P..e!.D#.{` zw -f m'.I).kY wy 1k qy.Pw.Od.Od.a.+KE.3i.2t .t 3i.3t .t 3s )u +t bk.Lw 7@._i.}t Cl.Vt 5t tZ.]u KI.~r sB.|[+Tp nf.;v hr L .(u Qu ni tZ..u .u Ws @ .rz )'.1[+l` ~` Gx Ax Xt |u P-.oe.2[+c,+o +cU.Ia.ih.%C.ef.mj.Fy ]s %w 9t ik.0i.Qw =<+Vi.`d.3[+;.+C{+Cq.~@+4[+^A.oy.hj.5[+Mx.'d.Yi.Xn.nb.3!+6[+#'.                                                                                                                                                                                                                                                ",
"                                                                                                                                                                                                                                                7[+8[+jY.bB Mq {y 9[+a;+Ha.7s.C0.w-+7h.sb.:f.Bj.Qf.5f.t,+*i.ea.;c.7s.xd.tb.2b.5+ zj.wc.#0.0[+>f.a[+b[+N>+c[+b=.ub.3b.aD 5;.q;.A$.u).+C c/.6n Tt Aq m'._` Cx Aq ; .Ou kp Cw of.Hi.7t 2C.Uu  q |t 7t  '+>v NA.EZ 6o _u km 5t Pv o .Sw 8m ~g.`D.(t :j d[+{~+(u tl e[+Hl.Qp hr 3g.1s }o :j 0H.U..f[+5@.Q+.%..R>.5o Wt 4).FY uY g[+1J.Q,+{^.%Z.IF 'i.3$+wr.>w {@+}v 5g.Xd.h[+]s Me.QA.km.+w.xn.E.+Ku Wi.i[+vs.zq.tr.Zl.5[+}<+c++jP.k/ *@.H-.^-.j[+                                                                                                                                                                                                                                                ",
"                                                                                                                                                                                                                                                k[+l[+mv.m[+ms YI.&$./p.n[+G,+P-+{=+Hd.o[+R=+`f.xb.Ig.7b.wg.z&.7e.rd.3h.j*+p[+^b.Nf.v9.tg.g:..b.Ed.Vc.q[+H~+'4.q[+Nb.K~+=j.r++qp.<G r[+*~.Xe Sv m].-f Li b+.$..'g.1 +-r Hi.Ru s[+t[+Su lf.Ni.cr ~g.u[+Xn oi 'g.vy :u -o.wt.}t .u 4m.`,+Ni.~g.kp 0t rp sB.wZ.!A.hr >v #p Jw v[+JE.Tj.}o Ax UY w[+x[+g!.j].)>.0j m~.gz ew :c.le.8*.*`.8O.nl.j +vu 1j.Pm.{@+kP.ys.y[+3 +>h.*#+XG.4[+Vk.Zl.4i.~v p_+5g.Dn  E.QA.xn.gk.kj.z[+A[+[$+Kz Qy 6{.R#+B[+                                                                                                                                                                                                                                                ",
"                                                                                                                                                                                                                                                C[+D[+E[+F[+mt Z~+lB [*.5y.Ig.f>+/=+H;+'*.G;+9h.Dj.9h.8w Ig.Qf.Rf.>j.7s.1,+Jc.1,+=c.od.k*+&=.h9.a=.Cd.Va.s9..9.'4.$9.|b.Nf.qa.aD xU y^.q$+cj L++ay .q Rm L!.Kv Nt 0k wt..t #A.;g.@h.Ki.;g.G[+Gx.D` 3s ~g.n@.~g.Xg.mU..u (r 5t .{.Hi..t 0s Ou {`.G,.8t kf. p  p rs.,u Xp qq }s ]u 2t Hi.ZX H[+I[+g{.z^.''.Zz.Om.8A ;i.7s.{%.E7.l&.J[+P$+s>+ya.a#+)w mj.K[+P{.=w 9t .k.VD.`d.Ul.Zu.`i.Kx.A[+Eh.Jh.Ay  l.ky.T_+Vi.L[+9l.8^+h[+R@+Md.M[+4p.D~.4{.                                                                                                                                                                                                                                                ",
"                                                                                                                                                                                                                                                N[+O[+b).uW.ms Z~+P[+`c.W(.nl.Q[+(k.zg./=+c.+Dj.7w ml.Jn.Qf.qi.:f.qk.{^+mg.k@+g;+Jc.Mc.l*+dB Ac.Q9.d0.T0.a(.R[+S0.c[+-3.Fd.L'+]7.S[+!+.1..qn Fy Ts #i Ix |u te.P;.Jw. t OA.qB..w .w .u Qm :s EZ v` :j Tp Su tq EZ _t D` qp l'.7o EZ nf.{~+qp 'W * .sV v` (t 2t Fx.:j .e ~g.,u 6s #p Mt {'.T[+U[+dW $'.Q].<E.zl.(x U$+V[+W[+|Q.pg.Ig.9h.|-+fb.ep 8p $r Oe.g%+y;.X[+rf.II.{g.Y[+Xl.Ox.+w.Ae.TS.Z[+Vz if.`[+lm. }+.}+mH.1K.Cq.)h.Xe.VV g>.Jm.wU                                                                                                                                                                                                                                                 ",
"                                                                                                                                                                                                                                                +}+D[+@}+#@.kt ]C y&.M&.#}+n[+s>+9h.(k.'*.D;+nl.v&.O +R&.(p.*i.7e.Gd.k@+Ea.=c.)j.hd.Ec.U$+_e.eB C9.&=.ug.Dd.T0.U9.m@+}a.Y6.1=.a9.s+ he.$}+7c.ko 0p mZ Yl mg Ps [v Uw kf.!g.%}+3s !u Fw *s EZ Ou ; .KI.*p ,g.~g._j  q |s 7m q..Xg.Iw $..mU.Ws &}+r^.J).my u` 5t Uu  h.LE.%;.<t Cl.kf.jf.OY.e;.*}+os.G*.CV 5f.9e.~%.<a.5&.o +Vh.);+S&.{=+yb.nb.yk.Xn.ys.*d.k/.g~.,++`j.=}+xf.(o.Lx Oi.-}+ k.;}+d<+R'.Iz sr.Zd.9l.Le.Yk.Ui.<$+=&+Xe.cy g>.6>.0;.                                                                                                                                                                                                                                                ",
"                                                                                                                                                                                                                                                >}+,}+tv.'}+kt *&.lB W(.bM.gt.>m.Hd.yg.V'+/=+qi.K,+=y sb.)}+7-+8O.{^+q0.=y he.j;+j*+Ic.2!+yj.d.+(A u$+&b.!}+>f.e(.~}+{}+_a.<a.P7.b:+Of.8$+rk.bx._x ,=+Ll 2z :` ~!./v Mo Tu Hi.Lu EZ .t Rp :i.0c mU.$s kf.@k Lk tq :i.Dx ul Za #h.%u 8Q.Gi.@s Nv nr Ou.%;.:n .t ,g.0t St 8Q.7@.Ou & .Ft ;X.OE L@ uT.dt.i:.u$+]}+Q4.P!+0(.Lf./:+sA.gt.iv rv X>+%-+**+Cq.~h.}v Cq.<v Rw iy.jy.mH.Le.cj. E.Ou.P-.^}+TW X[+lm.lm.*n.kj.ny./}+Qd.)w Am WB g>.O<+CB                                                                                                                                                                                                                                                 ",
"                                                                                                                                                                                                                                                (}+_}+hM _{.:}+zB }*.Ia.n[+z,+9s.(,+si.<}+{=+(p.(_. )+Vf.f>+[}+'f.oi.)j.4f.Uh.Q$+v9.40.yj.ji.9d.&f.e9.9-+yc.r8.W$+^a.&9.]#+Va.69.O8.o9.cB 0-+(e.he.z*.|E.HV Ci Ox Qs Yr 3o bq Sw .e qi o].&v L .Gx Xd.@s }t S...{._j ul km sX i~.Gi.Mo 9n #w nr Zu tX qp Ax ,g.cq qw Jv Ov hs.jg 1j.$C.W%.T*.}}+|}+e(.i'+I4.d6.C8.Q0.E9.s&.~E V=.F$+j +:d.Ms ho.Dm.G#+1u 1}+,++hr. }+`j.xf.pB.7l.xq 4[+]v 2}+Vz XA 2R.of.pJ.`j.Vi.jj.km.Wi.~h.Bl.3}+k^.S,.aq.                                                                                                                                                                                                                                                ",
"                                                                                                                                                                                                                                                4}+5}+6}+F&.ot ,,.sa.O&.Ia.dD.z,+8s.;;+vk.O;+7}+In.=c.R&.8}+)k.vj.qk.k@+V%.ba.lg.6a.3'+E9.ii.zj.8$+7a.|Q.k*+cB d=.~3.9}+V$.~a.W$+0}+u{+/=.L +[e.Da.Xh.}h.6f.'m.%C 3p po mx Av ,g.D`  q Xt mb Nn JE.-i _j yZ xl Xt SZ.Qv bq l'.j@.[0 %m Xt Iv * .ry 5o Dv J).Rm 4q L++a}+|v |v Hs t0.#z b}+5(+c=.E:.h6.c}+d}+H>+g9.(%.n&.8O.1;+w-+c.+#z.`q Xr J#+7i.%w /~+mm.i~.Rw .w.`j.;v e}+Ip.|g.Ne.Iw Wx f}+g}+p].ky.]A.^G.*n.Ot.Yk.h}+'h.h~.YA 5,.{+ 8;.                                                                                                                                                                                                                                                ",
"                                                                                                                                                                                                                                                i}+j}+k}+O*.jt %&.S(._*.%Z.'*.g]+ml.CY.^k.9s.ax.!R.)#+o[+(,+s0.r,+!z ni.s(.f:.ii.l}+Wh.nd.;b.sg.m}+n%+70.40.Q0.Ac.M$.r&+b_+p2.L=+q9.n}+o}+o}+:a.[&.Vc.q!+p}+$$._c.%Z.,m.xi.qw.Vl mm.qw Bz Ou _u +k Ex.4o |s Pv v` }u rW t%.!v n../e Vr zo )p `e kY ,r (` kY OW M/+&g.ys xs 'm.m&.70.+0.d&.q}+Z7.r}+s}+t}+H>+4x u}+Fg.s,+a;+=l.me.=C )R.Z&.}$+pe.&=+.l.A[+Kx ck.=v ]A.Me.6t sr.}g.<i.v}+'I.w}+x}+:v II.yh.Yj.4[+Mx.<o.Lx :v $k.K +nB.Dy b,+D*.                                                                                                                                                                                                                                                ",
"                                                                                                                                                                                                                                                y}+5}+A@ D@ au ]y ^C JC bM.za.Hd.-l.y-+;;+'m.9h._p.fe.^=+z}+{n.vg./r.nd.AS.P0.9d.7$+sg.tb.Ad.A>+Nf.sg.l*+>)+Da.i0.Cd.}a.3=.}a.Z9.1V.R0.q9.$=.P7.^{+(0.W$.Z9.L<+d=.l)+A}+P`.7w |y Rg.lo po B}+{@+Pd.by./h zn Ce./h `e 3u wy Ez Fh.Jh.9i.#x 7n Sx qw.1c.Kj.4 .E0.[f.8b.y&.Z)+=f.a-+<B sC 87.H3.#5.S7.10.(`.ie.C}+!*.#}+'*.9w 2[+1x jb.D}+fD.Tx xs.,.+Q<+VD.,g.Ni.E}+XG.of.8t F}+1g.Qi.pB.7l.qn.{g.UD.XG.pJ.|z.]A.:o.0l.oy.hj.:v ow pz Z%.^$.G}+                                                                                                                                                                                                                                                ",
"                                                                                                                                                                                                                                                H}+4. I}+2-.}%.T!.G%.`c.Ga.<*.qb.a&+(k.F;+>m.{=+J}+_,+H,+ml.8w T:+Uh.</.8(.|A ]7.3*.s&.ld.xd.K}+Q$+Nf.-f.g9.R@ L}+d9.Ca.L^+<B *Z.P7.M}+Z9.e0.Va.yZ.N}+W$.T7.T7.)^+~6.t9.&=.Of.9d.5+ o>+Cg.O}+%g.IV Di pw.Xq xv mZ 1n.hg 7y Cm no DY (q 8j G^.Id.7c.yt E-+Q++,j.Oc.Mf.i0.`;+P}+V9.k3.Q}+R3.K8.Xa.D>+g9.2h.R&.w-+g*+Hg.j +ta.=*.R}+|].P&.@*.Y*+TA %w dk.qy.Pv 7l.,$+Rw ^v 5g.=v xf.Zv.uf.Zj.zh.yf.|z.4g.7l.$n.<i.|=+iy.+w.%w 5g.9.+l .S}+;'.3++                                                                                                                                                                                                                                                ",
"                                                                                                                                                                                                                                                T}+U}++ +it iD V}+u)+JC w-+O$+C-+wm.`&.^k.>m.p<+`f.ax.(,+W}+7h.5f.8e.Oc.i:.t:.;j.S++2e.T:+7(+%c.$c.S8.*j.m}+X}+U$+^c.bd.a(.+c.Y}+Z}+P!+}a.S0.q9.y8.rC V$.N}+xC T7.T7.A8.;9.Y!+1=.a=.+0..i.'j.`}+2b.F9.wg.P-+Jn.nl.-i. |+<f.qu @B  g.c<+[[+.|+ )+0x.T=+Zb.40.4 +w0.W6.+|+@|+E2.#|+%6.$|+P6.m8.#0.A>+da.Bj.si.W;+W;+Og.wk.>I.Bb.)R.vC.%|+y/.YA kg Ku *#+0H.&|+4t :z.*;.q#+}u 7j.aj.jy.Uk.qr.1i.1C.dj.wf.]A._o.UD.Ne.ck.He.A[+:v FY x/.x).*|+ls.                                                                                                                                                                                                                                                ",
"                                                                                                                                                                                                                                                =|+-|+;|+3/.;q nw.^$+l%+E-+#z.V'+S'+si.qb.L#+,m.a&+ri.Bj.^=+{f.]f.]f.'k.qa.%f.>|+>j.9>+,|+Lc.'|+$c.Mc.Mc.tb.{#+p=.70.Ac.{&+&E a[+1V.)|+xC A9.]#+m@+!|+_a.'4.Z9.V~+eC X9.-3.<b.k7.~|+U5.){+{|+}B Ya.(=.w0.Tb.r8.]|+,%.3'+4a.dd.N#+*=.Ua.*b.Q8.Vb.^S.=7.V5.^|+f4./|+(|+_|+:|+e7.u{+/!+/!+^9.N#+R@ Zh.gt.Hd.eD.<|+|y JX.ya.fx.yL.YS.[|+}c.sZ.3$+}|+#;.Wk.^u |t Cl.=v |o xy ||+Oi.ak._A.pB.1|+2|+Sl.*h.Kp.1i.vf.iy.oy.;&+9.+Jh.>w nB.@~.3|+;'.4`                                                                                                                                                                                                                                                 ",
"                                                                                                                                                                                                                                                4|+5|+:[+6|+7|+D++]y ;*.8|+si.-l.^k.;l.a&+;;+^k.;l.-l.9h.`f.Bj.]f.Jn.9|+Zh.0|+!z pi._p.a|+b|+ea.=y (c.Oc.xd.nd.yj.c|+a(.d|+t!+0R.<B 6 +Sc.!|+_a.T7.e|+f|+c[+_a.D_+%%.X0.L7.e{+h6.;/+uC a7.p1.g{+27.G4. 5.=/+V4.W4.]0.:0.w~++%.+%.U4.g|+h|+i|+j|+i5.X4.m5.J8.k|+V4.gC w7.T,+l|+Ub.a-+.b.4)+-a./x ]f.z;+O=+m|+fb.yb..B !i./$+nG.Sg.XA -e.n|+Y*+9i.,++Xd.o|+_t Me.gJ.p|+#..oy q|+xq Ti.$p }g.|z.|g.ak.vB.8l.Le.iy.r|+}|+=d.Bs.s|++r y%.i>.b` kx.                                                                                                                                                                                                                                                ",
"                                                                                                                                                                                                                                                t|+u|+v|+k).io.T!.] +E-+w|+sC.si.ax.a&+E0.P=+(k.ax.)m.zg.x|+y|+zd._p.8w :f.oi.W}+Qf.y|+xb.Jn.qk._f.5b.z|+4f.nd.xc.A|+m1.Q#.H~+0R. b.q[+B|+$9.)8._(+C|+_0.D|+E|+]a.J(+F|+J(+7!+G|+)_+i7.i7.i7./a.H|+27.78.+%.$6.n5.I|+J|+K|+J~+h7.}9.L|+ 5.n7.t{+`5.e7.W6.z8.W[+M|+m9.V$+k'+N|+e9.N&+c-+4x pd.)k.F;+,=++B hb.yL.we.(n.O|+P|+**.Nx $&+R*+j&+l:+Nd.Wi.6o :u Pw Q|+.{..t R|+se.<z.aj.Me.S|+Ch.1|+T|+_o.]A.7l.pJ.Le.oy )$+&d.U|+b.+&d.Ye.w;.V|+D$.                                                                                                                                                                                                                                                ",
"                                                                                                                                                                                                                                                W|+X|+Y|+Z|+i).`|+L(.F$+ 1+(r..1+@B ri.ri.ge.+1+>m.H;+h*+8w ge.Uf.^f.@1+s&.bx.xb.nk.nk.#1+$1+{f.(p.C0.vj.Gd.4b.=m..9.*Z.q9.a[+e0.Vc.2)+M!+1V.S0.^a.%1+)_+_0.&1+{0.uC +E *1+=1+f|+U].o2.-1+_a.;1+!0.]a.X9.V~+`0.L7.L/+>1+&9.,1+L/+k1.$|+L7.%9.!0.~6.l8.*Z.08.B8.a:+o9.a-+#0.Da.w9.T=+X,+K<+7w 9h.9s.*F.pb.@$+uC.we.6q.[j.:d.J*+'1+kY.Bs.P{.2}+pe.Dq hr.iy.`j.;v |g.Mv Lw  }+7j.7~.jy.)1+gr |i.T|+1|+8l.!1+|g.^u h}+~1+el.{1+VS.j#+a..]1+L'.^..                                                                                                                                                                                                                                                ",
"                                                                                                                                                                                                                                                ^1+/1+(1+<{.[!.]y t +O&.pt RZ.9s.si.yg.(k.gt.yg.{=+%i.sC.2-+`f.Uf.Zh.Ig.8(.>&.ok.`f.<}+_1+,m.8s.)k.]^+9>+Zh.Ic.ii.c:.n(.e&.C:+Cd.y<+N%.d0.L=+H~+N}+P!+)7.:1+]a.e|+(0.<1+8!+37.&9.&1+K_+W6.X9.[1+]a.)7.}1+_a.>9.V$.[a.|1+S7.W$.Z9.%9.P!+T +u{+z8.S0.A)+4=.r9.w0.11+/9.21+;a.g9.j*+xd.,|+B~+>m.S'+d:+(%+bs.[p.6q.9*+Rr R*+9+..x Xe.d%+K +Fy Fe.O].}u cq Me.Me.kM.=v :z.,g.{u ,g.vf.Vm.31+dj.41+Tk.Jp.Zv.7l.Me.51+VD.)`.61+k:+pe..x nw W'.:$.VH                                                                                                                                                                                                                                                 ",
"                                                                                                                                                                                                                                                71+81+pu.D'./..go P`.Ga.8|+#z.(k.a&+Ej.Fz.'m.aw t0.ax.<}+P=+(k.vg.(p._p. #+i:.nk.91+G;+01+sC.R=+Qf.xb.r0.yd.Ec._<+l}+4a.|b.&b.w'+w'+2a.2)+e]+Tc.#=.cY.)9. b.E8.Z}+%9.`0.(0.:1.&7.a1+:1.W4.W4.J8.;9.W4.k1.s)+.%.b1+K_+/8.c1+^8.>c.Q~+~3.wC m1.-%.B8.1V.T +3B W$+i9.@a.`b.s+ j*+=y rd.Q[+p<+xm.L&+P*+'&+rw.Te.=n.Fi.Rr d1+l&+k/.:m.~h.)h.)w _:+;D.Jx UD.Uk.dr xq UD.'I.mf.XG.pJ.]A.Qo.xh.Ll.Si.uf._A.`D.ws.^G.q|+ye.R{.u=+Z'.|v $r Ey UX ;'.cq.                                                                                                                                                                                                                                                ",
"                                                                                                                                                                                                                                                e1+tM f1+Y!.jD B/.(..K&.Ja.#z.a&+a&+'*.ax.ow.O$+7h.(,+zg.qb.a&+^=+(p.D;+8f.*j.!k._,+,m.g1+G;+Ag.Jn._p.6e.kd.0|+5b.Q$+s=.7a.Q0..$.8(.r(.c[.3B e0./:.m@+a(.h1+/X.|0.U9.3=.uC i1+^8.xC |1+M8.w!+i7.39.j1+`6.L]+36.n5.4!+):+a[. 5.3&.W6.X9.K8.W$.%9._a.z9.k1+_^+Vb.Wa.U=+ga.!#+=y g;+Q++F;+do.(%+Wq M$+Mh.Af.xs.H).^`.Ay Am .).Kh.j~.)w =w HI.Jh.X[+,g.sf.4t im.jy.|t ,g.gJ.LE.JI.pB.Po.Si.Tk.l1+1|+KE.Je.4[+Ne.7j.m1+%x !-+hW.Yw Dm q'.x).i .^^.                                                                                                                                                                                                                                                ",
"                                                                                                                                                                                                                                                n1+o1+p1+q1+3C q=+M^.jB R=.qb.si.9s.Hd.;;+ol.>m.(k.Vf.O$+ku wm.xg.ax.r1+zg.Bj.s1+-l.%i.J=+'=+7}+{f.!f.ea.td.mg.zd.Q$+ja.t1+Ta.|A u1+v1+a=.Cd.Cd..z L=+d0.a~+3a.Wa.2a.]<+$/+_B w1+'4.f|+M}+l8.z8.Z9.o}+V6.>9.x1+y~+V9.r1.0_.X0.V6.W6.i7.]#+P!+@'+:=.'{+z8.'>+~7.*f.fd.j@+Ad.rd.Rf.yg.q<+kc.5q.`w 3q h#+xr.(v ik.R@+R@+b.+Rd.G#+y1+z1+ l.|u ]s *#+o ._A.|g.j++UD.o .A1+XD.#n.kf.<i.dj.B1+C1+Gp.cj.Rw tZ. w.KI.D1+E1+R%+@X.-{.Am 2u T@.Ai d. 4`                                                                                                                                                                                                                                                 ",
"                                                                                                                                                                                                                                                F1+G1+y.+6J.H1+/..4D D0.<*.si.(r.sC.(k.g]+nk.>m.-l.(,+ow.Ej.,=+ax.>m.I1+%i.c.+9h.;l.wa.01+01+Bj.)}+0e.oi.xd.ni.Aa.)j.Ic.7$+Mf.k*+{6.y<+[_.y<+y<+e&.qC J1+>f.b=.r8.bd.[B V~+S9.%1+-%.]<+:=.e*.,c.,c.->+Ya.T9.]5.P7.M}+W6.W$.H~+[a.l8.T +w0.'++^S.q[+e0.b[+3a..i.^c.Ec.q0.zd.`c.;l.j +,&+a#+5p 2z Bf.;d.e++$k.~v >d.~h.G#+Be.^v rf.Q<+Ui.*#+L++*#+=}+_A.7l.kM.XG.ty %;.Mi.p|+^g.NA.Hp.K1+L1+pB.bk.M1+aj.Dt.UD.Vu.n#+SS.jZ T%+SA Cu 7n 5@.N1+NE                                                                                                                                                                                                                                                 ",
"                                                                                                                                                                                                                                                =|+O1+P1+Q1+zu.R1+FC =F.C-+xk.Ej.ax.8s._=+~j.3w 8w 7}+q>+q>+ow.si.S1+O$+!m.T1+QK.wm.<}+U1+wm.o<+Vf.nl.^f.ee.v&.et._f.WR.[h.^X.dB //.Ca.P9.h9.2a.)0.ug.[_.s~+y<+r8.r8.a[+V1+5.+W1+]}+e0.>>+bd.{&+a:+Q8.}b.x0.>0.o9.>0.'>+n8.5 +Uc.+c.6]++c.^S.3:.0=.d=.{&+.$.'j.1b.#>+y&.ge.Ng.Pg.Bs F&+3$+I#+Bk.Ee.X1+Y1+}o.Aq.4i.Ox.Z1+`1+|u 7j.iy.Vu.`<+kY 4).XG.]u #n.=v KI.wn.Mi.ye.!u  2+.2+ts.Mk.+2+xq ]g.8t @2+3K.XG.Kx.$;.k~.>;.K#.Du Cu Nh.%,.*'..S.                                                                                                                                                                                                                                                ",
"                                                                                                                                                                                                                                                #2+r  $2+%2+]-+),.&2+) +pG.dh.xk.O$+z,+3w ok.a;+bM.ow.9s.ow.ri.-l.t0.(,+{=+x-+'=+Ej.L#+ch.$z.9h.C0.<f.R&.*2+'k.=z 8_+_%.Wc.@z }j O0.5h.d0.F!+Ba.l;+bd.[_.:{+9(.m0.2a.b[+9_.=2+-2+3=.a[+99.&=.%b.z7.ad.ad.z7.Dd.+0.cB l=.99.Ac.j0.B9.zc.a(.R0.;2+N%.V@+^^+>2+%$.2b.V(.s>+!*.[c.Rg.<E.3$+Bk.)h.tn.Ee.S@+Be.wn.xe.ny.lm.lm.+w.v$+,2+v$+<v 0i.%w KE.rB.II.Me.Ki.aj.Mv @2+Iw |g..h.th.)1+Si.ts.Uk.!u Mv LE.X@+'2+Kx._i.,++e%+S;.$r SA V-.,!.g .)2+                                                                                                                                                                                                                                                ",
"                                                                                                                                                                                                                                                !2+~2+{2+'K.1>.L*./..mB <*.(r.'m.(k.[x 8b.T:+w&.qi.Ej.^k.-l.wa.ri.9h.G;+wa.q>+]2+^2+';+q>+wa.e>+fe.Ag.8w qi.bh.$z xd.ie.[h.l)+@$.#W./2+>f.Q9.>f.Of.~%.<e. $.//.&E d0.a[+/y.~:+tF .9.c=.(`.p%+p%+50.21+t=.)a.j:.@0.X-+e9.:b.&f.(2+a(.a(.a(.M$.U$.2a.yc.!&+Lf.sd.ll.<*.=C ]+.l]+Ky XA /d._2+mP.Lt &w..v..v.:2+xn.<2+]g.II.Vi.v$+tB.dk.o#+!++p].4[+jy.=}+mf.2K.WG.'I.`D.xq Uk.1g.dj.2i.[2+Eo..h.Q|+7l..h.Il.}2+y[+oy Wi.&=+Cq Ee.SA V{.UX |2+>X.                                                                                                                                                                                                                                                ",
"                                                                                                                                                                                                                                                12+22+32+}{.jD 42+/..FC A.+e>+2x %Z.N(.)C z&.52+ml.eD.z,+;l.qb.;;+-l.!m.ow.S'+ku L#+RZ.A-+{=+sb.Ag.6$+H,+ll.!_.5+ 3f.P^.|f.Lf.Xc.62+(A Ta.tg.^c.xc.u$+X-+cB Ba.Q8.2)+L<+3=.G  ^:.L=+O9.&0.q=.=f.:b./`.ha..$.i0..i.dd.0a.-f.D9.u1+e(.+c.dU.3:.D'+72+k&.y(.8]+LC cZ uk.cD.Hg.$g.Bi.jt.Pm.e++>d.ck.$w ze.,.+<v Wu.L[+.}+4[+sB.iy.VD.82+Pj.y;.He.bj.4t Ni.92+bj.#n.NA.yf.8l.uh.|i.=h.tq.)1+5k.dr |t Rl.(o.kf.Mw.V`.^v HI.02+Bl.s|+$r &,.i>.a2+b2+                                                                                                                                                                                                                                                ",
"                                                                                                                                                                                                                                                c2+d2+e2+f2+<p .#+m,+WY.O&.gt.co.7b.0;+4f.h*.0:+dD.<|+h*+nk.ri.O$+H;+,m.O$+# +01+wa.vm.>m.za.]k.R&._p.]f. |+#z ]_.wc.Nf.5+ =j.jI.E9.@$.1b.#W.g2+:/.L~+4a.h2+O0.>f.Uc.R0.0R./:.-%.c[.I)+(A aa.wc.0a.4,+]7.>=.g:.m)+/c.fd.b0.1b.bd.O9.c[.H +L^+v1+]c.1J.!_.[[+z,+nc.Id.vk.=*.i2+<d.cx.xr. l.xn.gk.al.qy.Xd.Rt C{.qy.7@.Mw '2+dk.9t SA j2+z1+[u II.3i.8k.5s zq )t oB.8l.rB.UD.[2+K1+k2+l2+L1+7l.XD.A1+,g.o|+ds hr.ik.Iv $<+m2+y;.VS.LX WV n2+HX.                                                                                                                                                                                                                                                ",
"                                                                                                                                                                                                                                                o2+p2+;- Yo.[!.L*.&&.J(.q2+;*.JC G,+i>+/*.T(.V=.'*.,m./=+O$+F;+ri.-l.e>+ow.(r.oT.)=+wa.yg.Tf.j<+*2+co.>y r2+E9./2+l&.DC %$.9e.Uh.vb.</.s=.dd.f9.(N.uc.9-+Mb.#<+yj.s2+c=.;+ i(.L=+t2+8=.>a.R@ nd.Ic. c.n%+l&.ii.l&.7a.l<+ba.70.72+Q9.Fd.w)+u2+b=.v2+w2+vB 'A.Bw.ya.r:+mc.9{.tY J*+x2+&w.*#+VD.Ow.dk._i.dk.`j.Be.xy D1+.}+o|+p].De.$<+Hz ;D.Rm _u .{.rs.lM.2n rs.ak.xq !A.NA.T|+Rk.vq.&h.up xq Kx.oy V`.Iw ^g.7j.WD.yy x}+!!.,++Pj.$'+0y.>  &k.                                                                                                                                                                                                                                                ",
"                                                                                                                                                                                                                                                y2+z2+A2+B2+D$.2>+@[+aD [*.H-+y&.Ig.<f.P-+Ig.-i.ri.)m.j`.^k.;l.CY.>m.J}+G;+%i.G;+r1+S'+7h.pi.Pq !R.Rf.c<+1,+uc.h:.*j.9e.tb.4b.6s./r.mi.A0.2b.*j.C2+1b.k*+i:.E9.ji.50.Ba.n(.[_.|}+C9.a9.f9.,j.ba.)# lg.!#+Q$+-j.;j.p0.}j #[+xc.>f./X.6+ D2+.z E2+vi.ya.2$+rv _H.nb.rA uC.4c.l>+wr.F2+Sw Zu.ws.Lx To.Qw jy.sB.>h.4i.Kx.4[+p|+ty qy.vy Mi.:u  k.Wu &;._t G2+ts.{g.@h.{g.Uk.hr 5l.Mk.1C.#L.H2+]v bs I2+J2+,g.7j.F}+$;+Gz ow 0i.2m.H#.;;.1>+$o.m*.                                                                                                                                                                                                                                                ",
"                                                                                                                                                                                                                                                K2+L2+jw.B2+dY.ns x~.M2+>_.JC Zf.s>+E-+nl.7w o[+8s.7}+N2+O$+%i.si.;;+si.j`.Rq tA.#z.O2+P2+_p.=F.s,+Pf.Q2+R2+S2+$$.rk.S$+mi.=c.6s.ld.!_.T2+Q$+4f.U2+V2+W2+ke.|Q.c_+qT.3)+C9.t:.P9.[_.M%.X2+s=.)# Nf.&c.Ad.md.pT.e'+l*+}j (`.xc.c:.R9.Z#.Y}+s:.j*.gv j%+Kz %*.}].3$+iZ bs.7n jm.Z1+lH.2K.mF.sf.Je.xq Zv.8l.rs.dk.4i.6o 0H.Me.8t ]u Wt Me.8.+^g.-!.-w hr.}g.Ah.}g.fr 1g.|g.cj.Y2+&h.&h.H2+H2+<t Dl.Ji.Me.|=+en.4[+w$+p#+Z2+SA 1u s|+q'.O..yH `2+                                                                                                                                                                                                                                                ",
"                                                                                                                                                                                                                                                 3+.3++3+FL.Iq W%.@3+NE 9b.`c.E-+Dg.yg.nk.`f.o[+Dg.'*.ui.1-+O$+qb.^j.>m.h*+^k.#3+9s.qu )k.<f.Ig.Q++5f.'|+&z Nf.qa.B0.$3+ )+=c.da./f.pd.(c.4b.>|+{x e'+P^._P.9-+%3+50._:.C9.Ob.n(.u1+uc.E9.+i.)# W)+)j.Aa.G>+@c.}V.}j 5h.3a.5h.c:.P.+&3+t2+1A AE cc.<n.@d.6p ;e.J#+Kh.oj.%w yy =<+*3+aj.Lw.NA.|g.]A.UD.xq dr |t =3+A[+$;+of.:z.4o Jw.y[+_t !g.&n.-3+;3+zq Ch.2i.Gp.Uk.@h.Uk.;v *v uf.gr zq Il._)+-}+*s >3+sB.Rw Kx.Kx.&w.,++~h.s|+vw L-.yH _.+                                                                                                                                                                                                                                                ",
"                                                                                                                                                                                                                                                ,3+'3+)3+Eq.(,.%&.!3+] +`c.Pq JC Pq #}+E-+nl.!*.s>+Ig.7}+ri.xk.h*+~3+q>+uk.m<+j`.%i.9h.Pq 'y @1+V(.ea.T:+3*.l&.,j.WR.e'+Bd.ka.7e.z&.T:+,E T:+{3+Uf.A0.E9.]c.f:.tg.3'+C9.|A ]3+Rc.P#+O0.R +wc.}V.Ic.~#+md.m&.%c.B0.yj.=>+0=.Q9.,x 4Z.Oq @6 -,+RZ.P*+Xq 'w dc.|v Ay R@+=w >h.Z1++w YD.(o.NA.sB.Uk.2|+@2+yh.7l.Rl.Iv wy g@+nx Kv t^.lm 7j.|t .{.)r ^3+tZ.|i.Qi.Dt.6j.us./G.NA.cj..h.gr 7k.3k.Uk.X@+8j.$;+`<+&m xe.Rw Iw 0j.,++St.,I.2u k>./3+(3+                                                                                                                                                                                                                                                ",
"                                                                                                                                                                                                                                                _3+:3+;- kp.s +bZ.<3+J^.}-+Ga.P$+&B G,+z,+s>+o&.}x s>+:B.gt.qt ev wm.wm.#z.Ln.QK.>m.Dg.P2+ok.y|+'y de.T:+de.T-+K,+]%.dM.U2+T'+V(.Wf.9>+/p.u}+ee.Uh.!_.WR.)A 1b. i.i:.[3+}3+|3+=m.(A e9.S:+;j.`h.4b.0)+|J.ea. |+|e.J$+l;+Ba.c(.su._%.FC 2[+fy.vu V%+<$+mj.$r Oe.Pp.ik.<v hr.dk.]v Sl.xq aj.Je.=v vf.Zj..2+Uj.8l.g].Wd.mX kr W).gn./Z N.+Ik.gJ.Kx.oh.Yg.Fp.zq &h.ak.kM.uq.th.1C.13+Ri.@n.23+Tp 0t cs 33+3).hr.8.+`j.|=+ k.H.+ j.(h Nd.5,.bJ 43+                                                                                                                                                                                                                                                ",
"                                                                                                                                                                                                                                                53+63+73+tv.83+M2+}@+/j.mB ;*.JC );+sa.f>+G,+ )+!z sb.Ig.Ig.A.+'m.O$+Ej.!m.eh.9s.-l.93+Zf.vm.pt pi.gw u}+^r.8_+$z ni.4f.Bg.m&.t,+6f.F9.ee.5b.6s.}f.3*.9e.=y v2+Th.e:.03+#f.0d.K%.z:+4y.(b.D/+ |+=i.T:+5f.=i.N(.7s.3*.a3+]_.H(.Wz.!*.fy.dZ qv qe.,h.Jt 0i.H).oj.G#+Ur qy.Qw my.Je.zq vf.dr 5s Zj.Tk.ej.#p {A.oB.8j._u hr.Kx Cw aH.6l e#.@h.|t 5t lX qq yq e}+!A.b3+sf.8k.Pi.1C.th.or.Mk.&h.8j.Y++*!.) .Dz XD.ul `j.bH.of.Ow $<+;..@,.E`.c3+d3+                                                                                                                                                                                                                                                ",
"                                                                                                                                                                                                                                                e3+f3+I}+g3+Q1+hD L^.L`.;*.mB JC G,+nl.,i.n[+q&.P$+<f.h*.[f.P-+'*.G;+x-+wm.9s.q>+_B.5w dD.5w +1+`f.sb.h3+yd.he.rk.oa.LC 8e.P`.=F.Ag.%Z.-z mk.i3+8f._f.}f._c.o%+4y.+$.Z,+j3+6v @z ]7.A0.&m.=z et.Pf.'f.5b.-m.^f.-m.~#+de.&$. 1+$g.]z.sW.[d..C 6..Vw Qd.Ku #l `h Ts Dn nP.jj.Le.Le.@h.*D.Sl.G2+k3+Jt.2k.Yj.l3+m3+7~.!u <u N;.kr :R.gJ.#p OA.*s {u >3+n3+cj..2+&h.oB.Oi.Ht.Dh.Ah.Q ..2+;v 0t UA K++G,.o3+Vl.en.{g.iy.XG.Wu.H.+p3+3m.&+.q3+E%+r3+                                                                                                                                                                                                                                                ",
"                                                                                                                                                                                                                                                d8.s3+gM t3+>,.&&.(>.Oq.K&.K&.A.+Ia.A.+g]+5y.);+w2+sA.Q++-i.P$+S'+tk.O=+O=+Rq q>+F;+Dg.`f.ev u3+G;+(k.z,+Cg.Bd.,j.}f.In.4f.ee.6f.pi.~z 0<+bx.^ +_c.-z Ad.v3+y(.P^.1A k&.9u w3+]_.uj.av 4b.#8.gw gw !z ^f.J +P$+Ha.}J.ta.<B.fx.S_+x3+8A t$+Ye.{-.Am Ku p#+T@+61+ct zn Ke.rB.*v 6s yq yh.Rl.fr y3+Pi.Dh.gr *h.Hp.3i.Qw 7j.W@.ry 8n 4o }s pJ.h}+$;.4#.Me.Zo Qo.Q .Me.7l.Q .Si.{A.Si.ej.'g.Pj.p'.z3+A3+B3+Xt |[+kM.qB.C3+Qw @/+n#+Fz 0..D3+7#.E3+                                                                                                                                                                                                                                                ",
"                                                                                                                                                                                                                                                F3+G3+H3+I3+tU J3+$D K3+zL.#}+1x g]+z-+eD.D0.Zf.Ig./*.ka.6f.r0.wm.n=+I&+|y tk.L3+M3+`f. g.za.si.h]+(r.wm.7w af.uj.Y:+N3+O3+!j.kb.co.3w 7w vg.j*.Bd.#8.wb.J<+WR.H(.Q'+^7.L/.P/+P3+cU.8e.h*.Q3+T:+'f.~j.xZ.dD.^%+iv gD.[p YS.[z @$+va.)i.V&.CX.x&+[r.H).5).#l 9.+,I.p].8t #n.*v Le.Gp.oB.Il.1C.Jt.or.C1+pn.R3+Pi.nr.Su Su Cw TA S3+wt.en.!u H.+||+O ./Z Uk.Qi.Dh.Uj.sq 1C.Rk.Pi.$p .2+7~.N{.T3+f[+-!.HB.X@+Oi.!A.ts.U3+qy.V3+(v ,I.}].V= W3+X3+                                                                                                                                                                                                                                                ",
"                                                                                                                                                                                                                                                Y3+Z3+gM t3+4!.xv.NE 1x 6c.}E 'C ^j.E-+ch.qt  1+aw 8b.'_.`3+3w |y >l. 4+ 4+~=+.4+$z.+4+Dj.`f.^k.G;+@4+01+gt.#}+K(.c,+#4+j*.i>+ge.o<+Dg.5w T>+z%+|,+8_+=i.,E r)+^-+1/.[;+Lf.$4+8]+G%.q2+P`.LE ge.C0.{n.ri.ua.Qz Ud.vA.we.sl.`k jc.Rg.CX f!.tY.Z&.pe.sU.*&+@l dy `e HI.Mv Il.cr ;v %4+$p *D.5s nr.Uk.Ok.Qi.&4+*4+&D.8l.=4+8t ;w {`.7@.^u qh.t^.w].-4+xl fr &h.Dh.th./G.Qi.4l.Jp.|i.uq.qh.dy ;4+d~.=!._i.nf.|[+Il.Dt.NA.Kx.p#+;w 2u b .>4+,4+'4+                                                                                                                                                                                                                                                ",
"                                                                                                                                                                                                                                                L5.)4+!4+~4+Z,.M-+ME H9.a)+H-+%Z. 1+gt.-l.ri.si.(r.2x bM.P$+gt.RZ.>l.{4+ 4+zb.tA.^j.%i.w|+7}+*,+cv Ng.|-+z,+O&.[f.9e.q2+g[+ok.]4+ri.^4+2x 1x =F.=F.EC =K.2w T:+&$.G +%m.W%.wb.0x.P`.8b.8b.bM.Eg.Hj./4+&C.Q%+-e.lt.Fi.Nx ;@.xi.3 .vC.Q;+9*+3q Ue.P-.Cu ]e oj.,I.(v d$.;s cr th.(4+_4+nr.Je.Hl.Uk.:4+*h.or.pn.Pi.yh.Zv.qf.!g.ty VD.Pw 8t nf.d$.*{.^Z Jw.Uk.Po.xh.xh.Yv.y3+vq.&h.sh.Pi.8m xW .+.UA Y@+X@+NA.yh.|g.wq.Me.zv oy -!.*d.-{.gf.<4+[4+                                                                                                                                                                                                                                                ",
"                                                                                                                                                                                                                                                }4+|4+14+24+W,.34+Wz.<x JC ;i.E0.E-+`c.2x e>+ri.^k.@B 44+,m.Hd.xm.oG.54+64+:p.I1+7A ,m.ev fh.w-+sC.oT.wm.e>+B_+(p.74+=F.K3+Ja.^j.K=+sC.Hd.'*.(r.sk.[x JC s>+#}+ss bh.cM.|C et.g[+/-+}x 1x 7A ib.}c.]q nn @v.8p mn rA .B qe.Lh.t=+w-.7p |v Am *d.$<+[u h}+@q R;.(h l'.Sw ;v Qi.ts.3s xq Uj.Qi./o Kw.th.84+94+*D..h.~r 0l.]u |t pJ.gJ.vy k++c$.=>.wz ds 7l.=4+.h.Ch.1g.Qi.tq.#p H2+04+6t C=+=` *{.a4+3i.<g.cj.kM.;v >3+<o.}u  j.] .l .t).b4+c4+                                                                                                                                                                                                                                                ",
"                                                                                                                                                                                                                                                d4+:3+:-.:++e4+7;.M;+M^.sA.4D A.+2x f>+(k.(k.yg.$z.pl.uk.wi.f4+*K.7'+J&+S_+va.Bi.Bt :p.jv fh.'*.-l.T&.za.Ga.O}+gt.3w  1+zg.cD.L#+:z 7A ch.cD.bb.8|+si.^j.ts 1x w-+O&.1E.-,+J +JC <x Hg.ya.Kj.Ck.Xn.T0 _r.xs.@d.gz LX eb.Y-.2}+xn Nz qw.5).o#+qy.1 +ue.^u ;..nZ g4+;++E#+3t th.8s xq 8m Ni.31+y3+%k dj.Po.lM.dj./o.sB.*v ;v JI.>3+XG.>3+Y%+Dq ] ./v #n.G2+ej.Jt.Xj..2+dj.th.7l.Uj.h4+i4+g].,++#w Dl.xq ts.Dt.{g.^G._)+Jx 0j.,++FY Y-.V= j4+k4+                                                                                                                                                                                                                                                ",
"                                                                                                                                                                                                                                                u'+l4+m4+n4+o4+34+<3+(*.Oq.7w E-+2x E0.'m.pG.p>+Hd.#z.,;+zm.L&+V(+p4+>m.-l.(r.gv ya.Ai.us # +ri.za.si.ch.E0._x Ja.D0.cv za._k.#z.wC.uk.<|+xa.zb.[c.wt Is `&.9w jb.oc.Tz _>+_z a)+Ka.Id.ko =n.Pm.=o.Dm Oe.Dq.Sx XA 1..]#.aU.Bu =w (v Hm ct De.q4+LE.;v bk.$w k/.r4+s4+p&+U;.t4+oB.,g.tX <u .h.u4+Ht.$p {~+0s H2+4t Pw @2+Je.JI.;v Dt.oB.Tp 0t ay 0s v4+[2+w4+K1+Ri.Tk.yh.|k.NA.dr NA.}s y[+8Q.0j.Rw Me.4t ak.pB.{g.II.Iw Jx H.+:m.k#+()+d-.x4+                                                                                                                                                                                                                                                ",
"                                                                                                                                                                                                                                                y4+z4+:Z.A4+r.+[-.K`.0<+F$+E-+:*.#}+S&.e>+O$+wm.9s.9s.f*+J=+xm.J&+uA.iu bU.si.wm.9s.B4+Og.ws ]j.yg.w|+za.E-+C4+'m.}E.(B.p>+xk.wm.:z cD./B.Og.q<+>l.Z>+lc.w/..*.S_+fx.$C.Kg.g*+ru io OW D4+Ku ;r Ug.Fy )w ap iZ Q_+E4+a..SS.1u ,++n#+qy.Q<+<u m +oB.Ti.4t mf.g].eY x#.N;.SZ.|[+qh.5o 6n <v C,.F4+Qi.@h.Bh.ts.nr.7l.*s 8.+Dx G4+`j.Rl.ej.G2+!A.2t ts.v4+L1+7k.Ll.Ri.ts.pB.H4+Rl.@h.I4+xq _t ty of.,g.=v <i.3i.!1+]v .}+XG.Jx Ez *d.W{.>'.V|+J4+                                                                                                                                                                                                                                                ",
"                                                                                                                                                                                                                                                K4+v  ;- G'.L4+DW M4+l%+w-+vB w-+E0.z,+'m.c.+G;+z,+si.S'+Rq Ej.'m.N4+tA.(k.mB i`.r:+wk.T&.:z Hd.h]+_k.oT.bD.me.7w Dg.eD.eD.$z.uk.S_+Id.5N.Gj.Rg.Hz.4$+E&+Es +B %g.fx.gb.|E.nu _r.@l Px }h Mt ,p %m yf 5q so qv Ve.O4+VA 8i.dp  i Jv Nu %;.Pw @w uZ.T|+Go.Ht.7t P4+wt.|o OA.Yg.Tj.{v vy Kv uq Go.5l.Qi..h.Q4+R4+]g.Ji.S4+o .JI.)g.7l.Po._4+8m Po.04+1i.Qo.Ah.nr.sh.1g.T|+Uj.4t Ne.kM.bj.Pw iy.sB.`D.m#+|t xq ;v sB.=<+.w.T4+H).FY U4+tE Fv.V4+                                                                                                                                                                                                                                                ",
"                                                                                                                                                                                                                                                D&.W4+N$.#@.D/.X4+I`.FC tC.Ja.I&.Zf.Ag.O$+8|+!m.q>+Ej.G&+Y4+ch.%Z.uk.<|+ch.ku eh.sC.iu qb.@B L#+|-+!m.gD.:z hh./@+3x Z4+iu /B.dh.S_+*K.yb.fb.Ai..*.zv.jc.F&+lc.*C.Uz Vq -e.Ij.~l.^v (v #w 2 +#h.ij.Iv lr bj 1m.k>.{;.bt )p qw HI.xe.bk.jy.Cl./G.Vm.mr.4k.Fp.Rl.zq nm .{.Xp R_+1C.;s lX 0s {A.Si.bm.23+K1+`4+uq.<t U;.y[+nf.]v  5+@h.[2+1|+ts.Ah.ts.Pk.[2+Jt.qq .5+Bh.Xj.b3+Iw oy.Me.q|+Vk.]u qB.*v y[+ k.II.Me.Zu.dk.Mw.T4+^v .x TX H-.u;.+5+                                                                                                                                                                                                                                                ",
"                                                                                                                                                                                                                                                @5+#5+$5+:++%5+jD r++~+.mB P$+A.+G9.%Z.@B O$+S'+01+QK.zb.tk.ev ,E g*+#z.~m.wt [J.&5+<|+jv ri.RC ym.S_+vt tt )q PB ,i.[c.'i.Ds *5+}p *C.Bi.ru fb..B wm Wq 1p ko ,&+Ud.aU.|v =5+-5+Be.VD.tB.KE.KE.Gi.| +Us m'.lY 0#.0 .=w xy 6o Zr Qm -v ~g.qB.;5+nr.Q .>5+6m.3s Qp Hl.uZ.b3+qq ,5+NA.*v YD. k mr.K1+pn.l1+5k.nr.3i.XD.y[+jm 6t bj.xq th.*D.Hp.T|+gm 1g.'5+8k.)5+uq.Uj.nr.ak.Qw Kx.:n ye.8t @2+pB.rB.g@+se.$;+;w Xd. l.St.~h.+s Fe.QV x-.!5+r'+                                                                                                                                                                                                                                                ",
"                                                                                                                                                                                                                                             ~5++ +{5+*Y.]5+kD Z,.^5+I`.J^.`3+/5+w-+E-+z-+w-+{=+wm.Hd.%i._B.H;+ok.]j.p<+I&+ 4+J=+(5+_5+S_+uA.Ds oc.'i.sW.J +Y(.zL.Ka.uk.zs ws !q ~,+va.:5+xi.yL.vA.Ms Xr pz Kd.@d.3q $r =w Ku Tw &#+.w.;v .w.Ix.Nu +w vy Wu.zn xf .).*` +s ze.!g.!g.OA.Ik.5s ts.lM.Oo.Pp #L.,A.vq 9m /r tq.&h.{A.S|+}g.wh.<5+Po.nr.{A.Mk.T|+ts.3i.&;.&` qX pX r` wt.yq !A.lM.H2+th.}g.*h.Pi.j++Ti.*D.7t II.Ui.g@+ir.#w ^g.[5+uf.Le.}5+Ce.fz $<+,++%w e%+Q{.)w c..Ft @X.|5+f{.15+                                                                                                                                                                                                                                             ",
"                                                                                                                                                                                                                                             ). 25+35+jv.O*.d).45+55+I`.K`.G9.w-+z,+g]+E-+sk.=l.Eg.co.G;+j`.qb.Rq dh.%i.dh.Rg.ua.)*+p4+&*.Is q<+uk.lv 65+tw.7D m+ 75+Gj.db.Ai.*5+vt w/.Es t=+Kj.6p Ay !w +r 85+IY kg n .}u Dv Pw.|o Hi.|t 95+xe.3z.Ke.6t ty |u =o.Ks %x 7i.Ui.oy.Le.YD.3i.Il.Lv G2+.h.Tk.rq ,u %S.4s 3s cj.Yp Y2+Vm..h._)+8m Um.yq tf.zh.&h.1g.(u ;..k&+05+3}+uX Iv Uk.Uk.'I.}s a5+:4+Pi..2+rs.Il.Le.b5+V`.Jv ]s kr iy.|=+ w.|[+2 +L!.#w 2m.TS.z&+$<+Ez el.Js nB.6,.B- c5+z^.d5+                                                                                                                                                                                                                                             ",
"                                                                                                                                                                                                                                          e5+f5+g5+cu.h5+{H i5+j5+J(.bZ.J^.] +bM.5w 'C E0.co.%B P-+2x 1x xk.[c.;;+^k.xk.va.k5+0x _5+ 4+Gz.su /k.Tz zL.<x os.P(+S,.ys zs /$+q<+Lz.ys :d.OW -e.:n.Bv.Am mj.l5+qx qw.Cu Vr *#+Jx.Sw xt.pf.@h.m5+5t 6k 6k 0l.+w  t Bq Fe./h wy 9t wn.sr.ZD.C3+ q =v ,5+|i.Fp.lM.n5+OA.Hi.#h.,v yq pB.Um.oB.@h.v}+th.Et.T`.o5+pB.Jw .{.n~.Z{.K].X{.Dz Y%+@h.(u _u Xg.6s Pi.1|+8k.4t `v.mf.XG.`v.vy ;w ,++%;.4[+{v Ie.ky.Qd.+~+3m.Z2+;D.;D.!w &d.Lh.q$+LW GB p5+q5+L_ r5+                                                                                                                                                                                                                                          ",
"                                                                                                                                                                                                                                          s5.e  0  s5+t5+%2+W,.L*.] +K^.Z(.,,+[*.:B.E0.n[+W(.M&.F9.}x P=+(k.e>+iv eh.|y Og.Is u5+lc.5$+hb.|y O$+z,+ne.m-.:>.zX ,*.oe.yL.Ai.**.Wq #r TS.(k ;.+Fm bt /h ,o.Ss VA (q 1y $w 0t 4m.Rw ]v Pw *s ,g.5k ue.Mw.VD.Xk.<u -!.~!.:u Rm -!.*;.1 +|t OA.ir [5+_A.2n 5s lM.cj.Gx.:u #q (v kf.sf.3s !A.Hl.]`.Qu 1g.v5+5s Ex.!g.#w @v.w^.|C.w5+Vu.ak.yf.)g.#..'I.NA.Qo.x5+#p @h.V`.Z1+]v `j.dk.Iv %w &n. k.mf.@h.]g.A1+9t Op.1u ]s } +tl.y5+z5+&d.on {q a!.Ev.JH s +                                                                                                                                                                                                                                          ",
"                                                                                                                                                                                                                                          A5+B5+C5+n= <@+#'.aZ D5+B*.SD./j.] +Q++W(.B_+}E T8.LC S(.Ig.8|+qb.eD.ew |y wi.us +B :p.1q.wt  d.Fj.fh.ri.}E.Ja.$@.&@.`A F&+**.rv R*+3q S@+Wo.m]+qw f@+Cz HI.Ye Ak.Wr ap $r H).wn.vt.dk.ut.7j.Pw 4m.Jx *n.=<+Nu Ix.%;.|o Vl.bk.Lw Gi.Xk.{u o .(r `s OA..2+ak.Dt. 2+qh.Sw _v Iz x%.o&+oy [t qq Vp R_+3m )d fn.nr.Tn l~.3 +ky ~h.H.+Kx mf.Mk.&h.}g.}t )u Ti..h.Gp.8l.Le.F}+KI.II.sB.&m Qt 1u }5+Zr xe.*D.o|+3 +,++n#+Vg.Jt h~.Js c` Px 8%+VA 1v WV i!.>G E5+                                                                                                                                                                                                                                          ",
"                                                                                                                                                                                                                                          ou.F5+G5+H5+I5+c;.&+ 'q M^.M4+I`.K`.[*.Ga.[x Pq [f.J5+;m.JC gt.sC.w|+1x ev '=+%g.ua.Ng.Ej.J=+*K.44+pG.#z.us K5+do l*.UG.rA {m.L5+M5+N5+mm.Xd.`[+NL.h}+:v Ce.Oe.U-.Jj.VA !w Dq.O5+}u 7j.xe.Pw _z.3K.Mv ]v Sw @f 6n Cw Jx rp .w.qy.Cq./v :u Rw 6t #n.2t fr fj.ws.P5+}o 8t En n..aW.Q5+nE.b'.4~.6j.4n R5+Rk.nm rq !A.o .&;.Ut Y++St ze.kf.dj.&h..2+)A.Il.Fx.Uj.xq cj.4#.LE.o .'I.Wn ty ]h Kt 9t Mw.II.Me.ds >h.Mw.Gz y1+As.FY RS.~1+>w 5q vo GY <+.0/.z` Q'.S5+                                                                                                                                                                                                                                       ",
"                                                                                                                                                                                                                                       T5+U5+V5+W5+X5+Y5+_X.%'.gh.%@.CV &$.(..Pq F$+`c.9b.Oq.:c.p&.-,+3w %:+=F.8s._x Z4+S_+dh.Z5+^j.<|+On.+B S_+7c.:p.Og.zs J&.fx.Sg.Or _k `5+kP.@k.Tw NL.}u |u es Os 0 .}*+K#.k/.d..rg Be.[u qy.`D.Pw pf.*v <t 1 +FG.xw Xe 2m.Pv 'g.]g.Jv fz o#+.w..t II.y[+xe. 6+Rl.kM.pJ.<z.^g.Jv * .R+..6+<#.0@.)t +6+@6+$p 7k.ej.ts.7~.6t C{.,g.{v Mx hf.kf.1C.0s #6+Pi.8k..2+Yv.OA.Rl.)g.UD.)g..t  '+r` ;!.+m H.+<u ]g.3z.xe.1 +*#+9t #;.Ce.f++7i.fs Qs L++yc I#.H~.$6+d-.%6+&6+                                                                                                                                                                                                                                       ",
"                                                                                                                                                                                                                                       *6+=6+.U.@m.-6+&q ;6+q.+<Z.IE RF.(>.E-+w-+>6+-,+Ha.V(.,6+G%./y h3+[Q.!+.1x B~+#z.7'+q<+wi.:p.**.lc.Ds >l.wm Nr 4c.we.Nx f%+as.Rr so >.+$w.Dn =w zv '6+[u  =+s$+`-.i;.b~.Ay =&+^v .k.7j.kf.'I.-v )6+.w *v  t ,o.P,.mW yc Ut Rw )v xy _i.Qv ,g.Mw o .v$+A1+To.}g.;g.!).lX o|+$;.Vg.!6+=-.O|+r..It./).~6+%4+&p fr en.8.+$;+0j.!g.;w =g.Cx C,.Qk.th.Uj.th.Uk.8l.8l.;h.*D.:z.^u {v -}+Mv w5+R{.>;.kY &m #n.;v 7j.Ji.Wl.[u 0i.9t |u $<+9q -..Iz 3h xp./-.{6+.~.]6+^6+/6+                                                                                                                                                                                                                                    ",
"                                                                                                                                                                                                                                       (6+_6+l[+:6+<6+zV.[6+nR.=C.}6+*$.*$.)+.$B JC sA.[Q.-,+8b.Z:+[3+$# |6+_x ju Mg.cD.Gj.+B :J.16+]i.wm N*+Wq .r Cm 0p Ol Rr wu 8..Nz 8g.~$.po Pd.Ss VG.Ut zv 2R.{!.i>.];+Ld.Gy s$+|u v$+<o.,g.WG.wh.YD.rB.Iw !g..l.TS.JA Nv n#+M@+*#+8n $w Dz vy <u =v Gx.95+*v cr <t <t ]u V`.26+36+Pv ]d gj #w /t Gp.^r 7r 3s )g. h.%;._v ay <z.($+cj KE.sf.`4+mr.:4+yh.0s qq ws.46+aj.nf.o .2 +4[+_i.&}+Dq.xz (v V`.o|+C{.xe.4i.Q<+p].H.+Wd.Ut _` nx KA X@.t$.T>.56+7/.66+76+x;.86+                                                                                                                                                                                                                                    ",
"                                                                                                                                                                                                                                       96+06+a6+b6+:@+c6+A= 32+Fq.d6+e6+Pu.VC DB 'D fn Y=.mB 4D ot U&+f6+m;+a)+si.g6+Ng.ys F&+h6+i6+iw Hr j6+1j.Ms Vh Rn.1p.lo .*.~@.LX on ZA sU.(h yf ik.k6+|u 4q TS.4..9g.6).oj.fp se./u ue./u 2C.1t /t @w Mv +w..q kg 02+z5+<Z T@+(v Bl.m~.Vg.qw [u gJ.Rw #n.]u ~r ~r bk. }+7j.-v ds Wu kf.8t Li ;g.Uj.nm 8m !u .{.:R.o3+S3+; .:u C{.rX ; .3n 4l.gr Tu.Q .#L.>v wh.lM.Kw Il.Iw Ix.Aq hr.if.)!.Iz #q L!.vy }u ye.8Q.#w Cq.Cx g].j@.Sb ey 2#.RW Z< A+ C`.l6+9n.t@+Vv.m6+                                                                                                                                                                                                                                    ",
"                                                                                                                                                                                                                                       n6+o6+p6+q6+|j LS.=&.r6+s6+L4+xX Yy..@ cg g+ t6+%C $C DV u6+v6+w6+gi.<x Mg.ys 9x eZ ]q Nr Ck.ko <p.Zq Ll bs.Ak.Eh.vv @l 7 .tE ;@.@d.U%+7y ,w 4q ;D.wy Gz 2R.|v x6+Z%.zi ,I.mm.Ev 0j.5g.M<+Ix.Mv rB.`j.KE.#w n .E1+sg x%.#j 6#+y6+&-.z6+iz &w )v Kx.uy bk.8m 4o #n.Il. h.|=+_i.Dw j@.Lw #h wt.Uk.;o.=s nr.Oi.=p A6+B6+dh U;.G .Lu Jw.!).8m pn.C6+uq.Xj./o zq |k.ej.Y2+qq sB.Jx vy }u fp p#+Iz ow fz Dn <u Gi.j@.-..Df vW W .s` $` Qj.O'.u=+D6+E6+MB F6+Y+.*'.MX 3B.                                                                                                                                                                                                                                    ",
"                                                                                                                                                                                                                                       G6+H6+I6+J6+xu.ds.K6+H1+2V.rD m;+]>.Br.L6+vz.)h 9r.0z [m.RF.[;+),.>i.ts uY gv ys Uz ko Kz.Ls wu Sg.Xr cx.mn Oe.M6+Eh.Oe.e` |].7j P].Vw ig It Lt h[+[u Gi.bt .).%~.Ux Ft 8y zn Be._v xW Ae.C{.*s N6+II.wn.[u ug =&+g4+O6+P6+Q6+R6+S6+T6+i` U6+;..5t _t KI.!u E/+]r )g.:z.wt.Kx.#w Dz Jv WD.s^. h.Lv V6+tl oi Xg.w#.3#.W6+J).qq.4k aH.xW 8n sh.`p X6+:4+Y6+`t Et.zq oB.`g.bj.{u #w #w j@.3u Nd.TA mX mX SY xZ %u uW Vi tz Bw &` &>.P'.S].8A Z6+A$.`6+3+. 7+:$..7+                                                                                                                                                                                                                                       ",
"                                                                                                                                                                                                                                          s6++7+@7+xu.++ pA.Sk ^%.3C V)+p}+@6 {y ps |!.8x.zX GH ]+ zz.++ #7+%C 1H aD.q@+Ry xs #*.!h yk.NW lo ac.T0 Gv Fm ,w Xl Ak.X&.yi.KX P{.0j Nd.+s  j.^v 4q Os SS.RV $7+~T 0 .Tt.fz $w if.Pw.Wg.Ev !g.1 +ty Kx 5q 'T &z.2,.%7+&7+*7+=7+PY.TW 5@.K++`<+q..8t :j XG.!u lf.Sj.{v Kv hn.j~.I).U..`<+Bl Fx.]r  n Hi.]Z ul gn.`Y Ax 8j.26+aH.ky YV ay v5+3k.Lv Jt.Y2+{A.:4+rs.Le.7t Rw 8t t^.wW QY dz n!. {+tx t+.Rv -6 k .o>.|#.U-.+C }`.DX.0..uw.sW = .y#.j>.Nh <;.X,.                                                                                                                                                                                                                                       ",
"                                                                                                                                                                                                                                          >(+-7+h@ J* A- F-.!>.^$.UG.GF r)+]y Uf.M'+<h.eu W!.9H ;7+RH MF >7+Lj.2G AU hh.H+ +C zi.[+.c` Ox zf Xe.Vn.]h @;.Jt Fh.h~.lg Kt Bk.Hm Xh Ce.rw es 2Z.Zl mj.Oe.!w cp nZ Fe.4*+Pj.mx @;.@f St.~!.bt 'd.`e /++WW a!.~O.3^.,7+^-.'7+gX.05+%&+Fe.t#+xz Xe _v Ou ut. }+95+.}+mB.y[+lr *>.)7+F>.Mo yl Zo Xp Vm.)g.Jw.qp SZ.kf._u 4o *s 'g.lY '!.9n (j |k.:i.&p /).Yp qq :i.3s Ax (r _R.Ub )E.n,.-U.` .cN.[l..X oU !7+6[+~7+p).{7+A=+e..a{.Qw.Xe [h YV o..a .:;.]7+^7+                                                                                                                                                                                                                                       ",
"                                                                                                                                                                                                                                             !r.m).<>.aE pA.xT.l+ z%.rt.do [m.s@+[A nw.dB {;+^7.C +M4+%'.Z+ 0p.W. /7+G. i].y1 =e c9 nw %x 8E.Tt.ox Iz Yr 6q /e @;.cd Hm mZ Os  i (v l~.|u ^>+4q P,.#l 2u 4*+_;+!#.)`.2u ^h ry ~!.@f *` dp 8y WB :+.mh.o*.Nh c].(7+_7+:$.:7+>'.Ao.Ao.sZ TA #q Uw L!.(` jm .w.@w  w.|o %I.& .!z.rX nj Jx <7+It.yq )A.`g.|s Ou.{`.0H.|t Ix [7+_` /'.'p  h.B{.Xv V;.&v xk M0 S).So 7$.ET.}7+{7 |7+17+27+37+47+3].8^.57+8-.wU M+ 4++/#.k9 w%.n..kz HA Gb C#.;;.(++0Y 67+                                                                                                                                                                                                                                          ",
"                                                                                                                                                                                                                                             77+<#+n4+3E ;#.(z.eq.^@.[].s;.'@.(z.` +-#.*#.87+<C #<+$$.cU.aD vr CL.JE 2j gX.97+WJ.,* 07+OU u .09 sg c/.Ve a7+4j.l9 j~.vf ct Ye vz Cx %m Ix i~.@;.!v S{.fs Ks w$.yk..x 5).tl.Dm.yf Ce.Ps Cu k/ j. I~.Vx k^.b7+~-.x&+XB r@ d>.K].;-.z$.+q ky )w SA ;..ow +f Sj.}t |o qp 5o & .c7++~+||+I@.ar Vm.hm :r EZ |o lX )r .p b$.8l d7+A,.v@.C6 U).)Y bT.J` nT.D .T` /X =R.b8 q%.P~.e7+f7+g7+*G h7+1!.-G A*.Cs.i7+j7+aW.k7+Z .4K.)` zo.`W *~.aW.o>.<X.PW l7+                                                                                                                                                                                                                                             ",
"                                                                                                                                                                                                                                             m7+n7+S^.o7+%&.VY.FB 8B.M#.N'.p7+mh.<d Aw.,$.i..eo M. e).#4+l,+q7+_%.OE r7+[;+ns xo -G Nj.q-.U-.9D.z3 $m ]!.LF.s7+M .+{.tz k .*A.KA jx >s Nv.kG.c,.TV Bn RY sZ WX d!.t7+v .=;.3`.y8 6n 3m.pV 7n JX g4+V'.u7+EA b7+v). .+q*.v7+ag.;T u=+SV mU D#+j/.mW tV at [Z w7+K>.Ew ET.)o hj &X q9  h %n ik (X Aj %d bW 9h 7'.>i No 7'.pP.|W 7W.#Y uF.`f F] 'b SW.v+.ae Mi Ig & .%x px x7+y7+z7+A7+hZ B7+LY C7+D7+E7+pE.xA F7+y+.Yf nU G7+d..;@+i>.W'.d].=7+H7+                                                                                                                                                                                                                                             ",
"                                                                                                                                                                                                                                             I7+J7+K7+L7+}Y.34+%B DV M7+N7+oA [].X'.qx.bV.]y.;D =#.B-.r;.iA Hv.P*.O7+bD uj.nw.P7+^,+t +`++gn 8A (i.eq.j+ ^$.IZ.F* 2].Q7+IK.5| R7+BQ px.DQ ;= S7+T7+U7+zY.+- &o.{6+]J.V7++X IL.4P.`7 F{ A,.+u i2 %8 hY 30 8v./-.>'.='.W7+X7+Y7+V'.h& #& sz F>.U .gy Z7+9m.`6+`7+C.. 8+$` W .$x.^W }f % +Q1 T^ ud 2V aB.D] XW.>] .8+!b (7 e| 0e oe 8H.o+.kW K>.O .I+.ZX S;.,++0.+f++,o.3u vo TV O'.T>.+8+@8+#8+$8+%8+&8+*8+=8+-8+h$.x` Mn WV >T 5..Z'.S'.8{.)3+;8+                                                                                                                                                                                                                                             ",
"                                                                                                                                                                                                                                             >8+,8+'8+)8+!8+)K.tT.<3+/p `++wE ,k )k lX.dg 8>.mA.mA.~8+1].Kb g+ H+ xT.F+ 2E 2E 5D *@ |Y.i@+^%+ta.~'+%.+(].zE 3@ p+ r@ g-.{8+Ua ]8+``.^8+/8+(8+_8+:8+<8+[8+J>+}8+_K.J,.|8+18+1T 28+Ln 38+sF.4f s` _Z 48+uV d^.iz z3+Q+.58+i0 dH.RT.Ec MU.}7+B9 68+b: 'V _W bJ.78+~~.BF./N.2A.88+6M.98+z2 Pc TZ 08+{K.7U b8 <O.!b E` +u 2l.>o.$` |s Ax qw Kx ij.6t $;.(` S3+K!.km Ep #u Kv 5l vZ )3 o{.a8+&8+{Z e+.b8+c8+d8+e8+Zt.j].yX.f8++C &&+Ry g8+h8+>^.i8+j8+                                                                                                                                                                                                                                             ",
"                                                                                                                                                                                                                                             k8+l8+m8+:s.n8+o8+~/.m;+m++^-+z/.9<+PW B- fZ %C p8+4j Lj.`+.oZ a+.0D.q8+Va s& r8+tp.$6+8G.>'+LA *,.{$.qA LV JF ^D d>.Cw.s8+/>.;B t8+o-+m-.u8+j` Hq $2+v8+w8+x8+no.yE *'.SV.5,.~#.NY 28+~w.yA y8+;V w1 C9 (W 7S.z8+xA BF.A8+qL.t#.|Z.;7 ZO.v%.|M.nN.lf kB.x( bk S@.B8+e,.C8+N..D8+eY M .$` Rv /v Tv xz _g.Ou.!u {v Wg.fp E8+c$.tX 4o @k ri V;.1l %n M>.,D.f5 J>.F8+xk ;n bT.;Y (G.m@.G8+H8+I8+J8+K8+L8+M8+OA C#.2F.3p..~.N8+]z.i@+M= k:.,&.E$+0o O8+                                                                                                                                                                                                                                             ",
"                                                                                                                                                                                                                                             P8+Q8+R8+ov.S8+T8+O/+U8+~]+V8+W8+j*.N-+JB FB J+ !+.X8+6j Lj.Y8+~ .Z8+`8+ 9+0n..9+}@.+9+@9+tz ,W '~.@W >~.E).lU.`V Ye.HY /D 56+FU ^B.HB Ma.ve.Z++HH 55+[G A++|.+SD.@-.2;+Wz w{.l]+Hz.#9+XA Or j~.Ve =o.]` a].qA _+.zw.$~.fZ :+.Yz 6,./` ...Z .R>.N;.L++nX +f /'.8Y o8 >..D#+$Y Nv ux Zs aq m5+Tn pj 9n qp 9X pe 'i Eo T7 E] }W Dd -j lk bB.No n1 F5 $9+%9+OR.ZY 'g +j  o i#.*b &9+eW *9+lT.=9+-9+;9+>9+*+.a..4q.|,.7E O@ kD ,^.t+ a:.,9+'9+F'.)9+!9+                                                                                                                                                                                                                                             ",
"                                                                                                                                                                                                                                                ~9+{9+]9+'&.^9+v@ /9+s}.(9+&++7P.Hn._9+<3+| .*&.(..GE I(+'@.)k e!.tA |@.4V.i. 7] _'.UU _Z py :9+p>.:5 .7 l,.1~.d@.Q~ 1[+<9+e+.y+.[9+.y.iV.yA zo.`V 1l.tp.(R.Aw.Jl tf 4^+Nm.t;.}9+gf.|9+BY JX d%+j#+t$+2$+;++el._:+5).4*+$r f` t7+19+U4+dX $Y * .#q Em <Z 9+.b +y$+F,.Dz sX x4 #h zl j%.pe hJ.wU.l#.M` ee 77 mD.IE.29+39+se e[ -c A} 49+59+[V.we F| 69+79+RW.fV v{.yw Ap _X $S.Gk.h$.SB z+.89+99+09+px -@.a9+Iq n.+y0.|a.dU.b9+J3+z++>C.1D c9+d9+                                                                                                                                                                                                                                             ",
"                                                                                                                                                                                                                                                e9+f9+z`.m[+g9+h9+#f.2:.,/.i9+X6.j9+k9++<+/2+l9+P/.O^.m9+n9+Yf.9J.=W.s-.ds...+s8 0D.j..8q K!.I7 f9 qj Ac O7 I4 ~W |$. ` I_ B!.$8 `G.~8 lT.o9+w1 k$.a^ p9+q{.q9+(i a@.r9+s9+t9+u9+G*+:'.N4 Z7 06 H8 ,D.Bw 5e 5e ux zx i@.&b GZ l9 o..o{.u{ Vv Gk.p~ v9+KG.w9+x9+;] qd *b w_ ee }G.(' s! n[ 91 Yc w5 fV.y9+z9+nQ.u< A9+5R.Tg cB.se se B9+nT.p[ >t C9+D9+r*+&! @u u` Dw kY .q 2o zT.^;.E9+Mz.F9+q- aD /y Lf.u@ 6&.G9+f(.H9+B++I9+R].o-+57+w= 7].J9+                                                                                                                                                                                                                                             ",
"                                                                                                                                                                                                                                                K9+L9+V,.+# ,[+,9+b}+M9+N9+`*.%T.vC O9+~<.P9+Q9+5(.,@ %].)n.A(.u(.d).|!.CL.Z+ ~i.!k K#.8E.!v )C.W+.p{.jy wB.l9 /'.kd ,D.n2 +Y ae rF.<f e`.I; /> 74 UR.4W.[9+W` ~H.DB.R9+S9+T9+U9+V9+~V W9+]f 'X ]N.06 ._ D: &i |M.z!.NR.D>.MU.ek %).7'.;Y e6 q< v| kT.k1 X9+V@.G;.qF.WY w_ eh q6 de Y9+O9 |i ^: v6 hN.Z9+E| `9+ 0+de R< .0++0++j ri [R.Pk ar `g.=h @0+#0+lm .{.-X $` Dq P].y$.R'.5n.B'.7=+$0+y0.R9.`7.%0+`;+9d._%.=i.&0+L+ Cw.:D S].66+*0+b4+=0+                                                                                                                                                                                                                                             ",
"                                                                                                                                                                                                                                                -0+k}+;0+>0+z= ,0+J= _9+'0+9_+H$.5<+b=.dU.)0+C|+}9.!0+B]+%%.~0+{0+O1.]0+^0+I;+{+.(..zl./B..B Ud.gg R~.jZ /0+YV 2#.9E.Z..kq mV -i O;.nM.@` 'X %d FS.58+(0+q>._0+*8 &K.G8+:0+<0+[0+5Z.+!.}0+!S./~.k+.Dj ,] py M6 i$.lV $x.Gc q@.D>.Wf |W k0 gV.v9 q~ ]{ W8 |0+10+tW >X 96 'D.uL.vF.20+30+'j Pd 5G.;5 =| nh Jp gW |l *t %n K%+Gh ,u L .s@.U;.0H.)r *>.40+px Cq }|+1c.1j.Dr jb.wB 7;+E&.,/.50+_]+4&.9:.1A >E x&.q2+<*.s++d<+W.+@*.tY tE 4+ Jm.60+70+                                                                                                                                                                                                                                             ",
"                                                                                                                                                                                                                                                80+90+c).24+^.+x{+8(+G(.]%.]%.y(.]7.|f.3'+8(.R9.T +00+00+a0+Z^+b0+K:.X@ >8.,@ R^.V@+c0+3b.h*.~z d0+K&.Ka.l]+v/.%*.'#.|k W@.Uw .A.vz -p FG.nj l,.4Y y$.iU tV 4'.q!.e0+MU.KL.f0+0>.g0+h0+g'.vx e7 % +!b 8l Z` >i O;.sd nM.5#.i0+B>.j0+v%.k0+l0+6W J' 21 eQ.|Z.n6 a8+8H.=< ]N.m0+5n  {.Ng Pk E0 n0+wp hm Pn <s Po qp XD..u <s Tn FZ -w Ot g].5q o0+KF ^W.p0+p>+zL.}x Bd.@$.q0+'++r0+s0+6]+t0+ji.O,+ss TV.E:+<B.Pe.GB X.+u0+W&.oe.[*+5..()+{l.5u v0+                                                                                                                                                                                                                                             ",
"                                                                                                                                                                                                                                                w0+@5+|&+6J.yr :}+m9+;E x`./-+y&.nl.T8.rk.+$.tW.[_.0=.C:.M$.*|.x0+=2+':.y0+47.T4.s{+z0+A0+B0+'/.p:.],+xv.{y G%.}..gt.:d.{k 1c.(q >-+Gs >;.rg .X gY b..Ye.]!.YX dY C0++E.D..D0+E0+F0+G0+H0+wZ hn.+u 8$.1Y  v 8n Pv p>.(a }~.I0+p!.g'.J0+jk K0+kz k].>).K>.s$.L0+4N.Dx u` mB.7m Xt tq S`.#n.wq gJ.8m wl Wd.Jt :k _v L!.)!.5).M0+qx 1j.om.nG.w-+0)+YB {7.H++K%.=)+N0+W~+O8.O9.~R.Q^.o>+^,+J`.F0.V;+|-+nc.nb.sZ.O!.N].y%.O0+l#+Oy }].'-+K].%7+P0+.a.                                                                                                                                                                                                                                             ",
"                                                                                                                                                                                                                                                -0+Q0+R0+`,.,+.W%./..C +^,+[*.co.'m.pt ^C n&.Q'+Xh.y,+Ua.Ed.&Z.N>+S0+>c.<a.]#+K{+uC X4.G3.V3.T0++%.Z0.4=.S0+c[.ia.o>+S8.U0+V0+qb.Tz PH. 1+|-+'i.),+8x =C p;.^B.W0+Iy Wr Hw.Ma.MZ.yE P'.[;.US.>;.[A.Zh P,.Cq Fz 4d #i Hf Ia k/.V+.Dz `e hy O].;!.tl.Kh.&+.re.Cy O>.$r  m Oe.ow Ay =n.4*+T@+Pm.Zl Oz H=+Nz uC.6*+Mj.Bb.<J.nE o[+J;+7_+nd.'%.K)+(a.X0+Y0+x8.{6.Mb.}q. )+T(.mB J +af.}..fy.7%+Kz Dr ]*+Z0+*d.`0+Ay sU._;+Oy [j.qw.q$+;@. a+U1..a++a+                                                                                                                                                                                                                                             ",
"                                                                                                                                                                                                                                                @a+Y|+#a+f2+$%+$a+r'+%a+&a+K`.ti.,i.g*+M&+/*.ka.m%+{x hG.Mb.=m.`*.r:.(A ~%.c|+ug.i(.e0.*a+k9.^a.~3.~8.V4.$5.=a+-a+;a+t{+>a+O7.:a.B9.c=.1B !%. i.le.3f.+$.U%.W)+Yf./-+(..,a+G&.+_.L*.K^.sY -#.4%.Rz 'k 'a+'C.2G 4n.YS.X&.<c.gb.Z5+ib.qv `-+Lz.tY tY 4%.`++:D <*.a)+)*.P=+s>+WY.<*.ee.&a+S(.F9.C}+M4+)a+T2+]_.V8+s~+Q8.u!+!a+L6.~a+%8.Tb.~%.z:+4.+^-+=,+(y !+.X=.<B.+*.{a+L:+[d.I^.Re..B nb.Qx M/+cy qn 8g.8g.Yw Kh.OW Cf.nB.Bo q$+5..S'.n*.of ]a+                                                                                                                                                                                                                                             ",
"                                                                                                                                                                                                                                                ^a+/a+:@+vv.),.;q go N-+B*./-+=l.yt =*.CY.y&.T8.=i.K(.52+ee.e'+g2+(N.4b.et.Q-+yd.il.^X.Z,+(a+_a+8d.:a+sg.'b.ie.jI.<a+[a+}a+eB A7.n}+68.|a+~a+1a+2a+){+(!+U6.'9.!9.Y-+a=.AS.f(.f&.3a+qW.v)+N#+l)+M'+p0.4x U2+~A L,+WR.Z:+G +}{+U'+4'+4a+]c.>2+$=+.c.:_.(N.v0.(e.s(.@$.*f.(a+D9.a-++0.5a+6a+7a+*)+8a+9a+0a+aa+sg.ba+=y N3+Ha.^%+;l.*g.5c.fD.<B.wk.=*.mc.Se.[j.2}+Rx +d.(k .x 6q..B u/.Lh.=d.@v.~1+9i.!w TS.h~.Kh.7g.}|+Lh.om.Bs.Fe.WB l-.ca+YD da+                                                                                                                                                                                                                                             ",
"                                                                                                                                                                                                                                                ea+1++fa+mp.~E.N`.;-+ga+;i.] +bM.xa.xk.T&.P=+s>+7b.G9.Ga.a;+Fg.gw _C [f.Fa.^4+sC.'y #8.=i.&j.nd./:+k%+ml.s>+s>+(k.@B '*.^=+P2+ti.s,+=z O,+8e.*m.~_.lg.XR.|b.M%..8.g:.k*+Hc.d=.{!+ha+V7.ia+ja+ka+la+ma+na+oa+pa+qa+ra+sa+]!+ta+ua+va+D7.y7.wa+,{+d^+xa+ya+6,+e9.D9.za+l*+^c.@W.=m.s'+C +_C t0.xk.yt QK.Hz.-=+Y*+NW ep =e.tY.Bf.&d.b.+V%+Bf.Ls nb.Ao.Aa+b.+Xl ow Pm.*e.ys.xs.Px @d.Bi >;.E1+Px &<+4*+$r VS.Pp.3y 7g.O].2}+61+5).UA f!.Ba+Ca+Da+Ea+                                                                                                                                                                                                                                             ",
"                                                                                                                                                                                                                                                {s.Q0+k).<p [-.7|+s=+/-+}J.Y(.:<+pG.@B Bb.w|+v +`c.FC Oq.~j.ti.P-+n[+e>+!m.wa.gx.Ja.0<+JC ll.qi.P=+'m.Fa+Bi.Lz.ya.Ai.gD.io F&+!l.q<+ch.V;+Tz ,m.Og.vk.Ag.'C 3w qu Hg.eh.jv D0.!+.s>+(r.Ag.7w 8s.Ja.ui.gt.:z ri.(k.Cj.ge.o[+^=+F;+cD.8|+w-+g*+Tz IF [J.>l._H.Ga+&*.yi.Kz Q;+Lz 2+ [-.}+ )k :m.1y Rd.%w Ow ]g.*#+} +,++y;.-w ;w St.~!.Hz xy r` s|+J].5q H).]s -w =&+**+L++z&+z&+TS.%&+&<+Fz =&+*d.Ha+FY pe.oj.7i.Jz Xe.Jz Md.!w tl.uA ^6+Ia+Ja+Ka+                                                                                                                                                                                                                                             ",
"                                                                                                                                                                                                                                                La+Ma+k).#'.r.+A'.^]./..sA.B_+{+.#z W:+|-+g*+E-+B_+N(.O=.n[+7f.74+@1+ev yb.~=+Na+@B zL.S= (y za.[c.lc.16+h&+$*.rv vA.:d.vA.1j.QF.Jd.Ky Oa+yt ho :d.Em <m.Pa+Qa+Kj.-=+$x j&+[z xi.io ~k EU .*.Kj.YA ac.0s. l Ak.3q iZ l>+XA Iy |z XA ;-..x k/.Kh.8y z1+&=+Rl Cq Gy Ns =o.cp !k UV.Ra+;X.QV #q fz Lw qq ]g.y[+0j./Z y[+se.Be.hk.yy Ts %w Ce.Dq 9t ;D.Pm.Ku Ts Sa+^v #w C{.$w L!.$l 8..o!.H.+y;.9i.Ta+Xn./;+qx Ua+P{.9i.m&+8%+Yw JX  ;.v7+Va+76+Wa+                                                                                                                                                                                                                                             ",
"                                                                                                                                                                                                                                                Xa+Ya+:++(,.;q (..J(.V}+r++:z <x B&.M4+z-+w-+za.bM.52+F9.OH.Ja.<x sA.N4+p4+1p Gz.xi.Qg.JX.y{+wm.zv.+x Bv.so 1n.cx.KV Kd.8p Td.h~._k ho.Oy fg %e.rA Hm Am Kt Eh.!w h~.*d.Yw )w  l Cm 8g.Oe.Bi (+.Yw Ff Fh.Ps *#+0j.,.+Uw  j.Ee.~h.`-.Za+2Z.Ix.ay Sv /h vg HA =o.Bq lY S;.O].PV `a+ b+y7+c` }u ,g.Il.gr Ok.Ok.]r Sp sV ,o.qw /v fd Qs xy Cq.4).Gz ^>+Hz ys.2m.qy.KE.II.Zk.fk.Gz Fh.9.+L++i~.(h Cq.o!.{@+h[+9i.Kh.Ww b.+#x 2z Xl nB..b+.-.$-.+b+@b+                                                                                                                                                                                                                                             ",
"                                                                                                                                                                                                                                                #b+$b+O*.S*.lw.5-.Wz.J(.go $z.<*.!_.|C ti.E0.%Z.mB B*.a;+7w  1+O&.jB O$+,*+ 4+P*+'l.Ai.oT.cD.uk.Xr Dq.sU.Tn.6p Sx rv kw Ck.=5+Ce.kP.7p dc.Yl $x =z.Ao.vo Qs %b+Ug.rg Ss ow ks.$r xn bj ^h ct 8..2#.Pm.5q y[+wl 0H.ue.qy.@/+;w Ug.SA { .rp 3K.v$+ze.fz VS.Oe.dc.Vg.ky H#.Ez &b+*b+=b+>B Ye ]u qq dr S|+[o pn.pB.*v Gx #w 9q zo mX >p Qv #w '.+{`.(v 7i.Jh.Od.#h.II.{u KE.`j.p].7i.y&+ j.x$+n'.Ee.|*+=w mx :q Md.$r Am @v.M0+=d.Ue.d{.^` B~.-b+;b+                                                                                                                                                                                                                                             ",
"                                                                                                                                                                                                                                                -k.qr fa+s<+;q ^W.r'+&a+yl.IF Hj.[*.q2+P$+nl.D0.2x a;+Dg.Ga.s>+ui.'*.,i.L&+mu p,+Wq xi.Uz <E.:j.ho.3q.[$+]m.`w %e.16+as.Xe.`l l +=w #x o!.$r on >b+Iy ,b+'h.$w Dn {@+=w Pd.5y [k 5q *l , .if.Qs *&+2u /e *#+#w Zk.rp lf.}Y 7j.Ou Cw _` /u m3+KI./v , .V{.R-.5q ~!.I+.wZ , .i].*W.'b+)b+-o.dn.]r .w sh.uq.>u qq G4+vl [u (` _` if.Gi.Ut ,++7i.,++$<+F,.'!.2m.<z.Qw )g.II.en.XD.,.+Iz -w 3 +hr.St.bj =d.ef.!b+!w Td.Rn.TS.4*+Yw R`.y%.#X.~b+{b+]b+                                                                                                                                                                                                                                             ",
"                                                                                                                                                                                                                                                ^b+/b+(b+{H 2n.e).OE _b+S= `&.cD.D0.8b.7w ti.z,+8|+o[+P$+Dg..g.}E.fh.xk.|y 0x Kz.T*+'l.Og.8|+q<+&F.:b+PW.Td.`w _r.!w Zi.|v &e.Du ow +l `0+0j Im.y)..C f .ej es [k 1u xs.@;.Xw $l c/.Bo Vg.Pd.(v  i  i H).9q bq |o ky.Iw UD.3s :z.cq bs .u Dl.7@.> .<b+k@.jZ ] .>p 4)..l.[b+}b+J~.rX.}Z }t nm >v W;./o /).Yp :s `,+=<+mX $;.,r {`./v |u 3 + j.`e 'W r` L!.Jx Me.aj.#n.:z.qf.Ti.Me.mX #;.+w.7j.;w (*+--.Bi tl.wr.Oe.Pp.Jh.Bl.FY c` 6,.|b+``.76+1b+                                                                                                                                                                                                                                             ",
"                                                                                                                                                                                                                                                2b+@5+:++6-.u~.+_.D5+P[+HE 1x 'm.Hg.E-+KE P-+l%+[x co._x C-+5w c.+ev :z dh.L&+3b+Wq 5c.IX.4b+3b+h%+)h.~l.>w Fy Sd.Zi.=5+P+++l =w a++$w.7g.8..Uv.5b+_^.i>.Rx &$+HI.*#+n'.9q g@+{!.xb >..lY rX kr o#+l'.9k { .6b+*`  t ,v :z.Lv :s 6s 8k ]g.II.t^.&!.p$.W{.7b++q -w Gz Ow ry t#+YV 8b+mr #k S).4n Pi.Go.(o 9b+7@..$+`1+4).p].Ew 9q (` $<+-w 7i.m~.TA !!.:v kp #n.Hi.rB.4#.#n.,A.,g.C{.%w vy *#+#q `l.0b+pe.y&+Oe.>.+&=+E1+*d.$r 6b+ab+>'.,-.&~.bb+                                                                                                                                                                                                                                             ",
"                                                                                                                                                                                                                                                cb+Y|+Hm.1; db+s +L(.yl.O&.tC.cD.#z.me.9b.Yf.l,+:c.)C bM.'C  1+9h.=*.$z.d:+[z ,b+ko 4 .L+ (*.*@.1Z.Eh.eb+Sn.ys.1u Os 3y :)+Bu Jt Ku Wo.Jt OW tE f-.fb+WV Oy Dq.f@+|u :v ow HA ] .`a :` Ss Dq f@+3 +Dl..E.Wu W@.T@+@;.E/+`s @h.$p _4+.{.wt.=r Ws ly *~.gb+k{.L{.Zu Jx <u Ut :u rx ;..p3+se.cr gr bm.Oo.uZ.Fw =p n$.bs Cx 9q @q ;D.@;.n#+y1+Cq } +L++if.HI..k.kf.'g.4C.LE.{g.hb+`j.|u y1+B<+Vr Cq.N].R`.Yw m~.J].2Z.!!.St.E1+;}+`l.w^.%d.f{.a>.ib+                                                                                                                                                                                                                                             ",
"                                                                                                                                                                                                                                                #@+Q0+jb+#'.zu.Ek.y'.4D (*.2[+$z.ev p>+jB 9'+8(+$8.w2+k%+'C Ja.dD.~'+%i.|-+4~ wm Ud.X&. z.au Bi..x &[+Hz  j.=w  l.Mp.&#+es 5i.%b++s xy Wi.P-.+C sa.kb+;Z.e..9..cj h[+_v Dq jP.CA +~+eX G7+&` (` i[+95+)z.>p Dz }v HI.$;+nf.7t mf.kM.:s }l 8.+yz rV x/.r).:Z MA Kx C{.Rw *;.wt.lX 0q te.Ug.|t mi lb+mb+wh.wt.3Z.4#.g++UY nb+L{.ob+pb+F,.Hz Dq (` Gi.L!.Dq 9t 5k Dl.&m 3i.@h.gJ.gJ.,r y1+;..Ix bj Lh.JX y&+`*+Pp.7i.0i.,++TA Jh.Fe.y%.]W.E~.qb+rb+                                                                                                                                                                                                                                             ",
"                                                                                                                                                                                                                                                sb+$N tb+s +~E.^%.};+}-+l*.v +(r.zL.w-+o&.&&.ub+^-+[Q.Ha.Dg. g.nk.2x Hd.Fj.+B fb.*g.-*.vb+2/.As Tn.,Y.P++&w.'h..v.f@+Us ,.+.v.Ku Lt Be.Dn T0 ZB L^.d>.zi.kZ jf.Jh.mx Qt 2m.Hz  i Ku SA iY VX  i {`.Sw 6t Ou ry nr <n )v gJ.qB.|t Lk  h.2t *s kr vA Q+.#~.W-.Qt Jw.'g.~g.t^.:u 7@.k++yl Hp jq R_+zq sq.Do.Vm.wb+Al Dw mU xb+<Z I].ZX { .4j.l9 vz n'.2m.As.Vr ]g.ds }t 2t 3i.II.Vl.5g.Dq HI.@;.ow yb+zb+mj.Os jm.7i.$<+Ee.G#+Fh.R-.'-+FU f{.AY.js                                                                                                                                                                                                                                              ",
"                                                                                                                                                                                                                                                Ab+Bb+f9+6-.jt s<+Cb+&a+%@.tC.bM.ss I;+;q Db+(#+c)+&a+K`.E0.z,+F$+cD.^j.Rq Id.Mg.,C db.P[+jB `q Eb+a++St.Ae..v.*#+zs.Jv Fb+ik.yy ^v ik.Zl @l qA (#.g>./#.1v TA 3y {@+1u Bb _v m'.& .Gb+q$+{k #l 8q -X Nt m'.4).9k wn.0j.Hx $v 1t Vu :r 0c tV Hb+h$+Ib+-e rz ; .Bo.V;.0s *s 3o &v %v *v lm _z.cr B{.Et.Jb+Gt.3t S..J;.k0+T .Kb+M0+)7+SA HI..v.nr P,.~h.!v Dz t` V`.]u iy.Q|+aj.%;.q#+} +;w Os TS.j#+Kh.g#+St.2Z.} +Ce.]s m*+Jh.P-.0..8>.8{.Lb+Mb+                                                                                                                                                                                                                                             ",
"                                                                                                                                                                                                                                                65.Nb+Ob+y= D'.h~+W%.$8.W:+Dg.sA.af.pm #!+)a+Q*.M`.*`.|J.!+.ch.z-+eD.Ds gD.ih.ne.<J.h&+Vq vA.Em Oe. j.}o.Pb+B=+*#+A[+'6+<u yy Dn Xw C#+Ss R-.|0 Qb+We./;+@l  i Rb+Ce.De.(` 6o Ts /++Sb+X-.Tb+.x 7g.w5+#w ||+Sv 5[+rf.nj Me.dr :z. }+wn.^u -` Ub+Ib+5@.US.'W `g./t /t B{.Po Yg./t ar Yg.m +&h.Lk.pi @v 3k.T`.M>.w].Vb+Wb+Xb+#q SA ~` Tt  w.[u #;.}v Gy `e if.[u ,v mm nf.Me._t lm p].3u I).y;.Yb+.x Jh.y;.=w Qs ^v Qd.7i.m*+E1+)$+%~.^D %7+z+.Zb+                                                                                                                                                                                                                                             ",
"                                                                                                                                                                                                                                                ;6.12.;- >,.{F.`b+2C ;-+l%+S= Y;+z +bx. [+&$.J^.|*.Q*.)C bv #g.Tz $z.*K.Rg.eh.ev 7'+Wq we.nn Ck.@l lj.#k.hk.,.+Wk.<u *#+ c+)d.Ae.$k.if.tl. C %&+Dm Px 2u xz `<+Az Us $w #i @q jX @,.%{..c+PX XV <Z ,I.7i.9q _` {`.pj 4o ~g.xp Pu En Ax =m QA L{.$'+=g.W@.9n 5m.&h.kM.rs.:j |r It.31+Qp Et.`t +c+Vm.>v fN.up S .h,.,;.@c+>++sX @q {v {v |s 7j._i.E#+T{.-` ,++)v ds #n.nf.OA.ue.<z.Kx.@/+n'.hn.9.+2u |u kP.H).0i.Ce.$<+y1+at wr.4*+W{.K].#c+$c+%c+                                                                                                                                                                                                                                             ",
"                                                                                                                                                                                                                                                &c+*c+6}+=c+{F.d).xv.~^.G(.] +ss G9.P$+>i.J<+=K.ss ~_./-+pt me.Hd.ri.[c.rb.f*+O=+<p.Kz.wm uC.Bf.:m.jm.Ox.;r -c+Ui.'6+`k.;r Be.Dv *L.fp vf as.Lh.Vg.'W 3u Pm.^v Vr 9k L!. i )`.T*+_;.i` ;c+x&+f!.!@.Fe.6%.kg HA w]._u Mv Me.B{.4o qp Iv ^g.gn.1k n..>s tt.mU.$k 44 Y).#L.>c+0s up Qp [o Do.bm.cm 2k.[s 8k.up Pv [b+'>.Qj.* .L!.0j.ue.,g.XD.nj e<+#h./e .l.#q ,c+J2+p|+:z.,g.7@.6t 4).p].3m.B<+1u jm.TA 0i.{@+Xw n#+Ts h#+8i.,h.@d.Y-.'c+)c+!c+~c+                                                                                                                                                                                                                                             ",
"                                                                                                                                                                                                                                                {c+]c+^c+Q1+{H E/.lW.&&.;-+8(+af.M&.l%+/c+l,+,,+C}+52+JC :B.E-+W:+xg.Hj.Lz.Is Ej.<d.bs.[j.%&+J#+xs.Zl $k.Vo.kj.0t `[+Zk.qy.5g.#w r` 2u Pm.JX P{.qw 9k Xe h~.mj.Qd.Wi.'d..,.PA R`.|c.Xz (c+_c+>T Ks U{.Ee.#l Dq.E#+8Q.qp Dl.:u 8n Mw.Jx Gi.3m.kr _` )r xe.wt.gJ.yq )A.:c+Gl.Yg.dn.NA.4n gP.fm <c+k3+2k.lr.!A.Ou.t#+~V.MA [c+Wu 7@.Vu %;.Tt He.ay m'.Wu ;3+bq Vt LE.Dt. q  h.}c+6t ty Ce.o#+fz o#+Xh Hz Yb+H.+3 +Qd.Dn C#+}|+|*+~1+y5+|c+1c+2c+@(+                                                                                                                                                                                                                                             ",
"                                                                                                                                                                                                                                                ;r.3c+4c+8u tU X*.6Y.xv.[/.E2+C++N-+(y o&.Jg.M&.Eg.co.ti.,i.pt %Z.@@ _B.us Rq <*.{a+3b+Zq ep !w ~h.G#+Xd.Rt )I.v$+.w.&|+hr.<v {`.[u Qs EY =d. i Uw Mw.!!.=&+jP.]h ow |k +;.j/.19+O'.#@ SV.UW K#.S{.m~.4y P,.Dq .l.G#+r` y[+He.9k %m xy ;D.2m.(v !v 5c+@w Ik.qq 'd Rn 8r (o hm Go ]:+8r Gh mr.Pp Tk.k2+Q .@h.5t Xb+iM.[b+(` %;.!u vt.7j.%;.my lf.Qk ; .[u g].iy.bj.t4+Me.Me.F}+{u %;.|u $<+'d.6c+}v G#+es o#+Iv 2 +2m.Ee./;+wr.&d.b..]-.7c+8c+9c+                                                                                                                                                                                                                                             ",
"                                                                                                                                                                                                                                                0c+ac+bc+LY.cc+dc+ec+eu }/.gi.C++ft.sa.^$+u&.ge.=F.tC.pt  1+s>+Ha.O}+Hg.gb.Bb.%Z.p@ $*.'&+`q |n.kt.s$+fc+`[+&m Yd.gc+Zk.>h.ty se.4).Xw )w 2u mx wy @k.Os R@+/h Ab P,.Fz  @.om.O~.hc+MZ.2..i>.N!., .IA /e Zu Q,.js.+7 -!.G,.Nt -w UY ;D.{e ||+*;.2m.Gx ya dn.(u OA.xq Ht.zq Yg.|k.ic+tq.|k.^Y ,o jc+yq {~+fN.[t z1+k~.hn.Tv Bv Qk ;s iy.Iw Qm tZ.!u Pv ,v Xg.@w jy.Rl.OA.'I.,g.]u cq xy De.Cq.rf.H.+X[+Wi.*#+Gz Xd.0i.1u Mh.Oe.<*+kc+7`.lc+mc+Z$.                                                                                                                                                                                                                                             ",
"                                                                                                                                                                                                                                                Ib.nc+oc+pc+z`.qc+P+ rc+L@+x~.&$.S(.|C gi.0x.et.-i.E0.zl.W:+FC Pq ml.Ja.fx.oc.-,+T(.+B Hr jt.sc+Ht P%+$k.p].X[+| +ty VD.qy.lH.Pw.^g.Ce.Dq bt ~h.Cq.tc+1u P,.9.+[v 7i.#l 9..Ld.^B.l6+uc+vc+b..aU.3u P,./e op {e Xh /;+)$+5).Dz Dq ct G$+(v ye.vy qp 'd gj.2t Je.=v h4+`t Y).,o /r OA.3s rs.th.wq.JI.@h. p V;.5n c$.)~.j@.6n v].#p Vm.]r UD.aj.nf.tZ.:z.|=+!u #n.,A.nf.4o up xq Dx Jx e++[u 8Q.,.+|u X1+un.Q<+hr.Q<+[u oj.d1+@l yk.f<+wc+xc+yc+Y4.                                                                                                                                                                                                                                             ",
"                                                                                                                                                                                                                                                zc+7#+pu.LY. `.Ac+Bc+Cc+,&.~^.c,+pm $a+P/.3.+ce.,E y&.l*.Ha.7_+;i.o<+`&.eb.j%+Hj.M^.eD.S_+Av.7p Jz Fh.kt.H).Q@+Dc+Ec+zv Rt xe.XD.Aq Xd.$k.&=+]h @;.kY Be.xy H.+#w  j.&{.x#.>T ` +D~.Fc+wc+Gc+f/.`e De.#i Jv.IY y8 zb ox *>.X@.90 ww -X se.Qv Xg.@k nf.0s Jw Gh dr &t `m `p C,.Rp nf.@2+`g.Il.2t Hc+XD.(t Me.gn.Zu 8Q.w5+&;.q|+Dt.,u @p 8m *p /t Um.3i.Jx  E.0s |k.qq 3i.'I.)g.F}+hr.vy vy Ui.qy.ck.Xd.^[+$w Z1+0j.2R.nj.Ic+8%+9%+4%+Jc+Kc+Lc+O6.                                                                                                                                                                                                                                             ",
"                                                                                                                                                                                                                                                Mc+7#+Nc+bB A= Oc+Pc+Qc+P+ '[+Rc+M2+D++@[+bu #z &j.vi.N(.);+bh.O&.Hg.+B 4c.ru ev `&.cb.=-+2$+ac.Ay *e.jg !e Nw.hx Mw.Iv VD.hk.%;.#h.>h.hf.(h -w K +MA.se.50 m'.$;.<n z&+P].`+.C+ X(.Sc+Tc+kU.WB $l %m Mx ey vW jX v} T@+p&+qx m*+jf.eY Rm Tt Ws Xg.g++tq >v Xn ni |[+B{.V;.<Y mB.h=+>v Zo <s wZ.q|+Vu 7m wX.3'.Xb+{` Uc+@ .Qk 6k.Yv.hr |k.!1+en.Vc+xq 5s 1C.Do.7r tZ.|t Qw Ni.6t Kx xy Z1+Ui.VD.Kx dk.ky.ky.&m VD.^v 9i.9%+Xn.R%+C%.Wc+Xc+89+k^+                                                                                                                                                                                                                                             ",
"                                                                                                                                                                                                                                                P$.v<+@H.@}+Eq.ZH '].Yc+Zc+p++4; ^-+av G +ra.A&.GC Jg.=i.Q*.n&.}E sk.iv <d.mu Bb.Id.<J.ut nu F&+ l 7g..e.S@+s$+&w.Op.HI.5g.Xd.1 +al.| +,.+@;.De.@k.VD.}g Iv 8n Vt 0j.n'. @.LX c!.OB Cs.Ef.O'.6b+@;.Yh 6n *` Ez GS.X{.6O.!~.cy `-.QY [Z p].Jv h}+{`.u` oi _s Xp |g.Dt.3t uq B{.lm v` _j cr 4s wt.g++Mi.Dw h^.J;.' .Ha+G#.3~.*s Hl.,A.#p .2+Zo Xn :i.kM.ak.a5+}t 9q bt ,++Gz Jx `[+Wk.Xd.Zk.| +Vi.VD.Z1+hk.7j.V`.[u Vo.`c+j#+d%+Tx La. d+.d++d+@|+                                                                                                                                                                                                                                             ",
"                                                                                                                                                                                                                                                P$.@d+pu.#d+uW.z)+:{.N/.WH.Db+c6+x~.O^.hG.YI.I`.af.=i.u}+m%+$d+%d+Zf.B4+Hr h&+Gz.p4+.B Sg.<d.bs.`w Bk.^m.K +h#+es  i #w.9k &d+| +uy dk.al.pM.Xk.<v St y[+hr.| +0j.$k.yv 1y Fe.YA y).Db.RB gz nr * .4*+3u wW at K+.f,.; +*d+~~.zT.Nh.qX n#+Pv Gi.Nv q..nf.3s fr :j (u ue.-}+Mv 5t =d+nf.2t tZ.;s Wu T4+k~.F).t#+7i.F,.,o.&n._t Lk nm nm )t Il.It..E.Ni.Cl.mf.wr./0+y$+H#.Iz g@+3 +Xl._i.`j.ny.V`.3 +Iv 0j.Z1+[u hk.es Dq.H].@v.-n.A%.0c.rH.-d+;d+                                                                                                                                                                                                                                             ",
"                                                                                                                                                                                                                                                >d+a).,d+@@.'d+z)+)d+P/+D(.WH.Sa.P/+P/+Kf.{^.c)+&$.M`.L;+!d+G&.{C pt gv ,l.[p.Es rv Es 6g.j%+4~ bs.Un.&$+$w.,w {@+yn (v Be.VD.Kx.}u ly m~.!e zv Fz Ce.xg 6q mX 6o n'.Uw `e Ye `e c.. ;.fW.yW ~` `a NA =a @q Kn Ai );.~d+z].{d+VW V-.Ge.$Y Y..;..=` ]d+^d+(t B{.6s Zo SZ.*;.Ws 7j..{.k++/Z [t Ii.k,.Z../d+GG.zx Wu (d+ye._d+.t Yg.Hl.#p dr _t ^g.KE.Hi.Ui.4j.:d+Ge.@,.z5+&<+oj.Sa+o|+ w.Uo.Yd.*#+p].wy fk.Xk.m:+un.]s Z@+M[+tl.sZ.|m.8{.<d+[d+}d+                                                                                                                                                                                                                                             ",
"                                                                                                                                                                                                                                                Qc+{9+|d+;[+1d+2d+a# )^.1/.i*.v(.>+ E2+'^.)a+8]+kt Cb+~E Oq.W(.sA._>+z=+:d.$q _j.{m.zv.ko Kz iZ 3c.3q.1z +l 1Z.Zl =o.3d+r^.HI.zn Ee.j~.EY ] .ct Xe Ez Qd.1$+n .0i.g~.St.=` fz *d.qx l .*,.ky ]h ez at Fz iY x;.4d+MB 5d+g+.6d+]W.I~.61+VS.ey kY cn.7d+C=+ q 8d+kM.)g.LE.|o }t SZ.SZ.8j.qh.:n lf.fy 0H.1o hj {`.im {`.51+Ep 0s uq ]r .2+Hc+nj #.._u Q/+Gi.;w H#.F,.S;.4*+Fz y;.G#+5[++w ]u Ui.HI.oj.9d+xy Ae.Ow 5g.Iv l++9 .'1+u=+0` 0d+ad+bd+N6.                                                                                                                                                                                                                                             ",
"                                                                                                                                                                                                                                                cd+dd+ed+{9+. +C(.U*.}/.2n.+_.;`.Kf.8+ }/.e_+2=+<C SK.fd+<f.E-+`c.%@.JX.w/.My Nr fo.}p.qo J#+nn cx.Ck.|q Dm.qn #l !w R{.a^.4y Fy 5q Fy sU.Fh.)`.P{.:d+7i.Fi !w !w T@+Rl TS.fs SA Gy 2u 5).!!.T;.h#+$l 4*+(-.d].7`.m;._+.n&+z$.-d.mh.Nv.l,.hj !v HA gd+Aa Pu <R.|[+qq Ni.#n.mU.t^. k.4o hd+}t Dx |s <z.t^.$;.mX G,.V3+Jx SZ.:s )A.Ti.en.(u Rw #..ir.)r zo T;.Qs E#+F,.bt id+Dq yy .k.jd+V`.q|+;w *d.gs Wi.5g.rf.#;.&w.Rx 40+~k L].GB 2Y.+d+kd+ld+                                                                                                                                                                                                                                             ",
"                                                                                                                                                                                                                                                md+73+YX.]9+nd+F[+p:.c6+&a+|C _9+i*.Kf.P/+'_+G +G(._9+od+bx.=F.,i.z,+eh.)&+gx.4$+Kz.cx :n.Xe.ko Xr K>+Ms P++Tn.cx Fm ct h~.Ps @;.Am m&+Vw Nd.2u 9i.B#+xn l>+pd+rw.Vw  @.&{.Dq (v Dq -w Os wy p].ix n .o'.f[+,..qd+*-.Bs.=o.&{.-e )k b +~!.)!.n'.> .`<+ue.<t dr Sp +k |s `g.rj S../Z n`.dn.:s :z.tZ.;v iy.0H.cs &;.8n _u ,g.1C.[j 2t Rw SZ.#..im }u }u {`.Cq el./++@;.G#+hr.rd+<v Xk.Nu Rw 2m.Vg.oj.vr.&[+Be.5g.Ce.&w.*&+A=+0b+0b+w^.sd+td+ud+X7.                                                                                                                                                                                                                                             ",
"                                                                                                                                                                                                                                                vd+tb+wd+xd+yd+rs &F ],+};+^$+Q*.Rc+{^.4.+pm |C M4+{_+'[+%d+go mB 9w oT.~=+|B.zd+Zq 6p nn qo lt.QF.Ad+Iz.Sd.7p vm FY +s g#+ j.mP.Bd+Xr /m.1y jf.VA =d.Bi c..j>.Om.f` T@.el.Xi.xy zs.3m.wy zn 4y op TA T@. C QY K .hy P,.[h L@.-{.u=+WB *{.#w j@.#..Ji.II.Tp Qu &h 8m %h.k++Rw Hi.*p wq X@+zj Uj.6s OA..u tZ.Iw Vl.x].)v 7j.oB.8k.S .)o t^.[t Cw Cd+2m.)p R{.j&+&>., .Vg.2R.9t wy }u B=+ l.Be.,o.M0+2u {@+Qd.y[+:v As.} +Bs.cx.$D.Dd+.-.Ed+Fd+G:.                                                                                                                                                                                                                                             ",
"                                                                                                                                                                                                                                                y#+Gd+Hd+Y  ,- Id+<6+:{.Jd+Q*.<C 6Y.<h.o>+ps 0x.N-+CV w(.pm M4+)C Hg.dh.oT.,l.NH.`q Jj.@x 3c.{m.qn $q so J].Px z=+bs.Eh.&w.ik.Dn Xw Ij.P{.#x P-.ef.3c.#r SW pe.JX ;e Yw yf wy r` Az qw 0i.&=+US.SW ~ .A..Ye.RV Rw.!!.R;.*{.IA U+.o>.l .N>..l.zo wt.bX {r Zo 0'.)t up }o HB.Kd+Dx .k |s (t 3s dr *p EZ v` u` Xg.#..:g.tX -}+pf.Uu )I.ij.Jv C{.0j.j@.p].As.)`.O].&<+Ay Cu Fh.Rd.Pp.Fh.*#+Lx 8t A[+S;.3q H).Rt :v Ld+Cq.~@+Md+_;+Js 1..Nd+Od+Pd+Qd+                                                                                                                                                                                                                                             ",
"                                                                                                                                                                                                                                                y#+Rd+Sd+Td+5_.,+ z:+|/.42++_.r7+In.#4+%d+^,+0x.4f.#4+/y Fg.p&.P$+^;+*F.Ud+'i.:d.tv sU.8g.U%+}p.WB gz Px :m.l +lt.Xo.+s De.{@+HI.Fy sU.!w Fy Sd..x XX K#.on DY 7y .x /++oV te.{u Z1+*#+Tw DY b .KW LV 2..Vd+1@..,.Iz 8y (h /++=g.@+.c,.tc yf X .Xg.m`.tZ.'I. w It.5s )g.[t .{.)g. q mU.xe.*p  h.>3+:n #n.wq 4#.^u ]~..{.zj zp.>3+yz g@+3 +7@.Ou Mi.kY wW $<+=&+jX Wd+Bs.Vw y&+.).Xd+@q v$+{v Gz 2Z.)w 3m.`k.Op.[u Ae.Xw Yd+ef.2}+'-+Ba+5>.Zd+`d+                                                                                                                                                                                                                                             ",
"                                                                                                                                                                                                                                                 e+k}+.e+ y @f.u+ XV.W*.,6+%d+^,+$8.c,+{_+!z Yf.x&.{_+o&.[*.xB vB Ej.gb.,&+7%+Z$+Iz.1Z.rn }p.,#+=e.J*+so :m.<m.FY mx 6c+2m.Ce.<$++l <m.l +'w Ay Xr $x u/.-e d%+Pm.zb 3u #f ur.`[+St St #q X-.'@.+e+@C 7V.@e+Ry PA 3u ,++nx $Y h~.fs B;.Bq vW & .MZ )g.Ru sf. q Zv.2C.(t 6t @Y Mw.Jx Sj.Q<+tZ.xq m3+)g.uZ.*D.!1+It.#e+=v $e+5t Qv #h.mX t .%e+,2+ny.`i.^h op =o.P-.R-.6b+8*+Iz 2u Jh.0i.*#+XD.Mw.VD.Ae.Ce..[+$k.#k.r|+mj.mj.mj.nm.3}+Dw.&e+*e+_=.                                                                                                                                                                                                                                             ",
"                                                                                                                                                                                                                                                =e+-e+;e+>e+a).2; w<+:%._b+/-+j*.KC o&.K(.zr /-+u}+wb.K(.h*.~z Hg.Hg.[c.kn ,e+)l.,h.7g.<m.sU.@d.w&+sU.Rn.Zl **+:m.mx yy  l.Os R@+Fm Cm g#+Bu Dq.T@.%C.Rx Co Vw bj 3d js.vy Xk.Ev 8n 5g.VA &g.A-.LS.1D Nh u;.O4+Bo 1u qw 9k Zu ,o.* .2#.6Y 'W Ou v].Wo [o xp $p {g.OA.#n.lf.ry  +.$..1X +k U;.cj.Lv Hl.$v #L._4+|k.5s )A.)g.EZ 5k .E.||+(` nj Ne.lf.Aq qy.+s b.+4*+FY o!.R-.Nd.Ua+Pm.`<+0H.Mv &m (_+xn.Mp.3 +f++Wk.Ae.ys.&=+z&+)`.Ao.K].'e+)e+/7.                                                                                                                                                                                                                                             ",
"                                                                                                                                                                                                                                                !e+@H.f$+~e+@@.>].{e+w>+m9+z +);+] +[*.et.u&.z +&B n&.Cb+S>+P`.`c.s>+0b.0x F&+Bm.Kh.[$+Zi.so Ht w&+]e+vu.Un.;}+/h h[+Cq.:k =w zf zm ^e+St.1u Oe.US.2}+c` d8 +s  j.rf.Mw 6t sr.Sw Wg.*#+/e+pE o+ 7n.|!.Cw.^B.,6 `l.(` Vt ]u Aq <n Gi.kr n'.Rw  n Fh T`.(e+ts.xq )t 4t /u SZ.ay St _i._i.as tq Je Yp _4+tq.Eo.l2+6m.5s 2t }t _e+tZ.se.ng ky Gi.Me.XG.Z1+^[+F,.8*+at z&+cj c..Yw ow  j.Zs KE.Pw {g.dk.a4+:v |u ~@+h}+Q@+#;.Ee.wr.cx.Ao.SV.Fc+:e+4~+                                                                                                                                                                                                                                             ",
"                                                                                                                                                                                                                                                <e+[e+f$+&_.R+ [H.H/.@[+@3+N-+/p.}-+;m.i>+Jg.}e+af.=j.OE 8b.}E |e+pG.ax.w/.(%+5p d%+Fy :k.Tn.[n.Cm.3q Sd.pw.} +D.+2R.,.+#k.Ez Oe.*&+Fh.P{.Am Gf Fi.Or Fy /h Pd.Dv uy 7t $s wt.5o ]g.Dq *>.|c.s).q*.]Z.^D e` T@+wW ; .xl 2s }o .{.7@.7t mU.oB.&p #L.Tu.1e+2e+y3+zq Fx.]u 8Q.2).lr vy Ow 26+*D.4n &p #L.tq./o Jt.Kw rs.7t )g.*v &|+'g.}u Jv  w.Ni.#n.g++9t P{.fs m~.Hz (v qV TS.p].ye..w.<t jy.;v *n.o#+8Q.&w.$<+rf.3e+~h.9i.d%+,h.7*+SV.r+ 4e+q^+                                                                                                                                                                                                                                             ",
"                                                                                                                                                                                                                                                5e+;e+ed+6e+>[+7e+ [+O^.uj.z +[*.'_.$}+Tf.z&.8e+N^.@3+/-+}E Pq `c.uk.Er !k Vq }B.9e+0++Ht `w ow <$+$w._%+S*+Sn.'w {@++s ]e 8y ow }|+|v 4*+7n &d.qn P-.bj 4q 4).p|+XG.wn.}t Sp .t Mt !++Cu Ao.9 .B- Z'.Om.KX ,o.L!.<z.7t Fx.Ex {~+Me.zq It.5s Up Do.0e+:c+]o.bm.Dh.l3+.e /'.!!.ae+0H.wt.+k 4s yq 0s yq 3k.|n ql @v 04+&h.(t xq bk.hj.Aq Jx _t -r gJ.v$+3m.Kt o!.(v }u xy :v wy 3 +_d+Y%+aj.nF.4[+Jx Cq.ik.^v $<+&w.Sa+.x Sx Dq.ef.qe.be+O= ce+R7.                                                                                                                                                                                                                                             ",
"                                                                                                                                                                                                                                                de+wD R!.ee+fe+3-.)^.4.+pD u)+af.)C z +[*.[f.^C y&.=;+@1+Ha.Tf.7x Hd.V'+f*+Nx P*+|p.^m.[n.Xo.Sn.:k 2R.`i.jm.ge+!++Rd.B#+><+!p Nh.VS.@d.on &d.&d.J#+Nz  i hk.<u 6t Zu.of.Be.70 vy qw es !v VS.TX he+ie+:d+n .Y++*;.Lw tZ.wq %v +p  o Op Ik.|k.Tk.nm Tu.fm :c+je+[o Lv <i.Ou.j@.u` `v 0H.(u )u Oi.e#.&p 2k.Q .gr .2+3s 1C..h.*D.7l.Me.Mv (t #n.`D.gJ.)o Pd.RW Dm zo 8t `j.VD.1 +ke+St.y[+4[+*v II.NL.;D.Bl.(v  j.Cq.Xw 9i.}|+y&+g}+le+me+:#.ne+FD                                                                                                                                                                                                                                              ",
"                                                                                                                                                                                                                                                oe+pe+qe+z*+re+se+ '.@<+8+ o>+0x.=i.i>+ka.sA.Y(.nl.D0.t0.~j.5y.y&.4D w-+dh.L&+$&+Ck.Oz +x [p.1R.te+G#+ j.Nw.>.+Xl We bj $D.Ue.nB.Fi.k/ l>+Ci !w ^m.=w 2R.4q mX ng |u js.-` H.+8n :v lr kY o'.8%+at TA Dw wl xZ :z.Tp .h.Zv.N.+NA. w.Ik.hm [s Up (o Pp ]o.Dh.Pi.Qi.Qu *v ue+kY Zu xy tX &;.lm Ki.[t Ti.Uj.Uj.Do.3k.[j v5+8k.6j.Wp R3+Ti._t ,g.sB.KI.5g.^v Yi.Hz <u ck.Mw.ve+Jx De.f++^u NA.Ne.ny.Wi.Hz z&+G$+7i.;D.2R.Hh.Oe.b.+we+~@.y^.xe+}^.ye+                                                                                                                                                                                                                                             ",
"                                                                                                                                                                                                                                                &++ze+Ae+Be+@_.Ce+a. >^.De+tc.G(.od+c,+/c+Q++E0.ch.e>+f>+ok.R&.;m.%Z.vB ~C %g.Ee+Vq %-+3q +x +x Td.[$+Rt.!++;d.=w l +}p.1..'-+[X.Cv.qx qw.:m.fs rg 6q ug 9k zn 'e ys. i Yh St.<$+Vr Mt Ts 7n k/.ky fz rf.SZ.7m zp.*D.2s 2C.zp.:s :s Dt.`g.N.+Dt.zq @p Fe+Ge+Jt.&h.`t {r %I.%` hn.Rm :g.p].{`.hn.w#./Z Fh ;o.>u He+Dt.e}+.h.mr.84+{A..h.Ie+'I.KE.V`.ck.Iv _v Xl.+w.bk.%;.<v KE.Be.&#+2 +.w.<z.ds $k.Vg. j.&w.z&+1u C#+!++Dq.P-.=e.bc.5D Je+Ke+P4.                                                                                                                                                                                                                                             ",
"                                                                                                                                                                                                                                                Le+Z#+14.1&+Me+z`.A(.h9+C&.:{.{_+<h.<C K(.|J.P-+Tz g*+-l.qt `f.co.5A eD.iv W;+)&+Ne+iZ :n.Ij.d%+Jj.Oe+Pe+Nw.un Ez )h.Xr 6q.<l.ef.w&+^m.Dq.Hm bt -w wy :e zs.Fy y;.De.Ug.3y ~!.2Z.Ce.f++pV RX P{.=&+kY se.tZ.Vc+Ki.LE.3s o@. q }t rp :s 0s Ni.,_+^r $k rq xp >v yp Et.EZ j^.*{.g~.U{.&` at Qe+wZ nX *!.#e+1C.uZ.Ok n@.)t ts.)1+Q .Pi.}s UD.mf.<t Lu y[+hk.al.dk.ty He.HI.Ut Ui.qy..w.KE.Qw 2 +$w  l.x}+:v Qs =&+ik.Ce.2Z.7g.Re+Qx Se+ve.en Te+G]+                                                                                                                                                                                                                                             ",
"                                                                                                                                                                                                                                                Ue+Ve+&2.We+>0+/1.H*.G= n.+gi.c,+{y 6Y.^-+V(.Ga.C-+fh.-l.]j.uk.g*+ev Id.K=+R=.@B va.Kj.R*+5p.8p +x ]m.[$+kP./h 1u 2Z.8g.(q <m.3u Dq.Cu Qs Ju ^h k~.F2+B=+7i.Ee..m e++Pd.xw 2Z.(h o&+}v mj.qg $r Vw m*+Xe+^g.S..Lo 2 +Aq.Rw ,g.BA.hm /t #p 3t v` |r Qu /r Fk &p !A.>v n@.QW.p3+;..!I.J;.PA MA 6b+y$+Cq tX .{.Qk nj -r @h.Q .Do.Wp th.Lv *v 5t Iw 0l.XD.XD.Mv p|+,g.xe.2m.h[++w..}+*#+Jx 8t *#+4).y;.3 +[u Ce.[c+Ye+)w Pm.9i.n&+~@.Ze+SV.<d+`e+X!+                                                                                                                                                                                                                                             ",
"                                                                                                                                                                                                                                                Ue+di.nu. f+cu u+ $0+F= E&.HC w(./_.[/.W8+=i.qi.Hg.O$+8|+7}+yt Ja.$C.xk.cv 9w E:+eh.<d.ko OW Xr .f+2z xs.**+xs.*e.sU.Em 1j.@v.$r %x %&+Vw Jh.=w +f+Ku De.;}+Ns ~l.X1+1u l +op p]. j.{!.*{.=&+bt Xh Xe 9t 0j.6t 4).k~.ss.!).}t wq ~r Zo up  h.$;+Sj.&p Dt.%t )g.@f+>v a5+(t (Z e%+@,.#f+Kk.p&+f[+$f+%f+/` t#+hO.xW t` qq Yg.nr.04+Pi.uZ.nf.)g.Le.*s iy.II.II.#n.4[+QA.2 + k.ky.Xk.e<+Ou II.:u Ez ;&+2m.2 +:v Hz 1}+Pp.L++Fh.=e.nb.C%.&f+ d+N8+*f+                                                                                                                                                                                                                                             ",
"                                                                                                                                                                                                                                                =f+-f+wD ;f+>f+6N.Q$.,f+ae.J<+^C ub+ra.Kb.7;+ee.bM.:z nk.Dg.8|+]j.Hg.ev 2x K&.+`.4;+Hz.Sx 1c.ep Xr 5>+8g.:m.>.+jP.Du ec.ep [p.>-+Iy n&+T*+=n.Qs Pm.Sd.b.+s>.jP.Jt 0i.es 6q ,++Be.Gi.=w Hh.0i.HI.0i.Vw 0i.U..$..p>.pX jj Ou.Ou {u Dx <s 0s as Y+++*+n`.'f+U;.@k e#.L .(~.Y%+/v -` [b+Fe.$'+&+.>!.0Y 1l.)f+%f+A{.Rj.Jv Dt.wq Yv.Qi.nr.pB.`s 7l.kM.8t gJ.{g.=}+;v iy.iy.Dl.|=+qf.0l.bk.OA.KE.,o.Px k/.k~.3 +(v ;D.jm.7i.)h.Ta+Y*+N].V*+%@ !f+~f+vD                                                                                                                                                                                                                                              ",
"                                                                                                                                                                                                                                                {f+e$+]f+}#+rG.>+ m;+,&.R. cU.G%.h*.o&.G%.T8.[*.)C %Z.(,+:B.s>+%Z.F9.gt.5w Hj._>+f>+nc.we.tv Oy R*+0*+T*+jt.@x sU.8g.sU.Jz m&+{d.Kz u=+px 1c.Zl H#.Px P-./;+,h.Bl.Jt ik.^v Xi.es p].d$.De.Tw #;.@k.s>.w$.TX y].> .> .T;.pq.Lw Ou.Mi.)g.It.Qk 'p wg zw K!.im (` &;.tX Ow sX /++C#.%d.mA ^f+/f+)>.k7+Sb+- .#` R>.>` Pv Ni.(t Dt.#L.zq (t Tj.@h.en.Q|+Mv tZ.Iw :z.&m ds iy.iy.iy.Iw =v UD.{v -3++r jZ ow [u Xl.7g.,d.9.+_:+3c.6q.Z6+EX.p).(f+2+ ld+                                                                                                                                                                                                                                             ",
"                                                                                                                                                                                                                                             _f+:f+@].<f+[f+P+ 3-.2!.p:.c6+{_+Yf.=K.|*.#}+0<+/-+Q++n[+JC Ja.'*.`c.LC -,+Hj.dw ]j.g*+Og.h&+)-+P*+n|+jc.Qx M/+ho.Dm =n.vr.3c.7p M$+)l.)&+nu cx Am Fh.~h.*e./*+Nz J].^h Vr Z1+Gi.;.._v )v <v Fv 6t a$+Hv Cu HV !@.}f+3Y Dw 5t {v kp ; .^g.g++|s Jw.n'.}u _` > .<).V .t#+_;.l .l .+C |f+C%.^f+tW 6Y &` r$.zg g@+vy Vu.wt.Ru UD.Zo .2+;v Dt.NA.*D.LE.en.#n.#n.#n.bk.&m ty hr.V`.^g.'I.Oi.!A.}<+p#+1Y.Bb.M0+*#+VD.~@+mj.9.+sU.pd+Y&.ZB 1f+2f+3f+y7+4f+                                                                                                                                                                                                                                             ",
"                                                                                                                                                                                                                                       5f+6f+7f+8f+7  <f+9f+)K.z)+se+B(.G +e_+N(.G,+n[+8b.`3+oa.0)+);+M&.EC 9b.|*.Oq.F$+ev *=+K`.W.+!i.[p.%e.Om.~q u/.:d.X&.u/.Rx P-.Bf.OW %C.tv ZA }z }c.Sx qw.vr.Fm $w.oc $l !w :k Iv Xt hr.0j.6t !g.^u ,v $w xy Sj.&;.F,.T@+19+n~.vW Ou.5n Nw Pv g++5o Jw.hj.0f+C{.,++&{.Mn %>.be+);.Z%.Ib+Re P'.x/.B;.Q{.s|+Wd.ir.m`.*s 'I.#p qB.OA.Rw @h.oB.~r ]u ;v U3+Zo Ni.UD.Iw #n.p|+ k.oy.ye.8t .}+;v NA.0l.| +;w aU.M!.Q<+oy.Xd..v.FY ~1+Md.=e.af+! +9!.s8+A*.$%+4_.bf+                                                                                                                                                                                                                                          ",
"                                                                                                                                                                                                                              cf+H:.$R.df+ef+ff+gf+Be+[f+;x w+ 5s.)d+ms @3+j*.ft.E%.Ig./*.C0.S>+&$.0x.=,+] +ft.K`.Oq.zL.:z ] +U/. [+iv vA.ko #9+we.kn 4 .5 .Se.cx }B.Gf X{.bs.6p  B ~q [z Rx C.+/;+E1+Ku Rd.Xl mg Ii Vr %A.; .Jv `v.6t .t iy.6t Qm )v Ax gn._` tV if.&;.se.0q Xt :n |s _t U;.D` tq 1X NA /` V..+o.hf+if+#X jf+++.qg -p Jw.Aq 0j.qh..t U;.Oi.)g.gJ.3i. h.tZ.*v 1i.@h.7t <t dr )u pJ.4t |t II.of.5g.Wi.He.ze.`d.Rl.Me.KI.XD.,.+%w p].xn.m:+#k.Wi.`l.kf+9{.<*+lf+>*.L;+>X.bZ ~,.{5+mf+*_.CS.nf+                                                                                                                                                                                                                                 ",
"                                                                                                                                                                                                                        of+pf+gO qf+3o.rf+sf+7C tf+uf+vf+Y +q2.,9+[/.R&+w(.o&.L>+-,+`3+k%+wf+0)+cM.z +j*.]y C++};+y&.[..n[+%&.vf+x:+}..ib.Qz ,l.My **.tY RZ.%g.ob.0*+YA Oz 3c.ep bs.ym b.+!w qn ec.EY {@+=&+qx 7y by.Ae.hf.qy.hr.4o E/+)I.1 +Rw Lw Y%+5t 9n tX rX 6n L!.Ut 4i.Dv {u o .)u (t Aq SZ.sX d^.I,.5d+xf+O6+yf+$'+I+.bX lf.m +Jw 'o S`.hr Kw zf+Jw qh.+k *s Me.Mv aj.jy.8m @h.Il.U3+*v OA..t _t ]g.VD.q#+Hz %m |u o .]A.Ui.&n.Vr  j.Mx V3++k.Xk.He.h[+Md+f%+@*.Iy <r.Af+2+ fu 4{.E^.Bf+Cf+mO Df+Ef+Ff+Gf+                                                                                                                                                                                                                           ",
"                                                                                                                                                                                                                  Hf+If+Jf+df+Kf+kk.Lf+Mf+Nf+Of+1&+sm.4_.Q.+R+ H*.R/.Pf+z)+et.[*./*.}J.0h.-,+ss /c+aD uj.YI.bu ^-+r++C++N`.go Qf+Mc+{+.iv QF.Qr ~k Uz 3]+@*.eb.#*.Hs Sq #r ec.pw.3q p,+,b+)`.Ci gc *d.^m.Gv =o.Ug.[v Dz _` Qd.uy Sw Qw 'v 1 +v$+Ow xe.zo ,r wZ hj Qt rW ay Cx Mi.p..Ni.(t $s Iv T4+)!.t#+E].Rf+Sf+7,.&+.7Q.MZ qh.Ok lM.rs.Dx :j Et.Vm.}g.wq (u Mv Ys KE.7t Oi.Dt.C,.bj.nf.Cl.=v iy.XG..w.Be.if.Fz :k ;D.Ua+Ce.Z1+Wu.Wi.#;.if.} +z1+Us VD.m:+@/+Tf+Uf+Vf+6..B,+J+ *C <D ]l.rY pc+Cf+Wf+Xf+.e+Yf+Zf+F- `f+                                                                                                                                                                                                                     ",
"                                                                                                                                                                                                             g+.g++g+df+@g+#g+$g+J7+%g+&g+*g+|K =g+-g+]p.;g+>g+dt.t>+I%.{^.,E h*.{$+FC _C q&.In.^,+Z(.{_+@6 c)+w,+E(.q7+s +g[+zX q7+,,+:B. 4+oI.Wq **.[z |z Bw.!C Ux [j.yk.@l Rl Nz 5p.U%+Ss h~.3c.Lh.Ci Nd.#l Fy }v ;}+DG.}u Xt |t ue.#h.n'.[v $<+Be.Zh >` ,g+nY.:` [k 9.+vz ay Hi.:s mB.P4+o3+wz k/.f[+%>..c+]7+7*+:` $;.Nk 2t m +3s tl yh.Uk.R_+T`.04+$p ]A.|t ]g.:s .e 'g+m3+2s ]u Tp =v {u qy.2 +%;.Ae.2Z.7i.Pm.ow 9.+Cq.Gz `k.Vu.Ui.>h.&w.St..v..v.)@+4i.8i.l++IX.~@.ya.Hj.t++=B F%.~,.)g+!g+~g+{g+fK ]g+lO ^g+%N /g+(g+                                                                                                                                                                                                               ",
"                                                                                                                                                                                                      _g+:g+<g+[g+}g+G- |g+1g+2g+3g+4g+5g+6g+7g+8g+9g+T^.B)+%j.:w L/.SX.]H 8f.zB pm Yf.[Q.Ha.,E ^$+O3+K`.8(+nw.pT.!_.jt 7|+me.Lg.-*.lv zs tv Pn.My Uz [J.5N.Bi.~i.7 .sA '-+7y 3q bj Hz $k.e++Gy =d.Ff Cu :m.ge+mW uw.Ha S{.St.*#+o .Ou ay Be.Ut Dw Mo (e :d+oX qX wz 5).;!.-w %u !o  w.Jw.W@.RX 0g+V-.7b+v$.ag+bg+SV U..kf.Tj. h.cj.,_+up yq 3k.cg+gr 6j.cj.zq ;v |g.ej.1i.pB.<i.zh.Il.4[+8m -}++w.Xt }u 'W Zl jP.Yi.G#+f++!++Ug.Zu.Mw.hr.Od.2R.X[+ik.Ku /~+]s Rd.f%+w{.La.lh.Y.+cf.z/.(>.#&.g3+dg+hu.rM ct.6f+eg+qr fg+gg+>Q.hg+ig+                                                                                                                                                                                                         ",
"                                                                                                                                                                                                   jg+kg+lg+mg+M  ng+og+8T.'q.pg+qg+rg+sg+tg+ug+;4.vg+wg+a +>@ 5s.W*.;&.H(.w(.M/.V*.&$.8b.3w u}+xg+/-+sa./c+v(.}q.ft.yB `3+}E.kh.db.S_+Bm.ql. r ko Qz 4~ Uz 8A oe.gx.vC.Fi.as.1R.;.+Xw se.l'.h~.Ue.NW T0 Ns 0j Xn.Rx qw.Cm =w ;r =r <u )v ul Kx [u hr.8q nX yg+j/.pX Rl ] .j@.t .^u Nw %u Sv nb+~ .k@.`-.]'.hW.l .L+.k,.u` Lv 7l.tZ.&m ]v T`.l2+No.lM.Lk.5s qh.n@.zp.8m }s 8l.@h.uq >v n3+hd+ds $w &n..v.2R.Cm _:+E1+mm.Qd.Ce.,.+6t dk.9t 4i.}o.5g.>h.F.+l`.G#+Rn.2$+KF Rz Af+TY.&C tC.%@.z++zg+uf+oI Ag+ct.@# s6+bO.5x.&T OI Bg+u.+Cg+Dg+                                                                                                                                                                                                   ",
"                                                                                                                                                                                             Eg+Fg+Gg++g+Hg+-r.Ig+Jg+df+Kg+Lg+v@+Mg+Ng+Og+Pg+Qg+Rg+Sg+L0.Tg+x:+x+ 7+ J%.E= xv.Ug+5a.Rc+P-+2x Fg.N-+-m.F%.K(.,6+P(.^5+HC Y(.T&.PC Lz.xm.,l.QF.Vg+p,+h&+<d.CX Uz /B.>@.ef.%&+3c.f .Ih./h ~h.O]..C SO 4V.tB d%+Px .).qn $r 5q Pm.Dn *#+F.+qy.4i.kr #..*!.Cq j/.RS.eY K+.Wg+!6+nr 8j..{.Xg+qq.^u CG.Yg+Sy (-.xX.0#.=X {` ZX  t .t *p OA.Sp  n .v Tu.Zg+C6+]:+zq kf.Ax nm Gp.>v /t >v (u Su Mv ky.VD.{@+:v Ce.)w 2u h~.Hz Ae.,.+NL.]g.^g.V`.Zr Wu.hj.gk.+w.Ku Pm.B#+3q <r.ih.`g+IX.Re.^;+Hj.fu &&.gg. h+.h++h+@h+F[+#h+F[+5v ,Z.O*.:++ *+vU ao $h+                                                                                                                                                                                                ",
"                                                                                                                                                                                          %h+&h+*h+=h+-h+;h+>h+,h+*r.'h+)h+!h+~h+H<.{h+]h+^h+/h+(h+|2._h+3<+3_.zF 9+ {r.]{._/.gi.<h.=&.N^.FC [f.;m.T:+#4+,6+{$+|J._%.D(.(..cD.q<++B 'i.[z '&+[p.;e.j%+Qx Gj.Lz.P|+Om.Q-.fx mn Pp.}v mP.Gt 2G z'.:h+me+{D jf.1y QA Fy E1+Eh.,I.:k  j.ky if.vy &w.Ov ,o.[b+&+.p'.<h+&,.XV !@.D#+$;.lX Mi.Aq ; .vW YV Wg+[h+>;.MA }h+z1+Qm.'p Ou .{.Sp ,A.|g.$p Yp <c+1C.zq tZ.4o Oi.<Y zq cj.m +Mv ]g.Iw }t g].He.$;.p].2Z.F=+9i..v.3 +Gi.al.Mw.ty `[+gk.o#+$<+xy VD.ze.{@+@x 7g.so Sg.YS.5*+<B.Hj.K&.2[+^C 6Y.|h+1h+2h+3h+4h+UJ.5h+dw.cu 6h+'d+`C o= u.+7h+8h+_{.9h+                                                                                                                                                                                          ",
"                                                                                                                                                                                       0h+ah+bh+ch+dh+eh+fh+gh+hh+ih+jh+kh+kL.N<.#p.lh+mh+nh+oh+ph+*8.qh+w@ Gn.2@+m;+rh+sh+th+B(._9+3.+!d+uh+-i.wg.$}+=K.'_.~E -,+l-+;-+~E Hj.Id.:p.su <d.ax QF.NH.jc.QF.!l.On.ib.z<+_d.1R.8y Du Zl 8g.ie+WW Pe.vh+x7+Ny ct Ii wh+Od.fp es &=+!@+dc.b.+Us Gi.E#+QA ow RS.a].xh+pz I-.jZ x%.6b+H.+w$+ye.km &;.9k )!.9F.c'.kg s|+y;.&` Cu Vg.se.yh+Vc+)t )A.Lv zh+oB.th.rs.wb+Ah+Uu Su oB.&v .{.Vu ^u :u {v Ow tX 8Q.X[+Ye+Yi.Qs h}+Wl.p_++k.}o.Wu.`d.Jx Bh+z&+G#+ l.jj.Rd.T*+Ue.3q t=+-=+Z=.{a+<B.mZ.W(.LC I/.L0.Ch+Dh+e3.Eh+$[.Fh+Gh+Hh+Ih+'P.bu.Jh+Kh+6x.h5+cu Lh+Mh+                                                                                                                                                                                       ",
"                                                                                                                                                                                 Nh+Oh+Ph+,8+Qh+Rh+Sh+Th+Uh+Vh+Wh+}3.13.f,+Xh+Yh+Zh+X*+n<.`h+ i+.i++i+zX.@i+#i+)@ 9:+ z $i+6!+]e.wb.R&+S:+4b.P$+Gg.Dg.W(.] +}E ;m.K`.-m.h*.Zf.ht./B.ih.it.QF.zv.xi.j&+16+jc.<p.Ld.qe.]q 3p !w Fm.Kh.M$+O!.Ml 6,.;T U4+{!.vW /e yy Ae.fp  j.*w %i+1z 2z un zn `<+Cq j~.j..TB N-.&i+Ue.*>.)!.hj 9q ty 9n Vr Gi.Gz wZ N;.Bl.}v tV 7g.=X ++.*{.rX *;.rj n@.>v jr.31+dV.<c+Pi.B{.Ap.3s Ni.Q|+*i+*s Lw Lw Lw ,g.ye.fk.ze.Jx <$+Bu Ce.Wu.al.NL.ur.#w.fz xe.Xd.,.+&w./*+;w ck.b.+**.Qx ,&+$&+Qz wk.*g.2;+U&.M&.cU.03+=i+-i+;i+82.>i+,i+Z^.'i+)i+!i+~i+{i+]i+^i+#f._a+*^./i+(i+VG                                                                                                                                                                                     ",
"                                                                                                                                                                              _i+:i+<i+[i+}i+|i+1i+dI c5.Z2../.2i+{}.(2.3i+l[.-<.4i+>[.5i+6i+7i+8i+9i+0i+ai+bi+w{+t0+*^.ci+2:.Kb.&m.Kf.E9.M`.V(.ti.nl.Ha.3b.!#+h*.]x ft.c,+h*.ml.Qq xa.hb.sl.Ld.As ;e.Ij.jw di+mu u/.p,+ob.{d.6p mn qx |0 Md.Ey O!.GY cj 4F.[b+/*+De.se.3m.Ce._` Ps Ov >h.*#+xy r` Fz Px -n.4q.M].7*+xb !v 3m.mX _` wW ei+Ix.$w $;+se.#;.hn.} +F#.fi+gi+Cq ,o.g].ye.8.+:n *p Xn Fx.2k.hi+R_+}g.=v %v |k.en.Xn of.3 +3 +0H.<o.%;.4i.Rt.oj.Fh.yn.ge+De.St Mw.fz ]s }u :v 5g.Zl Hz ,o.ys.2z ii+Pe.ji+S_+%|+:5+~m.E:+,*.p&.YB ki+li+mi+ni+g1.R}./}.S<.}|.c6.oi+~0+pi+qi+7@ vC ri+si+ti+ui+'Z.l  vi+                                                                                                                                                                              ",
"                                                                                                                                                                           Q#.wi+xi+6F ~q.yi+zi+Ai+Bi+Ci+Di+-1.Q|.z}.Ei+]$+zN. (.Fi+Gi+Hi+Ii+Ji+Ki+Li+=i+Mi+Ni+&3+Oi+Pi+V/.u@ !.+uc.:$+3.+oa.oa.;m.Tf.-,+,E )j.8O.oa.1w 3b.t +I&.)++@B !l.>@.,l.)l.pb.6p  B zm.db.Hz.Kz.Fi.Ls R*+Fs sl.j&+rA ep 0p US.k/ Df.y$+'e 1y bt %m se.g].%m n'.qw Iv 6n =o.SA 2l.`;.Qi+Ri+y%.>;.e%+C#+(v 6n Ve zg )r Kv Xt S..w].8Q.R>.:` o!.SA lY { .I).g@+Ax Iw X@+)A.Hl.:4+04+Jt.Jt.Op }s ,A./t @h.^g.al.)v 7j.6t Vu.<u .k.6i.Ee.h~.*d.De.He.p].7i.;D.{@+L++0i.{@+$w.>w Jt qw.P&.W;+2$+,&+'l.#*.z=+Qq S(.R&+pD $].Si+Ti+Ui+]S.3{+Vi+t<.e}.Wi+@~+7@ Xi+qi+D(+Yi+Zi+u:.(s._s.`i+ j+.j++j+                                                                                                                                                                           ",
"                                                                                                                                                                        ha.@j+#j+$j+%j+ED &j+*j+=j+-j+;j+((.>j+,j+]2.'j+)j+U:.!j+~j+{j+s_.]j+^j+/j+(j+(h+K7+_j+$i+=A v)+8:+3=+n.+^X.+$.:$+gw 8e.G%.6f./*.J5+0)+ss ss 4b.Ug+:j+bv =l.g!+ys 16+Hr ,&+Ld.4c.M$+rv L:+d:+1..n|+7 ._H.Bb.Gj.fx.!k Oy fg yi.a .Wr Ft Tg.SW v^.zv :u Tt Pd.& .(v mm.3m.{!.2o <j+zw.Hw.p'. >.RY @l *{.;w rX I).TS.4).u` Jw.xl )v 4l Ez -` y;.=` Iz 2Z j~.l~.7t 7t 0j.t4+%S.Uk.R_+Vm.Go.#L.Uj./t yh.:z.wt.=v #p &|+:n <z.0j.A[+Hz 'h.bj IY Jt %w ~@+o!.Jz Bu @x Md.Td.!++oj.Sd.4c.[j+{i.'i.My uC.:5+i`._>+l,+2!.WK.}j+|j+1j+2j+3j+4j+5j+;<.(|.G2.<&+6j+7j+-/.8j+9j+/B 0j+aj+bj+)%+:H.0  cj+dj+                                                                                                                                                                        ",
"                                                                                                                                                                     ej+u  fj+gj+MK hj+ij+7C b5.jj+kj+lj+mj+nj+oj+pj+qj+rj+sj+tj+uj+vj+wj+xj+yj+~4.zj+9i+Aj+Bj+Cj+mC 4s.4s.Dj+n(.Kb.s(.0d.,j.4f.4f.Yf.|J./f.4b.~E 1E.^r.N/.pm ~E ;i.7x g*+*C.[J.YS.zi t=+Wq [z vm Hs ;++QF.Sg.Qz Ny w;+WB Qz LW Y-.Y*+YA _;+Ue.ie+pn qw.]h L++VG.es (;+$l Xh ow g~.el.Df.V'.O@.Ej+f[+ct :d+HA , .=` Zh -..6o 0H.kf.|o Pv oy 6q ;}+P-./e+F#.gs h#+Kx  h.Q).wt..{.3s :4+#p 04+Go.Fp.cj.$p Uk.!A.Dt.xq *D.(t Zl.Me.$w &n.mP.bt 8*+Fj+y;.0i.Jh.Gj+nb.nw ;#+|c.Kd.Xn.Kh.Ck.4~ 4;+[J.F:+vt fx.Ka.me.,a+C++Hj+2@+Ij+Jj+Kj+QR.Lj+dK Mj+g3.N,+`@+Nj+*3.00+rF Oj+Pj+Qj+Rj+B)+@*+t'.Y|+m= Sj+6X.Tj+                                                                                                                                                                     ",
"                                                                                                                                                                  Uj+Vj+Wj+Xj+Yj+Zj+`j+ k+.k++k+@k+#k+$k+%k+&k+*k+Dh+=k+-k+;k+>k+,k+b3.'k+)k+!k+~k+eh+{k+]k+7P.^k+2:./k+-^.)@ (k+f:.Sa.]e.+i.}f.0x.^r.4b.de.Yf.zd.bv G,+l,+r&.9[+~E =;+;;+xm.Rq )i.vt v/.,&+F&+Zq T*+rw.tv qw.Ft R*+Rr ho.>@.%*.qe._;+P].Km R`.2}+C#.d=+9Y m~.*a |u Qs Kh.ox H#._k+m&+a..tY.nU._Z.jZ j~.n~.R{.Yw =v.4l  t *;.qq.Kv .{.}t Qk ;..8E.JX LX `l.Qm.n#+9n t4+(r SZ.S..lf.`g.46+,A..2+:k+e[+3t Dt.en.xq Uk.Uj.Tp #A.Mw Wu.<v 5g.Bl.YA Aa+P].ow so Xn.nb.R;+u/.o;.m+ |c.tv (d.-=+k>+kw 4~ l]+g*+E0.'_.OE G/.<k+L^+de+[k+}k+|k+1k+2k+3k+4k+5k+6k+T^.ti+7k+'M pI 8k+9k+0k+WG ak+YX.b@ bk+(1+ck+dk+                                                                                                                                                                     ",
"                                                                                                                                                                  ek+fk+gk+hk+ik+jk+kk+3J.14+lk+mk+fu.iu.+@+D%+nk+ok+pk+qk+rk+sk+tk+uk+vk+wk+xk+yk+zk+Ak+cF Bk+=%+7P.y:.lC }:.Ob..i.C9.dB tc.p=.ed.*j.4b.4f.O3+-i.sk.zl.B_+ 1+JC sb.w-+eh.zb.RZ.@B Ej.Ck+Ly Dk+'l.%e.:d.X>+bs.9*+=e.we.wY {k GY Rr Rr 6p =e.BY cy uA &R.R*+SA k~.-w |u Fh.&d.$r jf.] .cp WB Ek+i{.aU.8..&{.I). j.+s 9t tX }u l'.Fk+XG.II.Dl.Ew y1+Md.Rx R`.-` Ts V3+Gk+w$+Mi.&n.+w.LE.*s 8m /t Lv {g.{g.Il.Uk.(u im.3i.|t  }+Jx 5[+<v Hz Hk+ C b .@x Ay Jz Xe.R-.yi.sA JF uu ya.ii+$&+Qx rv Hr Sg.wk._x |*.ss In.pD Ik+Jk+Kk+Lk+Mk+ok+9Z.Nk+Ok+Pk+Qk+Rk+ng+Sk+Tk+Uk+Vk+W&+Wk+8G 'r.6f+Xk+:H.1d+Yk+YM Zk+`k+                                                                                                                                                                  ",
"                                                                                                                                                               {5+ l++3..l++l+@l+#l+$l+9W.%l+&l+uU c@ 4x.*l+=l+-l+;l+'r.mu.>l+,l+'l+)l+!l+~l+{l+]l+-k+^l+/l+(l+_l+:l+<l+,@ (k+l(.t:._a+qT.E9.k&.[l+J$+il.4b.q&.ee.P=+yg.ri.ow.z;+2x '*.Rq ]j.,i.gt.n<+*C.ac.U%+_j.Jz.Kr Hr Gs _d.Nr ho.Xr _r.Ck.mn :m.Hb Md.Fe./0+j9 **.t/.{ .:` Ii L!.P,.NA Ez H#.Rl Km Db (*+{#.nZ DG.ct Iv mX 9q -w $w jm }u vy XD.2t Xt ay E#+gz BU 7z mW ~!.vh.Rw *;.3 +8q Pv <z.o .,A.$p Hl.)t `D.`g.4[+KI.#n.p|+,g.Qw Kx ]s Xw <$+Ay 1..u0+qv 4c.Ue.8..<*+oe.uY ,C =C Mz Ky [z My <d.:d.z=+(B.%Z.KE N`.4y.}3+}l+/&.:7.|l+.A 1l+2l+4M 3l+4l+5l+Be+6l+.-+7l+)r.&.+R!.&_.8l+Qf+9l+0N.0l+al+3J.b`.bl+cl+dl+                                                                                                                                                               ",
"                                                                                                                                                               el+fl+gl+hl+XM il+9l+jl+kl+<@+ll+Bg+>+.[6+ml+w'.nl+ol+pl+A*+1t.ql+|k+rl+sl+tl+ul+vl+wl+xl+yl+zl+Al+Bl+Cl+B0+P.+Dl+8;+Q9.f:.^c.6(+I%.Nb.[h.]&+tb.de.Zf.Ig.j`.sC.t0.)k.(,+ts _k.#z._k.#z.N$+vA.[p.j%+uC.jc._d.5p -e.U%+G:+`l.qw.@x }p.(+.1j.6g.Iy gz Fe.6q.Sx $r |k }v Dq ^0 R;.`h N!.6%.Kh.Yw >.. W f` xz bt Dq 'W zn 6n >p 9q mX Sv wt.)u 3s 1 +s|+RV Uv.kZ EY ^v #..ET.*s hr.#;.Jx KE.KE.|[+rs.Hl.Zo *p =v ]u kf.#n.Iw  k.Vi.d++jm.'h.D.+ x %C.Kd.Sq re.Ao.vA.Sg..d.uu.cf.K+ KF y{+Qq Ng.q<+ys Mz Ja.#}+ft.tT.El+9@ Fl+W8.(h+Gl+95.Hl+K0.Il+Jl+Kl+'+ G%+Ll+rG.Ml+2y.'K.yX !K.Nl+Wn.Ol+yu.s.+!,.o= Pl+Ql+^R Rl+                                                                                                                                                               ",
"                                                                                                                                                            Sl+Tl+Ul+b`.Vl+Wl+Xl+Yl+0o Lh Zl+`l+XM yr.%T &X. m+G@ S#+.m++m+[f+@m+#m+$m+%m+~l+kj+&m+*m+=m+-m+;m+Kk+<e+A0+g0.+=.c[.C:+(k+Rb.>m+Q0.,m+3'+.i.]c.]7.B0.]x sb._,+y;+'m.ml.ah.nk.&i.c.+j +Ud+)*+'=+&*.ax t-+'m+5p.U%+(d.[<+Xn.We.:q Ci +x cx ]q XA yi.LX GY 9..Em h~.4*+7n no cx.Lh.vo S;.vo Bm Tt.;e $'+nU.vf 1y rg ~h.;w  j.p].0j.|u Gi.se.Vu.Iw |u 8E.DU p).Vx rz Gi.!).Q|+.w.^g.9k 0j.ay 9n wt. h.>v sf.Me.,g.|=+Rw C{.dk..k.zf.Bu Jz } +g#+oj.}|+O{.qe.Kz uA Z=.'A.)m+L&.!m+p.+EV s++~m+oc.^+.7A qb.Ha.=,+Hj+_`.{m+ 9.e(+e,+JD ]m+65.^m+8G /m+u@+(m+qu.cu _m+,+.} .ao dD nZ.^l.PF QF LS.ao `%.2++:m+<m+*( <m+[m+!K.                                                                                                                                                            ",
"                                                                                                                                                            4c+}m+|m+1m+2m+3m+yu.fv.Fq.4m+K@ rv.nd+5m+bX.6m+Bg+{H 7m+0`.32+8m+9m+0m+am+bm+)l+cm+dm+*k+2k+em+fm+^l+gm+hm+im+jm+km+Cd.U. d0.lm+|b..$._:._:.l;+L/.Uh.w&.Ha.sk.w|+ g.`f.1x e>+(k.P-+Qq ws mu Mn.Mr oG.'&+R*+'&+@$+=e.lt.6p V%+]m.rw.+r as.<*+wu VA /;+jP.#r Nz k/ t$+vC.(j.BU Se f .qn sU.>;.6%.gz 4..=e ;++O{.kg wr.2u ,o.l`.^v :v by.Ut 8n 6q Iz k/.8/.#%+mm+MA #q m#+zq |=+ze.Ui.Jv kr g@+W).|s  h.Qm Ul.KE.II.C{.qy.Qw #k.D.+ef.We.%&+m&++r @x NW Y*+O|+IB t++nm+Ma.,,+|!.S= ;*.c)+6G E0.vB '*.EB N-+1/.th+om+.Z.ZR.pm+qm+rm+sm+kk.tm+8T.@k+'@ um+-]. '.F*.@D Dz.2E y*.|%.xU vm+<m+:m+wm+8;.yu.0q.xm+ym+v*.IH zm+                                                                                                                                                            ",
"                                                                                                                                                            V4+Am+B& Bm+_M.Cm+Dm+@.+2J nR.q= Em+Fm+uW.gg+Zl+K@ Gm+4m+}y._ .Hm+!r.Im+Jm+Km+dm+Lm+tl+Mm+Nm+Om+Nm+Pm+Qm+Rm+3(.^:.;2+/X.e0.Cd.ug..c.Sm+Rc.c:.|A /`.kg.Tm+vj.|]+ll.(p.8|+Um+8s.%Z.Ig.ev 9s.J&+d:+Rg.,l.kn wm 4$+Lz.s-+Es ~,+)-+3z @x :q We.=e.wu k/ qw.qn SS.Fi.TW d{.:+.k:+]*+#9+19+>;.Nh.Bo Lh.Qi+h>.5j {q yi.4*+Yw Zl dd [v Zr ty qw St.o#+ik.kg Ue.=W.X(.|,.'#.6b+/v ~r _i.,.+<u m'.Vm+Iv 1 +Fk+ky.Mw.hj.5g.<u hr.*#+*#+m~.dc.JX 6..7'+Wm+rw.Md.:d.Xm+|E.mB &&.I`.%@.F$.E(.NE |@+r=+{$+-,+u}+ok.2w In.<_.,&.+^+Ym+Zm+<e+`m+ n+.n++n+@n+6t.'8+z@ #n+c$+3` 6n.MF 6` 'D CZ.9 +$n+_@ ,+.qG.%n+:m+;F.v= Fl Km.7&+&n+=& *n+                                                                                                                                                         ",
"                                                                                                                                                         =n+-n+:* )W.zK 3m+;n+>n+fs.,n+'n+)n+#l+ll+!n+~W.cw.RV.o= RV.}x.kM g3+~n+ k+'h+[k+{n+]n+^n+/n+(n+{4._n+/ +=:.bC 9}+Fl+S0.7 +:n+I7.Dl+9(.d0./X.&Z.{6.l)+[l+&z }E F9.!R.Tf.vm.ml.2x rI.co.pt y;+T&.K=+~m.'l.[z <n+&C.Pn.N;+fb.:5+P|+)-+Qz We.Nx Hs Z=.Q;+:j.;@.Ls c` Tx Ao..C [n+L#.;@+WB $D.9Y ;!.nw o0+ZX.pd+19+ko &d.yb Yl Tt.{!.9k 5y $<+9i.mj.3u Fe.{k LV }n+ .+|n+w{.1n+z5+Nw.Dn '.+Wi.sw p].$;+Rb+xy p].s$+Qs Q@+ j. j.ow 1%+Nz Ey 2n+vu yi.Bi u/.O|+2$+l]+K+ !3+8(+O^.{e+3n+,,.e_+O^.&&.^ +M2+j*._c.7+ Pf+c:.u@ =%+uF pi+7F 4n+>h+5n+<Y.8G T^.6n+tm.}>+7|+tw.NC Wk (z 1@ Sk 4G .~.5#+}G lb.d6+7n+8n+_X.d6+9n+0n+an+bn+                                                                                                                                                         ",
"                                                                                                                                                         6*.cn+dn+8E en+fn+Zl+;F.<>.2m+Kh+Qp.:H.gn+BZ.3E.Oz.g: it 6++hn+cu.,Z.kM in+jn++n+rm+kn+cm+ln+mn+_n+nn+on+pn+qn+rn+[0.sn+]}+H~+D:.1V.4B &E 1V.(X.tn+Kb.G +`h.Bg.-y ;i.C;+|x {=+xa._k.[E.cZ fh.(r.un+S'+:p.eo.Es !'+'&+Ms Wq L&+Mn.mc.]*+CU .B vn+Tx  C )R.Qg.bc.Ma.<B.h{.0` .d.O|+*-.rA d{.>@.nB.{-.oM.`>.dX oZ <*+tl.!w Bo jt.Am Gy TS.wn+R%+c..hg a .pz &&+B%.xn+yn+x.+zn+x/.Ez Gz T;.Wi.2m.#w fz Ts 3m. i  j.+s %w Eh.E1+Pp.Zl Tn.w&+Or u/.=@.#C Gj.Ft $*.zs S(.au {<+[3+i<+u'.ft.z++<C [/.An+C@ Bn+[q.{;+n.+P_+0&.wS.64.!e.@h+Sk+5x 8G sm.Cn+Dn+bB 3` o@ 3G W+ 1@ lA GE Wk En+Fn+Gn+cD ^l.Hn+~@ w= |%.FX K6+BE In+Jn+`a+                                                                                                                                                         ",
"                                                                                                                                                         5*.Kn+}; Ln+Mn+Lm.o= 1m+QI .z._M.Nn+-N Ql+vm+BZ.On+7N.Gm+lv.|&+jv.M*.ol+g3+Pn+Qn+Rn+Sn+Tn+Un+Vn+Wn+Xn+fm+Yn+Zn+`n+ o+E|+>=+.o++o+}l+@o+Sc.#o+)0++'+s~+8d._c./r.Yf.~j.ma.$o+I++ch.~'+~j.E-+Zf.:B.Tz wm.uk.Gz.2n+rv Ms ,#+jt.uC.4~ db.uu.h{.,C *g.Uz gb.(j.g*+J;+2+ W+ J&.AE 0-.Nm.y).[].n+ OC K].},.4@.:+.Ld.;-.7*+4..Kz.O!.cp BY qw.7` +@ h;.Q_+U%+4c.YA Ci.#*.&f+>X.d>.i` -e ] .Vr xy xy $k.%w %o+=d.4F.Pm.{!.8y +s d#+Pd.oj.g#+/h bt ko u0+$C m+ g!+0x Ud./B.p@+&o+*o+P1.4_.a+ ,6+/.+8+ p:.=o+dt.-o+)n.X~+9:+)@ ;o+>o+,o+'o+fK 7k+8T.5t.m8+~e.S#+)o+]^._..)+.;#.VC m-+n. GE M+ .S.9Z BV An.0V.$n+7n.;7+n*.6/.HH !o+~o+]@                                                                                                                                                          ",
"                                                                                                                                                         n0.{o+~& VI }@ ]o+^o+}@ /o+G}+QI (o+Cm+Oz.^,.Ar.7G vG.G@ 0N.kv.6|+0N._o+h +:o+<o+o*+[o+}o+}o+|o+1o+2o+3o+4o+5o+6o+7o+!:+8o+9o+[7.0o+D_+ao+:^+'~+Dl+F/+AS.yj.bo+(c._f.'f.7_+ME qi.7w )++Zf.4A Eg.(k.e>+[J.O=+w/.*-+co+Bv.5>+Nr we.db.|m.F0.=-+Id.gb.v/.CY.AE ;X.jx.N-+&`.do+N@ Z. >$.ey.*C <D &'.me+$D !].F0.N].~@.'1+oZ US.+r &d.nb.%&.eo+D5+V&.~$.tl.k/ K#.Dr `B fo+~-+Qe.N].bj $k.'.+A[+(v H).;}+!p wr.Jh.7g.(k H).rd+'6+=&+Rd.'w `w G=+Af+Dg.nE Bb.-=+#*.-*.R&+Il+go++^+ho+##.Y:+5a.C(.H*.#m.-^.w+ 6!+v@ io+jo+ko+ui+1t.lo+mo+'V.#A |h+no+oo+'}+-K.lw.po+qo+ro+*$.Br.Yy.A-.VC {W.so+L@ 0E MC to+7n+Bz.V+ ~+ Ua =N.-O.Km.                                                                                                                                                         ",
"                                                                                                                                                         N1.uo+vo+wo+xo+I5+yo+zo+_x.ev.bw.!n+i@ s.+6E ,F.V!.Y`.<{.4m+6|+5&+S#+@H.YX.5l+ f+Vk+$g+ok+{q.Ao+Bo+Co+Do+Eo+3o+5o+Fo+Go+Ho+Io+D|+Jo+v{+[0.Ko+!_+D_+:n+q[+9(+K~+Lo+}f.>E {b.Aa.oi.$:+0e.-i.V(.P2+nl.7w h*+44+I&+Mo+[j.Nr Zq }B.Kd.Ud+'i.mc.xC.ho vC.;C Il mb.:D (>.(l.Y,.RI bw.do .d.&C OY.(y n@ en ZH No+:>.k{.Ld.Ls HV JX w&+Px ;e.mD no+;h h>.7n )`.R-.$x 61+Oo+7*+XA c..NW Pm.p].Rt HI.h[+0i.'#+Ay Du Px Am Zw )w Dn Fy >w )w Ee.#9+V.+6c.BX lh.lh.Pe.RZ.9b.+_.nt Pf+[3+S. nD )^._/.{e.rc+>@ !&.j_+6_.Po+Qo+Ro+Ag+So+To+lO &r.Uo+)r.sj.7v Vo+Wo+Xo+_m+Yo+jt }%.Zo+s +8;.Bz.]l.y*.`o+ p+|G KB ~@ z-.L6+m-+NB Pu.@S..p+qH                                                                                                                                                          ",
"                                                                                                                                                         +p+@p+#p+$p+%p+yo+&p+so+*p+}H.to+=p+/@ ym+xm+yo+;F.~W.-p+RV.;p+F@ >p+iw.7l+t'.,p+'p+)p+Xk+!p+YX.4M ~p+{p+cm+]p+&k+Kj+^p+/p+:>+(p+_p+5!+:p+':./p+%1+00+q[+s%+h9+<=+WR.B:+HC <p+[p+y'.KB Cg./*.nl.P$+l%+n<+`&.uu.**.|B.My gx.3b+>@.1..mu KV Zk  C nb. d.Qg.v;.i-.4;.h).LB DE }+ OB $g.<E.W&.k-.RF.u8+YC }p+a<++*.@*.X%+p&+Ks 5).TS.Z&.Y,._b+Gl nb.6p 5p.,h.(*+m&+Kz k/ Df.Jz VA Tn.+s 5g.es 7i.~h. j.xy ;D.} +Pp.Hm Xh ^m.Ee.H).Qs >w |p+$C.u +1f+'*.i@+=X.Ar (..i*.sG.Oq 5E =&.u. eM.#;+X~+>@ TK.{x.1p+Po+~r.2p+m.+m8+3p+z@ 4p+5p+6p+7p+7v ;@ w+ 8p+Ll+I= 9p+cw.`y.TX.i]+`o+Hn+4>.L. 8D VC 0p+O7+zE W+ bf.O<+Cr.ap+bp+cp+dp+                                                                                                                                                         ",
"                                                                                                                                                         ep+fp+gp+EK hp+ip+,# xo+jp+g@ 8N.sH -F.G}+v= Jq kp+lp+CW yr.mp+qu.eM.V4+np+rO :H.)X.5v op+pp+hD.kw.0N.jn+qp+rp+sp+tp+up+vp+Pm+wp+xp+D3.D3.yp+):+zp+Ap+Bp+h(.Cp+$~+}j 1b.fd.|f.<_.Ob.a3+#8.|J.] +_C pm F9.eD.-l.vt *-+Is xi.vA.%C.zs IV Kj.'i.Bi.vC.Lz Dp+`c.7;.Y~+m9+5-.n@ F%.9b._>+bD.yt /5+._.xv.,6+J^.M^.OY.dZ Y&.0b+ef.Kh.f%+6q.:r.'-+6q.@x qn Rr 7g.Yw c..R`.9*+,h.Q-.Cu bt Eh.2Z.2Z.)w jm.ys.Pm.{@+oj.h#+Ep+;d.J].$r R{./k |v ;@.tC.do+l*.n[+M&.}-.Pq |C '^.$d+6Y.]r.Fp+De+Gp+w. !&.^p.Hp+wS.Lg+Cf+Ip+Jp+Kp+Lp+_m+Mp+Np+YC V!.Op+Pp+29 kv.iw./w (w rG.E@ cq.w= n-.7D 1 .$&.8J.9 +Qp+TC Yy.Rp+aN.S,.-#.Sp+Tp+Up+Vp+Wp+                                                                                                                                                         ",
"                                                                                                                                                         Y2.Xp+Yp+Zp+2L `p+ q+.q+*w.QI |; ]@ +q+|; Ol+u= @q+Nl+Bg+6++hM w+ mM #q+$q+%q+=l+pp+K@ }x.&q+1y.<x.;n.*q+=q+|o+-q+;q+}i+sl+>q+,q+&:.xp+yp+'q+)q+!q+~q+{q+]q+^q+]z m0./q+El+{e.be.7<+Bn+(q+0o.j*.u&./f. )+Dg.>6+^;+[z |E.ys oc.Er ,l.%*.}c.db.$@ IB &C 'D EE Ek.<`.2/.G++$a+DE ey.$g.-*.}..XC ns $%+(G nW.vY _q+J+ tY ;@.{m.cp Ft OW Mr Sq Xn.Jj. l -e.c..%&+;++Z=.cy _:+w&+[p. x >w 'w jm.Pp.Jh.P{.y&+=w ;d.}v `e Jh.7p QF.%e.Jj.LW fZ.I`.m-.1f+X,.M4+aD ^$+Lb.u. :q+4E.+z )n.<q+[w 3V.[q+42.}q+k-+|q+8G 1q+2q+[.+3q+Mp+4q+}C b$+5q+6r.5E.QF 6q+6x.hw.7q+S#+<x.|{.Gn+V++Dz.S,.U+ qt.TH.Qp+8q+9q+7n.f +6=+Fv.0q+aq+bq+cq+dq+                                                                                                                                                         ",
"                                                                                                                                                         eq+#b+fq+gq+hq+iq+jq+QI kq+nR./o+6=+lq+q.+kp+XH Jq j@ Wn.zr.E[+mq+nq+*q+Xk+$T 3J.3J.$q+uW.ru.oq+y= kv./{.pq+qq+rq+sq+tq+uq+vq+wq+xq+^l+yq+zq+Aq+'q+e@+)[+=++Bq+m@+:l+U9.4B Cq+m(.P_+V8+o:.=- )a+_9+^-+o&.P$+dD.Y=.J&.)q <B.T&.dh.**.Ny sA %g.Il JX.vB Um+Dq+zX 'X.[>+^5+go }-+_H K+ Qq h-.bZ.ns N^.Oq.3G I^.mb.P&.^+.G^.Kd.<d.vC.Ft tt fx.9g.Se.io G^.~@.Z=.u/.6..Ga+mn yk.Y*+6q.Co 8y 8E.E1+oj.y&+G#+=&+kP.mx xn Px vA.%C `=.Eq+J^.]y Fq+e_+)C ^C @3+#8.6Y.[3+6N.Gq+w+ P1.;+ #i+{x.Hq+Iq+Jq+lO sm+>h+Zj+If+Kq+Lq+Mq+Nq+:x.[C Oq+2++x= 6H <y.Pq+RI Nl+lk+P1.nl+3C 'X.Hv.kH.%+ ;#.f-.Br.Qq+An.8n+d6+0V.An.&p+er.Rq+Sq+Tq+Uq+                                                                                                                                                         ",
"                                                                                                                                                         Vq+Wq+Xq+Yq+Zq+B& 8X.`q+SF jp+<m+6n. r+cD .z.*( .r+D@ Nn+p1++r+@r+#r+kM $r+du.%r+fM Q!.s5+;p+&r+{2+*r+L^+52.=r+-r+;r+Un+>r+,r+'r+)r+!r+~r+{r+]r+rn+^r+/B Pj+/r+(r+D_+50+3:.a(.C:+'/.3=+}:._r+5h.AZ.^0+)A [Q.B_+p+ 5w Ga.Ar ri.y-+va.[z W;+JX.8` w-+[f.[Q.bZ.Lq -z /..._.r++}x `c.(p p+ I^.!+.Oq.ft.:r+sa.z/.q'+AE Oa+:B.:*.zL.T&./$+7..%C v/.(m.:5+fx.'A.qe.Gj+wn+(i.B- sA 2}+NW &d.KX jP.Am >w ys.x;+=5+%b+_r.}]./$+uu.PW JF /@+sa.fd+bD ]C ._.@6 6Y.u(.Hn.h9+<r+[r+@=.Qo+go+0@ }r+ed+L0.kk.^q.Jg+d$+|r+1r+V_.c2.2r+Pl+'E Oq+3r+4r+TX.5r+G}+QF zX 6r+7r+#n+J@+bu.Lm. z.f).1 .m-+Yy.kB pY (@ $'._@ 5/.8r+9r+0r+ar+br+c9+cr+                                                                                                                                                         ",
"                                                                                                                                                         z5.=4.Ab+Oh+dr+er+fr+.D SF 'n+:m+0q+gr+wA.Ql+hr+8Z fg+. +ir+jr+kr+lr+mr+nr+or+pr+qr+o= &T iq+Q!.w. -_+_B N~+rr+uk+sr+tr+tr+ur+vr+[o+wr+xr+yr+zr+Ar+Br+Cr+Dr+Er+#o+cF /r+Fr+Gp+3=+Ik+2@+>@ t2.=A 6+ Gr+}>+<C od+/C jB pt '*.p-.ch.cD.8x Qg.G=+i`.Ja.;i.sa.bo 9b.[Q.}-+r++Cb+O@ h).Hr+&B Af+/@+X,.6E 1!.5;.(*.OB :D JC sa.,,+Ir+mZ.ne.kN.Re.IB <E Jr+[p EX.~@.U%+*@.mZ.Gg.}c.WB P].ym Dq.4*+P-.Td.,h.Px !w Ao. *.G0.ta.-,+K(.k_+P(+7|+&&.r.+mD @6 ]&+ K.>q #d+;K.qv.u@+pv.Kr+K0.&_.Lr+1q+9t.Mr+Nr+). Or+VV.Pr+X<.Qr+c6.Rr+5r+%#.NS.} .Pq+-E.Sr+G}+Tr+@J Ml+9v ov.Ur+q1+1-..S.+@ (@ hM.`(.7h+n).pY lp+m4+%L Vr+Wr+Xr+Yr+Zr+K|.                                                                                                                                                         ",
"                                                                                                                                                         Z}.`r+ s+.s++s+@s+#s+$s+nR.eO so.=C.<m+p= [* %s+jl+eg+Wf+&s+*s+=s+-s+@m+>e+;s+Am+~L }L 3m+>s+c$+i9+9_.,s+(t.'s+8i+Kj+)s+!s+Qh+Qh+~s+{s+]s+^s+/s+0F ng+$@+(s+_l+{0+_s+Aj+:s+<s+S&+[s+q[+3V.}s+-].R^.x+ 1f.]_.T-+ka.%Z.:B.,*.|s+me.:B.J&.I+ i`.&C 6D 5;+G9.K3+D%.}*.:C {C /-+Q++=,+,,.%&.N@ g)._b+CW Mn+(y l*.}-+&@.L(.bZ.>i.]l.J. n@ N^.xB /^.C`.`++*C L+ bf.OC i-.Sk mb.g>.:5+yL.Om.&d.jt.O!.$*.4c.QF.%e.*g.]+.l%+B*.N`.C++Y*.se+H/.p++U*.1s+:{.>+ a,+Fp+=- u'.ee+2s+.@+-[+3s+7M 4s+,o+5s+)q.]m+6s+7s+8s+9s+`<.4h+<2.<~+0s+[6+!N 8* as+bs+6E s.+2++2n.ru.@f.]s.@H.#'.Fk.Jm.9D 0E cs+Pp+/o+ds+es+fs+hk+-7+gs+oY.hs+is+js+ks+                                                                                                                                                         ",
"                                                                                                                                                         e5.ls+@].ms+ns+os+ps+qs+rs+ss+>n+t=  m+Fq.#a+M*. j+ts+lo+us+vs+ws+xs+Mi+ys+zs+T8+3_.z= #_.=c+X~+As+W1+N~+35.Bs+Cs+Ds+Es+tp+g[.Fs+Gs+Qh+Hs+[s.sb+)q.Is+Js+5t.dv.Ks+T#+Ls+Ms+Ns+Os+1:.(m+RH.Ps+Qs+8o.@y @y 5a.DC J<+N-+/y ~E [*.F$+mB F$+;i.me.D0.l*.._.q2+fu 0<+i>+tw.G%./-+_b+55+r++i>+r++,,.zB _b+yY.xl.DB O^.4.+42+W%.Rs+9)+W%.ms )^.[>.5-.t +G9.L^.7D (..|@ 1D yS._>.Ia.9y h{.Uz JW qv tt Gj.vu ys 8x &C $B bP.,6+ '.N/.AZ.;@ 8:+_`.8+ 9+ 7+ w'.TF._m+Ml+0o Ss+Ts+_q.Us+[U.0M Sd+1q+^m+ij+.h+Vs+5g+Ws+Xs+Ys+4h+m}.=1+(h.[q.Q+ nt 7q+AZ.Zs+`s+E(._{.fM. f+ t+~- .t+xX 2++aZ 6-.YH QF /l.+t+@t+#t+$t+%t+&t+F6+*t+=t+-t+BV                                                                                                                                                          ",
"                                                                                                                                                         I2.X  @m.;t+>t+ir+,t+'t+)t+!t+$p+~t+{t+tN <@+]t+^t+7k+/t+(t+_t+:t+<t+/&.[t+}t++A |t+)H 1t+2t+j_+X#.U^+3t+4t+^n+!l+5t+6t+Sn+7t+8t+9t+0t+at+{g+2g+ui+$l.PM tJ &2.bt+&2.1q+lu.ct+sm..Z./w m(.dt+w{+v@ %T.et+ft+t:.~A Jf.ur /c+{_+=K.',.N-+,,.K^.i>+[A ~E.),.S8.$8.L>+OL xY.:p y(.Ce+5&+jl+A= A%+7=+gt+.'.*&.;-+E!+ht+it+it+4.+]C 8(+C +xv.jt+]C Wz.Kq |-.CV J^.5-.4` h~+Wz.4D tC.F0.[m.W.+mb.1,.gn +`.*C Oq.} .)^.l-+mp+I= rc+kt+9:+m;++z v. >p+q1+W,.tU lt+s5+Em+{- mt+R  nt+Ae+]s.bM &r.!p.ot+pt+qt+rt+cm+st+c3.tt+ut+*%./2++z 2@+vt+3<+#|.!x El+wt+{m+xt+:y yt+Y  #d+Bg+.r+zt+At+K@+At+{R FL.Bt+Ct+Dt+Et+U= gb+Ft+Gt+yY hw                                                                                                                                                          ",
"                                                                                                                                                         Ht+@m.It+Td+~- Jt+Kt+Lt+Mt+Tl+Nt+Ot+SF.fp.c@ s5+VM oI Pt+(t+Qt+am+h[.f]+Rt+de+St+<7.Tt+ f+<q.Zm+$%.Ut+Vt+Wt+Mf+Xt+Wt+V&+RD Yt+6l+:q.Zt+mu.]s.ko+-l+$# @*+-@+.k+]g+`t+ u+@*+6M .u+jo+fg.vf+^i+'@ +u+4l+@u+3=+P1.[3+o7+A0.2b.V}+7;+^-+aO.~^.>F.wr AB !].se+N/.xY.i*.Rs+3n+y= ,9+9p+;n.Gq+)K._h.}j+#u+,`.fe+$u+uW.r-+Z@ {2+}&+|{.)^.I/.Zc+%u+tu.ps Pq M. X,.^..r'+`|+B/.~+.z*.l*.=B ',.I;+pm ]^.O&.M&+R1+zu.R^.;&.],+P/.o7+z)+w'.^t+.t+`C hl+&u+*u+M*.hl+F  gk+=u+-u+;u+>u+,u+&r.'u+)u+'q.ZG !p.Tk+;4.!u+~u+{u+]u+^u+v1.tF EL.6!+S&+.y 5:./u+Hq+1t+4Q.$A (u+_u+-@+$l.YX.|&+[x.ll+B2+{R gg+$t+0  :u+(U.P0+gb+1].UW <u+[u+[#.C/.                                                                                                                                                         ",
"                                                                                                                                                         }u+R#.|u+1u+9v .-+fg.2u+=4.3u+4u+5u+6u+7u+>L 8u+kk+,o+Yf+9u+0u+au+bu+cu+)h+du+eu+fu+gu+hu+iu+C%+Nk+Co+ju+yi+ku+lu+mu+ y J}.*l+nu+ou+Kp+pu+@f.(m+qu+@# /w ru+rM )O.nc+su+tu+bM tu+.k+$l.!Q.uu+tJ ~g+vu+&.+Kl+t'.a. aO.'9+s<+wu+]C Rs+YC ##.i*.3/.xu+yu+R^.:q+]r.##.zu+)H N%.Au+Bu+wt+[q.#y Cu+<f+ f+Il+Du+Qc+u+ . +Eu+gt+H1+WH.Fu+Gu+_1.7q+se+C/.5;.7D DB X,.'q A*.2 .&@.J^.3;.l%+5-.>W.q- }%.55+-B Hu+:{.qH l-+u.+Iu+AV 7G PI Ju+=J Ku+@}+Lu+A2+Mu+Nu+Ou+A5+Pu+Yf+Qu+`G Yf+Ru+Su+Ls+1&+Tu+!e.Uu+Zt+dv.'q.Vu+ws+Wu+Xu+Yu+;+ 1L.7_.V@ @A wg+=^.Gn.Gn.Zu+`u+ v+SD -f+.v++v+sv.@v+Gd+#v+SM $5+$v+%v+bd+&v+#~.c .x).b-.*v+=T OL                                                                                                                                                          ",
"                                                                                                                                                         =v+-v+;v+>v+^9+,v+'v+Ve+|K )v+!v+~v+{v+]v+^v+/v+(v+@v+Wf+0L _v+@g+8k++g+:v+2X.<v+Us+[v+$j+}v+|v+Vs+ih+1v+kr+0@ Y +xr 'd+7e+2v+C@ $u+3v+4v+V>+*Y.c).J@ }++[f+bt.0).su+:v+5v+1X.6v+7v+8v+,d+9v+0v+IW.&.+.l+av+Ur+ *+bv+OL }%.os Fk.+_.+_.dD sG.D$.w'.&l.;K.cv+Fp+P1.pu+%A Tg+^9+Gp+q2.yF 9@ &o+]p.dv+ev+'n.ov.fv+gv+hv+jo+.k+iv+E  jv+kv+~e+V>+lv+mv+a;.VH &@.y*.&0+55+A'.yu.2>+< . z.Z,.7e+fa+r- nv+!,.(L {>.~v+~F.>P.yr.ov+gp.pv+W4+!4+qv+W5+W4+rv+Ts+A5+sv+{g+#A Xy 42.9T.7  .Z.1u+ov.#j.Kp+WV.]f+`t+#h+tv+Ns+uv+vv+wv+Y5+xv+Yl+yv+zv+=J Gh+Av+Bv+os+ u+EZ.Ae+Cv+{9+$N F5+GW.h5+Dv+Ev+Fv+Ne bd+Gv+^` ]#.{h UX Hv+UW RB &@                                                                                                                                                          ",
"                                                                                                                                                         Iv+ s+ov..-+)<+Jv+Kv+@m+Lv+Mv+Nv+FW.Ov+Pv+Qv+Rv+Sv+4L ~L Tv+x*.F5+5v+Uv+)6.Vv+sb+$r.Wv+Wv+Xv+nk+ql+>u+Yv+1x.xr oq+4E.Zv+2y.aP._m+`v+w'.Iu+1m+9u 5v YX.Nc+ w+.w+2s.3l+CH.+w+@w+{- #w+rv+IW.P#.ou.rv+mq+$w++ +Dv+Q& zY 4m+CW yX wo+s.+wm+%w+ev.iD Yo.{..6N.H= R!.&w+#j.*w+5t.Xy ov. v+<e+Yi+s}.=w+-w+;w+]p.>w+/w ~r.,w+l~+o(.'w+Im+1&+Du+)w+6h+6h+Z|+YH 1>.x'.SI }^.3++wU !w+;0 :- dn+{R ~w+E@+{w+>Q.e2+]w+I}+^w+(1+/w+.N (w+s'._w+:w+6T.<w+[U.[w+|d+}w+|w+T@ rv+1w+2w+)%+)%+5_.`H 3w+4p+5v ## Au+v. <[+9u <x.4E.sj.4w+!<+.3.^1.5w+6w+,n+7w+hr+uv.g3+fu.in+8w+^1.9w+0w+qr :Z.aw+bw+cw+dw+Up+;>.%7+ew+z).6,.SX b .Dy ag+,>.:B.                                                                                                                                                         ",
"                                                                                                                                                         .I {c+fw+Be+4_.Fq *_.gw+hw+iw+jw+F|.kw+lw+mw+nw+ow+cw+pw+vi qw+rw+Xl+<-.$T gK ~e+sw+RM rM Zx tw+bO.<[+q= {H E@ kw.it it <{.3B.3C <{.'}+U*.uW.Gm+G@ dw.G@ mK @# G%+.3.ed+ui+ms+tv+2s.8w+Ts+9M RM 0w++ +cX.Yv+uw+9S.'W.Hm.B2+*p+vw+fv.(o+8r+Jq Y5+gg+ww+n= xw+hK bc+R!.}w+5v+mI yw+(I zw+7o.>O.8H 5J iJ !+ N& 1j ~t+8H 1j Aw+j[+0M hv+xF [H.L@+v'.2-.Bw+so.+J pJ so.]L Cw+4L Dw+Ew+$N WP.x  Fw+Gw+Hw+Iw+)w+0w+6T.Jw+Kw+!Q.Lw+Mw+*c+rM Nw+>e+Ow+Pw+>e+IW.uf+Qw+Lr+H%+mv.^1.ei.Rw+Sw+A@ l  nl+Tw+it y~.BV V!.F*.gM.#'.Uw+Vw+$r+Hm+H= *l+xV Zv+<`.E$+v'.J}.Qp. *+0I.zY Ww+U,.2  Xw+Yw+-O.Zw+`w+,-.|f+>B 4d+'-+)@.-C q).t*.rX.D0.                                                                                                                                                         ",
"                                                                                                                                                          x+.x++x+9v ;x lk.5_.)<+tf+@x+#x+$x+]f+%x+0).&Y.&x+*x+=x+-x+mo.;x+UI J6+>x+5/.,x+5J `%.so+sJ AV 7r+ml+D'.'x+*( :m+(l.`(.Qq+~E.wm+wm+Zy.!@  D (| yX wv.)x+ru.&X.vv.4v+pt.5v Nc+F[+*q+t'.qv.!x+qv.0v c).F@ @}+jM du.@}+$L ~x+7r+yr.=N il+aX.`O.{x+]x+^x+.j+/x+(x+_x+*# :x+yw+<x+[x+}x+OM 5m+[5 |x+1x+2x+3x+ZI >h Uy.4x+Fv.!+ qJ Bg+yd+5x+6x+7x+UM hl+8x+9x+0x+ov+Ct+$t+ax+bx+cx+dx+ex+fx+gx+fp+hx+8[+ix+W5+jx+kx+!Q.=u+`j+lx+mx+mq+pu.[e+in+m8+<o+nx+Lg+_q.ox+/w 7q+y= .m+,+ px+qx+rx+ll+BZ.^G x= sx+r'+x'.CB Fk.wU _X.Qq+: .tx+Gs..z.Dm+6q+kp+ux+Tr+lp+vx+3r.=J.iq.wx+xx+yx+zx+Ax+HH.^Z.-W.n;.|m.Bx+Cx+zA %x JX 9g.g>.$+.X.+                                                                                                                                                         ",
"                                                                                                                                                            Dx+Ex+*_.vf+)<+}r+9v =w+K7+Fx+Gx+Ni+Hx+wD Ix+Jx+Kx+Lx+bw+Mx+Nx+mo.!w+Ox+Px+G~+Aw+Qx+so.pY $'.aE J* Rx+aE Sx+kA Tx+DE |!.0V.CB 5G 6G ^5+Ux+wG.vv.I%+0`.8Z jl+f2+7G PI Zv+H@ 9W.y= F[+Dn+px+Vx+Wx+~H E@ YC ]>.kv.)g+@# Yk+m4+c).qr %l+Xx+Yx+(x+Gw+#r+Zx+u  [U.u|+P  `x+Xq+ y+.y++y+@y+#y+$y+'# '# %y+&y+&y+ZI *y+8q.=y+1x+-y+]o+hl+(x+Lw+;y+>y+Ou+,y+'y+f$+32.)y+:g+[++r  <w+!y+TG ^a+^a+^s.fK {- ~y+Ef+{- dg+gk+{y+]i+Sw+]y+E[+g3+@H.@H.dM ;k.Kp+4M Ag+mv.C$+uW.2y.&X.4m+NS.*( Zo+8q+^@ 2E Dz./z XB fn bf.HF _G Wk 0p+#+ #+ Qp+Br.|D Sx+gq.^y+y-.kc /y+(y+_y+|7+:y+<y+[y+W..}y+_c+Yz h;.H-.4@.|y+px Fe.Yw RS.3}+N,.1y+2y+                                                                                                                                                         ",
"                                                                                                                                                            3y+4y+5y+I<+5l+6y+P1.7y+,v+#x+,v+Nv+8y+9y+|t+0y+ay+Iw+by+cy+dy+ey+fy+gy+5& 9* iJ =N.K* jJ Ea =#.^R.l-.iA x- ++ _^.{+ V+ ;#.V+ xl.Sc+`(.g=+Cm+j[+{H RV.n= gg+&T 'X.C'.AV {F.]>.|{.hv.6J.-N ru.>0+<-.hy+Y`.iy+OI yr.9W.6++6x.mk+'P.<@+jy+@v+)y+0M aM kw+wD lO ;q.ky+)e.ly+my+,r+ny+oy+so.py+@S.vi Y& `a+qy+-y+8q.Mh RD.ry+so.sy+{5+ts+ty+8G uy+O[+LJ _!.vy+qM Xf+wy+Jw+6M Wj+xy+8T.0L A5+RM yy+*6+,p+cu.kk+zy+)y+Ay+zr.bu.7e+By+vv.'K.]>.tU bu.kw.mk+[x.kt PF xo NS.BZ.hM.1 .*+ aE ^p x'.Y,.*T Nm.{#.gA mh.7j Th gA yi i+ ^+ Iq.+e+jB.Cy+Sp+Dy+Ey+E;.Fy+n6 Gy+*).Hy+r*+Iy+#0+uA 9 . ..Dw.VX.Ry h;.y%.Px R{.O{.@~.Jy+7+.Ky+                                                                                                                                                         ",
"                                                                                                                                                            Ly+My+/g+hv+Hx+/g+Ny+&o+sh+Oy+)<+Nv+@m+Py+Qy+5d./w+Ry+Sy+UF Ty+Uy+Vy+Wy+Xy+Yy+/d Zy+ap+iq..- `y+:H  z+.z+dq.+z+Y+ +z++.+Zn.BE |%. b+7G b$+@z+vI.C/.4` 4` /G |Y.v= #z+:>.Pp+Mn+Fs.YC YH RF it jv.<#+#d+fM.Iu+9u '}+-p+$u+$u+6x.'}+kw.q= &q 0H ~e+5x &2.Pw+&2.Uv+Jq+8g+$z+sq+dm+-k+%z+&z+%J pJ iJ *z+o- ;6+&z+=z+b4+-z+vx+;z+dk+%3.>z+|q+mo+7M ,z+|t.&.+du.Ur+<++ou.uw+$# fu.'z+jv.}y.%q+)z+;s+Ay+jl+!z+5w+7p+v. H= `C mt ~z+6r.zX }Q.5` MC ^l.N. n@ LS.Hn+_G yU Nr.j-.co in Xk SC nW.o+ yU ,k !k hg dA 'T {z+}+.8z ,@.}m.Va u& ]z+;~+dP.^z+d8+/z+(z+b8+8U k$.Wi iz 0g.Dw.1>+1>+hW.9 .%@ 40+kc+l{.vw at Ge.VA Ye._z+:z+<z+                                                                                                                                                         ",
"                                                                                                                                                            [z+TJ $2./g+Py+Py+I<+C= 3_.}z+|z+Xy Fx+@m+.-+1z+P$.2z+3z+m).4z+5z+6z+7z+56 X; 8z+9z+J[ 0z+az+dW bz+M* mJ 7q.Ua OH 8^.B-.0z Tx+WH br.Wn.i@ Nn+xo w= Rx+CE 1+ V+ *$.Z+ UC jx.;q ^l.DE 1D ~@ 8x.^l.2n.aP.|y.CW <{.Cm+y~.}{.1; 3B.(| Lm._m+;0+E[+cz+ v+5v+R8+cM ui+!r.=r.dz+ez+fz+gz+hz+m).iz+jz+f7+kz+@U.5u lz+(d mz+nz+oz+pz+qz+rz+ff+sz+ty+,o+&_.:o+tz+Zv+uv.c).0`.[6+:x.f=+u= Ol+uz+vz+wz+1x.ed+[x.uz+xz+9Z pY os dD Fk.Gm.J. J. y*.EE A-.A-.Hl bf.AU yU (+ yz+zz+|+.Az+ul.Nm.q@+Bz+lA.Cv.sx.lX.i>.eZ 'k xi 8y.sm E7 Al.Cz+}u.jU R[ Dz+&} T~.Jg o| GZ A8 3Y 7Y ox )@.Yz (c+S'.9g.4^+Ez+40+UV.@-.;}+Bl.T@.$D.x6+ -.l6+                                                                                                                                                            ",
"                                                                                                                                                               Fz+@].Gz+Py+R:+I<+8v ;].;x 6y+'n.Ib.Hz+#n+Bc+Iz+n{+>^.Jz+Kz+7!.ar.Lz+-y+Mz+Nz+Oz+Pz+Qz+Rz+Sz+w%+Tz+Uz+Vz+2r.i..ZV Y'.oA 7>.Wz+Uy.Xz+X. .@ MF JF s-.Yz+(z.'h PV eq.zn.GE k-.zE Yy.Sx+Zz+in yz+B+ NB 2E.*$.`z+/z 8D N@ bw.[C ,+.QF 4r+y~.uW.A@ cM 3s.6e+^1.4p+;k.4w+ A+.A++A+@A+dC >,.#A+l@ ep.nv+$A+%A+&A+=z+xe+8-.*A+=A+-A+rz+;A+@].>A+,A+(6+jw.^t++# D'.Nn+vI.xm+zX QF Zy.@z.BZ.PF x= 'A+j[+7G 0E 8n.Hn+S,.Z+ KR.zz.8>.Xk dg 9A mA._^.r;.G+ xE #7+F+ M#.8 .M#.Aw.=T Qh 9A 8y.xi Zk }r.}r.mA h>.0].h/.LV vH p. sp.)A+!A+~A+!, {A+]A+lB.8U *J.R;.pp Ch hj `e ct )`.b~..b+&-.hW.Aw.T<+^` DX.VY.4*+SA 0..4..;-.^A+/A+                                                                                                                                                            ",
"                                                                                                                                                               (A+9y+_A+rz+cd+m;+Q$.6N.^{.:A+U&+No+3s.<A+']. '.(1.,q [A+|/.|Y.x.+|Y.3{.}A+|A+1A+2A+3A+4A+5A+6A+7A+8A+[Q 9A+/R.F& |@._+ 2^.E7 :d qz.E7 _+ [+ 0].9z {@.8j ,@.{@.uf }m.}m.a` -@.1%.XB _++r;.2G gn 2..s-.='+&C 0A ,C.2D DB kB Qq+9Z G}+|{.Jh+y= ht+5&+0A+;0+E[+2w+aA+z@ bA+Kj+cA+dA+z= Jz+%2+eA+ip.fA+L|.gA+hA+iA+jA+sy+jA+MV kA+`G lA+mA+Y#+nA+`C dt.U*.(| }&+D$.F*.QF pY Gv.8;.6E ;F.^..8;.v= MC _@ xG.UH VC f-.Cs.+z+Zn.|..hn tm ^@.M#.EV .+ ,$.pm.9A mA.Uv.<E q@+Lr .;+Js.PV =e cs.{#.l8 'h rz.Iq.oA+  +pA+qA+rA+x9+.J.gK.sA+tA+pE.uA+v>.~` &` =` Fz G#.{!.5q o!.q'.Z-.]W.vA+s).|,.(m.dW.Py 8%+61+Rr wA+]1+9g.xA+                                                                                                                                                            ",
"                                                                                                                                                                  yA+zA+AA+4_.Q+ B&.H*.Q$.@#.rz+gg.rD R. WH.ms BA+2n.6-.X4+.#+NS.A'.CA+1^.DA+EA+FA+GA+dr.HA+Qv+IA+JA+KA+LA+MA+NA+OA+&n+[$.PA+.- /3+F6+QA+&~.<;.|j.CC.mt.{@.Wr RA+$x Ml sB Qh lX.7r.8j 7r.hA fq.>$.9A 9A PW PW 4%.<H.0-.6H yu.wG.aZ 'X.Wn.<{.cw.3B._m+Zv+rs J@+C$+YX.=r.SA+qn+TA+u@+UA+&u+*F VA+WA+XA+YA+_m.ZA+v8+VA+*F .&.`A+^m+-s+ B+sm.A*+.B+aP.YC |{.6r.u= 87+e).Hv.7E 6G QF ;q ]^.Hn+Br.Z+ MC UF.9q+V+ W+ [D Sk +@ Z+ +B+OC ^D 8 .HB <E D+ @B+0r.qA.` +t@+E+ #B+mx.$B+=e =z.#W vb {6+XS %B+&B+*B+=B+RS -B+GE.;B+TG.sF.D8+>B+s$.Yf Ig )p _g.P,.1u D#+;!.Cq ;}+p&+Z{.Di.xn+p).x&+X&.,B+a.._;+R*+KV Ye.E+ n4+                                                                                                                                                               ",
"                                                                                                                                                                     'B+)B+Zu+<s+!B+~B+2; fe+rD t. Z*.G'.bu 1/.ns z++G*.{,.Y~+y++XC D*.{B+O= es+cc+]B+^B+/B+qm (B+_B+:B+<B+[B+}B+|B+!U.US 1B+Xw.2B+tp._R I. 3B+<l.x$.I~.Om.4B+mf QX f` !#.Hb BY wo xb Ra xb XX ~h {B.RA+DU pE rx.^@.9p.` +}j.Jm./G xG./G x= V!.An.yu.RF q1+5B+_m+Zv+;k.-8.6B+7B+Jv+8B+Y*.c$+9B+0B+aB+bB+4c+cB+Gd+dB+eB+fB+8  gB+hB+;q.iB+E[+`C {H nv+BZ.x= 5G CE Bz.9 +FW Gm.n@ 1D 6=+E+ EV HW k-.co 1G E+ 9p.Ph uE 8B.^R.xz.c+ 3j ` +K-.2G j;.en (^.kb+;7+BE l>.e+ 0y.tA !'.Z= jB+kB+-O.lB+mB+nB+oB+~G.}3 pB+0W.j=+/W.vx  >.6`.n!.QY -X %m _` !!.i~.s|+y;.SA Mh.T@.85+Vf+|m.K].M/+cy M/+ ,.|C.pe.;@.qB+LS.                                                                                                                                                                  ",
"                                                                                                                                                                     rB+sB+tB+Kr+,`.uB+R/.,9+O/.G= S. aO.Ce+D++Y~+wm+L*.42+A++Y~+} .vB+^>.wB+xB+yB+zB+3!. E AB+BB+CB+DB+EB+FB+d< GB+HB+IB+JB+2I.,} KB+-{ LB+s*+/v.)6 l4 xw.g` '..Cv.f .yb 8+.}+.Wr !$.4B+mZ ox 6Y XV a .Hb E).mt.8+.{@.[+.%%+]+ tb 2E hJ J* JW.DB (G KB DE ]p PF (,.7G *l+&_.MB+Kn+el+NB+b%.OB+,L +7+PB+QB+Dw+%A+RB+SB+TB+Ma+2X.aj+sv+:o+@}+FL.UB+~E.8x.TH Kq d6+q@ en *$.Bz.VB+m-+[&+0A 'C.wi zn.Ph LV rx.}m.7r.Qy Nm.a` 4n...+8>.i+ s-.i..ko.WB+XB+j4+RD.YB+ZB+`B+7h m* !A+ C+.C++C+KS @C+#C+KY.$C+%C+^K.y3 eU Sb+jY *,.#,.]W.N>.$Y ;..;w Vg.Iv HI.2Z.p].Gy H#.Bl.V{.T%+9y Q].$D.ef. l N].k/ &<+&C+O..*C+                                                                                                                                                                  ",
"                                                                                                                                                                        5j+=C+Jv+3<+&F {m+An+C(.5s.a# ,[+p++z)+:}+Rc+42+lD zu.}%..#+}^.-G 2 .wc+'9+t5+-C+;C+4C >C+{B+`D ,C+'C+)C+!C+~C+{C+]C+^C+/C+(C+_C+Lu.:C+W) pQ G[ k1 Y;.<C+|d &w '..s8 sf _Z.0D.n` '>.,T `+.mt.mt.d .%f Ha Ib Hb u7+|@.no.Cs.6=+UC 7&+6>.z+ d+ 3j [D }X.+'.Aw+`%.i@ h5+Qp.[H.[C+TF }C+|C+1C+2C+3C+4C+5C+0. {w+6C+7C+8C+%_.gt+3B.QF aq.9C+ z./z yS.zE ` +-T uE *|+Oj.A+ +.+%%+Aw.'@.CU ~i.=T sm $W =e 0C+z%.>C l8 :+ d +sf wH 2^.aC+K& 4J bC+At+cC+Uy+Fy+m{ dC++I.eC+fC+x| gC+hC+iC+jC+y .kC+lC+G;.g +mC+nC+oC+N,.pC+f{.}Z.}).b +cj E1+Gz &m C{.8Q.vh.}v s|+T@+k/.Ld.W&.wB >@.8%+^`.q$+Px ie+U4+qC+                                                                                                                                                                     ",
"                                                                                                                                                                           rC+sC+ho+@#.EL.B&.u+ An+{;+A(.|/.Oq gi.au jt [!.e).hD tC+uC+Y,.g).2;.s- ZH |`.vC+1>.Q6+B[+wC+xC+ZA+yC+zC+AC+tL BC++s.CC+DC+H!.EC+FC+GC+HC+7! /= IC+JC+KC+Q; LC+oY.MC+NC+OC+PC+qy+QC+k` +C.0r.@+ ;* HY {B.~K.RC+z%.0r.:H [,.K6+%6+{W.%'.6^.d. b` SC++@ bf.;7+K6+,z.gr+6E u.+Es.Bg+hn+TC+UC+VC+r-+Dv+WC+XC+1` nv+Qx+-#.f+ lA.UW hA ;D /+ (z.0].]z+mA.}m.=T rZ e+ LV Nm.a` ~K.s;.|j.sf YC+]+ Nh L'.ZC+LH `C+A- 0!._-.d. |#+=1  D+.D+6z++D+@D+Q8 #D+$D+ZI.%D+HC+&D+qA+*D+=D+L~.j=+-D+K+.^_ ;D+R@.qW x[+>D+,D+'D+0g.T3+)D+J-.yW j~.!!.3 +^u $;+p].;w 9.+jt.Nh.Xn.61+!D+},.qe.nB.pd+~D+T@+{D+]D+                                                                                                                                                                        ",
"                                                                                                                                                                              ^D+/D+@#.(D+$0+_D+%u+An+F= Ce+M2+!].s +&&._b+55+Q= /l.g).T= VY.A*.v~.:D+r- <D+i).D*.[D+[;+3-.}D+|D+Xc+1D+2D+3D+4D+5D+J,.-~.6D+7D+8D+9D+0D+aD+bD+x} vT PD.cD+dD+eD+HC+fD+gD+hD+iD+jD+kD+lD+f7+iq.uc+mD+0].1].Ai 0].2^.1r.jD.Ua 8V.oA H+ <+ SC pA.G~.g!.9z 8V.}j.nD+vx+oD++%+.d+pD+BB+qD+Pp+Mh rD+sD+2%..V u-.tD+1+.wu.qC.VB by 3p I~.mJ.uD+{@.fq.wz.mA.vD+i..rz.4V.G~.cP.#d.wD+D~.xD+yD+zD+AD+BD+CD+DD+ED+FD+GD+HD+ID+JD+KD+LD+MD+ND+23 OD+iC+2P.vd NE.%G.uV.m .PD+QD+RD+v .k9 *A.f,.; +^` #j ,7+SU.SD+]W.!@.&C+Ba+i;.Gb+Vg.Gz oh.Wu.C#+]s Jv g~.T%+k&+VA &d.Qe.Vf+2}+OW kf+vw Yb+TD+                                                                                                                                                                           ",
"                                                                                                                                                                                 5|.UD+VD+n.+[H.a# Pf+X*.D(.Ek.lW.$d++_.Cb+J(.^W.g).*+ *X.*T fu < .($.WD+b;.os.wc+1-.R*.XD+YD+ZD+dk+`D+ E+.E++E+@E+#E+Ze.$E+%E+&E+*E+=E+-E+;E+cU >E+,E+'E+)E+!E+x^ ~E+L> {E+]E+^E+/E+(E+_E+:E+Nz+<E+d5 E* [E+h9 wu.$~.[Z.wo.[Z.07+}E+rE <X.7^.tD+)* #m Ty.sE jD.OH ps.X>.|E+1E+2E+3E+=b+po.7B.*z+4E+{* qE ]z+/-.Se j..0$+^l }+.Ic ^T M!.]T 5E+W& 6E+7E+L'.>G c3+8E+iJ Ty+#S.9E+0E+aE+bE+cE+dE+eE+eE+fE+gE+!G.hE+iE+jE+kE+lE+mE+nE+oE+pE+oE+zx t+.,D.)l .p be rV %..Bq Fe.c..C#.n` W-.qE+rE+sE+tE+uE+|c+(-.vE+6>.()+Bo p#+,o.*!.!!.wE+.).}v Bs.61+R{.Fe.Ao.xE+k:+T%+pe.+r Xn.5f.                                                                                                                                                                              ",
"                                                                                                                                                                                    U:.y:.+++yE+zE+C(.ms W*.i*.$4+G$.7|+}!./..bZ ,X.AE+BE+Ir+&'.wB+M2+A'.CE+DE+EE+[G FE+xc+GE+j` HE+IE+ZD+4e+JE+KE+LE+ME+NE+OE+YD PE+NE+QE+RE+SE+TE+UE+VE+WE+zA.XE+YE+x_ ZE+`E+/N. F+.F++F+@F+#F+$F+%F+&F+*F+uH.y9 @C+=F+-F+yN.e5 j_ c& s{.|> &V {T.fX ;F+c#.]v.%V >F+,& gy+27+d0 X& GR.-Q.`C+,F+9=+'F+;c+hV Yx.3+.*~.9,.)F+.8 ~~.!F+0^.~F+-b {F+]F+^F+/F+(F+_F+:F+@} <F+[F+}F+|F+1F+2F+3F+4F+5F+6F+XZ.m~ 7F+up.F*+-t.mq.8F+PZ.f+.In D..RA )l j^.MZ Tn mB.wq Vu /v (` 'e k/.)>.qX U@.w;.9F+0F+Vp+aF+~-.SX 40+bF+fW.9Y e%+oy `*+{!.7n bt {!.P{.SS.cF+L].R*+vC.4^+O!.dF+RS.j;+                                                                                                                                                                                 ",
"                                                                                                                                                                                       eF+fF+gF+hF+o:.b}+iF+2>+<p @3+OE q=+bZ /j.1f+2 .%B wB 'q 55+h).yY.1!.jF+Jc+X%.kF+ms.G'.lF+mF+nF+oF+Q6+pF+qF+rF+sF+tF+uF+ad+vF+wF+xF+yF+B7+z+.X= zF+g .<$.AF+BF+|0+CF+@D.C@.DF+EF+FF+F/ GF+HF+IF+g> JF+KF+$D+LF+MF+G4 NF+OF+PF+QF+RF+SF+,U.TF+KC.CC+UF+m{ VF+WF+XF+YF+ZF+`F+jE.)U. G+.G++G+@G+#G+lE.$G+%G+&G+nB+*G+kE+=G+-G+;G+>G+,G+'G+)G+!G+-S ~G+{G+]G+^G+/G+(G+_G+:G+<G+[G+}G+q^.|G+1G+2G+3G+4G+5G+h@.k9 0^.6G+7G+}Z Vb+2l.lY !v c$.J).B3+D` EZ Vu :z.lX Gi._i.*X nx jY 8G+0Y 9G+,C+0G+aG+bG+he+X-.V-.L{.cG+-3+Fz 0.+:d+^e+J].)`.Yw Ga+*@.B,+tY.*-.J*+dG+v;.eG+                                                                                                                                                                                    ",
"                                                                                                                                                                                             fG+gl.L7+[q.G= gG+I/.hG+m9+2 .6c.M^.L`.A*.M(.M. R1+[-.u8+h@ 34+}>.WD+iG+Q1.=c+AX.I'.jG+kG+lG+pF+mG+B7+Je+kd+IE+nG+v#+oG+pG+&7+qG+rG+sG+&e+q5+>-.W'.ag+P+..H.3W.H,.M).+..r .8F+tG+uG+,u.~; qH.q%.vH.{V 9K.rQ.k< `E+:1 vG+JD+wG+xG+kE+yG+zG+AG+BG+CG+DG+EG+]Q FG+GG+HG+IG+OQ JG+KG+LG+MG+NG+OG+PG+QG+RG+SG+TG+UG+VG+WG+MN.XG+YG+ZG+`G+ H+.H++H+@H+#H+$H+%H+GF+&H+*H+=H+(J.-H+5X oE.;H+=+.X..>H+uV 8Y jY BA -{.];.G7+f[+SV %..op Dw =3+se.:z.Tn (t  p 3#.t^._i.ye.}u g@+@,. -.,H+'H+'H+8V.|b+'-+0{.US.sz #l 9.+Ha+#l 7g.o!.oj.@l Cf.5d+-$+Z6+fD.tt )H+!H+~H+                                                                                                                                                                                       ",
"                                                                                                                                                                                                {H+]H+L@+^H+iF+{<+N/.1; 7|+[D h).6G Cb+A*./H+-B [-.Z,.*&.kx.(H+A~.q=+: ._H+:H+)d+<H+tb+ E Ed+4E+[H+&7+>C+}H+AB+|H+HE+1H+2H+3H+)e+4H+5H+B$.4+ H-._c+D).Jl.)f+--.XV m>.gY 0+.8#+C@.6H+0%.8F.7H+FU 8H+.6 .W ;V 'V tH.9H+0H+v9+A5 aH+bH+cH+dH+eH+Kr.fH+gH+hH+zR.iH+jH+kH+lH+mH+nH+oH+pH+qH+rH+sH+tH+uH+vH+wH+`G+xH+yH+zH+AH+BH+CH+DH+EH+FH+GH+HH+IH+zF+JH+KH+LH+PZ.lT.+W.4Y `V :Z 2F.lU !@.8G+d^.2Z T+./0+MH+y$.F* Dy j. &>.;}+Wu *;.Lo Xg.2m.py v].U;.Ew J).5n Ii.(` D#+MH+-W.Kz+NH+h;.pm.Z6+k{.k/.&d.jP.P,.U{.j~.Bo p&+sU..x 4^+g>.OH+Xm+ *.PH+(:.                                                                                                                                                                                             ",
"                                                                                                                                                                                                      z_.QH+RH+%u++++Q*.zB yB (..L*.J/.'9+3@ 9q+s<+Iz+Q1+$a+h@ B[+vB+}^.|`.db+f2+SH+TH+ E :^.o-+UH+VH+WH+XH+E^.e4+lG+YH+ZH+`H+7>.t). I+.I+3].kN.a/.#~.+I+V-.5$.$~.,>.P'.w;.)f+8#+= .1@..@.o` iM.i+.kC+@I+#I+RX $!.^_ $I+=~.Iy+PS.Yr+qF+%I+&I+[y+*I+76+=I+-I+;I+>I+QE+,I+'I+)I+!I+~I+SU.{I+]I+vH+/R.^I+/I+(I+_I+:I+<I+[I+}I+|I+A+.B].#+.A` V@.>  1I+}b+2I+3I+4I+E#.*,.0Y 5I+6I+k7+zT.PY V{.GS.ZX lY f[+}b+vE+;Z.k^..b+V-.c/.{ .lr -X k,./v Jw.}Y Jw.hj 5o Kv wl mX E#+K .7I+8I+='.UW 9I+J~.0#.p&+~w P,.y;. j.'!.k/ --.!6+Ue.&&+u=+0I+&-.(*.aI+                                                                                                                                                                                                ",
"                                                                                                                                                                                                            bI+cI+dI+A(.kt F$.OE e).]r.eI+&0+-B zu.Pc+fI+gI+y++Jc+hI+]-+,q iI+5/.ns.jI+B[+O@ 1{.kI+lI+O= DE+mI+nI+oI+pI+qI+rI+s8+h-._].Y.+J~.t*.>'.0Y {'.]'.O~.#,.c!.t).UW R%+O]._+.EA n!.L+.YX 0#.l .T%+.@.I{.sI+}9+tI+uI+*W.UH+vI+9G+wI+xI+[y+yI+zI+AI+QC+D~.BI+c>.9F+CI+z>.DI+EI+FI+GI+HI+II+hV JI+KI+LI+MI+f8+aY NI+kV OI+PI+QI+)..RI+$>.SI+TI+[u+nC+!7+M,.8`.! .UI+VI+hW.Y-.VX S;.6b+at 3).b +1n+ ;.1).x;.M+./#.c/.bY R{.eY >++xW Ep kr aH.V3+#.._v ^g.*;._i.Tv D#+)D+WI+XI+A$.[n+u7+RS.#f+R`.Wx TA +~+pb+b.+Rx *@.~@.&z.YI+ZI+:(+                                                                                                                                                                                                      ",
"                                                                                                                                                                                                                  `I+=].Db+P/. J+{y vv.Hj+.J+^>.^%.D$.+J+4-. J+X%.'9+|^.z~.K*.@J+}!.1-.cW.8;.EE+R].#J+;$+c;.$J+lG+)9+rF+7!.%J+c].^-.&J+q*.|,.}*+[n+.3 w^.&C+-C 3|+3|+9I+A#.6).= .{'.aU.z5+DU UI+Ub+*J+; +w$.)@.}b+=J+-J+zn+;J+$c+3H+>J+,J+'J+)J+!J+xf+~J+v7+{J+]J+^J+yI+/J+|2+(J+_J+'-.H*+iX u*+SB OI+:J+<J+yf+[J+}J+|J+1J+2J+2F.aW.,..`S ~-.3J+4J+5J+6J+|H+7J+8J+OS.{-.ag+z].M+.Kn lY I+.&{.bn.jZ &+.;;.XV K .N!.;;.nZ iY <Z K .o$.N;.T;.> .gN.ry n'.r` 6n Dq )r I).%+.mm+s).V= 'c+-d.T%+|C.VX 9+.ef.R{.9.+Xn.UA 2}+Bw.0I+Ck+9J+0J+                                                                                                                                                                                                         ",
"                                                                                                                                                                                                                     aJ+bJ+cJ+An+7+ x~.'K. '._b+dJ+_l.U.+cW.eJ+i5+cr.J*.fJ+]-+[>.CE+qI+gJ+2` }@+C$.7!.hJ+Gv+57+iJ+jJ+kJ+e;.B$.Ez+A].-W.Bx+H-.t*.g..[*+a!.b .e` Y-._z+b~.W&.y%./0+/0+j .k@.O@.hY $.+zT.5+.Mn lJ+s`.@+.mJ+^Z.s).nJ+(K.oJ+9#+!;.P@.pJ+3@.(R.vc+#o.76+-b+>J+qJ+rJ+6{.sJ+tJ+Ib+V..z6+uJ+vJ+,..wJ+]7+hs+h .,& 7I+xJ+yJ+zJ+MH+9I+AJ+- +BJ+CJ+ew+DJ+EJ+FJ+Y>.GJ+B%.%,.-;.lr &` Cq ,I.Wx K .eY ZX o'.++.]d+x%. >.+q RV %~.@,.ww -p /v 9t xw 'W <Z ]d+eX X+.5).*,.6).#~.&-.9I+fW.$7+A#.19+4..X{.9%+)`.`l.HJ+'A.q'+IJ+JJ+                                                                                                                                                                                                               ",
"                                                                                                                                                                                                                     KJ+*:.LJ+MJ+Oy+NJ+B&.!^.O^.N`.MY.#&.Z~+1.+M= OJ+v~.PJ+QJ+VH *+ e-.R].:D+2{.RJ+SJ+TJ+UJ+VJ+WJ+XJ+YJ+ZJ+>B `J+}`.>-.A%.(#.kW.9` %d.;Z.2F.i>.uz z$.e!.WV I,.PY Sb+B- X'.q'.tZ Jl.TV '>.b +d^.c'.K+.TX _z+NY k>.->. K+Hk..K+bG+~d+^;.:J+AJ+)J+WI+;c+  +o>..3 O~.mJ+O-.(-._z+W'.9 .7d+T .+K+8m.HA.%7+g .@K+3!+#K+$K+%K+M-.&K+*K+=K+3J+-K+;K+,  +E+Ef.~#.X..Jl.U4+#l )!.>` r^.Xb+n~./++D#+Cq <Z @+.VI+1n+Ej+oW >K+ie+T+.o&+Rj.q!.+~+TA y$+= .;p }f+,K+WV 'K+l .5d+&i+|C.)K+le+!K+ ..~K+^f+on d{.W+ {K+gu+                                                                                                                                                                                                                     ",
"                                                                                                                                                                                                                     ]K+^K+/K+{2.(K+_K+ B+}z+mD 2C jD {+.e).ub+r.+N@ VY.P(+OJ+;B |-.2f+hJ }>..#+:K+pF+<K+[K+}K+|K+A7+66+ZC+zn+}9+Vv.1K+^D w{.k#+Z{.4^+HB -C S}+v$.f%+;-.cy *-.7*+Re &i+0b+nZ c/.V{.)@.K+.VX dy S>.0#.SX v$.U-.2K+1u.D@.3K+Vz.%d.z].#,.g+.8`.g{.Iy+4K+mJ+5+.el.y#.RV Ic wJ+5K+6K+&o.J!.rx w#.F).7K+8K+4H+k^.9K+AJ+_;.X@.v} :z+F0+0K+aK+$,.3J+Ed+bK+cK+05+;-.`>.d=+90 $` =!.S+.U..=` UY MA bn.f,.e` ;Z.~-.xf+f{.^6+xh+`;.gy #` +,.6%./++SS.;p q'.'{.Ub+dK+$h.fW.Se+b~.eK+Sy &-.fK+re.Ft %*.^p gK+hK+iK+~r.jK+                                                                                                                                                                                                                  ",
"                                                                                                                                                                                                                     kK+6t+lK+MG mK+nK+oK+pK+}k+qK+rK+sK+E!+RF c'+|-.tK+ft.L*.#&.{+.7;.uK+1-.B'.A++vK+r;+wK+xK+yK+[D+@e+LB =W.#X.u0+@X.!-+B%.4^+b..~'.wE  ..;Z.u0+,!.y%.(-.(-.k>.V{.RX d~.4*+nB.|C.SS.WB bn.;!.Rl 0 ....0g.@+._z+#0+b .>K+v7+:$.R#+h'._c+$,.'-.-'.zK+AK+%f+$!.BK+U6+m>.Kk.d~.]` H,.!!.nr $S.ey v).U>.oW 1n+MH+CK+;p SN.[).S@.Ib+*|+DK+EK+rE+'e+FK+,D+GK+5@.%..MA C#+;w ;..rX =` .,.;!.v .BA u7+PI+$,.HK+i'.5].c3+Hq.R,.d~.:` 8%+7).@,.TX O-.A...;.#~.UX %,..b+.;.V{.R%+GB A%.Ve.n;.}C IK+72.JK+KK+{;+$a+LK+                                                                                                                                                                                                                  ",
"                                                                                                                                                                                                                        MK+w$ NK+OK+PK+QK+]2.RK+SK+TK+7F x<+1A &&.&2+KE $D M2+io.S*.UK+o4+A++v#+cW.kI+VK+WK+XK+YK+db+YW S6+DX.c!.+C x&+K].Db.%,.a].Ze+ZK+z).[u+2..b..-{.$h.cF+l .V{.U@.Wg+`K+/0+xX.!@.oX  L+,;.jX VX .L+J-.'>.[;.hW.5@.-C ZW NZ.Q'.#%+Z+.sG++L+(7+@L+MZ.9z .@.&o.}b+I{.;%+.X PA -;.{ .yW nX cX & +#L+3F.Sb+sz L@.GS.nb+f[+I{.hW.)b+qJ+.o.$L+W7+%L+c5+&L+mJ+/` 9Y f-+>` ,o.lY qX W-.gY 6).kW.MB d>.U1.l/.*L+oG+=L+-L+#%+Dy %+.VI+0Y |Z O>.$7+-{.Y{.W&.;L+x/.7).D#+nB.4q.,H++m+zX.c<.>L+,L+.-+w<+u~.Jc+]o+'L+                                                                                                                                                                                                                  ",
"                                                                                                                                                                                                                           43.zk++2.)L+QJ !L+K$ )j+~L+e_.63.{L+]L+8+ s<+T.+;-+[{.42+^L+q7+s<+QY./L+(L+_L+:L+<L+bB+[L+_l.$X.g8+tE B%.me+d>.h;.K].6,.Y&.f>.h'.}L+r;.()+GB ;L+1>+f%+J-.TX '-+o0+|C.BA w-.qe.]d+dX UA 2o RV c,.XV VI+ab+7+.6).1n+W'.|L+B^.;W.;W.|5+%L+.o.1L+1,.>K+vc+Aw.b,.jZ MA }Z }Z o..UY k~.<` .+.hU 2L+z#.S>.pX y$+M@.N@.3L+m .^;.4L+1I+]8+5L+oJ+:7+W= m!.6L+;!.j~.SN.*{.tV >++7L+VX {;.>K+%L+7{.8L+`H+9L+0L+aL+SI+Gc+xh+ie+--.Ye.$h.5d+%,.Se+i` i` 2..|b+o*.FJ+.B+bL+cL+@1.dL+eL+S#.ei.2E+>W.&'.La.fL+                                                                                                                                                                                                                     ",
"                                                                                                                                                                                                                           gL+Rt+TA+hL+iL+QJ 2i+jL+kL+lL+*5.mL+nL+e5.<(.oL+L7+Pc+pL+4  #@.K/.vB+h).z'.aZ 0Z Yc+[Y.I|.qL+*+ 2{./].]-.rL+=X.S].-X.b .1>+V*+^}+Gc+_7+s4+i]._c+#~.f!.R`.Gs 3}+(-.x/.O4+4]+~[+y].VS.vo Fe.3}+S}+K .VI+J-.w^.R+.z$.xh+Ib+KR.(^.;W.Cz.sL+tL+uL+|f+4Y.[*+Dy &C+RV x%.' .%!.V+.n~.=X l].) .Tb+7).J-.mU D#+IA W-.g4+X..:z+*J+vL+sG+;W.|5+Z+.e{.NZ.x).SV eY >o.>;.gs [v F,.4F.Bo ie+5,.wL+A^.`H+$J+4e+*0+jJ+7`.}n+m!.;4+rJ+B%.|c+~'.Hv+5D B*.sa.x'.8v hm+xL+yL+zL+NG B|.t_.AL+;].jD J* BL+@z+CL+                                                                                                                                                                                                                        ",
"                                                                                                                                                                                                                           DL+Ok+$/.EL+lK+FL+GL+HL+~(.Z/.c3.2i+^u+:2.b(+|[.![./2.IL+{p.vf+fe+m++42+%&.1@+7;.jt '9+lF+db+vB+HE+A*.rL+}`.]-.X(.Dk.}`.E`.^` J+ A+ |m.rL+>X.57+&'.|b+Re (-.Jl.JL+KL+az 9 .LL+=#+&,.=g.c/.z$.e..q'.a{.:Z D@.O4+.3 O..W= t-.3+ >J+ d+c].WI+ML+]8+bG+e].tA %,.]` 3j.2o .,.HA S>.nU 3Z e/.y].RS.I,.d..RY Ab Sb+gY NL+mJ+^A+uL+OL+.E+PL+;K+QL+}n+ -.A#.BA US.dX *{.ZX pX 2#.RL+5@.J~.z>.D-.SL+>J+Q@ TL+4,.7{.d]..o.z).4d+T= UL+EE+m,+$W.`Y.84.^[.I1.35.VL+dL+WL+XL+mL+YL+ZL+eh+^q.ev+KK+`L+ M+                                                                                                                                                                                                                        ",
"                                                                                                                                                                                                                              .M++M+@M+#M+$M+%M+&M+K_.*M+mK+dL+72.j[.=M+)}.;}.-}.Z}.Q<.-M+;M+g[..v++#.,9+[A+gI+2>.2>.>M+0Z ,M+Kz+x.+S].T6+LB L+ xn+[H+Ft+P6+@e+=X.'M+I9+)M+!M+ZK+~M+|,.c!.x).A).U'.@+ {M+~-.g+.p'.%~.>b+%,.Ic q$+5..Ze+:@.W'.kW.9^.'D+]Z.6>.@>.]M+k;.^M+Mz./M+(M+qB+%,.x/.VI+;-.A..8#+ >._M+Y@.d/.d=+sW :M+&+.d..VX }f+)f+N,.O6+ag+Z+.Fc+<M+)A+[M+^M+Q5+J~.HY O].n` *,.xX.$'+V{.vw =g.b..PY.D6+}M+Q5+Dk.#&+D~.UV.|M+Ez+b>.+`._l.Jz+/#+1M+2M+3M+f5.O>+F[.4M+d|.C|.v}.5M+6M+7M+8M+9M+Nb+0M+aM+iA+bM+cM+                                                                                                                                                                                                                        ",
"                                                                                                                                                                                                                                 dM+eM+fM+Q$.gM+hM+iM+jM+kM+|9.Bs+72.53.lM+@:.02.;}.mM+nM+nM+S:.a<.~2.oM+pM+M9.Eu+>g+].+I3+qz+qM+DW rM+wB+vB+sY sM+|!.JE+tM+7!.uM+(H+F'.EE+9!.F~.<;.@+ Qy B- K].n;.U= `++c5+*'.HB J~.ag.vM+Ze+g+.wM+6{.Q5+K].#j e{.t-.xM+;W.yM+o{+Q@ 57+5b+|b+:@.kZ k{.5d+N,.M-.zM+A#.k@._;.%,.V{.k@..@.UI+Sy =>.d^.Sb+7).{'.->.6V.AM+$J+YH+BM+E9+^M+'D+w;.#!.x#.QV CM+gY b .O..Z{.Y-.VW u=+b .A%.+e+t-.[H+CE+M= DM+D@ /#+pm+EM+,7.E6.FM+GM++p+HM+L|+E]+IM+x'+8o+|(.(@+JM+KM+LM+MM+NM+OM+PM+kt QM+                                                                                                                                                                                                                           ",
"                                                                                                                                                                                                                                             RM+SM+TM+UM+VM+WM+XM+72.72.[8.I~+YM+;:+ZM+a_+<<. |.63.`M+![.R_. N+V}.=v+.N++N+@N+#N+Y*.^0+,0+D(..'.d).@&.:D+<K+9;.E^.(,.< .$N+g8+*+ M. %N+[m.h{.[+ ;'.Db.p).TI+p.+4@ 4d+nA ^Z.>'.s).l;.57+f{.g+.LY pW -W.c].WH sY ,7+Ef..o.yY &b+&N+|#.Qi+UW :;.c +1l.4]+mm+~[+:J+M-.,..]'.d~.%,.ie+=>.@+.NY )..*N+$E+=N+-N+;N+>N+@>.1L+@K+yf+-C ,N+RS.y%.Z'.5{.8/.&b+Ai bc.x&+4p.m+ M+ gM.C$+I0.'N+kM+h<.p_.f<.)N+)N+a_.SB.!N+~N+p1.{N+#9.B[.]N+^N+^N+/N+(N+_N+ID :N+<N+[N+                                                                                                                                                                                                                                    ",
"                                                                                                                                                                                                                                                      }N+|N+EM+1N+SB.2N+8|.(t.v_.3N+23.23.-++;1.vJ @:.c_.4N+d5.x[.~[.y_.Z<.W2.Vq+5N+4o+bA+ju. -+rc+[H.6N+AX._H+7N+j).f2+8N+/..5>.Q].*'.JF K+ `++OY.o*.:].9N+^-..o.5D uE 3!+i;.d]._7+#&+k;. .+Bx+yE !;.UH+0N+DE+@e+]-.t;.0` 0>.CX.E`.k^.E`.k^.vc+aN+2F.I-.L-.bN+4K+k>.SB O..i].~#.e..AK+>4+c5+hs+cN+qI+67+B[+)A+(f+Ir+d>.$L+oE 2..kZ n;.Ir+/j.<3+dN+H/.Nc+`t+>o+eN+'(+fN+T[.A|.<2.N:.72.|9._<.gN+hN+iN+W1.jN+B[.4~+w1+-_+{a.5~+7&.im+wr+kN+                                                                                                                                                                                                                                                   ",
"                                                                                                                                                                                                                                                         lN+mN+nN+oN+b0+pN+_4._4.I~+:<.qN+N(+43.}4.rN+sN+f5.7M+!1. |.tN+uN+vN+RK+x5.d_.a<.J<.!|.I$ wN+xN+yN+65.4_.Q+ R/.I/.mD @3+zN+AN+E6+Y,.,X.57+a-.kb+ar.BN+d].Dw.}`.CN+]-.n;.=W.3p.,7+DN+&e+EN+b>.g8+FN+5#+a>.5D PY..c+f..FU r;.GN+T6+Bx+CX.Sf+Q@.ag+HN+4@.t*.@+ 4Y.^6+<u+IN+DK+J~.D6+JN+[M+KN+LN+MN+D~.2+ NN+X(.g8+ON+Q].bD s +aA+`x ,r.PN+QN+nM+RN+1}.fN+x=+SN+TN+g|.6/+4M+UN+_<.K:.4!+X1.5.+s)+VN+WN+A9.O]+<{+5=.a{+XN+YN+.o+ZN+                                                                                                                                                                                                                                                      ",
"                                                                                                                                                                                                                                                            `N+hM+ O+.O++O+;H gN+a_.)N+I~+@O+b_.#O+{E.$O+@O+%O+<<.&O+&O+&O+-}.a_+nL+uN+R:.`:.*O+=O+-O+0<.;<.s<.V<.;O+>O+,O+'O+)O+fg.I<+i<+{<+K/.!O+~O+{<+W!.4  mI+(^.o-.Mz.gh.ar.5;.4{.DE+g8+;X.s++CB (y *+ aV.7E (]._++i;.ve.wE |m.oA g>.q-.*'.{O+5D ;c+(7+l;.[,.Gl y- b>.x.+]O+^O+/O+B`.$L+fb+EE+2;.|!.aZ tU bB+}w w:+e,+(O+_O+><.:O+.[.h1.<O+[O+h<.}O+|O+1O+UN+g|+!<.2O+HM+3O+4O+D[._0.)_+q;+L{+'8.6~+5O+U$.l1.#M.!]+6O+>,+7O+                                                                                                                                                                                                                                                            ",
"                                                                                                                                                                                                                                                               8O+9O+0O+aO+<6.bO+cO+gN+(t.U^._4.dO+UN+':+:4.43.;:+>1.eO+,j+fO+c_.v_+G_+!1.w_.O:.ZM+(>+<O+e5.FM.iM+x[.gO+hO+iO+jO+}<.<-+Z<.kO+lO+mO+Cs+nO+oO+pO+w:+qO+z@ .v+pt.L@+ms D!+R&+jD rO+*&.x`.]y }@+rl.eD >i.0<+K&.:B.sO+tO+t++z/.TV.uO+me.I&.~+..S.bD UF.O(+L@ RV.:o+]9+[f+vO+wO+xO+<t+yO+zO+AO+S:.;<.BO+e1..2.=6.a4.)}.s6.43.)3.<2.33.vJ f<.CO+DO+EO+FO+ye+g{+IM+W^+<b.^8.W!+{{+wC v~+A|+M]+F(+GO+d&.y<+HO+IO+JO+KO+                                                                                                                                                                                                                                                               ",
"                                                                                                                                                                                                                                                                     LO+MO+t_.NO+i[.OO+PO+_<.O_+FM+f8.':+QO+RO+Bs+SO+=:+2i+O:.)1.(2.N(+:2.-++TO+-++<<.{}.<<.Ei+k,+0!+UO+[O+w[.`:.VO+O:.A|.'}..|.WO+XO+hO+04.5|.Y_.X<.U<.,i+z_.YO+ZO+`O+ P+.P++P+$M+@P+#P+$P+):.%P+&P+PN+*P+|j+=P+-P+JD ^)+_Y.;P+>P+,P+'P+)P+eL !P+~P+S<.<-+A<.{P+]P+;[.$[.(|.!}.^P+a4.)}.,<.c4.lM+/P+<2.33.lM+~)+g8.(P+~)+SN+(t.d|.EO+4O+26.D[.jN+_P+N{+:]+2&.X0+:P+<P+[P+F(++^.8:.!]+a:.b(.^/.k:.Zc+}P+|P+                                                                                                                                                                                                                                                                  ",
"                                                                                                                                                                                                                                                                           1P+cL 2P+3P+aC 4P+bO+5P+P|.F}.|9.3P+QO+:4.:4.'s+VL+6P+O>+^[.I~+I~+>1.v_.lM+N(+7P+;:+(2.b]+/P+<2.g3.Z|.8P+[O+9P+w_.!}.h|.w_.c%+Q:.0P+`:.aP+)j+>2.4N+iM+vN+bP+cP+dP+](.eP+fP+gP+hP+iP+jP+kP+lP+mP+nP+oP+pP+qP+rP+&[.0<.sP+!1.w_.tP+~}.O:.x}.3N+A|.Z|.{}.j3.k,+{}.uP+a4.u3.35.vP+72.wP+'<.G2.-9.TN+SN+y0+c|.xP+yP+zP+#~+0_.7]+^0.Y6.M{+#%.AP+-_+|=.6&.A|++=.BP+c=.`*.o~+om+CP+]@+N^+2; DP+EP+                                                                                                                                                                                                                                                                        ",
"                                                                                                                                                                                                                                                                              FP+GP+HP+IP+_<.JP+9|.L:.KP+HM+56.v}.LP+Go+d|.a_.zP+QO++p++p+|^+}4.43.GI VM+^[.j[.:4.<4.G2.}4.b4.)}.{}.:2.a6.~)+lM+)}.lM+p^+lM+y}.9P+k,+[O+c%+{}.Z|.w[.aP+d5.pX.z5.MP+NP+OP+PP+QP+ZJ RP+SP+TP+UP+VP+WP+XP+aP+VO+YP+ZP+a4.r6.uP+a6.O>+B|.b4.N:.uP+uP+g<.@O+}4.vP+|^+p7.p7.6/+LP+zP+6/+y0+c|.)N+f8.K:.2O+ye+a|.@%.`^+]6._B &1+3=.@'+l9.s!+O)+EP.rV.rV.Pi+R)+J!+2V.`P+ Q+.Q++Q+y#+@Q+                                                                                                                                                                                                                                                                              ",
"                                                                                                                                                                                                                                                                                    #Q+$Q+Pm+%Q+NO+&Q+*Q+9|.=Q+62.U^+E[.]8.N~+N~+9|.0|.Y^+!<.d|.SN+|^+|^+72.Bs+Wi+d4.y2.G2.<2.lM+^P+<2.G[.-Q+/P+TO+'i+u3.SN+f<.lM+lM+;Q+9P+O~+G_+3N+<<.63.4j+Q}.!P+>Q+,Q+'Q+)Q+!Q+~Q+#H {Q+]Q+^Q+/Q+JK+86.G_+N:.j3.r6.b_.j[.U^.72.(Q+_4.(P+c6.c6.*9.y'+&Q+a_.#~+c|.0[.56.36.|6._Q+a|.iN+X1._Q+h:+<1+B[.:1._0.-3.z9.>4.A|+M^+>]+rV.u!+s~+s2.'%.>,+Z{+:Q+<Q+[{+[Q+Ac+}Q+|Q+                                                                                                                                                                                                                                                                                    ",
"                                                                                                                                                                                                                                                                                             1Q+2Q+Y].3Q+hN+4Q+W^+5Q+6Q+@9.s{+jN+W1.}9.|6.9|.Y^+y'+FM+O|.7Q+)N+y0+L:.y'+4M+8Q+b4.9Q+53.rN+wP+VM+@:.uP+B|._4.72.72.u3.b6.SN+G[.a6.O>+lM+{}.0Q+aQ+`^.bQ+cQ+dQ++M+eQ+fQ+@L gQ+hQ+iQ+jQ+kQ+/P+U^.lQ+b6.57.U^.O>+72.UN+_<.8|.mQ+O|.25.g7.SB.|^+a_.[6.[6.+E K(+$|+<b.jN+|7.nQ+a0+oQ+B[.)^+T&+wC n++_&./{+D'+;+  $.8=.5(+U/.pQ+qQ+=m.(#+V)+su.R&+no+Fl+rQ+                                                                                                                                                                                                                                                                                          ",
"                                                                                                                                                                                                                                                                                                   sQ+tQ+uQ+vQ+*/+wQ+xQ+B[.s{+q1.x'+<b.}6.}9.iN+K:.F[.LP+o7.2N+g7.yQ+g7.0|.67.UN+|^+72.P|.SN+43.O~+[1.}4.76.35._4.YZ.|^+b6.zQ+~)+:4.FM+0_+/2.!1.AQ+BQ+CQ+DQ+EQ+^J FQ+GQ+HQ+IQ+JQ+KQ+LQ+{E.66.SB.d|.#~+xP+wP+F}.g7.LP+0|.cO+*:+HM+56.J:.0|.MQ+]8.5Q+00+>4.eC NQ+=|.-2+^a.-2+5&.E(+OQ+|=.f&.`;+^S.PQ+ #+$[+3)+QQ+V{+#<+v(.=&.(#+/_.<C Bu+(O+RQ+                                                                                                                                                                                                                                                                                                ",
"                                                                                                                                                                                                                                                                                                            SQ+tN+TQ+UQ+VQ+WQ+:1.XQ+YQ+>4.ZQ+W1.56.d|.v}.I/+*:.#~+0|.HM+}8.HM+L:._<.O|.o7.v}.zP+72.7Q+`Q+yP+25.b%+-9.e|.b6. <.g<.0_+F}.6/+-|.zQ+@:. R+.R++R+@R+#R+$R+%R+&R+*R+=R+-R+G[.F}.2P+J|+HM+HM+2N+26.#~+o7.9|.9|.D[. O+2P+E[.[(.9|.[6.B[.]N+'8.k9.AP+/7.G  b&.<a.*|.5~+L^+l(.]@+7(.}_.I!+P0.f:.K%.;R+U/.S. >R+c0+H1+r +<~+,R+                                                                                                                                                                                                                                                                                                         ",
"                                                                                                                                                                                                                                                                                                                     'R+fN+)R+!R+~R+W1.$|++9.$|+0|.bO+3t+56.E3.HM+cO+#~+9|.{R+HM+HM+2O+h:+]8.27.`Q+I3.9|.*:+,v.EO+]R+#~+pN+(P+@O+P'+zP+K:.`Q+g7.y'+f8.r3.^R+/R+y2.!l+(R+_R+:R+#5.27.j1.<R+iN+%7.=3.iN+C3. O+W1.)^+a0+x0+[R+_0.52.nQ+q1.7]+2(.NQ+@'+*A w2.u2+O)+5=.M^+h<+}R+w2.2:.!%.d:.|R+c6+c0+,^.k&.+++1R+q7+s +*].^N+2R+                                                                                                                                                                                                                                                                                                                  ",
"                                                                                                                                                                                                                                                                                                                              3R+4R+5R+6R+7R+b[.8R+J:.25.19.xP+PO+hN+wQ+N~+2O+J:.P~+r1.V4.)^+s)+}9.K:.):+I|+#~+cO+d|.yP+2N+yP+|9.p7.26.=/+{8.x/+|6.^0.$|+E]+L]+jN+@9.9R+e|+00+L7.v{+}7.s{+=|.P>+<b.w~+nQ++9.eC ]N+NQ+^a.0R+hK+@'+%%.7&.vC #^.#M.@^.r:.r:.aR+N%.5=+-^.#f.4Z.bR+I!+|3+:_.G/.2!.{7.{_.[!.Pn+zs+cR+dR+                                                                                                                                                                                                                                                                                                                           ",
"                                                                                                                                                                                                                                                                                                                                          eR+fR+gR+hR+B3.EL+iR+jR+&Q+a_.9|.wQ+x'+x'+h:+f]+~8.L7.v{+a0+ZQ+ZQ+r1.3t+7Q+9!+16.kR+2N+!_+E]+s)+L7.^8.M8.{a._!+2&.}0.G|+e|+X9.3=.6~+~3.`0.)7.%'+}a./:.5~+f&..9.dU.6~+k9.S0.vC )0+S0+|=.t}.GO+}R+=o+2V.|:.2@+V8+Q+ WK.+<+#;+=`.{e+0u bu xc.</.Rs+J/.lR+!O.mR+                                                                                                                                                                                                                                                                                                                                       ",
"                                                                                                                                                                                                                                                                                                                                                      nR+oR+E1.+p+i[.pR+O9+3~+_Q+qR+rR+X1.sR+~0.=|.tR+O9+~<.V1.uR+vR+x0+wR+4!+C[.xR+WN+5  &++NQ+Vy.-_+~3.cY.N>+{{+^S.'/.P)+t!+,4.yR+GO+w2.t2+zR+.=.w2.A:.AR+<:.'/.ci+ci+:P+{&.K!+r:.}:.yR+vt+=].@:+WK.BR+P/.CR+}_.jl.ns.D@ y= *r+DR+Kq+ER+                                                                                                                                                                                                                                                                                                                                                   ",
"                                                                                                                                                                                                                                                                                                                                                                     FR+GR+HR+5R+IR+JR+KR+(l+EP.R]+j9.A0+LR+|(+MR+NR+$%.W1+=2+N{+S9.OR+#9.-_+_&.b{+s!+!8+u!+z^+f(.d&.[_.//.Pf+8=.d:.z:+>M+PR+ Q+o:.`P+4h.+$.I/._/.>g+Q$.QR+)n.`P+[Q+W{+RR+PQ+E&.SR+4  TR+I*.UR+Rk+VR+<4.WR+                                                                                                                                                                                                                                                                                                                                                                  ",
"                                                                                                                                                                                                                                                                                                                                                                                       XR+YR+-R.gz+mQ+ZR+`R+{B jw+Hl+n*+}2. S+4f+.S++S+~3./:.M}+,4.@S+_{+F!+#S+$S+|R+u(.=&.K$.`b+v(.%S+Y*.};.^0+eI+ '.I/.Q/.)~+NJ+&S+'+ '+ *S+=S+iM A*+ys+%A -S+}u+;S+>S+                                                                                                                                                                                                                                                                                                                                                                                    ",
"                                                                                                                                                                                                                                                                                                                                                                                                               ,S+'S+)S+!S+~S+)  {S+X1.]S+^S+a1+@'+yC &A 4s..B+,q vv.A%++_.42+tT.ns -Z.j.+7q+om+Gp+}l+^k+:y /S+wq+(S+_S+:S+<S+[S+                                                                                                                                                                                                                                                                                                                                                                                                            ",
"                                                                                                                                                                                                                                                                                                                                                                                                                                                                                                                                                                                                                                                                                                                                                                                                                                                                                                                                             "};
