/* XPM */
static char * lamp_xpm[] = {
"203 1019 16028 3",
"   	c None",
".  	c #313133",
"+  	c #363637",
"@  	c #404041",
"#  	c #4B4B4C",
"$  	c #585859",
"%  	c #626262",
"&  	c #6C6C6C",
"*  	c #727272",
"=  	c #777777",
"-  	c #7A7A7A",
";  	c #7C7C7C",
">  	c #7D7D7D",
",  	c #7F7F7F",
"'  	c #7B7B7B",
")  	c #797979",
"!  	c #787878",
"~  	c #818181",
"{  	c #040406",
"]  	c #010102",
"^  	c #010101",
"/  	c #020202",
"(  	c #020305",
"_  	c #020204",
":  	c #020306",
"<  	c #030406",
"[  	c #07080A",
"}  	c #030305",
"|  	c #000002",
"1  	c #010002",
"2  	c #000001",
"3  	c #010103",
"4  	c #000104",
"5  	c #000102",
"6  	c #000105",
"7  	c #000106",
"8  	c #010205",
"9  	c #020205",
"0  	c #060609",
"a  	c #6E6D6E",
"b  	c #010003",
"c  	c #010004",
"d  	c #000101",
"e  	c #010104",
"f  	c #000103",
"g  	c #010005",
"h  	c #050608",
"i  	c #030304",
"j  	c #000003",
"k  	c #000202",
"l  	c #010105",
"m  	c #000203",
"n  	c #050507",
"o  	c #000004",
"p  	c #010204",
"q  	c #050607",
"r  	c #ADADAD",
"s  	c #949494",
"t  	c #999999",
"u  	c #9D9D9D",
"v  	c #A1A1A1",
"w  	c #6A6B6C",
"x  	c #020207",
"y  	c #000005",
"z  	c #000007",
"A  	c #010001",
"B  	c #020002",
"C  	c #030102",
"D  	c #030101",
"E  	c #030001",
"F  	c #030100",
"G  	c #020201",
"H  	c #020101",
"I  	c #040102",
"J  	c #040302",
"K  	c #050403",
"L  	c #585858",
"M  	c #969696",
"N  	c #959595",
"O  	c #A6A6A6",
"P  	c #606060",
"Q  	c #000000",
"R  	c #15151E",
"S  	c #1E202D",
"T  	c #1D202E",
"U  	c #1E222F",
"V  	c #1E212E",
"W  	c #2B2623",
"X  	c #5B4E38",
"Y  	c #5E4C30",
"Z  	c #5E4C2F",
"`  	c #5D4B2E",
" . 	c #5E4B2F",
".. 	c #5F4C30",
"+. 	c #5F4D30",
"@. 	c #604D30",
"#. 	c #614E31",
"$. 	c #624E32",
"%. 	c #644F33",
"&. 	c #635137",
"*. 	c #504434",
"=. 	c #090402",
"-. 	c #3F3F3F",
";. 	c #000207",
">. 	c #1F2130",
",. 	c #2D3248",
"'. 	c #2C3248",
"). 	c #2C3348",
"!. 	c #2E3342",
"~. 	c #594C3B",
"{. 	c #E0C089",
"]. 	c #ECC277",
"^. 	c #EEC275",
"/. 	c #EDC175",
"(. 	c #EEC274",
"_. 	c #EFC275",
":. 	c #EFC277",
"<. 	c #EEC378",
"[. 	c #EEC277",
"}. 	c #F0C279",
"|. 	c #F1C279",
"1. 	c #EDC583",
"2. 	c #BCA17B",
"3. 	c #180F09",
"4. 	c #434344",
"5. 	c #666666",
"6. 	c #010206",
"7. 	c #1D2130",
"8. 	c #293248",
"9. 	c #28324A",
"0. 	c #2C3243",
"a. 	c #584A33",
"b. 	c #E9C17A",
"c. 	c #FAC464",
"d. 	c #FBC35F",
"e. 	c #FBC45E",
"f. 	c #FCC45E",
"g. 	c #FCC45F",
"h. 	c #FBC360",
"i. 	c #FBC361",
"j. 	c #FBC262",
"k. 	c #FDC161",
"l. 	c #FCC161",
"m. 	c #FBC261",
"n. 	c #F6C36D",
"o. 	c #C19E6B",
"p. 	c #1A0E06",
"q. 	c #010000",
"r. 	c #424243",
"s. 	c #686868",
"t. 	c #292F48",
"u. 	c #28314C",
"v. 	c #28314B",
"w. 	c #2B3143",
"x. 	c #564830",
"y. 	c #E9C178",
"z. 	c #FAC45F",
"A. 	c #FDC359",
"B. 	c #FCC358",
"C. 	c #FDC459",
"D. 	c #FEC359",
"E. 	c #FDC258",
"F. 	c #FEC258",
"G. 	c #FDC35A",
"H. 	c #FEC25B",
"I. 	c #FFC15A",
"J. 	c #FEC15C",
"K. 	c #F8C266",
"L. 	c #C3A067",
"M. 	c #1B0F06",
"N. 	c #3D3E3F",
"O. 	c #676767",
"P. 	c #1D2131",
"Q. 	c #273049",
"R. 	c #263248",
"S. 	c #2B3141",
"T. 	c #554630",
"U. 	c #E9C27C",
"V. 	c #F8C464",
"W. 	c #FBC35E",
"X. 	c #FAC35C",
"Y. 	c #FCC35C",
"Z. 	c #FCC25D",
"`. 	c #FBC35D",
" + 	c #FCC25A",
".+ 	c #FEC259",
"++ 	c #FFC158",
"@+ 	c #FEC058",
"#+ 	c #FFC05A",
"$+ 	c #F9C264",
"%+ 	c #C49F66",
"&+ 	c #1C0F06",
"*+ 	c #3A3B3C",
"=+ 	c #000107",
"-+ 	c #1B202F",
";+ 	c #272F47",
">+ 	c #253049",
",+ 	c #233149",
"'+ 	c #283143",
")+ 	c #4F4538",
"!+ 	c #DEC18E",
"~+ 	c #EDC57D",
"{+ 	c #EFC377",
"]+ 	c #F0C376",
"^+ 	c #EEC477",
"/+ 	c #EEC375",
"(+ 	c #EEC376",
"_+ 	c #F0C374",
":+ 	c #F4C26B",
"<+ 	c #FBC15F",
"[+ 	c #FFC059",
"}+ 	c #FAC162",
"|+ 	c #C59F65",
"1+ 	c #1D0F06",
"2+ 	c #020000",
"3+ 	c #3B3B3C",
"4+ 	c #1C2030",
"5+ 	c #272E48",
"6+ 	c #273047",
"7+ 	c #37363E",
"8+ 	c #827665",
"9+ 	c #8C795B",
"0+ 	c #8D7859",
"a+ 	c #8D7759",
"b+ 	c #8C795A",
"c+ 	c #8C7959",
"d+ 	c #8A7958",
"e+ 	c #8C7853",
"f+ 	c #A3834A",
"g+ 	c #F3C06A",
"h+ 	c #FDC059",
"i+ 	c #FEC056",
"j+ 	c #FEBF56",
"k+ 	c #F9C160",
"l+ 	c #C59F63",
"m+ 	c #1E1006",
"n+ 	c #3D3D3E",
"o+ 	c #1C202F",
"p+ 	c #252F49",
"q+ 	c #26304A",
"r+ 	c #272F49",
"s+ 	c #2E3347",
"t+ 	c #484B58",
"u+ 	c #4A4C55",
"v+ 	c #4B4D56",
"w+ 	c #4C4D57",
"x+ 	c #4B4E57",
"y+ 	c #494D55",
"z+ 	c #4A4D56",
"A+ 	c #494D56",
"B+ 	c #4C4C4E",
"C+ 	c #7B6541",
"D+ 	c #EDBF70",
"E+ 	c #FBC059",
"F+ 	c #FEC054",
"G+ 	c #FEBF54",
"H+ 	c #F9C05E",
"I+ 	c #C59F64",
"J+ 	c #020001",
"K+ 	c #3D3D3F",
"L+ 	c #272E46",
"M+ 	c #252F48",
"N+ 	c #262F48",
"O+ 	c #2E354B",
"P+ 	c #464D61",
"Q+ 	c #464E61",
"R+ 	c #464F61",
"S+ 	c #454F61",
"T+ 	c #444F61",
"U+ 	c #464F62",
"V+ 	c #464E62",
"W+ 	c #474D59",
"X+ 	c #776446",
"Y+ 	c #EDC072",
"Z+ 	c #FBBF59",
"`+ 	c #FEBE53",
" @ 	c #F9BF5E",
".@ 	c #C49F63",
"+@ 	c #1D1006",
"@@ 	c #696969",
"#@ 	c #1C2130",
"$@ 	c #262D46",
"%@ 	c #252E48",
"&@ 	c #253046",
"*@ 	c #252F47",
"=@ 	c #2D374E",
"-@ 	c #454F62",
";@ 	c #444F63",
">@ 	c #455064",
",@ 	c #445064",
"'@ 	c #435063",
")@ 	c #445063",
"!@ 	c #444F64",
"~@ 	c #464E5B",
"{@ 	c #776648",
"]@ 	c #EDC071",
"^@ 	c #FBC057",
"/@ 	c #FEBF53",
"(@ 	c #F9BF5D",
"_@ 	c #C59F62",
":@ 	c #6A6A6A",
"<@ 	c #1C2231",
"[@ 	c #242E47",
"}@ 	c #232F49",
"|@ 	c #242F47",
"1@ 	c #242F46",
"2@ 	c #27334A",
"3@ 	c #354053",
"4@ 	c #3B4558",
"5@ 	c #465166",
"6@ 	c #455066",
"7@ 	c #464F5B",
"8@ 	c #796848",
"9@ 	c #EDC06F",
"0@ 	c #FBBE56",
"a@ 	c #C79F63",
"b@ 	c #3E3E40",
"c@ 	c #6A6B6B",
"d@ 	c #000108",
"e@ 	c #252E47",
"f@ 	c #232F47",
"g@ 	c #232E46",
"h@ 	c #222D44",
"i@ 	c #283348",
"j@ 	c #465163",
"k@ 	c #465164",
"l@ 	c #455063",
"m@ 	c #445061",
"n@ 	c #425063",
"o@ 	c #7D6948",
"p@ 	c #EFC06F",
"q@ 	c #FCBE55",
"r@ 	c #FEBE52",
"s@ 	c #FDBE54",
"t@ 	c #F8C05E",
"u@ 	c #C69F63",
"v@ 	c #1C1107",
"w@ 	c #010202",
"x@ 	c #404142",
"y@ 	c #686A69",
"z@ 	c #252E46",
"A@ 	c #242E48",
"B@ 	c #222E46",
"C@ 	c #273348",
"D@ 	c #434F62",
"E@ 	c #425064",
"F@ 	c #464F5C",
"G@ 	c #7E6A4A",
"H@ 	c #EEC070",
"I@ 	c #FBBF55",
"J@ 	c #FDBE50",
"K@ 	c #FDBF52",
"L@ 	c #F8C05D",
"M@ 	c #C6A064",
"N@ 	c #424244",
"O@ 	c #676968",
"P@ 	c #1C2131",
"Q@ 	c #242E46",
"R@ 	c #232F48",
"S@ 	c #232E47",
"T@ 	c #232D46",
"U@ 	c #222D45",
"V@ 	c #7D6B49",
"W@ 	c #EEC172",
"X@ 	c #FABF59",
"Y@ 	c #FCBF54",
"Z@ 	c #FDC056",
"`@ 	c #F8C161",
" # 	c #C5A066",
".# 	c #1C1007",
"+# 	c #434445",
"@# 	c #666867",
"## 	c #242D45",
"$# 	c #232E48",
"%# 	c #293549",
"&# 	c #465165",
"*# 	c #455164",
"=# 	c #435064",
"-# 	c #464E5D",
";# 	c #7C6D53",
"># 	c #E8C382",
",# 	c #F2C26E",
"'# 	c #F4C16A",
")# 	c #EFC375",
"!# 	c #BFA173",
"~# 	c #1A1009",
"{# 	c #646666",
"]# 	c #1B2130",
"^# 	c #242D46",
"/# 	c #273249",
"(# 	c #3A4559",
"_# 	c #3B4559",
":# 	c #394559",
"<# 	c #394558",
"[# 	c #394458",
"}# 	c #38445A",
"|# 	c #3B4356",
"1# 	c #5C554E",
"2# 	c #988562",
"3# 	c #9E8456",
"4# 	c #A08455",
"5# 	c #9E8455",
"6# 	c #998258",
"7# 	c #7C6D55",
"8# 	c #0E0907",
"9# 	c #646567",
"0# 	c #242F48",
"a# 	c #232F45",
"b# 	c #243046",
"c# 	c #232F46",
"d# 	c #252E43",
"e# 	c #262C3A",
"f# 	c #292C38",
"g# 	c #282D38",
"h# 	c #292D37",
"i# 	c #282B36",
"j# 	c #242630",
"k# 	c #04030B",
"l# 	c #434345",
"m# 	c #253048",
"n# 	c #243049",
"o# 	c #243048",
"p# 	c #24304A",
"q# 	c #233049",
"r# 	c #222F47",
"s# 	c #232E44",
"t# 	c #22293B",
"u# 	c #03040F",
"v# 	c #414143",
"w# 	c #252E45",
"x# 	c #233048",
"y# 	c #222F49",
"z# 	c #222E45",
"A# 	c #222B3D",
"B# 	c #030511",
"C# 	c #3F3F41",
"D# 	c #646466",
"E# 	c #1C212F",
"F# 	c #262E42",
"G# 	c #252F45",
"H# 	c #252F44",
"I# 	c #262E45",
"J# 	c #242F45",
"K# 	c #233045",
"L# 	c #243045",
"M# 	c #252F46",
"N# 	c #252E44",
"O# 	c #232B3C",
"P# 	c #030711",
"Q# 	c #3E3E3F",
"R# 	c #616264",
"S# 	c #10141E",
"T# 	c #181D2A",
"U# 	c #171D2B",
"V# 	c #171E2C",
"W# 	c #181E2D",
"X# 	c #191E2F",
"Y# 	c #191F30",
"Z# 	c #181F30",
"`# 	c #192032",
" $ 	c #192033",
".$ 	c #192031",
"+$ 	c #192130",
"@$ 	c #192131",
"#$ 	c #1A2131",
"$$ 	c #1A2031",
"%$ 	c #02040D",
"&$ 	c #3C3D3E",
"*$ 	c #5F6061",
"=$ 	c #010207",
"-$ 	c #010208",
";$ 	c #010209",
">$ 	c #01020A",
",$ 	c #010109",
"'$ 	c #01010A",
")$ 	c #020209",
"!$ 	c #010106",
"~$ 	c #5D5F5E",
"{$ 	c #020307",
"]$ 	c #020308",
"^$ 	c #010201",
"/$ 	c #3A3A3B",
"($ 	c #5E605F",
"_$ 	c #030308",
":$ 	c #010407",
"<$ 	c #010307",
"[$ 	c #383839",
"}$ 	c #777878",
"|$ 	c #2A2A2C",
"1$ 	c #272729",
"2$ 	c #252527",
"3$ 	c #222223",
"4$ 	c #232326",
"5$ 	c #303034",
"6$ 	c #020106",
"7$ 	c #020206",
"8$ 	c #010305",
"9$ 	c #383838",
"0$ 	c #717476",
"a$ 	c #020208",
"b$ 	c #000305",
"c$ 	c #000205",
"d$ 	c #191A1D",
"e$ 	c #373739",
"f$ 	c #3D3E3D",
"g$ 	c #3F4140",
"h$ 	c #404141",
"i$ 	c #424242",
"j$ 	c #5B5B5B",
"k$ 	c #7E8081",
"l$ 	c #030610",
"m$ 	c #0A0F1C",
"n$ 	c #0A101E",
"o$ 	c #0A0F1D",
"p$ 	c #0B0F1D",
"q$ 	c #090F1B",
"r$ 	c #090F1A",
"s$ 	c #040911",
"t$ 	c #000306",
"u$ 	c #353638",
"v$ 	c #848486",
"w$ 	c #0E1422",
"x$ 	c #1F273B",
"y$ 	c #1E283E",
"z$ 	c #20283F",
"A$ 	c #21273D",
"B$ 	c #20273B",
"C$ 	c #1F273A",
"D$ 	c #1D2738",
"E$ 	c #121925",
"F$ 	c #4B4B4D",
"G$ 	c #858688",
"H$ 	c #010108",
"I$ 	c #101625",
"J$ 	c #1F283F",
"K$ 	c #1C2841",
"L$ 	c #1C2941",
"M$ 	c #1E2842",
"N$ 	c #1E2840",
"O$ 	c #1D293D",
"P$ 	c #1D283B",
"Q$ 	c #111826",
"R$ 	c #010203",
"S$ 	c #010304",
"T$ 	c #5C5C5D",
"U$ 	c #87888A",
"V$ 	c #101624",
"W$ 	c #1F283E",
"X$ 	c #1D2840",
"Y$ 	c #1D2841",
"Z$ 	c #1E2841",
"`$ 	c #1E2740",
" % 	c #1E273F",
".% 	c #1C283E",
"+% 	c #1D273C",
"@% 	c #111725",
"#% 	c #666667",
"$% 	c #88898C",
"%% 	c #111624",
"&% 	c #1E273D",
"*% 	c #1E273E",
"=% 	c #1D283D",
"-% 	c #1D273B",
";% 	c #0F1523",
">% 	c #010107",
",% 	c #6A6A6C",
"'% 	c #858689",
")% 	c #111621",
"!% 	c #1F2536",
"~% 	c #1F2538",
"{% 	c #1F2539",
"]% 	c #1E2639",
"^% 	c #1F263A",
"/% 	c #1E2638",
"(% 	c #1D2436",
"_% 	c #0F1420",
":% 	c #676769",
"<% 	c #6D6D6E",
"[% 	c #5F5F61",
"}% 	c #5F6062",
"|% 	c #626365",
"1% 	c #626264",
"2% 	c #616163",
"3% 	c #606163",
"4% 	c #606062",
"5% 	c #5E5F61",
"6% 	c #38383B",
"7% 	c #05060E",
"8% 	c #060B15",
"9% 	c #060A16",
"0% 	c #070A17",
"a% 	c #070B18",
"b% 	c #060B18",
"c% 	c #060C18",
"d% 	c #070C18",
"e% 	c #060B16",
"f% 	c #03050D",
"g% 	c #2D2D2F",
"h% 	c #222224",
"i% 	c #222324",
"j% 	c #222423",
"k% 	c #232424",
"l% 	c #202123",
"m% 	c #3F3F40",
"n% 	c #474748",
"o% 	c #59595A",
"p% 	c #464647",
"q% 	c #000006",
"r% 	c #060608",
"s% 	c #000204",
"t% 	c #070709",
"u% 	c #49494A",
"v% 	c #050509",
"w% 	c #4B4C4E",
"x% 	c #040407",
"y% 	c #8F8F8F",
"z% 	c #888888",
"A% 	c #8A8A8A",
"B% 	c #8C8C8C",
"C% 	c #88898A",
"D% 	c #838486",
"E% 	c #313134",
"F% 	c #00020A",
"G% 	c #000009",
"H% 	c #00000A",
"I% 	c #040101",
"J% 	c #040100",
"K% 	c #040200",
"L% 	c #030200",
"M% 	c #040201",
"N% 	c #040300",
"O% 	c #050300",
"P% 	c #616063",
"Q% 	c #7F8180",
"R% 	c #7D7E7D",
"S% 	c #79797A",
"T% 	c #9B9B9B",
"U% 	c #242424",
"V% 	c #171B26",
"W% 	c #212939",
"X% 	c #202839",
"Y% 	c #22283A",
"Z% 	c #212737",
"`% 	c #232630",
" & 	c #585043",
".& 	c #87775A",
"+& 	c #887554",
"@& 	c #867552",
"#& 	c #847552",
"$& 	c #847451",
"%& 	c #847350",
"&& 	c #84734F",
"*& 	c #83724F",
"=& 	c #82724E",
"-& 	c #83724E",
";& 	c #85744F",
">& 	c #857550",
",& 	c #867651",
"'& 	c #867550",
")& 	c #857450",
"!& 	c #847450",
"~& 	c #837350",
"{& 	c #827350",
"]& 	c #837451",
"^& 	c #82724F",
"/& 	c #81724F",
"(& 	c #81714E",
"_& 	c #81724E",
":& 	c #82734E",
"<& 	c #83744E",
"[& 	c #837450",
"}& 	c #837558",
"|& 	c #5D5748",
"1& 	c #37393E",
"2& 	c #343843",
"3& 	c #353845",
"4& 	c #2F303B",
"5& 	c #292929",
"6& 	c #010100",
"7& 	c #1D2231",
"8& 	c #293349",
"9& 	c #27334B",
"0& 	c #28334B",
"a& 	c #2D323C",
"b& 	c #9C8E70",
"c& 	c #F1D397",
"d& 	c #F6D28B",
"e& 	c #F6D38A",
"f& 	c #F5D48B",
"g& 	c #F5D48A",
"h& 	c #F6D389",
"i& 	c #F4D388",
"j& 	c #F4D389",
"k& 	c #F6D48A",
"l& 	c #F6D589",
"m& 	c #F5D589",
"n& 	c #F6D58A",
"o& 	c #F5D58A",
"p& 	c #F4D58A",
"q& 	c #F4D589",
"r& 	c #F4D588",
"s& 	c #F0D696",
"t& 	c #A29676",
"u& 	c #4F5156",
"v& 	c #484F5F",
"w& 	c #3A3F4A",
"x& 	c #000100",
"y& 	c #7F7F81",
"z& 	c #2C2C2C",
"A& 	c #27314A",
"B& 	c #26324C",
"C& 	c #26314C",
"D& 	c #27324A",
"E& 	c #2C313C",
"F& 	c #A2916E",
"G& 	c #F8D68C",
"H& 	c #FDD67C",
"I& 	c #FDD57C",
"J& 	c #FDD67B",
"K& 	c #FDD57B",
"L& 	c #FCD57A",
"M& 	c #FCD57B",
"N& 	c #FDD57D",
"O& 	c #FED67B",
"P& 	c #FED67C",
"Q& 	c #FCD67A",
"R& 	c #FDD67A",
"S& 	c #FED77B",
"T& 	c #FED77C",
"U& 	c #FDD77B",
"V& 	c #FDD87A",
"W& 	c #FDD77A",
"X& 	c #FCD679",
"Y& 	c #FCD779",
"Z& 	c #F8D78A",
"`& 	c #A4966D",
" * 	c #4C4F52",
".* 	c #474F5E",
"+* 	c #474E5E",
"@* 	c #3B3F4B",
"#* 	c #89898B",
"$* 	c #2D2D2D",
"%* 	c #263149",
"&* 	c #25314B",
"** 	c #2C313D",
"=* 	c #A3946F",
"-* 	c #F8D78B",
";* 	c #FED67D",
">* 	c #FED67A",
",* 	c #FED679",
"'* 	c #FED57A",
")* 	c #FFD67B",
"!* 	c #FED77A",
"~* 	c #FFD67A",
"{* 	c #FFD779",
"]* 	c #FFD77A",
"^* 	c #FED779",
"/* 	c #FFD778",
"(* 	c #FED777",
"_* 	c #FED677",
":* 	c #FDD676",
"<* 	c #FDD778",
"[* 	c #F7D787",
"}* 	c #A4966C",
"|* 	c #484E5E",
"1* 	c #8F8F90",
"2* 	c #263048",
"3* 	c #25324B",
"4* 	c #2A303E",
"5* 	c #A39471",
"6* 	c #F6D790",
"7* 	c #FCD684",
"8* 	c #FDD683",
"9* 	c #FBD781",
"0* 	c #FBD881",
"a* 	c #FBD782",
"b* 	c #FCD781",
"c* 	c #FBD780",
"d* 	c #FCD780",
"e* 	c #FDD680",
"f* 	c #FCD77F",
"g* 	c #FDD780",
"h* 	c #FDD77F",
"i* 	c #FCD77E",
"j* 	c #FDD77D",
"k* 	c #FDD77C",
"l* 	c #FFD677",
"m* 	c #FED575",
"n* 	c #FDD675",
"o* 	c #FBD777",
"p* 	c #F6D885",
"q* 	c #A4956A",
"r* 	c #4D5053",
"s* 	c #484F5E",
"t* 	c #929294",
"u* 	c #1C2230",
"v* 	c #25304C",
"w* 	c #24314B",
"x* 	c #283041",
"y* 	c #958C77",
"z* 	c #E5D1A1",
"A* 	c #EBD198",
"B* 	c #EAD196",
"C* 	c #E8D194",
"D* 	c #E9D194",
"E* 	c #EAD195",
"F* 	c #EAD095",
"G* 	c #EBD196",
"H* 	c #EBD296",
"I* 	c #EBD396",
"J* 	c #ECD396",
"K* 	c #EDD396",
"L* 	c #EED397",
"M* 	c #EED497",
"N* 	c #EED496",
"O* 	c #EFD496",
"P* 	c #EFD595",
"Q* 	c #F0D595",
"R* 	c #F0D495",
"S* 	c #F0D596",
"T* 	c #EFD495",
"U* 	c #EED493",
"V* 	c #EFD594",
"W* 	c #EED492",
"X* 	c #EFD390",
"Y* 	c #F4D486",
"Z* 	c #FBD67C",
"`* 	c #FDD574",
" = 	c #FED673",
".= 	c #F7D783",
"+= 	c #A59469",
"@= 	c #4E4F52",
"#= 	c #484F5C",
"$= 	c #3A3E4B",
"%= 	c #949496",
"&= 	c #263047",
"*= 	c #24304B",
"== 	c #25304B",
"-= 	c #253145",
";= 	c #494B4E",
">= 	c #6B675B",
",= 	c #6F6756",
"'= 	c #6F6856",
")= 	c #6E6756",
"!= 	c #6D6755",
"~= 	c #6E6755",
"{= 	c #6E6855",
"]= 	c #6F6956",
"^= 	c #706957",
"/= 	c #706A57",
"(= 	c #716A57",
"_= 	c #726B58",
":= 	c #736C58",
"<= 	c #746C58",
"[= 	c #746C57",
"}= 	c #756D57",
"|= 	c #766E57",
"1= 	c #766F56",
"2= 	c #776E56",
"3= 	c #786E56",
"4= 	c #786F56",
"5= 	c #776E55",
"6= 	c #756D54",
"7= 	c #756C56",
"8= 	c #756C54",
"9= 	c #766B4F",
"0= 	c #998450",
"a= 	c #F6D583",
"b= 	c #FFD571",
"c= 	c #FDD573",
"d= 	c #F8D683",
"e= 	c #A8956A",
"f= 	c #4F4F52",
"g= 	c #474D5E",
"h= 	c #393D4A",
"i= 	c #979799",
"j= 	c #2E2E2E",
"k= 	c #25314A",
"l= 	c #24314A",
"m= 	c #243248",
"n= 	c #374355",
"o= 	c #47515F",
"p= 	c #49515D",
"q= 	c #49525F",
"r= 	c #48535E",
"s= 	c #49535E",
"t= 	c #48545E",
"u= 	c #4A535F",
"v= 	c #4A535D",
"w= 	c #4B535D",
"x= 	c #4B535C",
"y= 	c #4A525D",
"z= 	c #4B525C",
"A= 	c #4E5152",
"B= 	c #7F724C",
"C= 	c #F2D488",
"D= 	c #FCD574",
"E= 	c #FFD570",
"F= 	c #FED573",
"G= 	c #F7D682",
"H= 	c #A8976C",
"I= 	c #4F5053",
"J= 	c #494F5D",
"K= 	c #474D5D",
"L= 	c #9A9A9C",
"M= 	c #2F2F2F",
"N= 	c #000208",
"O= 	c #1B2131",
"P= 	c #253149",
"Q= 	c #243149",
"R= 	c #24324A",
"S= 	c #36455A",
"T= 	c #445266",
"U= 	c #455265",
"V= 	c #455266",
"W= 	c #445366",
"X= 	c #445465",
"Y= 	c #455465",
"Z= 	c #465365",
"`= 	c #465465",
" - 	c #475465",
".- 	c #475464",
"+- 	c #485464",
"@- 	c #475363",
"#- 	c #4A5359",
"$- 	c #7F7451",
"%- 	c #F3D589",
"&- 	c #FDD673",
"*- 	c #FED56F",
"=- 	c #FED572",
"-- 	c #F8D781",
";- 	c #A9996B",
">- 	c #4F5051",
",- 	c #484E5C",
"'- 	c #484E5B",
")- 	c #393E47",
"!- 	c #9D9D9E",
"~- 	c #303031",
"{- 	c #000201",
"]- 	c #36445A",
"^- 	c #435267",
"/- 	c #445367",
"(- 	c #465366",
"_- 	c #435365",
":- 	c #435366",
"<- 	c #455366",
"[- 	c #465367",
"}- 	c #455367",
"|- 	c #445467",
"1- 	c #445466",
"2- 	c #455566",
"3- 	c #455467",
"4- 	c #465568",
"5- 	c #475568",
"6- 	c #475567",
"7- 	c #475566",
"8- 	c #475466",
"9- 	c #485365",
"0- 	c #4A525B",
"a- 	c #7F7552",
"b- 	c #F3D687",
"c- 	c #FCD673",
"d- 	c #FED671",
"e- 	c #F9D782",
"f- 	c #AD9B6D",
"g- 	c #4E4F50",
"h- 	c #474E5A",
"i- 	c #383D46",
"j- 	c #9F9FA1",
"k- 	c #323232",
"l- 	c #000200",
"m- 	c #364459",
"n- 	c #425265",
"o- 	c #445267",
"p- 	c #445265",
"q- 	c #435367",
"r- 	c #455365",
"s- 	c #465467",
"t- 	c #465468",
"u- 	c #485465",
"v- 	c #485366",
"w- 	c #475367",
"x- 	c #485467",
"y- 	c #465364",
"z- 	c #807758",
"A- 	c #EFD78F",
"B- 	c #F7D77C",
"C- 	c #F9D778",
"D- 	c #F5D786",
"E- 	c #AC9C72",
"F- 	c #4D5052",
"G- 	c #474F5B",
"H- 	c #464E5A",
"I- 	c #373D47",
"J- 	c #333334",
"K- 	c #010301",
"L- 	c #1C2232",
"M- 	c #242F49",
"N- 	c #344157",
"O- 	c #3E4E63",
"P- 	c #404E63",
"Q- 	c #3F4D62",
"R- 	c #3F4D64",
"S- 	c #404D64",
"T- 	c #414D64",
"U- 	c #404D61",
"V- 	c #404E61",
"W- 	c #404E62",
"X- 	c #3F4E62",
"Y- 	c #414E62",
"Z- 	c #424E62",
"`- 	c #424E63",
" ; 	c #434E63",
".; 	c #424F61",
"+; 	c #434F61",
"@; 	c #444F62",
"#; 	c #48505C",
"$; 	c #726F5F",
"%; 	c #CCC194",
"&; 	c #D3C287",
"*; 	c #D5C385",
"=; 	c #D6C185",
"-; 	c #D3C18C",
";; 	c #968D74",
">; 	c #484D54",
",; 	c #454D5B",
"'; 	c #444B59",
"); 	c #373A46",
"!; 	c #9F9FA0",
"~; 	c #353536",
"{; 	c #1B2333",
"]; 	c #243047",
"^; 	c #232F44",
"/; 	c #233044",
"(; 	c #243044",
"_; 	c #243043",
":; 	c #253144",
"<; 	c #263041",
"[; 	c #2B323A",
"}; 	c #373B37",
"|; 	c #3A3C32",
"1; 	c #3D3D33",
"2; 	c #3E3C32",
"3; 	c #3B3B35",
"4; 	c #2E343A",
"5; 	c #273240",
"6; 	c #273242",
"7; 	c #232735",
"8; 	c #9F9F9F",
"9; 	c #373737",
"0; 	c #1B2432",
"a; 	c #222E44",
"b; 	c #222E43",
"c; 	c #212E42",
"d; 	c #222E42",
"e; 	c #212E3F",
"f; 	c #232E3F",
"g; 	c #242E3F",
"h; 	c #202E3F",
"i; 	c #202E40",
"j; 	c #212E41",
"k; 	c #232C41",
"l; 	c #1E2333",
"m; 	c #A0A0A1",
"n; 	c #1C2332",
"o; 	c #212D44",
"p; 	c #222D43",
"q; 	c #212D42",
"r; 	c #212D43",
"s; 	c #212E44",
"t; 	c #202D42",
"u; 	c #202D41",
"v; 	c #222B40",
"w; 	c #1F2332",
"x; 	c #A3A3A4",
"y; 	c #39393B",
"z; 	c #020103",
"A; 	c #000209",
"B; 	c #1C2333",
"C; 	c #212D45",
"D; 	c #212D41",
"E; 	c #212C41",
"F; 	c #212C42",
"G; 	c #202C43",
"H; 	c #202C42",
"I; 	c #212C43",
"J; 	c #202D44",
"K; 	c #222C41",
"L; 	c #1D2230",
"M; 	c #A3A3A5",
"N; 	c #3A3A3C",
"O; 	c #000109",
"P; 	c #1D2332",
"Q; 	c #263045",
"R; 	c #232E45",
"S; 	c #232D44",
"T; 	c #222D42",
"U; 	c #212C40",
"V; 	c #222D40",
"W; 	c #222C40",
"X; 	c #212C3F",
"Y; 	c #202C41",
"Z; 	c #202C3F",
"`; 	c #202C40",
" > 	c #202B3F",
".> 	c #222A3F",
"+> 	c #1C212E",
"@> 	c #9E9EA0",
"#> 	c #717174",
"$> 	c #2C2C2E",
"%> 	c #020108",
"&> 	c #151924",
"*> 	c #1A212F",
"=> 	c #1A2030",
"-> 	c #192030",
";> 	c #191F2F",
">> 	c #191F2E",
",> 	c #191F2D",
"'> 	c #181F2C",
")> 	c #181E2C",
"!> 	c #181F2D",
"~> 	c #171F2D",
"{> 	c #191F2C",
"]> 	c #19202D",
"^> 	c #18202C",
"/> 	c #17202D",
"(> 	c #17202E",
"_> 	c #18202E",
":> 	c #19202F",
"<> 	c #19202E",
"[> 	c #141720",
"}> 	c #7B7B7C",
"|> 	c #222222",
"1> 	c #161618",
"2> 	c #19191A",
"3> 	c #1C1C1D",
"4> 	c #1C1D1F",
"5> 	c #1E1F20",
"6> 	c #1F2021",
"7> 	c #212223",
"8> 	c #242425",
"9> 	c #010308",
"0> 	c #000206",
"a> 	c #09090C",
"b> 	c #151517",
"c> 	c #151515",
"d> 	c #131315",
"e> 	c #121214",
"f> 	c #111113",
"g> 	c #0F1010",
"h> 	c #0D0D0D",
"i> 	c #0A0A0A",
"j> 	c #1A1A1A",
"k> 	c #181819",
"l> 	c #020304",
"m> 	c #010306",
"n> 	c #131314",
"o> 	c #1B1B1D",
"p> 	c #202121",
"q> 	c #121012",
"r> 	c #242525",
"s> 	c #030103",
"t> 	c #020203",
"u> 	c #0F0E0F",
"v> 	c #6F6F70",
"w> 	c #1E1E1F",
"x> 	c #010006",
"y> 	c #030002",
"z> 	c #020104",
"A> 	c #020102",
"B> 	c #020003",
"C> 	c #706F71",
"D> 	c #1B1B1C",
"E> 	c #1E1E20",
"F> 	c #252526",
"G> 	c #0C101A",
"H> 	c #0F1421",
"I> 	c #0F1522",
"J> 	c #0F1520",
"K> 	c #111721",
"L> 	c #151B25",
"M> 	c #151B24",
"N> 	c #151A24",
"O> 	c #161B24",
"P> 	c #171B25",
"Q> 	c #191C22",
"R> 	c #201E1B",
"S> 	c #3A3121",
"T> 	c #3E3118",
"U> 	c #3C2F16",
"V> 	c #3A2D15",
"W> 	c #382B14",
"X> 	c #362914",
"Y> 	c #342814",
"Z> 	c #322713",
"`> 	c #2F2513",
" , 	c #251F14",
"., 	c #0D0C0B",
"+, 	c #080810",
"@, 	c #070A11",
"#, 	c #070A10",
"$, 	c #090A10",
"%, 	c #0B0A0A",
"&, 	c #211C13",
"*, 	c #271F12",
"=, 	c #271D0F",
"-, 	c #261C0F",
";, 	c #241B0E",
">, 	c #231A0E",
",, 	c #23190E",
"', 	c #231A0F",
"), 	c #241A0F",
"!, 	c #241B0F",
"~, 	c #251B0F",
"{, 	c #271D10",
"], 	c #271E10",
"^, 	c #261D10",
"/, 	c #261C10",
"(, 	c #251C10",
"_, 	c #241C0F",
":, 	c #241B10",
"<, 	c #231B10",
"[, 	c #221A10",
"}, 	c #221A0F",
"|, 	c #22190E",
"1, 	c #22180E",
"2, 	c #20170D",
"3, 	c #1E160D",
"4, 	c #17120C",
"5, 	c #110E0C",
"6, 	c #0D0C0C",
"7, 	c #0A090D",
"8, 	c #05050B",
"9, 	c #05060B",
"0, 	c #05070D",
"a, 	c #0E0F15",
"b, 	c #111114",
"c, 	c #0C0B0D",
"d, 	c #0C0A0C",
"e, 	c #0A090C",
"f, 	c #080808",
"g, 	c #060606",
"h, 	c #01030B",
"i, 	c #212836",
"j, 	c #252E42",
"k, 	c #242E43",
"l, 	c #242E42",
"m, 	c #242F41",
"n, 	c #384253",
"o, 	c #4C5666",
"p, 	c #4B5563",
"q, 	c #4C5463",
"r, 	c #495564",
"s, 	c #4B5565",
"t, 	c #4C5665",
"u, 	c #4C5765",
"v, 	c #515762",
"w, 	c #6B685C",
"x, 	c #DECB9D",
"y, 	c #ECD08D",
"z, 	c #EDD089",
"A, 	c #ECCF87",
"B, 	c #EBCE88",
"C, 	c #EACD8A",
"D, 	c #E9CD8A",
"E, 	c #E7CB88",
"F, 	c #E3CA8C",
"G, 	c #CCBC93",
"H, 	c #605D55",
"I, 	c #4B4F5B",
"J, 	c #484F5D",
"K, 	c #49505C",
"L, 	c #4A4F59",
"M, 	c #52514C",
"N, 	c #C1B390",
"O, 	c #DBC48D",
"P, 	c #D9C083",
"Q, 	c #D7BE82",
"R, 	c #D6BC81",
"S, 	c #D5BC81",
"T, 	c #D5BB81",
"U, 	c #D5BB82",
"V, 	c #D5BB83",
"W, 	c #D6BB82",
"X, 	c #D6BB83",
"Y, 	c #D6BC83",
"Z, 	c #D6BC84",
"`, 	c #D8BD85",
" ' 	c #D9BD85",
".' 	c #D9BE85",
"+' 	c #DABE85",
"@' 	c #DBBF86",
"#' 	c #DCC087",
"$' 	c #DCC187",
"%' 	c #DCC186",
"&' 	c #DBC087",
"*' 	c #DAC087",
"=' 	c #DABF87",
"-' 	c #D9BF86",
";' 	c #D8BF87",
">' 	c #D8BF86",
",' 	c #D9BE86",
"'' 	c #D8BE87",
")' 	c #D9BE88",
"!' 	c #D7BF88",
"~' 	c #D7BE87",
"{' 	c #D9BF87",
"]' 	c #D8BE86",
"^' 	c #D8BD86",
"/' 	c #D6BB85",
"(' 	c #D4BA84",
"_' 	c #D0B681",
":' 	c #CAB386",
"<' 	c #988B70",
"[' 	c #716D64",
"}' 	c #696966",
"|' 	c #656468",
"1' 	c #484B54",
"2' 	c #40444F",
"3' 	c #40444E",
"4' 	c #101218",
"5' 	c #7E7E7E",
"6' 	c #474749",
"7' 	c #1E2736",
"8' 	c #212E43",
"9' 	c #354153",
"0' 	c #4A5667",
"a' 	c #4A5666",
"b' 	c #495666",
"c' 	c #4A5566",
"d' 	c #485666",
"e' 	c #485767",
"f' 	c #4E5662",
"g' 	c #6E6956",
"h' 	c #E6CF8F",
"i' 	c #F9D57B",
"j' 	c #FBD574",
"k' 	c #FCD573",
"l' 	c #FCD475",
"m' 	c #FBD474",
"n' 	c #F8D57C",
"o' 	c #E1CA8E",
"p' 	c #6B6859",
"q' 	c #505865",
"r' 	c #4C5869",
"s' 	c #4C5767",
"t' 	c #4E5663",
"u' 	c #5A5851",
"v' 	c #D3C08B",
"w' 	c #FBD676",
"x' 	c #FBD677",
"y' 	c #FBD577",
"z' 	c #FBD479",
"A' 	c #FBD47A",
"B' 	c #FAD47A",
"C' 	c #FAD57A",
"D' 	c #FAD47B",
"E' 	c #FAD57B",
"F' 	c #FCD57C",
"G' 	c #FBD57C",
"H' 	c #FBD57B",
"I' 	c #FBD57D",
"J' 	c #FAD47D",
"K' 	c #FAD57C",
"L' 	c #FAD57D",
"M' 	c #FBD67D",
"N' 	c #FAD67D",
"O' 	c #F9D67D",
"P' 	c #F9D57D",
"Q' 	c #F9D47C",
"R' 	c #FAD47C",
"S' 	c #F8D27C",
"T' 	c #EFD087",
"U' 	c #AA966F",
"V' 	c #787366",
"W' 	c #71716C",
"X' 	c #6F6F72",
"Y' 	c #4D515B",
"Z' 	c #434959",
"`' 	c #424856",
" ) 	c #12141D",
".) 	c #848484",
"+) 	c #4E4E4F",
"@) 	c #01020B",
"#) 	c #212C44",
"$) 	c #202B42",
"%) 	c #354154",
"&) 	c #4A5768",
"*) 	c #495667",
"=) 	c #495668",
"-) 	c #495567",
";) 	c #4B5567",
">) 	c #4E5661",
",) 	c #6A6751",
"') 	c #E6D08B",
")) 	c #FAD475",
"!) 	c #FED46E",
"~) 	c #FED46C",
"{) 	c #FFD36B",
"]) 	c #FFD36C",
"^) 	c #FED36B",
"/) 	c #FBD373",
"() 	c #E3C988",
"_) 	c #6A6655",
":) 	c #4E5863",
"<) 	c #4B5768",
"[) 	c #4D5663",
"}) 	c #56554C",
"|) 	c #D3BE85",
"1) 	c #FAD779",
"2) 	c #FFD56D",
"3) 	c #FFD46D",
"4) 	c #FFD46E",
"5) 	c #FFD46F",
"6) 	c #FED36F",
"7) 	c #FED46F",
"8) 	c #FED470",
"9) 	c #FDD471",
"0) 	c #FED471",
"a) 	c #FDD472",
"b) 	c #FDD473",
"c) 	c #FDD474",
"d) 	c #FED474",
"e) 	c #FED574",
"f) 	c #FFD574",
"g) 	c #FFD573",
"h) 	c #FED473",
"i) 	c #FED472",
"j) 	c #FDD575",
"k) 	c #FCD575",
"l) 	c #FCD474",
"m) 	c #FCD373",
"n) 	c #FCD372",
"o) 	c #FDD372",
"p) 	c #FDD270",
"q) 	c #FBD071",
"r) 	c #F3CF7E",
"s) 	c #A99368",
"t) 	c #767063",
"u) 	c #70706A",
"v) 	c #6C6D6E",
"w) 	c #494E59",
"x) 	c #434A5B",
"y) 	c #444B5B",
"z) 	c #444A58",
"A) 	c #868687",
"B) 	c #535353",
"C) 	c #1D2534",
"D) 	c #344055",
"E) 	c #4A5769",
"F) 	c #495669",
"G) 	c #4A5567",
"H) 	c #485667",
"I) 	c #4C5763",
"J) 	c #6A6752",
"K) 	c #E7D18C",
"L) 	c #F9D474",
"M) 	c #FED36D",
"N) 	c #FFD36D",
"O) 	c #FDD26D",
"P) 	c #FDD26B",
"Q) 	c #FAD373",
"R) 	c #E3C888",
"S) 	c #6B6553",
"T) 	c #4F5864",
"U) 	c #56554E",
"V) 	c #D3BD85",
"W) 	c #FAD67A",
"X) 	c #FCD374",
"Y) 	c #FDD475",
"Z) 	c #FCD473",
"`) 	c #FCD271",
" ! 	c #FCD070",
".! 	c #F4CF7D",
"+! 	c #AD9666",
"@! 	c #78705C",
"#! 	c #737164",
"$! 	c #6E6C68",
"%! 	c #4E4F59",
"&! 	c #484D5F",
"*! 	c #464F60",
"=! 	c #464C5B",
"-! 	c #181B23",
";! 	c #575757",
">! 	c #1D2432",
",! 	c #212D46",
"'! 	c #344054",
")! 	c #495769",
"!! 	c #4B5762",
"~! 	c #6E6C58",
"{! 	c #E8D296",
"]! 	c #F7D480",
"^! 	c #F9D47A",
"/! 	c #F9D37A",
"(! 	c #F9D47B",
"_! 	c #F8D37B",
":! 	c #F6D379",
"<! 	c #F4D480",
"[! 	c #E0C991",
"}! 	c #6A6557",
"|! 	c #4E5764",
"1! 	c #4D5866",
"2! 	c #535451",
"3! 	c #D1BF8D",
"4! 	c #F6D785",
"5! 	c #F9D67C",
"6! 	c #F9D57C",
"7! 	c #F9D57E",
"8! 	c #F9D47E",
"9! 	c #F9D480",
"0! 	c #F8D580",
"a! 	c #F7D581",
"b! 	c #F7D580",
"c! 	c #F8D581",
"d! 	c #F8D582",
"e! 	c #F7D582",
"f! 	c #F6D582",
"g! 	c #F8D483",
"h! 	c #F7D483",
"i! 	c #F7D482",
"j! 	c #F7D583",
"k! 	c #F6D482",
"l! 	c #F7D481",
"m! 	c #F9D47F",
"n! 	c #FBD27A",
"o! 	c #F9D27E",
"p! 	c #D6B776",
"q! 	c #B39D6D",
"r! 	c #AE9C72",
"s! 	c #A89A7D",
"t! 	c #625E5B",
"u! 	c #4B5060",
"v! 	c #485162",
"w! 	c #474E5D",
"x! 	c #1C2028",
"y! 	c #595959",
"z! 	c #1C2432",
"A! 	c #222C42",
"B! 	c #212C46",
"C! 	c #212B44",
"D! 	c #202B41",
"E! 	c #475668",
"F! 	c #485769",
"G! 	c #4B5764",
"H! 	c #62645F",
"I! 	c #AB9F80",
"J! 	c #B5A274",
"K! 	c #B7A472",
"L! 	c #B8A575",
"M! 	c #B9A675",
"N! 	c #BAA776",
"O! 	c #BAA775",
"P! 	c #B9A774",
"Q! 	c #B8A978",
"R! 	c #A99F81",
"S! 	c #5B5E5E",
"T! 	c #4B5867",
"U! 	c #4B5769",
"V! 	c #4B5767",
"W! 	c #4F565B",
"X! 	c #9C957C",
"Y! 	c #B8A979",
"Z! 	c #B7A771",
"`! 	c #B7A671",
" ~ 	c #B5A472",
".~ 	c #B5A373",
"+~ 	c #B4A374",
"@~ 	c #B4A273",
"#~ 	c #B3A273",
"$~ 	c #B3A173",
"%~ 	c #B4A173",
"&~ 	c #B4A072",
"*~ 	c #B4A073",
"=~ 	c #B2A073",
"-~ 	c #B2A074",
";~ 	c #B2A072",
">~ 	c #B1A073",
",~ 	c #B19F73",
"'~ 	c #B19F72",
")~ 	c #B0A072",
"!~ 	c #B09F72",
"~~ 	c #B2A173",
"{~ 	c #B3A174",
"]~ 	c #B4A274",
"^~ 	c #B4A275",
"/~ 	c #B4A176",
"(~ 	c #B3A075",
"_~ 	c #B19F74",
":~ 	c #B09E73",
"<~ 	c #AF9C70",
"[~ 	c #B29D6D",
"}~ 	c #C5A86B",
"|~ 	c #F7D383",
"1~ 	c #F7D386",
"2~ 	c #F4D48D",
"3~ 	c #E6CD99",
"4~ 	c #756B5A",
"5~ 	c #4A4F5B",
"6~ 	c #474F60",
"7~ 	c #21252D",
"8~ 	c #858585",
"9~ 	c #5A5A5B",
"0~ 	c #1B2331",
"a~ 	c #344153",
"b~ 	c #49566A",
"c~ 	c #4D5765",
"d~ 	c #50565F",
"e~ 	c #51565A",
"f~ 	c #515659",
"g~ 	c #51555A",
"h~ 	c #505458",
"i~ 	c #4F5456",
"j~ 	c #505557",
"k~ 	c #505456",
"l~ 	c #505558",
"m~ 	c #4F565D",
"n~ 	c #4B5869",
"o~ 	c #4C5867",
"p~ 	c #4F5861",
"q~ 	c #52585A",
"r~ 	c #535858",
"s~ 	c #525758",
"t~ 	c #52575A",
"u~ 	c #52575B",
"v~ 	c #52565B",
"w~ 	c #51575C",
"x~ 	c #50575C",
"y~ 	c #51585D",
"z~ 	c #52585D",
"A~ 	c #51575B",
"B~ 	c #51585C",
"C~ 	c #50575B",
"D~ 	c #50565A",
"E~ 	c #51565B",
"F~ 	c #53575B",
"G~ 	c #53575C",
"H~ 	c #52575C",
"I~ 	c #51565D",
"J~ 	c #50565C",
"K~ 	c #8B7B57",
"L~ 	c #F3D38C",
"M~ 	c #FBD37A",
"N~ 	c #F9D380",
"O~ 	c #EACE8E",
"P~ 	c #776C56",
"Q~ 	c #4B4F5A",
"R~ 	c #474F5F",
"S~ 	c #272B34",
"T~ 	c #838383",
"U~ 	c #1A2230",
"V~ 	c #202B43",
"W~ 	c #344053",
"X~ 	c #4A576A",
"Y~ 	c #49556B",
"Z~ 	c #49576B",
"`~ 	c #49576A",
" { 	c #4B5669",
".{ 	c #4C5769",
"+{ 	c #4A5767",
"@{ 	c #4C5868",
"#{ 	c #4A5869",
"${ 	c #4A586A",
"%{ 	c #4B586A",
"&{ 	c #4C586A",
"*{ 	c #4D5969",
"={ 	c #4C596A",
"-{ 	c #4C5969",
";{ 	c #4B596A",
">{ 	c #4B596B",
",{ 	c #4D596A",
"'{ 	c #4D586A",
"){ 	c #50565E",
"!{ 	c #8B7D5E",
"~{ 	c #F5D590",
"{{ 	c #FDD47C",
"]{ 	c #FED378",
"^{ 	c #EBCF8D",
"/{ 	c #494E58",
"({ 	c #454E5F",
"_{ 	c #2B2F3A",
":{ 	c #19212F",
"<{ 	c #222B45",
"[{ 	c #333F54",
"}{ 	c #4A566B",
"|{ 	c #4B566A",
"1{ 	c #4A576B",
"2{ 	c #4A5669",
"3{ 	c #4A5969",
"4{ 	c #4C576A",
"5{ 	c #4B586B",
"6{ 	c #4B576C",
"7{ 	c #4C596B",
"8{ 	c #4B586C",
"9{ 	c #4C586B",
"0{ 	c #4D596B",
"a{ 	c #4B596C",
"b{ 	c #4A586B",
"c{ 	c #4C596C",
"d{ 	c #505660",
"e{ 	c #8B7C5D",
"f{ 	c #FED47D",
"g{ 	c #FBD37B",
"h{ 	c #EDD08D",
"i{ 	c #7A6E56",
"j{ 	c #484D58",
"k{ 	c #444D5E",
"l{ 	c #454C5E",
"m{ 	c #313746",
"n{ 	c #121721",
"o{ 	c #12151F",
"p{ 	c #10121D",
"q{ 	c #0F121C",
"r{ 	c #0E111A",
"s{ 	c #0D0F18",
"t{ 	c #535356",
"u{ 	c #525251",
"v{ 	c #4A4B4A",
"w{ 	c #3D3E3E",
"x{ 	c #363636",
"y{ 	c #212222",
"z{ 	c #141417",
"A{ 	c #1D1D1F",
"B{ 	c #09090D",
"C{ 	c #070B15",
"D{ 	c #0A0F1B",
"E{ 	c #0A121E",
"F{ 	c #0C1120",
"G{ 	c #0C1222",
"H{ 	c #1A2336",
"I{ 	c #212C45",
"J{ 	c #222C45",
"K{ 	c #333E53",
"L{ 	c #4A566A",
"M{ 	c #495768",
"N{ 	c #48576B",
"O{ 	c #4D586C",
"P{ 	c #4D586B",
"Q{ 	c #4C596D",
"R{ 	c #4C586D",
"S{ 	c #4F565E",
"T{ 	c #8B7E5E",
"U{ 	c #F4D58F",
"V{ 	c #FCD47B",
"W{ 	c #FCD478",
"X{ 	c #FBD47B",
"Y{ 	c #EED08D",
"Z{ 	c #7B6F56",
"`{ 	c #474C58",
" ] 	c #424B5D",
".] 	c #42495C",
"+] 	c #41475A",
"@] 	c #404758",
"#] 	c #404657",
"$] 	c #404455",
"%] 	c #3E4453",
"&] 	c #3C4251",
"*] 	c #15161E",
"=] 	c #0D0D0F",
"-] 	c #0D0D0C",
";] 	c #0A0C0B",
">] 	c #070809",
",] 	c #141415",
"'] 	c #232D41",
")] 	c #202D43",
"!] 	c #1F2D46",
"~] 	c #222D46",
"{] 	c #333F53",
"]] 	c #4B576A",
"^] 	c #4F575F",
"/] 	c #8D8060",
"(] 	c #F4D690",
"_] 	c #FBD57A",
":] 	c #FDD578",
"<] 	c #FCD47D",
"[] 	c #474B58",
"}] 	c #41485B",
"|] 	c #41485A",
"1] 	c #3F4659",
"2] 	c #3E4559",
"3] 	c #3D4559",
"4] 	c #3D4356",
"5] 	c #3B4455",
"6] 	c #3B4355",
"7] 	c #3A404F",
"8] 	c #0F111B",
"9] 	c #111115",
"0] 	c #1F2839",
"a] 	c #212E46",
"b] 	c #212E48",
"c] 	c #212E45",
"d] 	c #515761",
"e] 	c #8F8062",
"f] 	c #F4D592",
"g] 	c #FDD479",
"h] 	c #FBD47D",
"i] 	c #EED18D",
"j] 	c #7B7157",
"k] 	c #454B57",
"l] 	c #41495C",
"m] 	c #3F4658",
"n] 	c #3E4558",
"o] 	c #3D4458",
"p] 	c #3A4457",
"q] 	c #3B4254",
"r] 	c #3A4050",
"s] 	c #121317",
"t] 	c #00010A",
"u] 	c #323E55",
"v] 	c #3B485F",
"w] 	c #3D485E",
"x] 	c #3C495D",
"y] 	c #3A485B",
"z] 	c #414D60",
"A] 	c #4C586C",
"B] 	c #515660",
"C] 	c #8E8268",
"D] 	c #F2D89A",
"E] 	c #F7D683",
"F] 	c #FAD581",
"G] 	c #F7D584",
"H] 	c #ECD294",
"I] 	c #7D735A",
"J] 	c #454A51",
"K] 	c #404754",
"L] 	c #3F4551",
"M] 	c #404452",
"N] 	c #3E4352",
"O] 	c #3C4353",
"P] 	c #3A4255",
"Q] 	c #3A4153",
"R] 	c #12131E",
"S] 	c #17171A",
"T] 	c #121316",
"U] 	c #20283A",
"V] 	c #202C45",
"W] 	c #404C63",
"X] 	c #4B5A6F",
"Y] 	c #49586B",
"Z] 	c #7F7B6E",
"`] 	c #CEC29B",
" ^ 	c #D3C08A",
".^ 	c #D3BE88",
"+^ 	c #CFBB89",
"@^ 	c #C6B68F",
"#^ 	c #756E5B",
"$^ 	c #555146",
"%^ 	c #575342",
"&^ 	c #5A5341",
"*^ 	c #5E5544",
"=^ 	c #5D5647",
"-^ 	c #51504D",
";^ 	c #3D4150",
">^ 	c #3A4154",
",^ 	c #394052",
"'^ 	c #3B4151",
")^ 	c #131520",
"!^ 	c #1A1A1C",
"~^ 	c #111215",
"{^ 	c #01020D",
"]^ 	c #242D48",
"^^ 	c #232D47",
"/^ 	c #202C46",
"(^ 	c #404D63",
"_^ 	c #4B5A6E",
":^ 	c #4B596D",
"<^ 	c #4F575E",
"[^ 	c #545856",
"}^ 	c #565751",
"|^ 	c #57574F",
"1^ 	c #55564F",
"2^ 	c #54534D",
"3^ 	c #CFBD92",
"4^ 	c #DAC186",
"5^ 	c #E0C385",
"6^ 	c #E0C587",
"7^ 	c #DEC791",
"8^ 	c #B1A588",
"9^ 	c #3C3E44",
"0^ 	c #3B4153",
"a^ 	c #383F52",
"b^ 	c #3C4252",
"c^ 	c #151820",
"d^ 	c #1C1C1E",
"e^ 	c #C3C3C5",
"f^ 	c #C1C2C4",
"g^ 	c #A0A1A2",
"h^ 	c #0C0C10",
"i^ 	c #020004",
"j^ 	c #010008",
"k^ 	c #01030F",
"l^ 	c #20283C",
"m^ 	c #414D63",
"n^ 	c #4B5A6D",
"o^ 	c #4A596A",
"p^ 	c #4B5868",
"q^ 	c #4D5664",
"r^ 	c #4C5662",
"s^ 	c #50555C",
"t^ 	c #766E55",
"u^ 	c #E6CB8A",
"v^ 	c #F7CE77",
"w^ 	c #F7CD71",
"x^ 	c #F5CE73",
"y^ 	c #F3D083",
"z^ 	c #BCA77C",
"A^ 	c #3A4152",
"B^ 	c #394053",
"C^ 	c #3D4253",
"D^ 	c #171A22",
"E^ 	c #505050",
"F^ 	c #4F4F4F",
"G^ 	c #4B4B4B",
"H^ 	c #4F4F51",
"I^ 	c #727273",
"J^ 	c #242426",
"K^ 	c #1F1F21",
"L^ 	c #121723",
"M^ 	c #141B29",
"N^ 	c #141A28",
"O^ 	c #131929",
"P^ 	c #141A2C",
"Q^ 	c #212B40",
"R^ 	c #222D47",
"S^ 	c #222E48",
"T^ 	c #222E47",
"U^ 	c #1F2C45",
"V^ 	c #404C62",
"W^ 	c #4A596D",
"X^ 	c #49586A",
"Y^ 	c #4C5669",
"Z^ 	c #4B5668",
"`^ 	c #4B5766",
" / 	c #4E565D",
"./ 	c #786F55",
"+/ 	c #E9CA86",
"@/ 	c #FACD6F",
"#/ 	c #FBCE69",
"$/ 	c #F9CE6B",
"%/ 	c #F5CF7B",
"&/ 	c #BBA475",
"*/ 	c #3D3B3B",
"=/ 	c #3B4051",
"-/ 	c #3D4352",
";/ 	c #1B1D26",
">/ 	c #09090A",
",/ 	c #090909",
"'/ 	c #0A0A0B",
")/ 	c #78787A",
"!/ 	c #6D6E6F",
"~/ 	c #02040F",
"{/ 	c #22293C",
"]/ 	c #263147",
"^/ 	c #262F45",
"// 	c #1F2B45",
"(/ 	c #3F4B61",
"_/ 	c #4A576C",
":/ 	c #4A586C",
"</ 	c #4C576C",
"[/ 	c #4C566B",
"}/ 	c #7C7055",
"|/ 	c #EACA86",
"1/ 	c #F9CE6F",
"2/ 	c #FACD6A",
"3/ 	c #F8CC69",
"4/ 	c #F4CE79",
"5/ 	c #B8A172",
"6/ 	c #3C3B3B",
"7/ 	c #3B4250",
"8/ 	c #394051",
"9/ 	c #424757",
"0/ 	c #30313B",
"a/ 	c #030205",
"b/ 	c #040405",
"c/ 	c #040404",
"d/ 	c #767678",
"e/ 	c #5B5C5D",
"f/ 	c #22293D",
"g/ 	c #223048",
"h/ 	c #212D47",
"i/ 	c #3E4A60",
"j/ 	c #4E5560",
"k/ 	c #7D735C",
"l/ 	c #E8CB8E",
"m/ 	c #F3CE7B",
"n/ 	c #F4CE76",
"o/ 	c #F2CD76",
"p/ 	c #F0CF83",
"q/ 	c #B09C6E",
"r/ 	c #3E3B34",
"s/ 	c #3E4146",
"t/ 	c #3F4148",
"u/ 	c #4D4C53",
"v/ 	c #3E3B3F",
"w/ 	c #080508",
"x/ 	c #030206",
"y/ 	c #030405",
"z/ 	c #050405",
"A/ 	c #050407",
"B/ 	c #757577",
"C/ 	c #4A4A4B",
"D/ 	c #21293C",
"E/ 	c #25324A",
"F/ 	c #27334C",
"G/ 	c #3E4A5F",
"H/ 	c #4B576B",
"I/ 	c #4B5667",
"J/ 	c #6C6C65",
"K/ 	c #B9AB89",
"L/ 	c #C2AD7D",
"M/ 	c #C2AC7A",
"N/ 	c #C0AA7C",
"O/ 	c #BBA77A",
"P/ 	c #A7956B",
"Q/ 	c #9E8B61",
"R/ 	c #9D8B60",
"S/ 	c #A38F65",
"T/ 	c #A9946D",
"U/ 	c #AA9979",
"V/ 	c #473F32",
"W/ 	c #030306",
"X/ 	c #020403",
"Y/ 	c #040307",
"Z/ 	c #737376",
"`/ 	c #101013",
" ( 	c #20283B",
".( 	c #3A465C",
"+( 	c #48546A",
"@( 	c #49556A",
"#( 	c #48556A",
"$( 	c #485669",
"%( 	c #4C576B",
"&( 	c #4C5561",
"*( 	c #4E5457",
"=( 	c #4F5252",
"-( 	c #505151",
";( 	c #505051",
">( 	c #504B45",
",( 	c #A89468",
"'( 	c #EFCF8A",
")( 	c #F2CF7E",
"!( 	c #F3CF7F",
"~( 	c #F1CF82",
"{( 	c #E4C98D",
"]( 	c #61543C",
"^( 	c #040103",
"/( 	c #030404",
"(( 	c #737475",
"_( 	c #222F4A",
":( 	c #222D48",
"<( 	c #3B475D",
"[( 	c #4C5568",
"}( 	c #495568",
"|( 	c #495565",
"1( 	c #485564",
"2( 	c #495364",
"3( 	c #4B5261",
"4( 	c #4D4F52",
"5( 	c #AC9668",
"6( 	c #F3D080",
"7( 	c #F7CF70",
"8( 	c #F8CE6F",
"9( 	c #F6CE75",
"0( 	c #EBCA87",
"a( 	c #64553B",
"b( 	c #050103",
"c( 	c #040204",
"d( 	c #030303",
"e( 	c #707170",
"f( 	c #797A7B",
"g( 	c #01030C",
"h( 	c #1E2637",
"i( 	c #202F49",
"j( 	c #212F49",
"k( 	c #212C47",
"l( 	c #3C485F",
"m( 	c #4C5569",
"n( 	c #4D5568",
"o( 	c #495569",
"p( 	c #485466",
"q( 	c #475365",
"r( 	c #495262",
"s( 	c #4B4F52",
"t( 	c #AE9A6B",
"u( 	c #F4D180",
"v( 	c #F8CE70",
"w( 	c #F7CE75",
"x( 	c #EACA87",
"y( 	c #625339",
"z( 	c #040203",
"A( 	c #020303",
"B( 	c #696B6A",
"C( 	c #515151",
"D( 	c #29292B",
"E( 	c #616164",
"F( 	c #4F4F50",
"G( 	c #00020B",
"H( 	c #1D2536",
"I( 	c #3B475F",
"J( 	c #4A576D",
"K( 	c #4B566B",
"L( 	c #4A5668",
"M( 	c #4A5568",
"N( 	c #4C5668",
"O( 	c #4B4E53",
"P( 	c #AF9C6F",
"Q( 	c #F3D183",
"R( 	c #F7CE74",
"S( 	c #F8CD74",
"T( 	c #F6CE78",
"U( 	c #E7CA86",
"V( 	c #5D5136",
"W( 	c #050206",
"X( 	c #040309",
"Y( 	c #030307",
"Z( 	c #3B3B3D",
"`( 	c #464648",
" _ 	c #28282A",
"._ 	c #555555",
"+_ 	c #0F0F10",
"@_ 	c #040408",
"#_ 	c #101522",
"$_ 	c #101524",
"%_ 	c #0E1622",
"&_ 	c #0E1523",
"*_ 	c #0E1525",
"=_ 	c #222E49",
"-_ 	c #232D48",
";_ 	c #3A465F",
">_ 	c #4A566C",
",_ 	c #495467",
"'_ 	c #495466",
")_ 	c #495566",
"!_ 	c #4A5569",
"~_ 	c #4A5468",
"{_ 	c #4B5467",
"]_ 	c #4A5466",
"^_ 	c #485567",
"/_ 	c #485468",
"(_ 	c #475467",
"__ 	c #475366",
":_ 	c #465262",
"<_ 	c #484E54",
"[_ 	c #AD9F7E",
"}_ 	c #EBCF92",
"|_ 	c #ECCD83",
"1_ 	c #EDCC83",
"2_ 	c #EDCD87",
"3_ 	c #E0C993",
"4_ 	c #5C5440",
"5_ 	c #0D0F1A",
"6_ 	c #0D111E",
"7_ 	c #0E141F",
"8_ 	c #121823",
"9_ 	c #141A26",
"0_ 	c #151926",
"a_ 	c #141722",
"b_ 	c #03050A",
"c_ 	c #040710",
"d_ 	c #262D40",
"e_ 	c #262F46",
"f_ 	c #212E47",
"g_ 	c #202F48",
"h_ 	c #28354E",
"i_ 	c #2D3951",
"j_ 	c #2D394F",
"k_ 	c #2D3851",
"l_ 	c #2D384F",
"m_ 	c #2C384D",
"n_ 	c #2C384C",
"o_ 	c #2C374D",
"p_ 	c #2B364C",
"q_ 	c #2A364B",
"r_ 	c #2A354B",
"s_ 	c #2B354B",
"t_ 	c #2A344A",
"u_ 	c #29344A",
"v_ 	c #29334A",
"w_ 	c #283449",
"x_ 	c #29354A",
"y_ 	c #2A354A",
"z_ 	c #2B354A",
"A_ 	c #2B364B",
"B_ 	c #2B354C",
"C_ 	c #2A354C",
"D_ 	c #2A344B",
"E_ 	c #283349",
"F_ 	c #293449",
"G_ 	c #29364A",
"H_ 	c #2A364A",
"I_ 	c #2B364A",
"J_ 	c #2A364D",
"K_ 	c #2B364D",
"L_ 	c #2A3549",
"M_ 	c #293548",
"N_ 	c #283547",
"O_ 	c #2C3542",
"P_ 	c #57534A",
"Q_ 	c #71674E",
"R_ 	c #766A48",
"S_ 	c #796B4A",
"T_ 	c #7C6D4E",
"U_ 	c #766D56",
"V_ 	c #37393B",
"W_ 	c #262D41",
"X_ 	c #262E43",
"Y_ 	c #273145",
"Z_ 	c #283343",
"`_ 	c #283344",
" : 	c #293143",
".: 	c #252B3A",
"+: 	c #040910",
"@: 	c #525252",
"#: 	c #141416",
"$: 	c #040712",
"%: 	c #242E40",
"&: 	c #212F47",
"*: 	c #202E48",
"=: 	c #202E47",
"-: 	c #253047",
";: 	c #243147",
">: 	c #243247",
",: 	c #253148",
"': 	c #253147",
"): 	c #263249",
"!: 	c #263247",
"~: 	c #283243",
"{: 	c #293342",
"]: 	c #2B3440",
"^: 	c #2D333F",
"/: 	c #2C333F",
"(: 	c #2A3342",
"_: 	c #283446",
":: 	c #273349",
"<: 	c #253347",
"[: 	c #263347",
"}: 	c #263244",
"|: 	c #252C3B",
"1: 	c #030207",
"2: 	c #555556",
"3: 	c #050913",
"4: 	c #242E41",
"5: 	c #222F48",
"6: 	c #212F48",
"7: 	c #222F46",
"8: 	c #223046",
"9: 	c #242F44",
"0: 	c #242E45",
"a: 	c #242E49",
"b: 	c #273248",
"c: 	c #283448",
"d: 	c #273347",
"e: 	c #273244",
"f: 	c #050611",
"g: 	c #030208",
"h: 	c #57575A",
"i: 	c #060A15",
"j: 	c #252F43",
"k: 	c #25304A",
"l: 	c #26324A",
"m: 	c #273247",
"n: 	c #5A595C",
"o: 	c #060915",
"p: 	c #202E46",
"q: 	c #262F44",
"r: 	c #262E44",
"s: 	c #272F44",
"t: 	c #272F43",
"u: 	c #272F45",
"v: 	c #282F45",
"w: 	c #283045",
"x: 	c #283044",
"y: 	c #283046",
"z: 	c #282F46",
"A: 	c #272F46",
"B: 	c #282F47",
"C: 	c #272E45",
"D: 	c #272E44",
"E: 	c #253045",
"F: 	c #263046",
"G: 	c #273146",
"H: 	c #283246",
"I: 	c #293246",
"J: 	c #283146",
"K: 	c #273246",
"L: 	c #273147",
"M: 	c #283245",
"N: 	c #252B3C",
"O: 	c #040611",
"P: 	c #5C5C5E",
"Q: 	c #BBBBBB",
"R: 	c #B9B9B9",
"S: 	c #BEBEBE",
"T: 	c #A8A8AA",
"U: 	c #060812",
"V: 	c #232938",
"W: 	c #222A3C",
"X: 	c #212A3D",
"Y: 	c #202A3D",
"Z: 	c #1F293A",
"`: 	c #1F293B",
" < 	c #20293A",
".< 	c #202939",
"+< 	c #212838",
"@< 	c #212938",
"#< 	c #22293A",
"$< 	c #23293A",
"%< 	c #222939",
"&< 	c #222A39",
"*< 	c #232A39",
"=< 	c #222938",
"-< 	c #232838",
";< 	c #232837",
">< 	c #222836",
",< 	c #232937",
"'< 	c #232939",
")< 	c #232839",
"!< 	c #222738",
"~< 	c #212837",
"{< 	c #222736",
"]< 	c #222737",
"^< 	c #212736",
"/< 	c #222837",
"(< 	c #222838",
"_< 	c #222937",
":< 	c #242A3A",
"<< 	c #242B3A",
"[< 	c #242C3A",
"}< 	c #252C3A",
"|< 	c #242C3B",
"1< 	c #232B3A",
"2< 	c #242B3D",
"3< 	c #212633",
"4< 	c #05060F",
"5< 	c #565657",
"6< 	c #0D0D0E",
"7< 	c #101011",
"8< 	c #100F13",
"9< 	c #0F0F12",
"0< 	c #0E0E11",
"a< 	c #0D0E11",
"b< 	c #0B0D10",
"c< 	c #0B0C0F",
"d< 	c #0C0B0F",
"e< 	c #0C0C0F",
"f< 	c #0C0C0E",
"g< 	c #02040A",
"h< 	c #01040C",
"i< 	c #00040D",
"j< 	c #00030D",
"k< 	c #00030C",
"l< 	c #00030B",
"m< 	c #01030D",
"n< 	c #00020C",
"o< 	c #01030A",
"p< 	c #03030B",
"q< 	c #07070A",
"r< 	c #1B1B1B",
"s< 	c #1A1A1D",
"t< 	c #18181B",
"u< 	c #16171A",
"v< 	c #151619",
"w< 	c #161719",
"x< 	c #17181A",
"y< 	c #18181A",
"z< 	c #171719",
"A< 	c #969697",
"B< 	c #98989A",
"C< 	c #555557",
"D< 	c #020005",
"E< 	c #9C9C9E",
"F< 	c #5B5B5D",
"G< 	c #5E5E5F",
"H< 	c #020107",
"I< 	c #020006",
"J< 	c #606061",
"K< 	c #030202",
"L< 	c #020105",
"M< 	c #030104",
"N< 	c #030204",
"O< 	c #626263",
"P< 	c #02040C",
"Q< 	c #03040C",
"R< 	c #02030C",
"S< 	c #03040D",
"T< 	c #03050E",
"U< 	c #02030B",
"V< 	c #02030A",
"W< 	c #030000",
"X< 	c #040000",
"Y< 	c #050000",
"Z< 	c #060000",
"`< 	c #070000",
" [ 	c #090000",
".[ 	c #0A0000",
"+[ 	c #0D0300",
"@[ 	c #100500",
"#[ 	c #120700",
"$[ 	c #140900",
"%[ 	c #160C01",
"&[ 	c #180F02",
"*[ 	c #1A1104",
"=[ 	c #1D1406",
"-[ 	c #1E160B",
";[ 	c #14110D",
">[ 	c #04050D",
",[ 	c #04060F",
"'[ 	c #05060D",
")[ 	c #07070B",
"![ 	c #080503",
"~[ 	c #090300",
"{[ 	c #0B0200",
"][ 	c #080100",
"^[ 	c #0C0400",
"/[ 	c #150B02",
"([ 	c #1B1107",
"_[ 	c #1C130A",
":[ 	c #070302",
"<[ 	c #393D49",
"[[ 	c #464B5A",
"}[ 	c #444A59",
"|[ 	c #434A58",
"1[ 	c #434958",
"2[ 	c #424957",
"3[ 	c #424857",
"4[ 	c #414856",
"5[ 	c #414855",
"6[ 	c #404755",
"7[ 	c #404655",
"8[ 	c #494744",
"9[ 	c #A79877",
"0[ 	c #BAA473",
"a[ 	c #BAA26C",
"b[ 	c #BCA36C",
"c[ 	c #BBA36F",
"d[ 	c #B2A27B",
"e[ 	c #5D584C",
"f[ 	c #3F424B",
"g[ 	c #3D434D",
"h[ 	c #3E444E",
"i[ 	c #414447",
"j[ 	c #7F7561",
"k[ 	c #BFAB7F",
"l[ 	c #C1A874",
"m[ 	c #BFA874",
"n[ 	c #BEA773",
"o[ 	c #BEA774",
"p[ 	c #BDA672",
"q[ 	c #BEA772",
"r[ 	c #BFA875",
"s[ 	c #BFA775",
"t[ 	c #BEA673",
"u[ 	c #BEA674",
"v[ 	c #BEA675",
"w[ 	c #C0A976",
"x[ 	c #C1AA77",
"y[ 	c #C1AA76",
"z[ 	c #C2AB77",
"A[ 	c #C3AC78",
"B[ 	c #C4AD78",
"C[ 	c #C5AE79",
"D[ 	c #C5AE7A",
"E[ 	c #C6AF7B",
"F[ 	c #C6B07A",
"G[ 	c #C7B17A",
"H[ 	c #C8B27B",
"I[ 	c #C9B37C",
"J[ 	c #CAB37D",
"K[ 	c #CBB47E",
"L[ 	c #CCB67F",
"M[ 	c #CDB780",
"N[ 	c #CEB881",
"O[ 	c #CFB981",
"P[ 	c #D0BA81",
"Q[ 	c #D0BC85",
"R[ 	c #D0BF91",
"S[ 	c #98927A",
"T[ 	c #464B51",
"U[ 	c #424952",
"V[ 	c #494B4D",
"W[ 	c #998F77",
"X[ 	c #C7B489",
"Y[ 	c #C9B482",
"Z[ 	c #C8B37F",
"`[ 	c #C7B27E",
" } 	c #C6B27E",
".} 	c #C6B27D",
"+} 	c #C5B17D",
"@} 	c #C5B07D",
"#} 	c #C4AF7B",
"$} 	c #C3AF7B",
"%} 	c #C3AE7C",
"&} 	c #C3AF7D",
"*} 	c #C3AF7E",
"=} 	c #C4AF7E",
"-} 	c #C3AF7C",
";} 	c #C3B07D",
">} 	c #C2AF7E",
",} 	c #C2AE7D",
"'} 	c #C1AD7C",
")} 	c #C1AC7B",
"!} 	c #BFAB7A",
"~} 	c #BEAA7A",
"{} 	c #BEA979",
"]} 	c #BEA97A",
"^} 	c #BDA97A",
"/} 	c #BCA879",
"(} 	c #BCA87A",
"_} 	c #BDA979",
":} 	c #BCA979",
"<} 	c #BCA779",
"[} 	c #BBA779",
"}} 	c #BBA778",
"|} 	c #BAA677",
"1} 	c #BCA878",
"2} 	c #BCA777",
"3} 	c #BBA777",
"4} 	c #BAA676",
"5} 	c #B9A676",
"6} 	c #B9A575",
"7} 	c #B7A475",
"8} 	c #B7A375",
"9} 	c #B8A577",
"0} 	c #B9A577",
"a} 	c #BAA577",
"b} 	c #BCA877",
"c} 	c #BFAC7B",
"d} 	c #C1AC7A",
"e} 	c #CCB581",
"f} 	c #CEB886",
"g} 	c #C1AF88",
"h} 	c #3E3528",
"i} 	c #414657",
"j} 	c #4F566B",
"k} 	c #4B5460",
"l} 	c #5C5A4E",
"m} 	c #D9C18B",
"n} 	c #F7D585",
"o} 	c #F8D57E",
"p} 	c #E9CF90",
"q} 	c #786E5C",
"r} 	c #4E545E",
"s} 	c #4A5563",
"t} 	c #4B5462",
"u} 	c #4D5256",
"v} 	c #9F9070",
"w} 	c #F5D690",
"x} 	c #FAD37E",
"y} 	c #FAD47F",
"z} 	c #F9D581",
"A} 	c #F9D580",
"B} 	c #FAD681",
"C} 	c #FAD682",
"D} 	c #FBD683",
"E} 	c #FAD582",
"F} 	c #FAD683",
"G} 	c #FAD584",
"H} 	c #FAD583",
"I} 	c #F9D681",
"J} 	c #FAD781",
"K} 	c #FAD782",
"L} 	c #FAD784",
"M} 	c #FAD884",
"N} 	c #FBD983",
"O} 	c #F9DA86",
"P} 	c #F3DA94",
"Q} 	c #ABA17C",
"R} 	c #4D545C",
"S} 	c #495264",
"T} 	c #485262",
"U} 	c #475260",
"V} 	c #505355",
"W} 	c #B6A780",
"X} 	c #F5D892",
"Y} 	c #FAD687",
"Z} 	c #FAD885",
"`} 	c #F9D985",
" | 	c #F9D886",
".| 	c #F9D887",
"+| 	c #F8D887",
"@| 	c #F8D888",
"#| 	c #F9D888",
"$| 	c #F9D889",
"%| 	c #F8D988",
"&| 	c #F7D888",
"*| 	c #F8D889",
"=| 	c #F9D88A",
"-| 	c #F9D88B",
";| 	c #F9D88C",
">| 	c #F9D98C",
",| 	c #F9D98B",
"'| 	c #F9D98D",
")| 	c #FAD98B",
"!| 	c #FAD88B",
"~| 	c #F9D78C",
"{| 	c #F9D78A",
"]| 	c #F9D789",
"^| 	c #F8D789",
"/| 	c #F7D78B",
"(| 	c #F7D78A",
"_| 	c #F8D88A",
":| 	c #FAD889",
"<| 	c #F9D787",
"[| 	c #F9D885",
"}| 	c #F9D884",
"|| 	c #F8D686",
"1| 	c #E6CB8B",
"2| 	c #4A3E27",
"3| 	c #02020B",
"4| 	c #404656",
"5| 	c #4E5669",
"6| 	c #605C4D",
"7| 	c #DEC384",
"8| 	c #FDD371",
"9| 	c #FFD471",
"0| 	c #EBCF89",
"a| 	c #7A705A",
"b| 	c #4D535E",
"c| 	c #495465",
"d| 	c #495463",
"e| 	c #4E5257",
"f| 	c #A08F6B",
"g| 	c #FED373",
"h| 	c #FDD273",
"i| 	c #FCD274",
"j| 	c #FDD375",
"k| 	c #FED376",
"l| 	c #FDD476",
"m| 	c #FDD576",
"n| 	c #FDD577",
"o| 	c #FDD477",
"p| 	c #FCD579",
"q| 	c #FDD47A",
"r| 	c #FDD478",
"s| 	c #FED579",
"t| 	c #FED87B",
"u| 	c #FCD97F",
"v| 	c #F6DA8F",
"w| 	c #ACA179",
"x| 	c #4C535B",
"y| 	c #485265",
"z| 	c #475364",
"A| 	c #485462",
"B| 	c #4F5354",
"C| 	c #BBAA7D",
"D| 	c #F8D788",
"E| 	c #FED77D",
"F| 	c #FDD87C",
"G| 	c #FCD77B",
"H| 	c #FCD77C",
"I| 	c #FCD67C",
"J| 	c #FCD67D",
"K| 	c #FCD67E",
"L| 	c #FCD67F",
"M| 	c #FDD77E",
"N| 	c #FBD77E",
"O| 	c #FBD77F",
"P| 	c #FCD880",
"Q| 	c #FDD881",
"R| 	c #FDD781",
"S| 	c #FDD67F",
"T| 	c #FBD67F",
"U| 	c #FBD67E",
"V| 	c #FDD67D",
"W| 	c #FDD779",
"X| 	c #E9CB83",
"Y| 	c #4C3E26",
"Z| 	c #3F4553",
"`| 	c #4C5460",
" 1 	c #615C4C",
".1 	c #DEC381",
"+1 	c #FBD476",
"@1 	c #FED46D",
"#1 	c #ECCF89",
"$1 	c #7C7159",
"%1 	c #4E525C",
"&1 	c #485364",
"*1 	c #495462",
"=1 	c #4D5255",
"-1 	c #A2916B",
";1 	c #F8D585",
">1 	c #FBD372",
",1 	c #FED374",
"'1 	c #FED375",
")1 	c #FDD374",
"!1 	c #FCD576",
"~1 	c #FCD577",
"{1 	c #FCD578",
"]1 	c #FDD579",
"^1 	c #FED478",
"/1 	c #FCD476",
"(1 	c #FDD677",
"_1 	c #FED678",
":1 	c #FED578",
"<1 	c #FCD87B",
"[1 	c #FFD87C",
"}1 	c #FEDA80",
"|1 	c #F8DC8F",
"11 	c #ACA17A",
"21 	c #485463",
"31 	c #4F5455",
"41 	c #BDAC7F",
"51 	c #FDD67E",
"61 	c #FDD57E",
"71 	c #FCD77D",
"81 	c #FDD87F",
"91 	c #FED87F",
"01 	c #FCD87F",
"a1 	c #FED67F",
"b1 	c #FED67E",
"c1 	c #FCD67B",
"d1 	c #FED778",
"e1 	c #FDD87B",
"f1 	c #E9CA82",
"g1 	c #4B3D25",
"h1 	c #9E9E9F",
"i1 	c #4D5567",
"j1 	c #4B5568",
"k1 	c #495468",
"l1 	c #4B5466",
"m1 	c #495560",
"n1 	c #615D4E",
"o1 	c #DEC485",
"p1 	c #FCD472",
"q1 	c #FCD571",
"r1 	c #FAD476",
"s1 	c #EDD18B",
"t1 	c #7C725A",
"u1 	c #4E535D",
"v1 	c #4A5465",
"w1 	c #495563",
"x1 	c #4C5256",
"y1 	c #A2946D",
"z1 	c #F6D688",
"A1 	c #FAD477",
"B1 	c #FBD376",
"C1 	c #FCD378",
"D1 	c #FBD478",
"E1 	c #FBD379",
"F1 	c #FAD37A",
"G1 	c #FBD47C",
"H1 	c #FCD47A",
"I1 	c #FBD87C",
"J1 	c #FCD87D",
"K1 	c #FDD97D",
"L1 	c #F8DC92",
"M1 	c #ACA17C",
"N1 	c #4E5255",
"O1 	c #BDAD82",
"P1 	c #F6D98B",
"Q1 	c #FAD67F",
"R1 	c #FAD680",
"S1 	c #FAD580",
"T1 	c #FAD882",
"U1 	c #FAD783",
"V1 	c #FBD883",
"W1 	c #FBD784",
"X1 	c #FBD884",
"Y1 	c #F9D783",
"Z1 	c #FBD783",
"`1 	c #FBD682",
" 2 	c #FBD681",
".2 	c #FBD581",
"+2 	c #FCD680",
"@2 	c #E8C987",
"#2 	c #4A3C26",
"$2 	c #9B9C9E",
"%2 	c #4E5667",
"&2 	c #485368",
"*2 	c #4A5463",
"=2 	c #615F58",
"-2 	c #D6C392",
";2 	c #EFD185",
">2 	c #F0D284",
",2 	c #EED388",
"'2 	c #E1CD97",
")2 	c #777260",
"!2 	c #4D545E",
"~2 	c #4B5259",
"{2 	c #9C9376",
"]2 	c #EAD399",
"^2 	c #EDCF8A",
"/2 	c #EED08A",
"(2 	c #EDD08C",
"_2 	c #EDD18C",
":2 	c #ECD08B",
"<2 	c #ECD08C",
"[2 	c #EBD08D",
"}2 	c #ECD08E",
"|2 	c #EBD08F",
"12 	c #EBD08E",
"22 	c #ECCF8E",
"32 	c #ECCF8D",
"42 	c #ECCE8B",
"52 	c #EDCF8C",
"62 	c #EED08C",
"72 	c #EED18C",
"82 	c #EFD18D",
"92 	c #EED28B",
"02 	c #EFD18C",
"a2 	c #EFD28C",
"b2 	c #EFD38C",
"c2 	c #F0D38C",
"d2 	c #EFD28B",
"e2 	c #F0D38B",
"f2 	c #F1D48B",
"g2 	c #F2D58C",
"h2 	c #F2D58B",
"i2 	c #F2D68B",
"j2 	c #F2D78C",
"k2 	c #F2D78B",
"l2 	c #F2D88D",
"m2 	c #F0DB9F",
"n2 	c #A69E83",
"o2 	c #495464",
"p2 	c #4D5359",
"q2 	c #B3A988",
"r2 	c #E8D499",
"s2 	c #EBD290",
"t2 	c #ECD290",
"u2 	c #EBD18F",
"v2 	c #ECD191",
"w2 	c #ECD192",
"x2 	c #EBD193",
"y2 	c #EBD192",
"z2 	c #E9D192",
"A2 	c #E9D193",
"B2 	c #E9D092",
"C2 	c #E9D093",
"D2 	c #E9D094",
"E2 	c #E8D193",
"F2 	c #EAD193",
"G2 	c #EAD294",
"H2 	c #E9D195",
"I2 	c #E8D195",
"J2 	c #EAD094",
"K2 	c #EAD194",
"L2 	c #E8D192",
"M2 	c #EBD094",
"N2 	c #EAD092",
"O2 	c #EAD091",
"P2 	c #EBD092",
"Q2 	c #EBD190",
"R2 	c #EBD090",
"S2 	c #ECD28F",
"T2 	c #DAC392",
"U2 	c #443A2A",
"V2 	c #9A9B9C",
"W2 	c #3C4150",
"X2 	c #4B5265",
"Y2 	c #495366",
"Z2 	c #485266",
"`2 	c #475264",
" 3 	c #475265",
".3 	c #485367",
"+3 	c #757162",
"@3 	c #80775D",
"#3 	c #84795B",
"$3 	c #867B5C",
"%3 	c #827A5C",
"&3 	c #797461",
"*3 	c #54575B",
"=3 	c #4A5464",
"-3 	c #4A5561",
";3 	c #60625F",
">3 	c #7B7560",
",3 	c #7B7258",
"'3 	c #7A7157",
")3 	c #797058",
"!3 	c #796F58",
"~3 	c #776F56",
"{3 	c #766F55",
"]3 	c #756E56",
"^3 	c #746D56",
"/3 	c #746D57",
"(3 	c #736C56",
"_3 	c #726B56",
":3 	c #726B55",
"<3 	c #726A55",
"[3 	c #726954",
"}3 	c #736A53",
"|3 	c #736A52",
"13 	c #736B52",
"23 	c #756C53",
"33 	c #766D54",
"43 	c #776F55",
"53 	c #797056",
"63 	c #797156",
"73 	c #7A7257",
"83 	c #7B7257",
"93 	c #7C7358",
"03 	c #7D7459",
"a3 	c #7E7559",
"b3 	c #81765B",
"c3 	c #81775C",
"d3 	c #82785C",
"e3 	c #84795C",
"f3 	c #847A5C",
"g3 	c #857B5C",
"h3 	c #877C5D",
"i3 	c #877D5E",
"j3 	c #877E5D",
"k3 	c #887E5E",
"l3 	c #897F5E",
"m3 	c #897F5F",
"n3 	c #878169",
"o3 	c #656663",
"p3 	c #4B5363",
"q3 	c #495365",
"r3 	c #495360",
"s3 	c #63645E",
"t3 	c #736E59",
"u3 	c #726C54",
"v3 	c #716A53",
"w3 	c #706953",
"x3 	c #716953",
"y3 	c #716954",
"z3 	c #706955",
"A3 	c #706954",
"B3 	c #706854",
"C3 	c #6F6854",
"D3 	c #6D6753",
"E3 	c #6D6752",
"F3 	c #6C6652",
"G3 	c #6B6552",
"H3 	c #6A6451",
"I3 	c #696450",
"J3 	c #686350",
"K3 	c #686251",
"L3 	c #696351",
"M3 	c #6A6452",
"N3 	c #6B6652",
"O3 	c #6B6653",
"P3 	c #6A6552",
"Q3 	c #6A6453",
"R3 	c #696452",
"S3 	c #686452",
"T3 	c #686352",
"U3 	c #68634F",
"V3 	c #696350",
"W3 	c #696451",
"X3 	c #6B6451",
"Y3 	c #6B6450",
"Z3 	c #6B6452",
"`3 	c #6B6551",
" 4 	c #6B644F",
".4 	c #6C6550",
"+4 	c #6C654E",
"@4 	c #6D664F",
"#4 	c #6C654F",
"$4 	c #706851",
"%4 	c #6D6656",
"&4 	c #221E1A",
"*4 	c #121314",
"=4 	c #98999B",
"-4 	c #656567",
";4 	c #02020A",
">4 	c #1F2534",
",4 	c #252C3F",
"'4 	c #232D42",
")4 	c #232E43",
"!4 	c #253044",
"~4 	c #263145",
"{4 	c #374255",
"]4 	c #495461",
"^4 	c #4A5460",
"/4 	c #4B545F",
"(4 	c #4A545E",
"_4 	c #495460",
":4 	c #4A5462",
"<4 	c #4B5464",
"[4 	c #485565",
"}4 	c #4B5664",
"|4 	c #4D5661",
"14 	c #4D5562",
"24 	c #4B555F",
"34 	c #4B5560",
"44 	c #4B5561",
"54 	c #4B5562",
"64 	c #4B5663",
"74 	c #4B5662",
"84 	c #4D5561",
"94 	c #4D5560",
"04 	c #4C555F",
"a4 	c #4D5660",
"b4 	c #4E5561",
"c4 	c #4E565F",
"d4 	c #4E555F",
"e4 	c #4E555E",
"f4 	c #4D555E",
"g4 	c #4D545D",
"h4 	c #4B545E",
"i4 	c #4A545F",
"j4 	c #49545F",
"k4 	c #4C5461",
"l4 	c #4A5461",
"m4 	c #4A5560",
"n4 	c #4A5562",
"o4 	c #4C545F",
"p4 	c #4D5460",
"q4 	c #4D5360",
"r4 	c #4D5361",
"s4 	c #4D535F",
"t4 	c #4C535F",
"u4 	c #4C535E",
"v4 	c #4D545F",
"w4 	c #4F5460",
"x4 	c #50535F",
"y4 	c #18181F",
"z4 	c #969799",
"A4 	c #656566",
"B4 	c #21293D",
"C4 	c #1F2A3F",
"D4 	c #1F2A41",
"E4 	c #202B40",
"F4 	c #485264",
"G4 	c #485568",
"H4 	c #485566",
"I4 	c #4B5666",
"J4 	c #4A5665",
"K4 	c #4A5565",
"L4 	c #4A5564",
"M4 	c #465265",
"N4 	c #465565",
"O4 	c #475565",
"P4 	c #4A5265",
"Q4 	c #4A5364",
"R4 	c #4A5365",
"S4 	c #495163",
"T4 	c #495164",
"U4 	c #4C5565",
"V4 	c #4C5361",
"W4 	c #171921",
"X4 	c #959698",
"Y4 	c #636365",
"Z4 	c #1B2232",
"`4 	c #222A3E",
" 5 	c #1F2B42",
".5 	c #364054",
"+5 	c #475469",
"@5 	c #475666",
"#5 	c #4A556A",
"$5 	c #485569",
"%5 	c #4B5566",
"&5 	c #4B5365",
"*5 	c #465264",
"=5 	c #465263",
"-5 	c #495265",
";5 	c #4A5264",
">5 	c #4C5567",
",5 	c #161920",
"'5 	c #111213",
")5 	c #929395",
"!5 	c #1B2132",
"~5 	c #212A3F",
"{5 	c #212B41",
"]5 	c #202A43",
"^5 	c #364155",
"/5 	c #475266",
"(5 	c #465569",
"_5 	c #455469",
":5 	c #475468",
"<5 	c #4A5367",
"[5 	c #465266",
"}5 	c #465064",
"|5 	c #455264",
"15 	c #465063",
"25 	c #475263",
"35 	c #4A5164",
"45 	c #455364",
"55 	c #485164",
"65 	c #445164",
"75 	c #435062",
"85 	c #445163",
"95 	c #454F63",
"05 	c #464F63",
"a5 	c #474F63",
"b5 	c #455062",
"c5 	c #465062",
"d5 	c #475163",
"e5 	c #485064",
"f5 	c #484E5F",
"g5 	c #141620",
"h5 	c #101012",
"i5 	c #8E8F91",
"j5 	c #646465",
"k5 	c #232A43",
"l5 	c #222944",
"m5 	c #212A43",
"n5 	c #202A45",
"o5 	c #2D384D",
"p5 	c #2C374C",
"q5 	c #2B374C",
"r5 	c #2D394D",
"s5 	c #2D394C",
"t5 	c #2B394F",
"u5 	c #2B394D",
"v5 	c #2E384C",
"w5 	c #2D374D",
"x5 	c #2B374B",
"y5 	c #2C364C",
"z5 	c #2B3649",
"A5 	c #293648",
"B5 	c #28344A",
"C5 	c #273149",
"D5 	c #253146",
"E5 	c #243145",
"F5 	c #263246",
"G5 	c #283346",
"H5 	c #283445",
"I5 	c #293446",
"J5 	c #2A3447",
"K5 	c #293448",
"L5 	c #2C374B",
"M5 	c #29354B",
"N5 	c #28334A",
"O5 	c #253248",
"P5 	c #243148",
"Q5 	c #253249",
"R5 	c #253348",
"S5 	c #263148",
"T5 	c #0F0F11",
"U5 	c #8A8B8D",
"V5 	c #646464",
"W5 	c #222A42",
"X5 	c #222943",
"Y5 	c #212943",
"Z5 	c #202B44",
"`5 	c #202C44",
" 6 	c #233148",
".6 	c #233046",
"+6 	c #242E44",
"@6 	c #222A3B",
"#6 	c #040811",
"$6 	c #0F0F0F",
"%6 	c #888889",
"&6 	c #656565",
"*6 	c #232B41",
"=6 	c #232B42",
"-6 	c #212B42",
";6 	c #232D45",
">6 	c #263049",
",6 	c #252D47",
"'6 	c #232B3D",
")6 	c #050813",
"!6 	c #868686",
"~6 	c #1A202E",
"{6 	c #232B3F",
"]6 	c #212B43",
"^6 	c #223047",
"/6 	c #262E48",
"(6 	c #252D48",
"_6 	c #262D48",
":6 	c #262D45",
"<6 	c #232A3C",
"[6 	c #050912",
"}6 	c #0E0E0E",
"|6 	c #1A1E2A",
"16 	c #242A3D",
"26 	c #252B3F",
"36 	c #252C40",
"46 	c #252C41",
"56 	c #242B41",
"66 	c #242C42",
"76 	c #242C43",
"86 	c #242D43",
"96 	c #273046",
"06 	c #262F47",
"a6 	c #263043",
"b6 	c #263042",
"c6 	c #253042",
"d6 	c #253043",
"e6 	c #252F42",
"f6 	c #262E41",
"g6 	c #252E40",
"h6 	c #242D3F",
"i6 	c #252D40",
"j6 	c #252D3F",
"k6 	c #252D41",
"l6 	c #262E40",
"m6 	c #272E41",
"n6 	c #272F42",
"o6 	c #283042",
"p6 	c #293044",
"q6 	c #293145",
"r6 	c #293146",
"s6 	c #283145",
"t6 	c #273045",
"u6 	c #273044",
"v6 	c #263044",
"w6 	c #263144",
"x6 	c #282F44",
"y6 	c #273043",
"z6 	c #262F43",
"A6 	c #272E43",
"B6 	c #282E44",
"C6 	c #282D43",
"D6 	c #282D44",
"E6 	c #282D42",
"F6 	c #262B3A",
"G6 	c #070912",
"H6 	c #0C0C0C",
"I6 	c #0A0A0C",
"J6 	c #0B0B0D",
"K6 	c #0D0D10",
"L6 	c #12151C",
"M6 	c #181C27",
"N6 	c #171C28",
"O6 	c #181C29",
"P6 	c #181C2A",
"Q6 	c #181B29",
"R6 	c #191D2B",
"S6 	c #191E2B",
"T6 	c #181D2B",
"U6 	c #181D2C",
"V6 	c #171C2A",
"W6 	c #171C29",
"X6 	c #171B29",
"Y6 	c #161B29",
"Z6 	c #161B28",
"`6 	c #151A27",
" 7 	c #141927",
".7 	c #141926",
"+7 	c #131825",
"@7 	c #131823",
"#7 	c #121822",
"$7 	c #111722",
"%7 	c #111622",
"&7 	c #101621",
"*7 	c #101521",
"=7 	c #101420",
"-7 	c #0F151F",
";7 	c #0F141F",
">7 	c #0E131E",
",7 	c #0D131D",
"'7 	c #0C111B",
")7 	c #0D111C",
"!7 	c #0C101B",
"~7 	c #0C101C",
"{7 	c #0D101C",
"]7 	c #0C101D",
"^7 	c #0D111D",
"/7 	c #0D121D",
"(7 	c #0E111E",
"_7 	c #0E121E",
":7 	c #0E121F",
"<7 	c #0F131F",
"[7 	c #0F1320",
"}7 	c #111521",
"|7 	c #121623",
"17 	c #131724",
"27 	c #131824",
"37 	c #121824",
"47 	c #121724",
"57 	c #111723",
"67 	c #111623",
"77 	c #101622",
"87 	c #111522",
"97 	c #101723",
"07 	c #111724",
"a7 	c #141925",
"b7 	c #141924",
"c7 	c #151925",
"d7 	c #151A26",
"e7 	c #161B27",
"f7 	c #161926",
"g7 	c #161A26",
"h7 	c #171A26",
"i7 	c #171A27",
"j7 	c #181B27",
"k7 	c #171A23",
"l7 	c #03040A",
"m7 	c #717171",
"n7 	c #202024",
"o7 	c #47484A",
"p7 	c #949597",
"q7 	c #9D9EA0",
"r7 	c #A1A2A3",
"s7 	c #9E9FA0",
"t7 	c #909090",
"u7 	c #2B2B2E",
"v7 	c #010302",
"w7 	c #68696A",
"x7 	c #010303",
"y7 	c #010007",
"z7 	c #020007",
"A7 	c #030106",
"B7 	c #000008",
"C7 	c #020109",
"D7 	c #636363",
"E7 	c #535454",
"F7 	c #5D5E60",
"G7 	c #636466",
"H7 	c #666769",
"I7 	c #67686A",
"J7 	c #69696B",
"K7 	c #696A6C",
"L7 	c #6C6D6F",
"M7 	c #717074",
"N7 	c #040610",
"O7 	c #131727",
"P7 	c #15192A",
"Q7 	c #131725",
"R7 	c #0C0D1A",
"S7 	c #161B2A",
"T7 	c #151B2A",
"U7 	c #141B28",
"V7 	c #141A29",
"W7 	c #151B29",
"X7 	c #161A29",
"Y7 	c #151927",
"Z7 	c #141826",
"`7 	c #141725",
" 8 	c #131723",
".8 	c #131726",
"+8 	c #141827",
"@8 	c #151826",
"#8 	c #161825",
"$8 	c #141825",
"%8 	c #131926",
"&8 	c #131927",
"*8 	c #131827",
"=8 	c #131826",
"-8 	c #121826",
";8 	c #121825",
">8 	c #131925",
",8 	c #141A27",
"'8 	c #151B27",
")8 	c #151A28",
"!8 	c #161A28",
"~8 	c #151B28",
"{8 	c #151827",
"]8 	c #070712",
"^8 	c #121522",
"/8 	c #16192A",
"(8 	c #171B2C",
"_8 	c #171A2C",
":8 	c #171A29",
"<8 	c #080813",
"[8 	c #4A494D",
"}8 	c #5E5D62",
"|8 	c #5B5A5F",
"18 	c #5C5B5F",
"28 	c #5B5A5E",
"38 	c #5A595E",
"48 	c #59585D",
"58 	c #59585C",
"68 	c #B0B1B3",
"78 	c #070A16",
"88 	c #1F2639",
"98 	c #1F283D",
"08 	c #1E293A",
"a8 	c #1D283A",
"b8 	c #1D273A",
"c8 	c #1E273A",
"d8 	c #1E283A",
"e8 	c #1E283B",
"f8 	c #1F2739",
"g8 	c #1F2638",
"h8 	c #1D2737",
"i8 	c #1D2637",
"j8 	c #1E2737",
"k8 	c #1F2637",
"l8 	c #202637",
"m8 	c #1F2738",
"n8 	c #202739",
"o8 	c #212839",
"p8 	c #212739",
"q8 	c #202838",
"r8 	c #1F283A",
"s8 	c #1E2839",
"t8 	c #1F2939",
"u8 	c #21283A",
"v8 	c #22273A",
"w8 	c #0D0F1C",
"x8 	c #1C2031",
"y8 	c #21263B",
"z8 	c #20273C",
"A8 	c #20273A",
"B8 	c #202738",
"C8 	c #0C0F19",
"D8 	c #717173",
"E8 	c #B6B8B9",
"F8 	c #07080B",
"G8 	c #1D283E",
"H8 	c #1E283D",
"I8 	c #141928",
"J8 	c #20293D",
"K8 	c #1E293D",
"L8 	c #1D283C",
"M8 	c #1E273B",
"N8 	c #1E263A",
"O8 	c #1D263A",
"P8 	c #1D2538",
"Q8 	c #1D2639",
"R8 	c #1F273C",
"S8 	c #1F283C",
"T8 	c #1E283C",
"U8 	c #1E273C",
"V8 	c #0C0E1B",
"W8 	c #20263A",
"X8 	c #202537",
"Y8 	c #454446",
"Z8 	c #B7B9B8",
"`8 	c #060916",
" 9 	c #202A3E",
".9 	c #1E293E",
"+9 	c #1C273B",
"@9 	c #1D263B",
"#9 	c #1E263B",
"$9 	c #20283D",
"%9 	c #21283E",
"&9 	c #20283E",
"*9 	c #1F293C",
"=9 	c #0C0E1A",
"-9 	c #1B1E2F",
";9 	c #21283B",
">9 	c #21283C",
",9 	c #222638",
"'9 	c #0E0F19",
")9 	c #B6B7B8",
"!9 	c #07060A",
"~9 	c #050915",
"{9 	c #1E2538",
"]9 	c #1D273D",
"^9 	c #131A29",
"/9 	c #030105",
"(9 	c #1B2231",
"_9 	c #1E293F",
":9 	c #1E293B",
"<9 	c #20273D",
"[9 	c #1E293C",
"}9 	c #1D293C",
"|9 	c #1F273D",
"19 	c #0B0F19",
"29 	c #1B1E30",
"39 	c #20263B",
"49 	c #232638",
"59 	c #2D2F2E",
"69 	c #B4B6B5",
"79 	c #1D263F",
"89 	c #1C2740",
"99 	c #1D273E",
"09 	c #131B28",
"a9 	c #222A3D",
"b9 	c #212A3E",
"c9 	c #20293B",
"d9 	c #21293B",
"e9 	c #1F283B",
"f9 	c #212738",
"g9 	c #1A1E2D",
"h9 	c #21263A",
"i9 	c #0D0F1B",
"j9 	c #313233",
"k9 	c #B3B5B4",
"l9 	c #060816",
"m9 	c #1E243A",
"n9 	c #1F273F",
"o9 	c #1D2740",
"p9 	c #141C29",
"q9 	c #161925",
"r9 	c #181E2B",
"s9 	c #171D2A",
"t9 	c #181C2B",
"u9 	c #171E2B",
"v9 	c #191E2C",
"w9 	c #1A1E2C",
"x9 	c #1A1F2C",
"y9 	c #1A1F2D",
"z9 	c #1A202D",
"A9 	c #1B212E",
"B9 	c #1B1E2D",
"C9 	c #191E2D",
"D9 	c #191D2C",
"E9 	c #1A1D2C",
"F9 	c #1A202F",
"G9 	c #1B212F",
"H9 	c #1C222F",
"I9 	c #1D222E",
"J9 	c #191C2C",
"K9 	c #212638",
"L9 	c #373738",
"M9 	c #B3B4B4",
"N9 	c #050816",
"O9 	c #1E2439",
"P9 	c #1F2740",
"Q9 	c #141B2A",
"R9 	c #00030A",
"S9 	c #000309",
"T9 	c #000308",
"U9 	c #01040B",
"V9 	c #010309",
"W9 	c #020408",
"X9 	c #3C3C3E",
"Y9 	c #1E263D",
"Z9 	c #030107",
"`9 	c #212639",
" 0 	c #0E0F1C",
".0 	c #060708",
"+0 	c #1F2641",
"@0 	c #1F2640",
"#0 	c #0E101C",
"$0 	c #060709",
"%0 	c #1E243B",
"&0 	c #020302",
"*0 	c #000301",
"=0 	c #191C2B",
"-0 	c #1F263E",
";0 	c #020402",
">0 	c #020309",
",0 	c #21283D",
"'0 	c #0E111D",
")0 	c #525254",
"!0 	c #050716",
"~0 	c #202741",
"{0 	c #20273F",
"]0 	c #20263E",
"^0 	c #050102",
"/0 	c #060102",
"(0 	c #060101",
"_0 	c #070002",
":0 	c #070101",
"<0 	c #050101",
"[0 	c #030201",
"}0 	c #040001",
"|0 	c #060001",
"10 	c #040202",
"20 	c #020200",
"30 	c #050100",
"40 	c #060100",
"50 	c #171D2C",
"60 	c #22283E",
"70 	c #0F111E",
"80 	c #565658",
"90 	c #B5B7B6",
"00 	c #040815",
"a0 	c #21273E",
"b0 	c #1C2132",
"c0 	c #0B101C",
"d0 	c #0D111B",
"e0 	c #0D131E",
"f0 	c #0E121B",
"g0 	c #3C2F22",
"h0 	c #6E563B",
"i0 	c #6F5436",
"j0 	c #705336",
"k0 	c #6E5236",
"l0 	c #6B5134",
"m0 	c #695033",
"n0 	c #664E31",
"o0 	c #644C30",
"p0 	c #614A2F",
"q0 	c #5D472C",
"r0 	c #5A442A",
"s0 	c #594228",
"t0 	c #574127",
"u0 	c #56422A",
"v0 	c #554733",
"w0 	c #57503F",
"x0 	c #534E3F",
"y0 	c #524D3E",
"z0 	c #514D40",
"A0 	c #524D40",
"B0 	c #524E40",
"C0 	c #554D3F",
"D0 	c #584C3A",
"E0 	c #57462E",
"F0 	c #5B462C",
"G0 	c #5C462B",
"H0 	c #5B442A",
"I0 	c #5A4428",
"J0 	c #5A452A",
"K0 	c #5B472D",
"L0 	c #5A4C36",
"M0 	c #5F5846",
"N0 	c #605B4C",
"O0 	c #5E5A4C",
"P0 	c #5F5B4C",
"Q0 	c #5F5B4B",
"R0 	c #655D4B",
"S0 	c #62553E",
"T0 	c #614E33",
"U0 	c #624C30",
"V0 	c #614B30",
"W0 	c #604B2E",
"X0 	c #5F492D",
"Y0 	c #5F492E",
"Z0 	c #5C4B32",
"`0 	c #5A513D",
" a 	c #595548",
".a 	c #575448",
"+a 	c #575447",
"@a 	c #585448",
"#a 	c #5A5549",
"$a 	c #5B574A",
"%a 	c #5D584A",
"&a 	c #5D5240",
"*a 	c #5A482F",
"=a 	c #5B472B",
"-a 	c #594429",
";a 	c #594328",
">a 	c #594229",
",a 	c #59442C",
"'a 	c #5A4D38",
")a 	c #5F5A4A",
"!a 	c #605E4E",
"~a 	c #625E4F",
"{a 	c #635F4F",
"]a 	c #656151",
"^a 	c #716854",
"/a 	c #6B5B42",
"(a 	c #6B5436",
"_a 	c #6C5234",
":a 	c #6A5033",
"<a 	c #684F33",
"[a 	c #655033",
"}a 	c #645137",
"|a 	c #635844",
"1a 	c #625E50",
"2a 	c #625E51",
"3a 	c #615E50",
"4a 	c #625E4E",
"5a 	c #645E4B",
"6a 	c #594A34",
"7a 	c #584129",
"8a 	c #583F26",
"9a 	c #583F24",
"0a 	c #574025",
"aa 	c #564025",
"ba 	c #563F24",
"ca 	c #573F26",
"da 	c #574027",
"ea 	c #574227",
"fa 	c #594428",
"ga 	c #59442D",
"ha 	c #433428",
"ia 	c #060511",
"ja 	c #060815",
"ka 	c #060B14",
"la 	c #060B13",
"ma 	c #060C14",
"na 	c #22273B",
"oa 	c #0F121F",
"pa 	c #B6B8B7",
"qa 	c #1D2539",
"ra 	c #1F273E",
"sa 	c #1E2432",
"ta 	c #816745",
"ua 	c #E7B773",
"va 	c #EDB464",
"wa 	c #EDB364",
"xa 	c #ECB465",
"ya 	c #EBB463",
"za 	c #EAB562",
"Aa 	c #EAB563",
"Ba 	c #E9B565",
"Ca 	c #E7B564",
"Da 	c #E6B563",
"Ea 	c #E6B362",
"Fa 	c #E6B463",
"Ga 	c #E6B564",
"Ha 	c #E2B667",
"Ia 	c #E5C788",
"Ja 	c #F1E3B3",
"Ka 	c #EEE4B8",
"La 	c #EEE4B9",
"Ma 	c #EDE4BB",
"Na 	c #EDE4BA",
"Oa 	c #ECE4B9",
"Pa 	c #EFE3B6",
"Qa 	c #EDD89E",
"Ra 	c #E2BE72",
"Sa 	c #E9BA6A",
"Ta 	c #EAB968",
"Ua 	c #E9B866",
"Va 	c #E8B868",
"Wa 	c #E6B969",
"Xa 	c #E2C17C",
"Ya 	c #F1E1AD",
"Za 	c #F1E7BD",
"`a 	c #EFE7C0",
" b 	c #EFE8BE",
".b 	c #F0E8BD",
"+b 	c #F0E7BD",
"@b 	c #F3E5B5",
"#b 	c #E9CE8E",
"$b 	c #E6BC6C",
"%b 	c #E8BA67",
"&b 	c #E9BA66",
"*b 	c #EAB966",
"=b 	c #E8B967",
"-b 	c #E3BB6E",
";b 	c #EAD298",
">b 	c #F0E5BD",
",b 	c #EEE5C2",
"'b 	c #EEE6C3",
")b 	c #EFE6C3",
"!b 	c #EFE7C1",
"~b 	c #EDE7C1",
"{b 	c #F1E6BE",
"]b 	c #ECD39E",
"^b 	c #E3B86E",
"/b 	c #E7B666",
"(b 	c #E7B566",
"_b 	c #E7B565",
":b 	c #E5B668",
"<b 	c #E4C687",
"[b 	c #F1E6B5",
"}b 	c #F0E9BF",
"|b 	c #F0E8BF",
"1b 	c #F1E8BF",
"2b 	c #F3E8BF",
"3b 	c #F4E9BC",
"4b 	c #F6E7B3",
"5b 	c #E8C784",
"6b 	c #E8B867",
"7b 	c #ECB664",
"8b 	c #EDB563",
"9b 	c #ECB663",
"0b 	c #EBB664",
"ab 	c #E8B665",
"bb 	c #E4B86E",
"cb 	c #EDD69F",
"db 	c #F3E9BF",
"eb 	c #F1E7C2",
"fb 	c #F0E8C3",
"gb 	c #EFE9C3",
"hb 	c #EFEAC1",
"ib 	c #F0E9BD",
"jb 	c #F2E6B1",
"kb 	c #DFBE7C",
"lb 	c #E2B062",
"mb 	c #E6AF5D",
"nb 	c #E7AF5C",
"ob 	c #E6B05C",
"pb 	c #E5B05C",
"qb 	c #E6B05D",
"rb 	c #E5B05F",
"sb 	c #E6B061",
"tb 	c #E4B25F",
"ub 	c #E2B260",
"vb 	c #DFB46C",
"wb 	c #AD9169",
"xb 	c #1B1F2D",
"yb 	c #23293B",
"zb 	c #212A3C",
"Ab 	c #1F2938",
"Bb 	c #212A3B",
"Cb 	c #20293E",
"Db 	c #21293E",
"Eb 	c #22283C",
"Fb 	c #B7B8B8",
"Gb 	c #1F263F",
"Hb 	c #1F2741",
"Ib 	c #1F293F",
"Jb 	c #1F293E",
"Kb 	c #1F2A3E",
"Lb 	c #1C2535",
"Mb 	c #876A3E",
"Nb 	c #F5BC63",
"Ob 	c #FCB74D",
"Pb 	c #FCB84D",
"Qb 	c #FDB74C",
"Rb 	c #FBB84B",
"Sb 	c #FBB94C",
"Tb 	c #F9B94B",
"Ub 	c #F9B94A",
"Vb 	c #F8B849",
"Wb 	c #F8B84A",
"Xb 	c #F4B950",
"Yb 	c #F2CB75",
"Zb 	c #FDEBA9",
"`b 	c #FAEFB3",
" c 	c #FAEDB4",
".c 	c #FBEEB7",
"+c 	c #FAEFB5",
"@c 	c #F9EEB4",
"#c 	c #FCEDAF",
"$c 	c #FADE90",
"%c 	c #F3C15A",
"&c 	c #FABD50",
"*c 	c #FBBC4F",
"=c 	c #FABC4D",
"-c 	c #F9BC4C",
";c 	c #F9BB4D",
">c 	c #F7BB51",
",c 	c #EFC267",
"'c 	c #FDE8A2",
")c 	c #FCF0B5",
"!c 	c #FBF1BA",
"~c 	c #FBF0BA",
"{c 	c #FBEFB8",
"]c 	c #FEEEAF",
"^c 	c #F3D07D",
"/c 	c #F6BE55",
"(c 	c #FABD4E",
"_c 	c #F9BD4D",
":c 	c #F9BD4E",
"<c 	c #F3BE56",
"[c 	c #F6D889",
"}c 	c #FCEFB6",
"|c 	c #FCF0BE",
"1c 	c #FAF0BF",
"2c 	c #FBF0C0",
"3c 	c #FAF1BE",
"4c 	c #FAF1BD",
"5c 	c #FDEFB7",
"6c 	c #F7D98E",
"7c 	c #F3BC57",
"8c 	c #F8B94D",
"9c 	c #F9B94C",
"0c 	c #F9B94D",
"ac 	c #F8B84B",
"bc 	c #F6BA51",
"cc 	c #F0CA75",
"dc 	c #FEEEAE",
"ec 	c #FCF0BD",
"fc 	c #FCF0BB",
"gc 	c #FCEFB5",
"hc 	c #FEEBA8",
"ic 	c #F1C76F",
"jc 	c #F6BA4E",
"kc 	c #FAB84B",
"lc 	c #FBB84C",
"mc 	c #F7B84D",
"nc 	c #F0BB58",
"oc 	c #F8DE95",
"pc 	c #FEF0B9",
"qc 	c #FDF1BD",
"rc 	c #FCF1BE",
"sc 	c #FBF1BF",
"tc 	c #FBF1BC",
"uc 	c #FCF2B8",
"vc 	c #FEECA7",
"wc 	c #F0C46C",
"xc 	c #F7B64B",
"yc 	c #FAB545",
"zc 	c #FBB544",
"Ac 	c #FAB544",
"Bc 	c #F9B645",
"Cc 	c #FAB546",
"Dc 	c #FBB548",
"Ec 	c #FAB647",
"Fc 	c #F9B747",
"Gc 	c #F7B848",
"Hc 	c #F3BA59",
"Ic 	c #B99560",
"Jc 	c #030203",
"Kc 	c #232B3E",
"Lc 	c #222A41",
"Mc 	c #212A41",
"Nc 	c #222940",
"Oc 	c #212940",
"Pc 	c #10131F",
"Qc 	c #B8BAB9",
"Rc 	c #08080A",
"Sc 	c #1F2439",
"Tc 	c #1F2941",
"Uc 	c #1E2B3E",
"Vc 	c #1D2434",
"Wc 	c #03060E",
"Xc 	c #896A3D",
"Yc 	c #F5BB5F",
"Zc 	c #FDB849",
"`c 	c #FFB847",
" d 	c #FFB747",
".d 	c #FEB748",
"+d 	c #FEB847",
"@d 	c #FEB746",
"#d 	c #FEB846",
"$d 	c #FDB746",
"%d 	c #FCB746",
"&d 	c #FAB746",
"*d 	c #F6B74B",
"=d 	c #F3C971",
"-d 	c #FEEDA7",
";d 	c #FBF0B2",
">d 	c #FBEEB2",
",d 	c #FCEEB3",
"'d 	c #FBF0B3",
")d 	c #FBEFB3",
"!d 	c #FEEFAD",
"~d 	c #FADC8B",
"{d 	c #F5BF54",
"]d 	c #FABB4B",
"^d 	c #FBBC4A",
"/d 	c #FCBC4A",
"(d 	c #FCBA48",
"_d 	c #FDBA47",
":d 	c #FABA4B",
"<d 	c #F0C162",
"[d 	c #FDE89E",
"}d 	c #FDF0B2",
"|d 	c #FBF0B6",
"1d 	c #FBF0B8",
"2d 	c #FBEFB7",
"3d 	c #FCF0B6",
"4d 	c #FFEEAB",
"5d 	c #F2CE78",
"6d 	c #F7BD51",
"7d 	c #FBBC49",
"8d 	c #FCBB48",
"9d 	c #FBBB49",
"0d 	c #FABB4A",
"ad 	c #F4BC51",
"bd 	c #F6D986",
"cd 	c #FCF1B3",
"dd 	c #FCF2BC",
"ed 	c #FBF1BD",
"fd 	c #FBF0BD",
"gd 	c #FBF0BC",
"hd 	c #FBF1BB",
"id 	c #FEF1B5",
"jd 	c #F8D989",
"kd 	c #F4BA50",
"ld 	c #FBB848",
"md 	c #FDB747",
"nd 	c #FCB847",
"od 	c #FAB846",
"pd 	c #F8B84C",
"qd 	c #F2C972",
"rd 	c #FEEDAA",
"sd 	c #FCF0BA",
"td 	c #FCF0B9",
"ud 	c #FDF0BA",
"vd 	c #FDF0B4",
"wd 	c #F1C56B",
"xd 	c #FCB947",
"yd 	c #FBB846",
"zd 	c #FCB747",
"Ad 	c #FCB646",
"Bd 	c #F9B548",
"Cd 	c #F0B754",
"Dd 	c #F9DD91",
"Ed 	c #FEF0B7",
"Fd 	c #FDF1BB",
"Gd 	c #FEF0B5",
"Hd 	c #FEECA5",
"Id 	c #F2C366",
"Jd 	c #FBB646",
"Kd 	c #FDB53F",
"Ld 	c #FCB540",
"Md 	c #FCB541",
"Nd 	c #FCB542",
"Od 	c #FDB543",
"Pd 	c #FDB642",
"Qd 	c #FCB743",
"Rd 	c #F7BA53",
"Sd 	c #BC945C",
"Td 	c #252C3E",
"Ud 	c #242A40",
"Vd 	c #222A40",
"Wd 	c #020008",
"Xd 	c #676869",
"Yd 	c #B9BBBA",
"Zd 	c #08080B",
"`d 	c #050815",
" e 	c #202438",
".e 	c #1E2940",
"+e 	c #202841",
"@e 	c #1F2A40",
"#e 	c #1E2A40",
"$e 	c #F4BB5F",
"%e 	c #FFB845",
"&e 	c #FFB846",
"*e 	c #FEB744",
"=e 	c #FEB745",
"-e 	c #FDB745",
";e 	c #FCB645",
">e 	c #F7B74A",
",e 	c #F4CA71",
"'e 	c #FEEDA8",
")e 	c #FAF0B2",
"!e 	c #FCEFB3",
"~e 	c #FCEEB2",
"{e 	c #FDEEAD",
"]e 	c #FADB8A",
"^e 	c #F5BF53",
"/e 	c #FABC4B",
"(e 	c #FDBB4B",
"_e 	c #FDB94A",
":e 	c #FEB949",
"<e 	c #FDB947",
"[e 	c #F0C163",
"}e 	c #FEE89F",
"|e 	c #FDF0B3",
"1e 	c #FCF0B8",
"2e 	c #FBF1B6",
"3e 	c #FFEFAB",
"4e 	c #F3CE77",
"5e 	c #F7BC4F",
"6e 	c #FCBA4A",
"7e 	c #FDBA49",
"8e 	c #FDBA48",
"9e 	c #FCBB47",
"0e 	c #FBBA49",
"ae 	c #F7D886",
"be 	c #FEF1B3",
"ce 	c #FCF1BC",
"de 	c #FBF1BE",
"ee 	c #FEF0B4",
"fe 	c #F4B94F",
"ge 	c #FBB747",
"he 	c #FEB743",
"ie 	c #FCB744",
"je 	c #F7B74B",
"ke 	c #F1C870",
"le 	c #FFEDAA",
"me 	c #FCEFB7",
"ne 	c #FAF0B9",
"oe 	c #FDEFB9",
"pe 	c #FEEFB9",
"qe 	c #FEF1B6",
"re 	c #F2C46B",
"se 	c #F9B74B",
"te 	c #FCB546",
"ue 	c #FDB545",
"ve 	c #F9B547",
"we 	c #EFB754",
"xe 	c #F9DF95",
"ye 	c #FEF1B9",
"ze 	c #FDF0B5",
"Ae 	c #FEEDA6",
"Be 	c #F1C365",
"Ce 	c #FEB43F",
"De 	c #FDB643",
"Ee 	c #FDB741",
"Fe 	c #F8BA53",
"Ge 	c #BE935B",
"He 	c #080000",
"Ie 	c #232A3F",
"Je 	c #232A41",
"Ke 	c #232B40",
"Le 	c #202B3E",
"Me 	c #222B3C",
"Ne 	c #6B6C6E",
"Oe 	c #BABCBB",
"Pe 	c #08090B",
"Qe 	c #1F2438",
"Re 	c #202840",
"Se 	c #1F2A42",
"Te 	c #1E2435",
"Ue 	c #03060F",
"Ve 	c #896A3E",
"We 	c #F4BB60",
"Xe 	c #FCB94A",
"Ye 	c #FDB847",
"Ze 	c #FEB848",
"`e 	c #F6B74A",
" f 	c #F2CB71",
".f 	c #FEEEA6",
"+f 	c #FBF0B0",
"@f 	c #FBF0B4",
"#f 	c #FBEFB4",
"$f 	c #FADC88",
"%f 	c #FCBB4B",
"&f 	c #FCBA47",
"*f 	c #F9BB4A",
"=f 	c #F0C363",
"-f 	c #FDE99F",
";f 	c #FBF1B8",
">f 	c #FDF1B6",
",f 	c #FFEFAA",
"'f 	c #F2CD74",
")f 	c #FBBB48",
"!f 	c #FABB48",
"~f 	c #F4BC52",
"{f 	c #F7D887",
"]f 	c #FEF1B2",
"^f 	c #FDB647",
"/f 	c #FDB644",
"(f 	c #F7B74C",
"_f 	c #F1C96F",
":f 	c #FFEDA8",
"<f 	c #FFF0B9",
"[f 	c #FEF0B6",
"}f 	c #F9B74C",
"|f 	c #FCB644",
"1f 	c #F9B646",
"2f 	c #F1B853",
"3f 	c #FADE93",
"4f 	c #FEF1B7",
"5f 	c #FCF0BC",
"6f 	c #FCF1BD",
"7f 	c #FDF0BC",
"8f 	c #FDF1B7",
"9f 	c #FEECA6",
"0f 	c #F2C267",
"af 	c #FBB447",
"bf 	c #FDB540",
"cf 	c #FCB543",
"df 	c #FDB541",
"ef 	c #FCB643",
"ff 	c #FCB740",
"gf 	c #FDB842",
"hf 	c #BE955C",
"if 	c #050005",
"jf 	c #1D212F",
"kf 	c #262C3E",
"lf 	c #252B40",
"mf 	c #101320",
"nf 	c #6F7072",
"of 	c #BCBEBD",
"pf 	c #1E2438",
"qf 	c #1D2A3D",
"rf 	c #1F2942",
"sf 	c #896B3D",
"tf 	c #F4BB5E",
"uf 	c #FEB849",
"vf 	c #FEB747",
"wf 	c #FDB748",
"xf 	c #F5B84B",
"yf 	c #F2CB6F",
"zf 	c #FFEDA5",
"Af 	c #FDEEB1",
"Bf 	c #FCEFB4",
"Cf 	c #FFEFAE",
"Df 	c #F9DA8A",
"Ef 	c #F5BD56",
"Ff 	c #FABA4C",
"Gf 	c #FBBA4A",
"Hf 	c #FAB949",
"If 	c #F8BB4B",
"Jf 	c #F0C463",
"Kf 	c #FDEA9F",
"Lf 	c #FCF0B4",
"Mf 	c #FBF0B9",
"Nf 	c #FDF0B7",
"Of 	c #FFEEA7",
"Pf 	c #F1CC73",
"Qf 	c #F6BC50",
"Rf 	c #FAB94A",
"Sf 	c #F3BB52",
"Tf 	c #F6D887",
"Uf 	c #FEF0B1",
"Vf 	c #FCF1BA",
"Wf 	c #FAF1BC",
"Xf 	c #FBF1B9",
"Yf 	c #FEF2B1",
"Zf 	c #F7D987",
"`f 	c #F3B851",
" g 	c #FAB648",
".g 	c #FBB647",
"+g 	c #F6B84A",
"@g 	c #F0C86F",
"#g 	c #FDEFB6",
"$g 	c #FEEFB6",
"%g 	c #FEEAA7",
"&g 	c #F1C36C",
"*g 	c #F8B64C",
"=g 	c #FCB647",
"-g 	c #F9B748",
";g 	c #F1B855",
">g 	c #FADC94",
",g 	c #FCF1BB",
"'g 	c #FEF1BB",
")g 	c #FDF2B7",
"!g 	c #F0C267",
"~g 	c #FDB443",
"{g 	c #FCB443",
"]g 	c #FDB641",
"^g 	c #FDB743",
"/g 	c #BE975C",
"(g 	c #1D202F",
"_g 	c #252B41",
":g 	c #242C40",
"<g 	c #232C40",
"[g 	c #222B41",
"}g 	c #BDBEBE",
"|g 	c #090A0C",
"1g 	c #20293F",
"2g 	c #1C2334",
"3g 	c #8B6B3E",
"4g 	c #F5BA5F",
"5g 	c #FEB74A",
"6g 	c #FFB748",
"7g 	c #F7B94D",
"8g 	c #F5B94E",
"9g 	c #F6BB4F",
"0g 	c #F5BA4F",
"ag 	c #F4BA4F",
"bg 	c #F0B952",
"cg 	c #EFCB73",
"dg 	c #FFEDA6",
"eg 	c #FFEEB0",
"fg 	c #FEEEAC",
"gg 	c #FFEEA9",
"hg 	c #F8DA8A",
"ig 	c #F1BD5A",
"jg 	c #F6BD52",
"kg 	c #F6BD50",
"lg 	c #F5BC50",
"mg 	c #F5BB50",
"ng 	c #F2BB51",
"og 	c #EBC365",
"pg 	c #FDEA9D",
"qg 	c #FEEFAE",
"rg 	c #FDEFB1",
"sg 	c #FEEFB1",
"tg 	c #FFEFB1",
"ug 	c #FFEFAF",
"vg 	c #FFEFA4",
"wg 	c #F0CC73",
"xg 	c #F2BC57",
"yg 	c #F6BC54",
"zg 	c #F5BC52",
"Ag 	c #F4BC50",
"Bg 	c #F4BB51",
"Cg 	c #EDBC57",
"Dg 	c #F6D886",
"Eg 	c #FFF0AE",
"Fg 	c #FFF0AF",
"Gg 	c #EEB955",
"Hg 	c #F4B84F",
"Ig 	c #F6B74E",
"Jg 	c #F4B84C",
"Kg 	c #F4B84D",
"Lg 	c #F0B850",
"Mg 	c #EDC872",
"Ng 	c #FFEBA6",
"Og 	c #FEEEB0",
"Pg 	c #FEEFB5",
"Qg 	c #FEEFB3",
"Rg 	c #FEEFB2",
"Sg 	c #FEEAA4",
"Tg 	c #F5B84F",
"Ug 	c #F6B84D",
"Vg 	c #F5B84E",
"Wg 	c #F1B94E",
"Xg 	c #EBBA59",
"Yg 	c #FADF93",
"Zg 	c #FFF0B2",
"`g 	c #FFF1B6",
" h 	c #FEEBA4",
".h 	c #EEC169",
"+h 	c #F4B64C",
"@h 	c #F8B549",
"#h 	c #F8B647",
"$h 	c #F8B746",
"%h 	c #FCB745",
"&h 	c #FEB543",
"*h 	c #F7B952",
"=h 	c #C0995E",
"-h 	c #2E313E",
";h 	c #43475A",
">h 	c #3E4759",
",h 	c #333B4E",
"'h 	c #202A3F",
")h 	c #212B3F",
"!h 	c #101421",
"~h 	c #BEC0BF",
"{h 	c #040814",
"]h 	c #2C3749",
"^h 	c #394152",
"/h 	c #3B4354",
"(h 	c #3D4557",
"_h 	c #39414E",
":h 	c #04070F",
"<h 	c #000405",
"[h 	c #8F6D41",
"}h 	c #F5BB61",
"|h 	c #FBB84A",
"1h 	c #F6C25F",
"2h 	c #F6D17A",
"3h 	c #F3D27D",
"4h 	c #F4D27E",
"5h 	c #F2D27E",
"6h 	c #F3D787",
"7h 	c #F9E296",
"8h 	c #F9E196",
"9h 	c #FAE197",
"0h 	c #FAE195",
"ah 	c #FAE294",
"bh 	c #FAE293",
"ch 	c #F9E194",
"dh 	c #F7DB8A",
"eh 	c #F3D079",
"fh 	c #F4D177",
"gh 	c #F4D178",
"hh 	c #F4D179",
"ih 	c #F4D27A",
"jh 	c #F5D479",
"kh 	c #F5D47A",
"lh 	c #F3D57E",
"mh 	c #F7E18F",
"nh 	c #F8E295",
"oh 	c #F9E095",
"ph 	c #F8E092",
"qh 	c #F8DF8C",
"rh 	c #F3D47E",
"sh 	c #F4D37C",
"th 	c #F5D37B",
"uh 	c #F6D47C",
"vh 	c #F5D57C",
"wh 	c #F4D57C",
"xh 	c #F7DC88",
"yh 	c #F9E397",
"zh 	c #F9E29A",
"Ah 	c #F9E399",
"Bh 	c #FAE297",
"Ch 	c #FAE299",
"Dh 	c #F9E195",
"Eh 	c #F3D583",
"Fh 	c #F0CA73",
"Gh 	c #F2CA73",
"Hh 	c #F2CA72",
"Ih 	c #F2CC72",
"Jh 	c #F2CC74",
"Kh 	c #F2CD75",
"Lh 	c #F0CD78",
"Mh 	c #F3D786",
"Nh 	c #F9E295",
"Oh 	c #FAE095",
"Ph 	c #F8DC91",
"Qh 	c #F0CA76",
"Rh 	c #F2CA71",
"Sh 	c #F2CB72",
"Th 	c #F0CE74",
"Uh 	c #EFD17B",
"Vh 	c #F8DF91",
"Wh 	c #F9E29B",
"Xh 	c #FAE39C",
"Yh 	c #FBE29B",
"Zh 	c #FAE39B",
"`h 	c #FAE39A",
" i 	c #FADF92",
".i 	c #EFC571",
"+i 	c #F1C266",
"@i 	c #F3C164",
"#i 	c #F3C163",
"$i 	c #F4C463",
"%i 	c #F5C25E",
"&i 	c #F8BB4F",
"*i 	c #FEB742",
"=i 	c #F8B952",
"-i 	c #C39A60",
";i 	c #333542",
">i 	c #474C5E",
",i 	c #464B5E",
"'i 	c #454B5E",
")i 	c #444B5D",
"!i 	c #373F51",
"~i 	c #222B3F",
"{i 	c #252C3D",
"]i 	c #101520",
"^i 	c #757678",
"/i 	c #040914",
"(i 	c #343B4A",
"_i 	c #444650",
":i 	c #464750",
"<i 	c #484951",
"[i 	c #494951",
"}i 	c #414348",
"|i 	c #06070C",
"1i 	c #906F42",
"2i 	c #F5BC60",
"3i 	c #FCB949",
"4i 	c #F9B84D",
"5i 	c #F7CE73",
"6i 	c #FFEBA1",
"7i 	c #FFECA8",
"8i 	c #FFECA6",
"9i 	c #FFEBA5",
"0i 	c #FFEBA4",
"ai 	c #FAE093",
"bi 	c #ECC067",
"ci 	c #F2BF60",
"di 	c #F2BE5F",
"ei 	c #F0BE5E",
"fi 	c #F2BF5D",
"gi 	c #F2BF5E",
"hi 	c #EFBD61",
"ii 	c #F4D17D",
"ji 	c #FFE99A",
"ki 	c #FFEB9F",
"li 	c #FFEAA0",
"mi 	c #FFEAA3",
"ni 	c #FFEBA2",
"oi 	c #FFEB9E",
"pi 	c #FBE08C",
"qi 	c #EBC264",
"ri 	c #EFBE5E",
"si 	c #F1BD5D",
"ti 	c #F0BD5E",
"ui 	c #EEBD60",
"vi 	c #FFEA9D",
"wi 	c #FFEA9F",
"xi 	c #FEEAA0",
"yi 	c #FFECA1",
"zi 	c #FFEBA0",
"Ai 	c #FFEA9B",
"Bi 	c #F3D07A",
"Ci 	c #EEC063",
"Di 	c #F2BF62",
"Ei 	c #F1BE60",
"Fi 	c #F1BD60",
"Gi 	c #EFBF62",
"Hi 	c #EEC971",
"Ii 	c #FFE897",
"Ji 	c #FEEBA3",
"Ki 	c #FFECA4",
"Li 	c #FEE79B",
"Mi 	c #EBC66F",
"Ni 	c #F0BD60",
"Oi 	c #F2BD5E",
"Pi 	c #F1BE5E",
"Qi 	c #F2BD5D",
"Ri 	c #F3BD5D",
"Si 	c #EDBE65",
"Ti 	c #F9DA89",
"Ui 	c #FFECA2",
"Vi 	c #FFECA5",
"Wi 	c #F2D281",
"Xi 	c #EDBD64",
"Yi 	c #F1BC5F",
"Zi 	c #F1BD5F",
"`i 	c #EEBE64",
" j 	c #FADA8B",
".j 	c #FFE8A0",
"+j 	c #FFE9A0",
"@j 	c #FFE99F",
"#j 	c #FFE99D",
"$j 	c #FFE99C",
"%j 	c #FFE694",
"&j 	c #F8C865",
"*j 	c #FDB742",
"=j 	c #C59B61",
"-j 	c #0B0000",
";j 	c #333743",
">j 	c #444B5C",
",j 	c #374052",
"'j 	c #767879",
")j 	c #BDBFBE",
"!j 	c #1F2940",
"~j 	c #484141",
"{j 	c #836B56",
"]j 	c #886B4C",
"^j 	c #8C6B4C",
"/j 	c #906F52",
"(j 	c #7D6552",
"_j 	c #0A0202",
":j 	c #927143",
"<j 	c #F5BD60",
"[j 	c #F6CF75",
"}j 	c #FEEDA5",
"|j 	c #FDEEAC",
"1j 	c #FDEEAF",
"2j 	c #FCEEAF",
"3j 	c #FDEDAE",
"4j 	c #FDEDAD",
"5j 	c #FBDE93",
"6j 	c #F4BD5E",
"7j 	c #FBBB53",
"8j 	c #FBBA52",
"9j 	c #FCBC52",
"0j 	c #FABB52",
"aj 	c #F7BD57",
"bj 	c #F8D179",
"cj 	c #FDEDA7",
"dj 	c #FCEEA9",
"ej 	c #FCEEAA",
"fj 	c #FDEDA9",
"gj 	c #FEECA4",
"hj 	c #FBDF8B",
"ij 	c #F3BF5C",
"jj 	c #F9BB52",
"kj 	c #FBBB51",
"lj 	c #FABB51",
"mj 	c #FBBC52",
"nj 	c #F5BC59",
"oj 	c #FCECA7",
"pj 	c #FDEDA8",
"qj 	c #FDECA7",
"rj 	c #FDEBA6",
"sj 	c #F7CF79",
"tj 	c #F8BD58",
"uj 	c #FBBC53",
"vj 	c #FCBB53",
"wj 	c #FABB53",
"xj 	c #FBBB54",
"yj 	c #F9BB56",
"zj 	c #F2C86E",
"Aj 	c #FEEA9F",
"Bj 	c #FEEEAB",
"Cj 	c #FDEFAE",
"Dj 	c #FDEFAD",
"Ej 	c #FDEFAC",
"Fj 	c #FEEFAA",
"Gj 	c #FEE99C",
"Hj 	c #F0C469",
"Ij 	c #F9BA53",
"Jj 	c #FCBA50",
"Kj 	c #FABB4F",
"Lj 	c #FABB4E",
"Mj 	c #FBBA50",
"Nj 	c #F9BA52",
"Oj 	c #F3BC5B",
"Pj 	c #FADB8C",
"Qj 	c #FFEEAA",
"Rj 	c #FEEEAD",
"Sj 	c #FEEFAF",
"Tj 	c #FFEEA6",
"Uj 	c #F6CF7B",
"Vj 	c #F6BB56",
"Wj 	c #FABA51",
"Xj 	c #FAB951",
"Yj 	c #FBB951",
"Zj 	c #FAB952",
"`j 	c #F9BA51",
" k 	c #F3BD5A",
".k 	c #FADD8F",
"+k 	c #FEEEB1",
"@k 	c #FFEDA4",
"#k 	c #F7CA6C",
"$k 	c #FBB849",
"%k 	c #F8B851",
"&k 	c #C89C62",
"*k 	c #0F0000",
"=k 	c #323542",
"-k 	c #464B5D",
";k 	c #434B5D",
">k 	c #424B5C",
",k 	c #394456",
"'k 	c #78797A",
")k 	c #09090B",
"!k 	c #1D2943",
"~k 	c #252938",
"{k 	c #66513F",
"]k 	c #D1A16C",
"^k 	c #DDA05C",
"/k 	c #E19F5D",
"(k 	c #DFA164",
"_k 	c #B78D64",
":k 	c #957345",
"<k 	c #F7BC61",
"[k 	c #F8B94E",
"}k 	c #F6CF77",
"|k 	c #FBEEAF",
"1k 	c #FBEFB2",
"2k 	c #FAEEB1",
"3k 	c #FCEEB0",
"4k 	c #FDEFAF",
"5k 	c #FBDE91",
"6k 	c #F6BE5B",
"7k 	c #FDBB51",
"8k 	c #FEBA51",
"9k 	c #FEB950",
"0k 	c #FDBA4F",
"ak 	c #FBBB4F",
"bk 	c #F6BD54",
"ck 	c #F8D178",
"dk 	c #FEEB9F",
"ek 	c #FDEFA8",
"fk 	c #FBEEAA",
"gk 	c #FCEEAB",
"hk 	c #FDEDAA",
"ik 	c #FCEDAA",
"jk 	c #FCDE8B",
"kk 	c #F5BE5A",
"lk 	c #FABA50",
"mk 	c #FCBA4D",
"nk 	c #FBBA4D",
"ok 	c #F5BC55",
"pk 	c #FAD985",
"qk 	c #FBECA7",
"rk 	c #FDECA9",
"sk 	c #FEECA8",
"tk 	c #FFEAA1",
"uk 	c #F8CE79",
"vk 	c #F9BD57",
"wk 	c #FBBC51",
"xk 	c #FCBB4F",
"yk 	c #FEBB50",
"zk 	c #FCBB50",
"Ak 	c #FABC54",
"Bk 	c #F3C66D",
"Ck 	c #FFE9A1",
"Dk 	c #FCF0B0",
"Ek 	c #FCEFAF",
"Fk 	c #FEEBA0",
"Gk 	c #F1C369",
"Hk 	c #FDB94C",
"Ik 	c #FDB94D",
"Jk 	c #FCB94E",
"Kk 	c #FBB94F",
"Lk 	c #F4BC58",
"Mk 	c #FADC8C",
"Nk 	c #FDEFB0",
"Ok 	c #FCEFB0",
"Pk 	c #F6CF7A",
"Qk 	c #F5BB54",
"Rk 	c #FBB94E",
"Sk 	c #FDB94E",
"Tk 	c #FCB94F",
"Uk 	c #F9BA50",
"Vk 	c #F3BD5B",
"Wk 	c #FADF91",
"Xk 	c #FDF0AF",
"Yk 	c #FCEFB2",
"Zk 	c #FCF0B2",
"`k 	c #F7CB6E",
" l 	c #FEB841",
".l 	c #FDB83F",
"+l 	c #F8B84F",
"@l 	c #CA9D62",
"#l 	c #100000",
"$l 	c #454A5C",
"%l 	c #434A5C",
"&l 	c #424A5D",
"*l 	c #394357",
"=l 	c #2F374F",
"-l 	c #2A3249",
";l 	c #293148",
">l 	c #111422",
",l 	c #797A7C",
"'l 	c #BBBDBC",
")l 	c #050714",
"!l 	c #1F243A",
"~l 	c #202944",
"{l 	c #262A38",
"]l 	c #6D533A",
"^l 	c #DEA15F",
"/l 	c #EC9E49",
"(l 	c #EE9C48",
"_l 	c #E9A053",
":l 	c #BC8B58",
"<l 	c #000407",
"[l 	c #977547",
"}l 	c #F7BD61",
"|l 	c #FFB947",
"1l 	c #F8B84E",
"2l 	c #F7D078",
"3l 	c #FEEEA7",
"4l 	c #FAEEAF",
"5l 	c #FCEEB1",
"6l 	c #FDEDAF",
"7l 	c #FDEEAE",
"8l 	c #FBDF8F",
"9l 	c #F5BF5B",
"0l 	c #FCBB52",
"al 	c #FEBA52",
"bl 	c #FBBB50",
"cl 	c #F6BC56",
"dl 	c #F8D27B",
"el 	c #FDECA0",
"fl 	c #FCEEA7",
"gl 	c #FCEDA9",
"hl 	c #FCEDAB",
"il 	c #FBDD88",
"jl 	c #F6BE5A",
"kl 	c #FDBA50",
"ll 	c #FDBA4E",
"ml 	c #F5BC56",
"nl 	c #FBDA85",
"ol 	c #FCEBA7",
"pl 	c #FBECA8",
"ql 	c #FBEDA7",
"rl 	c #F6CE77",
"sl 	c #F8BD57",
"tl 	c #FEBA50",
"ul 	c #F8BB53",
"vl 	c #F2C86D",
"wl 	c #F0C368",
"xl 	c #FDBA4D",
"yl 	c #FCBA4E",
"zl 	c #FBB950",
"Al 	c #F4BC59",
"Bl 	c #FBDC8C",
"Cl 	c #F6CF79",
"Dl 	c #F8BA54",
"El 	c #FCF0AF",
"Fl 	c #FDEFB2",
"Gl 	c #FEEFB0",
"Hl 	c #FFB740",
"Il 	c #FEB73F",
"Jl 	c #CA9E61",
"Kl 	c #110000",
"Ll 	c #303541",
"Ml 	c #43495C",
"Nl 	c #41495E",
"Ol 	c #3F475C",
"Pl 	c #3A4459",
"Ql 	c #323B54",
"Rl 	c #2D384E",
"Sl 	c #2D374F",
"Tl 	c #2B3346",
"Ul 	c #BCBDBE",
"Vl 	c #20243B",
"Wl 	c #202742",
"Xl 	c #1F2845",
"Yl 	c #1F2A44",
"Zl 	c #252B38",
"`l 	c #6F5337",
" m 	c #E0A05A",
".m 	c #EF9C46",
"+m 	c #F09B44",
"@m 	c #EB9F50",
"#m 	c #BC8854",
"$m 	c #987647",
"%m 	c #F6BE60",
"&m 	c #FDB948",
"*m 	c #FFBA46",
"=m 	c #FFB946",
"-m 	c #FDB848",
";m 	c #F8BA4E",
">m 	c #F8D277",
",m 	c #FCEEAE",
"'m 	c #FEEEA9",
")m 	c #FBE090",
"!m 	c #F4BF5D",
"~m 	c #FCBB54",
"{m 	c #FEBB4F",
"]m 	c #F6D27C",
"^m 	c #FEECA2",
"/m 	c #FCEDA7",
"(m 	c #FCEDA8",
"_m 	c #FBEEA8",
":m 	c #F7BE5A",
"<m 	c #FCBB4D",
"[m 	c #F5BC58",
"}m 	c #FBDA86",
"|m 	c #FDECA8",
"1m 	c #FCEBA8",
"2m 	c #F8BC54",
"3m 	c #FCBB51",
"4m 	c #FDBA51",
"5m 	c #F9BC53",
"6m 	c #F1C76C",
"7m 	c #FEEDAC",
"8m 	c #FEE9A0",
"9m 	c #F0C467",
"0m 	c #FEB94C",
"am 	c #FDBA4C",
"bm 	c #FBDC8B",
"cm 	c #FEEEAA",
"dm 	c #FCEFAE",
"em 	c #F9B954",
"fm 	c #FCB950",
"gm 	c #FABB50",
"hm 	c #F4BE5B",
"im 	c #FBE091",
"jm 	c #FCF0B3",
"km 	c #F6CC71",
"lm 	c #FCBB4C",
"mm 	c #FFB841",
"nm 	c #F7B74E",
"om 	c #C89F60",
"pm 	c #303443",
"qm 	c #42485C",
"rm 	c #41485E",
"sm 	c #40485F",
"tm 	c #3E465D",
"um 	c #3A455B",
"vm 	c #323C54",
"wm 	c #2C374E",
"xm 	c #2C364F",
"ym 	c #121521",
"zm 	c #7A7A7C",
"Am 	c #BCBDBF",
"Bm 	c #050614",
"Cm 	c #20253C",
"Dm 	c #212843",
"Em 	c #262C37",
"Fm 	c #715438",
"Gm 	c #E09E5B",
"Hm 	c #EF9B47",
"Im 	c #F09A44",
"Jm 	c #EA9F4F",
"Km 	c #BA8552",
"Lm 	c #987949",
"Mm 	c #F5C164",
"Nm 	c #FBBB4C",
"Om 	c #FCBB49",
"Pm 	c #FDBA4A",
"Qm 	c #FCBA4C",
"Rm 	c #F7BB52",
"Sm 	c #FBEEAE",
"Tm 	c #FCEFAC",
"Um 	c #FDEEAB",
"Vm 	c #FBDF90",
"Wm 	c #F5BF5D",
"Xm 	c #FDBB53",
"Ym 	c #FEBB52",
"Zm 	c #FFBB50",
"`m 	c #F6BC58",
" n 	c #F6D17B",
".n 	c #FEEBA1",
"+n 	c #FBEDA9",
"@n 	c #FCEEA8",
"#n 	c #FBEEA7",
"$n 	c #FEEDA4",
"%n 	c #FBDC89",
"&n 	c #F6BD59",
"*n 	c #FCBA51",
"=n 	c #F3BC59",
"-n 	c #FAD984",
";n 	c #FEECA3",
">n 	c #FBEDA6",
",n 	c #F5CC76",
"'n 	c #F9BB57",
")n 	c #FCBA53",
"!n 	c #FBBA51",
"~n 	c #F8BE55",
"{n 	c #F0C76D",
"]n 	c #FEEAA1",
"^n 	c #FEEFAC",
"/n 	c #FEE99F",
"(n 	c #F1C46A",
"_n 	c #FABA53",
":n 	c #FCBA4F",
"<n 	c #F3BE59",
"[n 	c #FADD8B",
"}n 	c #F7BA54",
"|n 	c #FDB850",
"1n 	c #F3BE5A",
"2n 	c #FBDF91",
"3n 	c #FDEFB3",
"4n 	c #FEEEB2",
"5n 	c #FFEFB2",
"6n 	c #FFEDA9",
"7n 	c #F7D179",
"8n 	c #F9BC4F",
"9n 	c #FEB842",
"0n 	c #FCB841",
"an 	c #F6B750",
"bn 	c #C99E61",
"cn 	c #140000",
"dn 	c #2F3342",
"en 	c #40475C",
"fn 	c #40475E",
"gn 	c #3D475D",
"hn 	c #3B465C",
"in 	c #39445C",
"jn 	c #313C55",
"kn 	c #2D3750",
"ln 	c #2C3449",
"mn 	c #121622",
"nn 	c #79797D",
"on 	c #BDBEBF",
"pn 	c #040614",
"qn 	c #20253D",
"rn 	c #222945",
"sn 	c #202945",
"tn 	c #282C36",
"un 	c #E09E5C",
"vn 	c #EE9A45",
"wn 	c #E89E50",
"xn 	c #B68350",
"yn 	c #000304",
"zn 	c #9A8054",
"An 	c #F0C571",
"Bn 	c #F4C05C",
"Cn 	c #F5BE58",
"Dn 	c #F7BE59",
"En 	c #F5BE5C",
"Fn 	c #F0BF61",
"Gn 	c #F4D37F",
"Hn 	c #FBDD8E",
"In 	c #F3BF60",
"Jn 	c #F9BC58",
"Kn 	c #F8BC57",
"Ln 	c #F9BC56",
"Mn 	c #F7BD55",
"Nn 	c #F5D07A",
"On 	c #FDECA4",
"Pn 	c #FDECA5",
"Qn 	c #FDEDA5",
"Rn 	c #FDEEA4",
"Sn 	c #FEEDA1",
"Tn 	c #FADB88",
"Un 	c #F2BE5E",
"Vn 	c #F7BC56",
"Wn 	c #F8BB55",
"Xn 	c #F7BC55",
"Yn 	c #F0BD5B",
"Zn 	c #F8D882",
"`n 	c #FEEC9F",
" o 	c #FDEDA3",
".o 	c #FDEBA5",
"+o 	c #FDEDA4",
"@o 	c #FDECA3",
"#o 	c #F4CC76",
"$o 	c #F5BC5A",
"%o 	c #F8BB57",
"&o 	c #F8BB56",
"*o 	c #F8BD56",
"=o 	c #F4BD58",
"-o 	c #EEC76D",
";o 	c #FEE99E",
">o 	c #EEC46E",
",o 	c #F6BB59",
"'o 	c #F7BB53",
")o 	c #F7BC54",
"!o 	c #F6BC57",
"~o 	c #EFBF5D",
"{o 	c #FFEEA8",
"]o 	c #F5CE77",
"^o 	c #F5BB57",
"/o 	c #F9BA54",
"(o 	c #FAB953",
"_o 	c #F9B953",
":o 	c #F1BF5F",
"<o 	c #FFEDAB",
"[o 	c #FFEDAE",
"}o 	c #FEEDAD",
"|o 	c #FFEEAF",
"1o 	c #FBDA83",
"2o 	c #F4BF55",
"3o 	c #F7BA48",
"4o 	c #F6B948",
"5o 	c #F2B953",
"6o 	c #C7A064",
"7o 	c #120000",
"8o 	c #010300",
"9o 	c #2E3442",
"0o 	c #3F465B",
"ao 	c #3C475D",
"bo 	c #38445B",
"co 	c #313C53",
"do 	c #2B364E",
"eo 	c #2D354A",
"fo 	c #77777A",
"go 	c #BCBCBC",
"ho 	c #050612",
"io 	c #21273C",
"jo 	c #212A45",
"ko 	c #282C34",
"lo 	c #735536",
"mo 	c #E09D5A",
"no 	c #EC9B46",
"oo 	c #EB9A42",
"po 	c #E79E50",
"qo 	c #B2804F",
"ro 	c #000303",
"so 	c #A49674",
"to 	c #FDE9A9",
"uo 	c #FDE79D",
"vo 	c #FEE69D",
"wo 	c #FDE79C",
"xo 	c #FCE79E",
"yo 	c #FAE59B",
"zo 	c #FBE397",
"Ao 	c #FBE396",
"Bo 	c #FBE296",
"Co 	c #FCE395",
"Do 	c #FBE395",
"Eo 	c #FBE294",
"Fo 	c #F9DB8B",
"Go 	c #F4CF79",
"Ho 	c #F5CE78",
"Io 	c #F5CF77",
"Jo 	c #F3CF78",
"Ko 	c #F5D682",
"Lo 	c #F9DE8E",
"Mo 	c #F9DF8D",
"No 	c #F9E08D",
"Oo 	c #FADF8C",
"Po 	c #F9DF8C",
"Qo 	c #F9DF8B",
"Ro 	c #F5D681",
"So 	c #F2C873",
"To 	c #F4C972",
"Uo 	c #F5C971",
"Vo 	c #F4CA72",
"Wo 	c #F4C971",
"Xo 	c #F3CB72",
"Yo 	c #F1CB74",
"Zo 	c #F6D782",
"`o 	c #F9DE8B",
" p 	c #F9DE8A",
".p 	c #F9DD8C",
"+p 	c #F9DE8C",
"@p 	c #F8DE8A",
"#p 	c #F8DD8A",
"$p 	c #F4D07B",
"%p 	c #F4C970",
"&p 	c #F5C86F",
"*p 	c #F6C970",
"=p 	c #F5CA71",
"-p 	c #F4CC73",
";p 	c #F1CD78",
">p 	c #F8DC8B",
",p 	c #F9DF8F",
"'p 	c #F9DF91",
")p 	c #F9E090",
"!p 	c #F9E091",
"~p 	c #F8DD90",
"{p 	c #F1CD7D",
"]p 	c #F4CA75",
"^p 	c #F5CA74",
"/p 	c #F5CC75",
"(p 	c #F4CD76",
"_p 	c #F5CE76",
":p 	c #F2CF76",
"<p 	c #F6DA84",
"[p 	c #F9DF90",
"}p 	c #F9DE8D",
"|p 	c #F3CE7A",
"1p 	c #F2C76E",
"2p 	c #F4C66C",
"3p 	c #F5C66C",
"4p 	c #F6C66D",
"5p 	c #F5C76E",
"6p 	c #F3C96F",
"7p 	c #F1CA74",
"8p 	c #F9DB8A",
"9p 	c #FCE296",
"0p 	c #FCE397",
"ap 	c #FDE497",
"bp 	c #FDE397",
"cp 	c #FCE398",
"dp 	c #FCE396",
"ep 	c #FBDC87",
"fp 	c #F6D376",
"gp 	c #F6CF6E",
"hp 	c #F5CE6B",
"ip 	c #CCAF78",
"jp 	c #0D0000",
"kp 	c #010401",
"lp 	c #2E3443",
"mp 	c #3E465B",
"np 	c #3D455E",
"op 	c #3B455D",
"pp 	c #3A455A",
"qp 	c #384559",
"rp 	c #303C54",
"sp 	c #2D3651",
"tp 	c #2E3550",
"up 	c #2C364E",
"vp 	c #2D364B",
"wp 	c #121624",
"xp 	c #737478",
"yp 	c #040812",
"zp 	c #292D35",
"Ap 	c #745638",
"Bp 	c #E09E59",
"Cp 	c #EB9B43",
"Dp 	c #E79E53",
"Ep 	c #AE7C4E",
"Fp 	c #AAA388",
"Gp 	c #FEF4C0",
"Hp 	c #FEF3B7",
"Ip 	c #FEF2B8",
"Jp 	c #FFF3B8",
"Kp 	c #FFF4B5",
"Lp 	c #ECC772",
"Mp 	c #F1C164",
"Np 	c #F3C262",
"Op 	c #F5C362",
"Pp 	c #F4C262",
"Qp 	c #F1C366",
"Rp 	c #F5D17E",
"Sp 	c #FFE89D",
"Tp 	c #FEEAA2",
"Up 	c #FFEAA2",
"Vp 	c #F8DA88",
"Wp 	c #EDBD60",
"Xp 	c #F1BD59",
"Yp 	c #F0BC58",
"Zp 	c #F1BC58",
"`p 	c #F1BC57",
" q 	c #EFBB59",
".q 	c #F2CB73",
"+q 	c #FFE79C",
"@q 	c #FEE9A1",
"#q 	c #FFE99E",
"$q 	c #FFEA9C",
"%q 	c #F5D47D",
"&q 	c #EEBC5E",
"*q 	c #F2BC5B",
"=q 	c #F3BC5A",
"-q 	c #F2BD58",
";q 	c #F1BD5B",
">q 	c #EDC064",
",q 	c #FDDF8D",
"'q 	c #FEE89D",
")q 	c #FFE9A3",
"!q 	c #FCDE8D",
"~q 	c #EBBE63",
"{q 	c #F3BB5B",
"]q 	c #F3BB5A",
"^q 	c #F1BB59",
"/q 	c #EEBC5D",
"(q 	c #EBC672",
"_q 	c #FEEBA2",
":q 	c #FFEBA3",
"<q 	c #FFECA3",
"[q 	c #FEE896",
"}q 	c #EEC76E",
"|q 	c #F0BD5D",
"1q 	c #F2BB59",
"2q 	c #F2BC59",
"3q 	c #F2BB5A",
"4q 	c #EDBE62",
"5q 	c #FADE8F",
"6q 	c #FEEAA3",
"7q 	c #FEE699",
"8q 	c #EFC56E",
"9q 	c #F1BA5C",
"0q 	c #F2BA58",
"aq 	c #F2BB5B",
"bq 	c #F0BB5B",
"cq 	c #EDBC60",
"dq 	c #FAD780",
"eq 	c #FEE38D",
"fq 	c #FEE38B",
"gq 	c #FEE289",
"hq 	c #FFE391",
"iq 	c #D7C28D",
"jq 	c #010200",
"kq 	c #3B465A",
"lq 	c #3A455D",
"mq 	c #3B445C",
"nq 	c #39445A",
"oq 	c #313B53",
"pq 	c #2C3649",
"qq 	c #717275",
"rq 	c #B9B9BA",
"sq 	c #222A45",
"tq 	c #212B45",
"uq 	c #75573B",
"vq 	c #E2A15F",
"wq 	c #EB9C49",
"xq 	c #EA9B48",
"yq 	c #E59E58",
"zq 	c #A9794E",
"Aq 	c #ADA98D",
"Bq 	c #FDF7C3",
"Cq 	c #FEF6BC",
"Dq 	c #FEF5BC",
"Eq 	c #FFF6BB",
"Fq 	c #FFF6B9",
"Gq 	c #F4C66A",
"Hq 	c #FBC05A",
"Iq 	c #FDBF56",
"Jq 	c #FDC055",
"Kq 	c #FDC057",
"Lq 	c #F8C15E",
"Mq 	c #F6D17D",
"Nq 	c #FBEDAA",
"Oq 	c #FEECAA",
"Pq 	c #FEECA9",
"Qq 	c #FFECA7",
"Rq 	c #FBDA8A",
"Sq 	c #FABA4F",
"Tq 	c #FABA4E",
"Uq 	c #FBBA4E",
"Vq 	c #F9BA4F",
"Wq 	c #FDECAA",
"Xq 	c #FFEDA2",
"Yq 	c #F8D37D",
"Zq 	c #F7BB56",
"`q 	c #FBB953",
" r 	c #FCB952",
".r 	c #FEE193",
"+r 	c #FCECA8",
"@r 	c #FCEDAD",
"#r 	c #FDECAD",
"$r 	c #FDEDAB",
"%r 	c #FCEDAC",
"&r 	c #FDEEA9",
"*r 	c #FDE08E",
"=r 	c #F4BE5E",
"-r 	c #FABA52",
";r 	c #FAB94F",
">r 	c #F9B94E",
",r 	c #F5BB52",
"'r 	c #EFC76E",
")r 	c #FEEA9D",
"!r 	c #F2C66B",
"~r 	c #F7BA52",
"{r 	c #FCB94D",
"]r 	c #FAE090",
"^r 	c #FCF0B1",
"/r 	c #F3C36A",
"(r 	c #F8B750",
"_r 	c #FAB74B",
":r 	c #FAB74C",
"<r 	c #FBB64C",
"[r 	c #FBB84E",
"}r 	c #F6BC59",
"|r 	c #FCE28D",
"1r 	c #FCE38E",
"2r 	c #FCE48D",
"3r 	c #FCE495",
"4r 	c #D7C491",
"5r 	c #2F3545",
"6r 	c #3B455B",
"7r 	c #374458",
"8r 	c #2F3A51",
"9r 	c #2D3549",
"0r 	c #2F3648",
"ar 	c #141823",
"br 	c #6C6C70",
"cr 	c #B8B8BA",
"dr 	c #08080D",
"er 	c #040714",
"fr 	c #22273F",
"gr 	c #222C43",
"hr 	c #282A37",
"ir 	c #735943",
"jr 	c #DCA56F",
"kr 	c #E29D5B",
"lr 	c #E19B5B",
"mr 	c #DA9C65",
"nr 	c #A07859",
"or 	c #AFAB91",
"pr 	c #FDF7C6",
"qr 	c #FEF6BD",
"rr 	c #FDF7BC",
"sr 	c #FDF7BD",
"tr 	c #FEF7BD",
"ur 	c #FDEBA2",
"vr 	c #F5C468",
"wr 	c #FDBF58",
"xr 	c #FEBE55",
"yr 	c #FEC055",
"zr 	c #FEC156",
"Ar 	c #F9C15C",
"Br 	c #FBEEAB",
"Cr 	c #FBEDAD",
"Dr 	c #FDEDAC",
"Er 	c #FBD988",
"Fr 	c #F8BC58",
"Gr 	c #FBB94B",
"Hr 	c #FCB94C",
"Ir 	c #F5CA72",
"Jr 	c #F9D47D",
"Kr 	c #FEE293",
"Lr 	c #FCECAE",
"Mr 	c #FBEDAE",
"Nr 	c #FEDF90",
"Or 	c #F5BC5C",
"Pr 	c #FCB84E",
"Qr 	c #FCB74F",
"Rr 	c #FDEDB1",
"Sr 	c #F3C76B",
"Tr 	c #FDB94B",
"Ur 	c #FBE092",
"Vr 	c #FDF0B1",
"Wr 	c #F3C369",
"Xr 	c #F9B64D",
"Yr 	c #FCB549",
"Zr 	c #FEB64A",
"`r 	c #F4BA57",
" s 	c #FDDB84",
".s 	c #FCE492",
"+s 	c #FCE392",
"@s 	c #FCE391",
"#s 	c #FBE69A",
"$s 	c #D8C895",
"%s 	c #313547",
"&s 	c #3C435B",
"*s 	c #3B445D",
"=s 	c #394459",
"-s 	c #374259",
";s 	c #2F3951",
">s 	c #2E354F",
",s 	c #2D354C",
"'s 	c #2E3649",
")s 	c #151823",
"!s 	c #69686D",
"~s 	c #B8B8B8",
"{s 	c #21273B",
"]s 	c #232B44",
"^s 	c #26293A",
"/s 	c #5A4D45",
"(s 	c #A98B6D",
"_s 	c #B18B68",
":s 	c #B99174",
"<s 	c #AE8C73",
"[s 	c #766154",
"}s 	c #B1AD94",
"|s 	c #FEF9CB",
"1s 	c #FDF6C0",
"2s 	c #FDF6BF",
"3s 	c #FCF6BE",
"4s 	c #FEF6B9",
"5s 	c #F7C366",
"6s 	c #FEBF59",
"7s 	c #FFBF55",
"8s 	c #FFC155",
"9s 	c #FFC056",
"0s 	c #FAC25B",
"as 	c #F6D27A",
"bs 	c #FBEDAC",
"cs 	c #FBD987",
"ds 	c #F7BB58",
"es 	c #FEBA4C",
"fs 	c #F6CA72",
"gs 	c #FAEEAA",
"hs 	c #F8D37E",
"is 	c #FEE192",
"js 	c #FCEDAE",
"ks 	c #FBEEAD",
"ls 	c #F3BC5C",
"ms 	c #FAB94E",
"ns 	c #FBB84D",
"os 	c #FBB74C",
"ps 	c #F6B951",
"qs 	c #F0C86E",
"rs 	c #FCEEAD",
"ss 	c #F4C66D",
"ts 	c #FAB84D",
"us 	c #F3BB59",
"vs 	c #FDEEB0",
"ws 	c #F3C368",
"xs 	c #FDB64A",
"ys 	c #FEB649",
"zs 	c #FDB548",
"As 	c #F8B74D",
"Bs 	c #F0BF67",
"Cs 	c #FCDF9B",
"Ds 	c #FAE7AA",
"Es 	c #FAE8AB",
"Fs 	c #F9E6A8",
"Gs 	c #F7E6AC",
"Hs 	c #D6C9A1",
"Is 	c #0D0200",
"Js 	c #313646",
"Ks 	c #3B435A",
"Ls 	c #3A425B",
"Ms 	c #3A4359",
"Ns 	c #3A4257",
"Os 	c #374056",
"Ps 	c #2F374E",
"Qs 	c #2E344D",
"Rs 	c #2C3548",
"Ss 	c #2E3647",
"Ts 	c #B5B5B5",
"Us 	c #08070A",
"Vs 	c #232739",
"Ws 	c #24293E",
"Xs 	c #232A40",
"Ys 	c #242B40",
"Zs 	c #252A3B",
"`s 	c #2C2D37",
" t 	c #302C33",
".t 	c #353037",
"+t 	c #3C363E",
"@t 	c #39373E",
"#t 	c #2F2E34",
"$t 	c #090202",
"%t 	c #0F0200",
"&t 	c #100200",
"*t 	c #0E0100",
"=t 	c #0F0100",
"-t 	c #AFAA98",
";t 	c #EAE5C5",
">t 	c #E9E4BE",
",t 	c #EBE5BE",
"'t 	c #EBE6BD",
")t 	c #ECE7BC",
"!t 	c #F5EDB8",
"~t 	c #FDE7A0",
"{t 	c #F7C568",
"]t 	c #FDC15B",
"^t 	c #FEC057",
"/t 	c #FFC055",
"(t 	c #FFC057",
"_t 	c #FBC15B",
":t 	c #FBECAB",
"<t 	c #FDECAC",
"[t 	c #FADA89",
"}t 	c #F7BC59",
"|t 	c #FEBB51",
"1t 	c #FDBB4E",
"2t 	c #FDBB4D",
"3t 	c #F5C970",
"4t 	c #FBEEA9",
"5t 	c #FAEEAB",
"6t 	c #F8D27F",
"7t 	c #FEE190",
"8t 	c #FEEDA9",
"9t 	c #FCEEAC",
"0t 	c #FDDF91",
"at 	c #FDB84C",
"bt 	c #FCEFAB",
"ct 	c #FEEDAB",
"dt 	c #F3C66E",
"et 	c #FABA4D",
"ft 	c #FCDF8E",
"gt 	c #F2C367",
"ht 	c #F9B64A",
"it 	c #FDB649",
"jt 	c #FDB749",
"kt 	c #F8BB58",
"lt 	c #B9904F",
"mt 	c #665639",
"nt 	c #625940",
"ot 	c #625A41",
"pt 	c #635A41",
"qt 	c #625B43",
"rt 	c #56513F",
"st 	c #120903",
"tt 	c #130603",
"ut 	c #140702",
"vt 	c #130702",
"wt 	c #0D0706",
"xt 	c #313543",
"yt 	c #384157",
"zt 	c #354056",
"At 	c #353D52",
"Bt 	c #2E3548",
"Ct 	c #2A3043",
"Dt 	c #2A2F43",
"Et 	c #2A2F40",
"Ft 	c #282F3E",
"Gt 	c #282F3B",
"Ht 	c #12161E",
"It 	c #616362",
"Jt 	c #B6B6B7",
"Kt 	c #1D1D1E",
"Lt 	c #18191D",
"Mt 	c #11141E",
"Nt 	c #0F121E",
"Ot 	c #0E121D",
"Pt 	c #21273A",
"Qt 	c #29304A",
"Rt 	c #262F49",
"St 	c #2B2A36",
"Tt 	c #7E6653",
"Ut 	c #A07A56",
"Vt 	c #A77B51",
"Wt 	c #A67B51",
"Xt 	c #A27B56",
"Yt 	c #886C54",
"Zt 	c #353029",
"`t 	c #403E35",
" u 	c #413F33",
".u 	c #423F34",
"+u 	c #424034",
"@u 	c #434134",
"#u 	c #8C8463",
"$u 	c #FAE29F",
"%u 	c #F6C76B",
"&u 	c #FEC05A",
"*u 	c #FDC158",
"=u 	c #FEC159",
"-u 	c #FBC15D",
";u 	c #F8D17A",
">u 	c #FEECAC",
",u 	c #FADB8B",
"'u 	c #F5BD5A",
")u 	c #FBBB52",
"!u 	c #F7BC51",
"~u 	c #F3CA6E",
"{u 	c #FBBA54",
"]u 	c #FABB54",
"^u 	c #FABB55",
"/u 	c #FDE090",
"(u 	c #FBEFAD",
"_u 	c #FDE092",
":u 	c #F0BE5D",
"<u 	c #F8BA50",
"[u 	c #F9B94F",
"}u 	c #EFC66C",
"|u 	c #F2C76F",
"1u 	c #F9BB54",
"2u 	c #F4BC57",
"3u 	c #FBDD8D",
"4u 	c #FEEDB0",
"5u 	c #F8B74C",
"6u 	c #FAB549",
"7u 	c #FAB548",
"8u 	c #FAB649",
"9u 	c #F4BB5B",
"0u 	c #9E7C47",
"au 	c #725B42",
"bu 	c #B48F65",
"cu 	c #B88F59",
"du 	c #B88F56",
"eu 	c #B48D5B",
"fu 	c #977F62",
"gu 	c #3E3B41",
"hu 	c #2F3851",
"iu 	c #2D3852",
"ju 	c #2E3850",
"ku 	c #030514",
"lu 	c #040511",
"mu 	c #04060E",
"nu 	c #04060C",
"ou 	c #35373A",
"pu 	c #494C4F",
"qu 	c #3F4145",
"ru 	c #505255",
"su 	c #6D6E71",
"tu 	c #858588",
"uu 	c #8B8C8E",
"vu 	c #C4C5C6",
"wu 	c #C4C5C5",
"xu 	c #C2C2C4",
"yu 	c #B9BABD",
"zu 	c #A1A1A5",
"Au 	c #1C2536",
"Bu 	c #25314C",
"Cu 	c #25314E",
"Du 	c #312D37",
"Eu 	c #B48E6D",
"Fu 	c #ECB06E",
"Gu 	c #F3AD60",
"Hu 	c #EEAE6A",
"Iu 	c #C3986C",
"Ju 	c #020100",
"Ku 	c #7B755A",
"Lu 	c #F8E4A5",
"Mu 	c #F4C362",
"Nu 	c #F6C363",
"Ou 	c #F7C364",
"Pu 	c #F6C460",
"Qu 	c #F3D17D",
"Ru 	c #FFECA9",
"Su 	c #F7DA8E",
"Tu 	c #EEBF62",
"Uu 	c #F4BF5B",
"Vu 	c #F4BE59",
"Wu 	c #EFBD5B",
"Xu 	c #F9EFAA",
"Yu 	c #F3D282",
"Zu 	c #EFBF63",
"`u 	c #F3BD5F",
" v 	c #F4BD5F",
".v 	c #F3BD5E",
"+v 	c #F2BD5F",
"@v 	c #E9BE65",
"#v 	c #F9E092",
"$v 	c #EABD62",
"%v 	c #F0BB5A",
"&v 	c #F1BB58",
"*v 	c #F1BB57",
"=v 	c #F1BA57",
"-v 	c #ECBB59",
";v 	c #E7C66E",
">v 	c #EDC975",
",v 	c #F1BE5F",
"'v 	c #F5BE5B",
")v 	c #F4BE5A",
"!v 	c #F3BD59",
"~v 	c #F2BD59",
"{v 	c #ECBD60",
"]v 	c #F9DE92",
"^v 	c #FBEEB0",
"/v 	c #FDECAF",
"(v 	c #FDEDB0",
"_v 	c #ECC26B",
":v 	c #EEB654",
"<v 	c #F0B64F",
"[v 	c #F1B54E",
"}v 	c #EFB550",
"|v 	c #E9BA64",
"1v 	c #93794A",
"2v 	c #93704A",
"3v 	c #EEB472",
"4v 	c #F1B15F",
"5v 	c #F2B25D",
"6v 	c #EDB167",
"7v 	c #C9A276",
"8v 	c #413638",
"9v 	c #2F364F",
"0v 	c #2B3751",
"av 	c #2B374F",
"bv 	c #00010B",
"cv 	c #56575A",
"dv 	c #B3B3B5",
"ev 	c #1B2436",
"fv 	c #24314C",
"gv 	c #24324E",
"hv 	c #312D35",
"iv 	c #B58B62",
"jv 	c #F4AF5F",
"kv 	c #FBAD4E",
"lv 	c #FBAD4D",
"mv 	c #F6AF59",
"nv 	c #CB9A62",
"ov 	c #79745B",
"pv 	c #F7EAB1",
"qv 	c #FCE69D",
"rv 	c #FCE092",
"sv 	c #FCDF91",
"tv 	c #F9E49A",
"uv 	c #FBEDAB",
"vv 	c #FCE89F",
"wv 	c #FAE192",
"xv 	c #FCDF8F",
"yv 	c #FCDE8F",
"zv 	c #FCDF90",
"Av 	c #FBE08F",
"Bv 	c #F9E297",
"Cv 	c #F9EEAA",
"Dv 	c #FCE8A0",
"Ev 	c #FDE294",
"Fv 	c #FDE193",
"Gv 	c #FDE293",
"Hv 	c #FCE194",
"Iv 	c #F9E197",
"Jv 	c #FCEAA3",
"Kv 	c #F9EDAD",
"Lv 	c #FAEDAE",
"Mv 	c #FCE9A2",
"Nv 	c #F7DE93",
"Ov 	c #F9DD8F",
"Pv 	c #F8DD8B",
"Qv 	c #F9DD8D",
"Rv 	c #F9DD8E",
"Sv 	c #F9DE90",
"Tv 	c #F6E197",
"Uv 	c #FBE69D",
"Vv 	c #FDE192",
"Wv 	c #FCE192",
"Xv 	c #FAE398",
"Yv 	c #FCEAA5",
"Zv 	c #F4DC91",
"`v 	c #F4D686",
" w 	c #F5D683",
".w 	c #F5D783",
"+w 	c #F5D685",
"@w 	c #F4D994",
"#w 	c #988965",
"$w 	c #9A7247",
"%w 	c #F3B466",
"&w 	c #F7B151",
"*w 	c #F8B14F",
"=w 	c #F3B35C",
"-w 	c #CCA26D",
";w 	c #403434",
">w 	c #2F354E",
",w 	c #2C3451",
"'w 	c #2C354F",
")w 	c #252A3D",
"!w 	c #00000B",
"~w 	c #5C5D60",
"{w 	c #B5B5B7",
"]w 	c #1B2434",
"^w 	c #23314C",
"/w 	c #243249",
"(w 	c #302D34",
"_w 	c #B48A5F",
":w 	c #F4AF5D",
"<w 	c #FDAD4C",
"[w 	c #FDAC4B",
"}w 	c #F8AF56",
"|w 	c #CB995E",
"1w 	c #726F5A",
"2w 	c #F2EBB9",
"3w 	c #FFEBA9",
"4w 	c #FFEBA8",
"5w 	c #FEEBA7",
"6w 	c #FDECAB",
"7w 	c #FFEBA7",
"8w 	c #FAEEAD",
"9w 	c #FCECAD",
"0w 	c #FFEBAB",
"aw 	c #FFEDAC",
"bw 	c #9A9275",
"cw 	c #9E7448",
"dw 	c #F4B463",
"ew 	c #F9B24D",
"fw 	c #F4B45B",
"gw 	c #C9A06A",
"hw 	c #3E3432",
"iw 	c #2E364D",
"jw 	c #2B3650",
"kw 	c #2D354F",
"lw 	c #252A3E",
"mw 	c #B0B0B2",
"nw 	c #302C35",
"ow 	c #B3885C",
"pw 	c #F5AE5C",
"qw 	c #FEAC4D",
"rw 	c #F9B056",
"sw 	c #CA985D",
"tw 	c #6D6A56",
"uw 	c #F1EABA",
"vw 	c #FBEEB1",
"ww 	c #FEECAB",
"xw 	c #FBECAA",
"yw 	c #FBEDA8",
"zw 	c #FCECAA",
"Aw 	c #FCECA9",
"Bw 	c #FDECAE",
"Cw 	c #FCECAB",
"Dw 	c #FAF1B8",
"Ew 	c #999477",
"Fw 	c #9E7546",
"Gw 	c #F4B561",
"Hw 	c #F9B24F",
"Iw 	c #FBB34E",
"Jw 	c #C79F69",
"Kw 	c #3A3431",
"Lw 	c #293650",
"Mw 	c #2C354E",
"Nw 	c #01010B",
"Ow 	c #ACACAE",
"Pw 	c #1C2435",
"Qw 	c #25324D",
"Rw 	c #322D36",
"Sw 	c #B2875B",
"Tw 	c #FDAD4D",
"Uw 	c #FDAE4C",
"Vw 	c #F9B155",
"Ww 	c #696753",
"Xw 	c #F1E9B9",
"Yw 	c #FBECAD",
"Zw 	c #FAF0B8",
"`w 	c #979275",
" x 	c #9F7747",
".x 	c #F3B561",
"+x 	c #F9B34F",
"@x 	c #F4B55A",
"#x 	c #C59F68",
"$x 	c #393131",
"%x 	c #2D364D",
"&x 	c #2A3551",
"*x 	c #2B354E",
"=x 	c #616162",
"-x 	c #1C2436",
";x 	c #332E36",
">x 	c #B1865B",
",x 	c #F5AF5D",
"'x 	c #FDAE4B",
")x 	c #F8B155",
"!x 	c #CA985C",
"~x 	c #676551",
"{x 	c #EFE9B8",
"]x 	c #F9EFB0",
"^x 	c #FBECA9",
"/x 	c #FAEFAC",
"(x 	c #989376",
"_x 	c #A17849",
":x 	c #F2B461",
"<x 	c #FBB44D",
"[x 	c #F5B65B",
"}x 	c #C39C67",
"|x 	c #393034",
"1x 	c #2E344F",
"2x 	c #2B3453",
"3x 	c #2D3450",
"4x 	c #262B40",
"5x 	c #01010D",
"6x 	c #00020D",
"7x 	c #24324D",
"8x 	c #322E36",
"9x 	c #B0865C",
"0x 	c #FDAE4A",
"ax 	c #F8B254",
"bx 	c #C8985A",
"cx 	c #676550",
"dx 	c #EFE9B7",
"ex 	c #FAECAB",
"fx 	c #FAEDA8",
"gx 	c #FAECA8",
"hx 	c #FBEDAF",
"ix 	c #FCECB0",
"jx 	c #FAF0AC",
"kx 	c #F9F1B8",
"lx 	c #A0784A",
"mx 	c #F2B462",
"nx 	c #F9B350",
"ox 	c #FBB44E",
"px 	c #F5B65D",
"qx 	c #C29B69",
"rx 	c #372F36",
"sx 	c #2D3451",
"tx 	c #272B41",
"ux 	c #02020E",
"vx 	c #636163",
"wx 	c #AAAAAC",
"xx 	c #01020E",
"yx 	c #1E263C",
"zx 	c #26314E",
"Ax 	c #24324F",
"Bx 	c #25334C",
"Cx 	c #312E36",
"Dx 	c #B0865B",
"Ex 	c #F4AF5E",
"Fx 	c #C79859",
"Gx 	c #69644F",
"Hx 	c #F1E8B7",
"Ix 	c #F9EFB1",
"Jx 	c #FAEFAB",
"Kx 	c #F9F0B8",
"Lx 	c #9B9578",
"Mx 	c #A1784B",
"Nx 	c #F2B464",
"Ox 	c #FBB44F",
"Px 	c #F5B65E",
"Qx 	c #BE9868",
"Rx 	c #362F38",
"Sx 	c #2D344F",
"Tx 	c #2B3452",
"Ux 	c #2B354F",
"Vx 	c #262C41",
"Wx 	c #646264",
"Xx 	c #20263D",
"Yx 	c #25314D",
"Zx 	c #26334D",
"`x 	c #AF855A",
" y 	c #FCAE4C",
".y 	c #FCAF4A",
"+y 	c #F7B354",
"@y 	c #C69859",
"#y 	c #F2E7B9",
"$y 	c #F9F0B6",
"%y 	c #9C9678",
"&y 	c #A0784B",
"*y 	c #F5B75F",
"=y 	c #BC9867",
"-y 	c #343037",
";y 	c #2C344E",
">y 	c #2A3650",
",y 	c #272D42",
"'y 	c #01030E",
")y 	c #666567",
"!y 	c #A9A9AB",
"~y 	c #01020F",
"{y 	c #25324C",
"]y 	c #24334E",
"^y 	c #26344C",
"/y 	c #312E38",
"(y 	c #AD855A",
"_y 	c #F4B05E",
":y 	c #FCAF4C",
"<y 	c #FCB14A",
"[y 	c #F8B455",
"}y 	c #C59759",
"|y 	c #686451",
"1y 	c #FCF0AC",
"2y 	c #9C9779",
"3y 	c #9F794A",
"4y 	c #F2B563",
"5y 	c #F9B450",
"6y 	c #F4B85E",
"7y 	c #B89664",
"8y 	c #323036",
"9y 	c #02030E",
"0y 	c #686869",
"ay 	c #A8A8A9",
"by 	c #020310",
"cy 	c #21293F",
"dy 	c #25324E",
"ey 	c #23334F",
"fy 	c #27344C",
"gy 	c #322E39",
"hy 	c #FDB04D",
"iy 	c #F7B555",
"jy 	c #C49658",
"ky 	c #F1E6B8",
"ly 	c #FDEDB2",
"my 	c #FBEFAC",
"ny 	c #F9F0B7",
"oy 	c #9D987B",
"py 	c #A0774B",
"qy 	c #F3B463",
"ry 	c #F3B760",
"sy 	c #B79365",
"ty 	c #343138",
"uy 	c #2C364D",
"vy 	c #6A6A6B",
"wy 	c #A6A6A8",
"xy 	c #212A40",
"yy 	c #25324F",
"zy 	c #243350",
"Ay 	c #27354D",
"By 	c #332F39",
"Cy 	c #AE855A",
"Dy 	c #F5B15E",
"Ey 	c #FDAF4D",
"Fy 	c #FCB04A",
"Gy 	c #C39557",
"Hy 	c #66634F",
"Iy 	c #9E997B",
"Jy 	c #A0754A",
"Ky 	c #F4B264",
"Ly 	c #FAB252",
"My 	c #FAB352",
"Ny 	c #F4B663",
"Oy 	c #B49064",
"Py 	c #332F3B",
"Qy 	c #2B3451",
"Ry 	c #2B3450",
"Sy 	c #282E41",
"Ty 	c #02020F",
"Uy 	c #6C6C6D",
"Vy 	c #A5A5A7",
"Wy 	c #020411",
"Xy 	c #26324F",
"Yy 	c #25344F",
"Zy 	c #27344D",
"`y 	c #AE865A",
" z 	c #F5B15D",
".z 	c #FEB04D",
"+z 	c #F9B455",
"@z 	c #C39556",
"#z 	c #64614D",
"$z 	c #FCEDB2",
"%z 	c #FBEEAC",
"&z 	c #9E9A7C",
"*z 	c #A0744B",
"=z 	c #F3B265",
"-z 	c #F9B152",
";z 	c #FBB252",
">z 	c #F4B564",
",z 	c #B08C62",
"'z 	c #322F3B",
")z 	c #2C3550",
"!z 	c #6E6E6F",
"~z 	c #A2A2A4",
"{z 	c #253450",
"]z 	c #263451",
"^z 	c #28344F",
"/z 	c #AE8658",
"(z 	c #F4B15C",
"_z 	c #FEB04B",
":z 	c #FCB149",
"<z 	c #F8B454",
"[z 	c #C39555",
"}z 	c #625E4B",
"|z 	c #F3B264",
"1z 	c #F9B150",
"2z 	c #FAB250",
"3z 	c #F3B562",
"4z 	c #AD8B5E",
"5z 	c #32313A",
"6z 	c #2B3551",
"7z 	c #282F41",
"8z 	c #707071",
"9z 	c #26344F",
"0z 	c #253451",
"az 	c #29354E",
"bz 	c #34303A",
"cz 	c #AF8659",
"dz 	c #F6B25B",
"ez 	c #FCB249",
"fz 	c #F9B555",
"gz 	c #5E5B48",
"hz 	c #F0E4B6",
"iz 	c #A09B7E",
"jz 	c #030302",
"kz 	c #A07449",
"lz 	c #F3B163",
"mz 	c #F9B14F",
"nz 	c #AB895D",
"oz 	c #31313A",
"pz 	c #2A3651",
"qz 	c #283142",
"rz 	c #02050F",
"sz 	c #000300",
"tz 	c #232D43",
"uz 	c #263551",
"vz 	c #B08558",
"wz 	c #F6B15B",
"xz 	c #FDAF49",
"yz 	c #C59556",
"zz 	c #5D5A46",
"Az 	c #F0E5B6",
"Bz 	c #FBECAC",
"Cz 	c #FAEFB8",
"Dz 	c #A19A7E",
"Ez 	c #A07348",
"Fz 	c #F3B164",
"Gz 	c #F9B24E",
"Hz 	c #A8855C",
"Iz 	c #2B3651",
"Jz 	c #030410",
"Kz 	c #A4A4A5",
"Lz 	c #020410",
"Mz 	c #273451",
"Nz 	c #273552",
"Oz 	c #2A3550",
"Pz 	c #34313A",
"Qz 	c #FDB04A",
"Rz 	c #FEB149",
"Sz 	c #F8B354",
"Tz 	c #C69556",
"Uz 	c #5A5643",
"Vz 	c #EEE3B4",
"Wz 	c #FCEEB8",
"Xz 	c #A29A7D",
"Yz 	c #9F7448",
"Zz 	c #F2B063",
"`z 	c #F8B14E",
" A 	c #F9B14E",
".A 	c #F3B464",
"+A 	c #A6835D",
"@A 	c #30303A",
"#A 	c #2B3750",
"$A 	c #040512",
"%A 	c #283551",
"&A 	c #35323B",
"*A 	c #AD8458",
"=A 	c #F6B15D",
"-A 	c #FEB148",
";A 	c #F9B453",
">A 	c #C69654",
",A 	c #020301",
"'A 	c #585441",
")A 	c #ECE3B3",
"!A 	c #A09B7B",
"~A 	c #9D7448",
"{A 	c #F1B063",
"]A 	c #F8B04D",
"^A 	c #F8B14D",
"/A 	c #F1B562",
"(A 	c #A5845B",
"_A 	c #31313C",
":A 	c #2D3650",
"<A 	c #2C3551",
"[A 	c #2B374E",
"}A 	c #283242",
"|A 	c #A2A2A3",
"1A 	c #283651",
"2A 	c #35323C",
"3A 	c #F5B05C",
"4A 	c #FEB049",
"5A 	c #C79653",
"6A 	c #0E0000",
"7A 	c #030301",
"8A 	c #565240",
"9A 	c #EDE2B5",
"0A 	c #FAEFB7",
"aA 	c #9E9A7B",
"bA 	c #9E7349",
"cA 	c #F2AF63",
"dA 	c #F9B04E",
"eA 	c #A58259",
"fA 	c #34313D",
"gA 	c #293243",
"hA 	c #040510",
"iA 	c #707070",
"jA 	c #010310",
"kA 	c #2A3451",
"lA 	c #293651",
"mA 	c #36323B",
"nA 	c #AD8557",
"oA 	c #F5B05A",
"pA 	c #FDB147",
"qA 	c #F9B451",
"rA 	c #C79754",
"sA 	c #575443",
"tA 	c #ECE3B6",
"uA 	c #FDEBAA",
"vA 	c #9C977B",
"wA 	c #9D7249",
"xA 	c #F1AF63",
"yA 	c #F9AF4E",
"zA 	c #F9B04D",
"AA 	c #F2B361",
"BA 	c #A58159",
"CA 	c #2C3750",
"DA 	c #2A3244",
"EA 	c #6F6F6F",
"FA 	c #2B344F",
"GA 	c #37333B",
"HA 	c #AF8558",
"IA 	c #F6B159",
"JA 	c #FDB046",
"KA 	c #C89856",
"LA 	c #585543",
"MA 	c #ECE4B6",
"NA 	c #FEECAE",
"OA 	c #FAEBAA",
"PA 	c #FAEDA9",
"QA 	c #9A967A",
"RA 	c #9C7349",
"SA 	c #F1AF62",
"TA 	c #F9AE4E",
"UA 	c #F2B362",
"VA 	c #A4815A",
"WA 	c #32303D",
"XA 	c #2B3652",
"YA 	c #2C374F",
"ZA 	c #2B3243",
"`A 	c #6E6E6E",
" B 	c #969698",
".B 	c #01040E",
"+B 	c #262D42",
"@B 	c #36333C",
"#B 	c #F5B159",
"$B 	c #FDB145",
"%B 	c #F9B550",
"&B 	c #C99857",
"*B 	c #5A5745",
"=B 	c #EEE4B6",
"-B 	c #FAEFB2",
";B 	c #F9F0B9",
">B 	c #99967A",
",B 	c #040305",
"'B 	c #9D7348",
")B 	c #F8AD4E",
"!B 	c #F8AF4C",
"~B 	c #F1B362",
"{B 	c #A2815A",
"]B 	c #32313D",
"^B 	c #2D3550",
"/B 	c #2A3450",
"(B 	c #050812",
"_B 	c #6D6D6D",
":B 	c #02040E",
"<B 	c #2B3351",
"[B 	c #2C3752",
"}B 	c #37323D",
"|B 	c #AF865A",
"1B 	c #F5B25B",
"2B 	c #FDB249",
"3B 	c #FDB248",
"4B 	c #F9B452",
"5B 	c #CB9B59",
"6B 	c #050203",
"7B 	c #5C5846",
"8B 	c #EFE5B8",
"9B 	c #999579",
"0B 	c #020404",
"aB 	c #9E7348",
"bB 	c #F8AC4F",
"cB 	c #EFB261",
"dB 	c #A08059",
"eB 	c #30313D",
"fB 	c #6B6B6B",
"gB 	c #88888A",
"hB 	c #272C41",
"iB 	c #2C344F",
"jB 	c #37313B",
"kB 	c #AE885D",
"lB 	c #F8B24F",
"mB 	c #FAB34F",
"nB 	c #F7B559",
"oB 	c #C99C5D",
"pB 	c #060201",
"qB 	c #050204",
"rB 	c #5D5949",
"sB 	c #EEE6BB",
"tB 	c #FAEEB8",
"uB 	c #FBEEB5",
"vB 	c #FBEEB4",
"wB 	c #FBEDB2",
"xB 	c #FBECAF",
"yB 	c #FCECAF",
"zB 	c #FAECB1",
"AB 	c #F9ECB0",
"BB 	c #F9EDB0",
"CB 	c #FAEFBC",
"DB 	c #9B957B",
"EB 	c #050202",
"FB 	c #060304",
"GB 	c #9D7850",
"HB 	c #F0B16A",
"IB 	c #F4AD57",
"JB 	c #F4AF55",
"KB 	c #ECB46A",
"LB 	c #9C815E",
"MB 	c #2F323F",
"NB 	c #2D354D",
"OB 	c #2C3346",
"PB 	c #070A15",
"QB 	c #828283",
"RB 	c #252525",
"SB 	c #2A2A2B",
"TB 	c #2C2C2D",
"UB 	c #2B2B2C",
"VB 	c #27282C",
"WB 	c #272C3C",
"XB 	c #2B3248",
"YB 	c #2B344A",
"ZB 	c #2C3549",
"`B 	c #A38563",
" C 	c #E4B374",
".C 	c #E9B46B",
"+C 	c #E9B46A",
"@C 	c #E7B470",
"#C 	c #C39E6F",
"$C 	c #28180A",
"%C 	c #302212",
"&C 	c #311F0E",
"*C 	c #2E1D0C",
"=C 	c #2D1D0D",
"-C 	c #251A0E",
";C 	c #555446",
">C 	c #CFCCAC",
",C 	c #DCD5AD",
"'C 	c #DDD5AC",
")C 	c #DED5AC",
"!C 	c #DFD5AB",
"~C 	c #E2D7A9",
"{C 	c #F6EAB3",
"]C 	c #FCEDB0",
"^C 	c #ECE0AB",
"/C 	c #D8CEA1",
"(C 	c #D6CEA2",
"_C 	c #D5CDA3",
":C 	c #D5CCA2",
"<C 	c #D2CAA0",
"[C 	c #CFC9A5",
"}C 	c #847F6D",
"|C 	c #2B1E13",
"1C 	c #302011",
"2C 	c #312110",
"3C 	c #2F2113",
"4C 	c #241910",
"5C 	c #8F7255",
"6C 	c #D3A575",
"7C 	c #D6A168",
"8C 	c #D4A466",
"9C 	c #CBA46F",
"0C 	c #7E6D55",
"aC 	c #2B2D3A",
"bC 	c #282E42",
"cC 	c #282E3D",
"dC 	c #24252D",
"eC 	c #363639",
"fC 	c #363537",
"gC 	c #343436",
"hC 	c #323233",
"iC 	c #7D7E81",
"jC 	c #111218",
"kC 	c #030811",
"lC 	c #08070C",
"mC 	c #23170C",
"nC 	c #43301B",
"oC 	c #614D38",
"pC 	c #64513E",
"qC 	c #63503F",
"rC 	c #524233",
"sC 	c #866F50",
"tC 	c #CBA26A",
"uC 	c #D09F5E",
"vC 	c #CE9F5C",
"wC 	c #CC9E62",
"xC 	c #AD8E65",
"yC 	c #1E1107",
"zC 	c #1B1A12",
"AC 	c #1F1D13",
"BC 	c #201E14",
"CC 	c #211D13",
"DC 	c #201D13",
"EC 	c #332E19",
"FC 	c #E5DCAD",
"GC 	c #FAEDAF",
"HC 	c #C4BC95",
"IC 	c #1B170B",
"JC 	c #1D1B10",
"KC 	c #1B190E",
"LC 	c #19170E",
"MC 	c #251B11",
"NC 	c #B2916A",
"OC 	c #CCA065",
"PC 	c #D0A363",
"QC 	c #D0A364",
"RC 	c #CAA36C",
"SC 	c #9C8667",
"TC 	c #3A2F28",
"UC 	c #443735",
"VC 	c #463735",
"WC 	c #463A33",
"XC 	c #2E241B",
"YC 	c #0E0705",
"ZC 	c #5A5B60",
"`C 	c #0E0F14",
" D 	c #0A0912",
".D 	c #333546",
"+D 	c #353A50",
"@D 	c #33384D",
"#D 	c #33343D",
"$D 	c #927751",
"%D 	c #EFB66A",
"&D 	c #F8B358",
"*D 	c #F7B458",
"=D 	c #F4B45F",
"-D 	c #D0A369",
";D 	c #200A00",
">D 	c #231F0D",
",D 	c #E3DBB0",
"'D 	c #FAEDB0",
")D 	c #FCEEB4",
"!D 	c #C8C19E",
"~D 	c #1B0B00",
"{D 	c #C89F68",
"]D 	c #F0B461",
"^D 	c #F3B359",
"/D 	c #F3B25B",
"(D 	c #ECB66A",
"_D 	c #AE9167",
":D 	c #333034",
"<D 	c #343648",
"[D 	c #34374D",
"}D 	c #373A4C",
"|D 	c #1B1E27",
"1D 	c #404145",
"2D 	c #0E0F11",
"3D 	c #2E364E",
"4D 	c #313B58",
"5D 	c #2F3954",
"6D 	c #323543",
"7D 	c #92744F",
"8D 	c #FCB34F",
"9D 	c #FCB34E",
"0D 	c #F9B456",
"aD 	c #D5A362",
"bD 	c #220D00",
"cD 	c #252111",
"dD 	c #E4DBB4",
"eD 	c #FAEEB2",
"fD 	c #CAC39F",
"gD 	c #C89B5F",
"hD 	c #F2B358",
"iD 	c #F5B252",
"jD 	c #F6B253",
"kD 	c #F0B663",
"lD 	c #AF8E62",
"mD 	c #363339",
"nD 	c #33394F",
"oD 	c #313853",
"pD 	c #333A50",
"qD 	c #1A1E2B",
"rD 	c #444549",
"sD 	c #0E0E10",
"tD 	c #2E364C",
"uD 	c #313A57",
"vD 	c #2F3854",
"wD 	c #343545",
"xD 	c #927250",
"yD 	c #F3B565",
"zD 	c #FDB450",
"AD 	c #FEB34E",
"BD 	c #FAB555",
"CD 	c #D4A25F",
"DD 	c #230D00",
"ED 	c #272314",
"FD 	c #E5DCB4",
"GD 	c #CAC3A1",
"HD 	c #1C0900",
"ID 	c #C8995F",
"JD 	c #F3B25A",
"KD 	c #F8B152",
"LD 	c #F2B562",
"MD 	c #AF8D62",
"ND 	c #35333A",
"OD 	c #323A50",
"PD 	c #303853",
"QD 	c #343B52",
"RD 	c #45464A",
"SD 	c #060917",
"TD 	c #303954",
"UD 	c #907150",
"VD 	c #F2B566",
"WD 	c #FCB44F",
"XD 	c #FEB44E",
"YD 	c #D3A161",
"ZD 	c #220900",
"`D 	c #292515",
" E 	c #E4DCB3",
".E 	c #C9C3A0",
"+E 	c #040003",
"@E 	c #1D0700",
"#E 	c #C79860",
"$E 	c #F2B15A",
"%E 	c #F7B152",
"&E 	c #F1B664",
"*E 	c #AE8D62",
"=E 	c #36343B",
"-E 	c #303A4F",
";E 	c #353B52",
">E 	c #1C1F2D",
",E 	c #46474B",
"'E 	c #2E364B",
")E 	c #303B57",
"!E 	c #303956",
"~E 	c #343646",
"{E 	c #FDB34F",
"]E 	c #FDB44E",
"^E 	c #FAB455",
"/E 	c #D4A261",
"(E 	c #E6DDB4",
"_E 	c #C8C19F",
":E 	c #040002",
"<E 	c #1C0600",
"[E 	c #C69860",
"}E 	c #F2B25A",
"|E 	c #F8B252",
"1E 	c #F7B252",
"2E 	c #F1B564",
"3E 	c #AD8C60",
"4E 	c #37353B",
"5E 	c #323A4F",
"6E 	c #313953",
"7E 	c #353B51",
"8E 	c #1C1E2B",
"9E 	c #47484B",
"0E 	c #303955",
"aE 	c #353747",
"bE 	c #8F7250",
"cE 	c #F1B566",
"dE 	c #FCB350",
"eE 	c #FDB44D",
"fE 	c #F8B555",
"gE 	c #D3A261",
"hE 	c #210C00",
"iE 	c #282312",
"jE 	c #E6DCB3",
"kE 	c #C7BF9F",
"lE 	c #1B0700",
"mE 	c #C6975E",
"nE 	c #F0B563",
"oE 	c #AC8C5F",
"pE 	c #37363C",
"qE 	c #323B4F",
"rE 	c #303B51",
"sE 	c #343C51",
"tE 	c #4A4B4E",
"uE 	c #2E354C",
"vE 	c #313956",
"wE 	c #333646",
"xE 	c #8F7251",
"yE 	c #F2B568",
"zE 	c #FCB250",
"AE 	c #FCB34D",
"BE 	c #F8B553",
"CE 	c #D3A360",
"DE 	c #252110",
"EE 	c #E5DCB2",
"FE 	c #C7BF9E",
"GE 	c #190600",
"HE 	c #C6975C",
"IE 	c #F2B258",
"JE 	c #F6B251",
"KE 	c #F6B252",
"LE 	c #EFB661",
"ME 	c #AB8D5E",
"NE 	c #38353C",
"OE 	c #333951",
"PE 	c #323953",
"QE 	c #343C52",
"RE 	c #4D4E50",
"SE 	c #2D334D",
"TE 	c #313958",
"UE 	c #333847",
"VE 	c #8E724F",
"WE 	c #FEB34D",
"XE 	c #FAB453",
"YE 	c #221E0C",
"ZE 	c #E4DCB1",
"`E 	c #C5BF9D",
" F 	c #180500",
".F 	c #C4965B",
"+F 	c #F3B259",
"@F 	c #F0B662",
"#F 	c #AC8B5E",
"$F 	c #39353C",
"%F 	c #343850",
"&F 	c #323954",
"*F 	c #343A52",
"=F 	c #1A1D2B",
"-F 	c #505155",
";F 	c #050814",
">F 	c #2D334C",
",F 	c #8F7150",
"'F 	c #220C00",
")F 	c #231E0C",
"!F 	c #E5DBB1",
"~F 	c #C4BE9C",
"{F 	c #030003",
"]F 	c #170400",
"^F 	c #C4955C",
"/F 	c #AC8A5D",
"(F 	c #39343C",
"_F 	c #343A51",
":F 	c #1B1E2B",
"<F 	c #535357",
"[F 	c #303957",
"}F 	c #343747",
"|F 	c #FDB44F",
"1F 	c #FDB34C",
"2F 	c #FAB553",
"3F 	c #210B00",
"4F 	c #E5DBB2",
"5F 	c #C3BD9B",
"6F 	c #C3945B",
"7F 	c #AA885C",
"8F 	c #38343B",
"9F 	c #323853",
"0F 	c #565759",
"aF 	c #040613",
"bF 	c #2E344B",
"cF 	c #323958",
"dF 	c #353647",
"eF 	c #F2B565",
"fF 	c #FDB34B",
"gF 	c #F9B652",
"hF 	c #D3A35F",
"iF 	c #200B00",
"jF 	c #231E0D",
"kF 	c #E5DBB3",
"lF 	c #C3BC9B",
"mF 	c #F2B25B",
"nF 	c #F6B352",
"oF 	c #EFB563",
"pF 	c #A8885B",
"qF 	c #37353C",
"rF 	c #323854",
"sF 	c #595A5C",
"tF 	c #030512",
"uF 	c #2D334A",
"vF 	c #323A57",
"wF 	c #8E714F",
"xF 	c #F1B665",
"yF 	c #F9B552",
"zF 	c #D2A25F",
"AF 	c #231F0F",
"BF 	c #E4DBB2",
"CF 	c #FBEBAC",
"DF 	c #C2BC9A",
"EF 	c #C2965D",
"FF 	c #F2B35D",
"GF 	c #F7B253",
"HF 	c #F5B353",
"IF 	c #EFB664",
"JF 	c #A6875C",
"KF 	c #32384F",
"LF 	c #323850",
"MF 	c #5B5C60",
"NF 	c #2D324A",
"OF 	c #323957",
"PF 	c #8D714F",
"QF 	c #FDB44B",
"RF 	c #D2A25E",
"SF 	c #1F0900",
"TF 	c #242010",
"UF 	c #C1BA99",
"VF 	c #170300",
"WF 	c #F3B35D",
"XF 	c #A6875B",
"YF 	c #37353D",
"ZF 	c #333950",
"`F 	c #323952",
" G 	c #5B5C5F",
".G 	c #19191B",
"+G 	c #2C3149",
"@G 	c #333959",
"#G 	c #8C714D",
"$G 	c #FCB44D",
"%G 	c #FDB44A",
"&G 	c #D3A25E",
"*G 	c #251F10",
"=G 	c #FBEBAD",
"-G 	c #FBEFB5",
";G 	c #C0BA98",
">G 	c #190400",
",G 	c #C3945E",
"'G 	c #F4B35E",
")G 	c #F7B254",
"!G 	c #F6B353",
"~G 	c #EFB764",
"{G 	c #A5865B",
"]G 	c #333850",
"^G 	c #313852",
"/G 	c #5A5B5E",
"(G 	c #2C304A",
"_G 	c #32395A",
":G 	c #303958",
"<G 	c #8B704D",
"[G 	c #FCB44C",
"}G 	c #FDB349",
"|G 	c #D2A15E",
"1G 	c #262010",
"2G 	c #E6DAB2",
"3G 	c #BFB897",
"4G 	c #C4945F",
"5G 	c #F4B25E",
"6G 	c #F0B665",
"7G 	c #A5855A",
"8G 	c #38353E",
"9G 	c #333A4F",
"0G 	c #1B1E2C",
"aG 	c #595A5D",
"bG 	c #2C2F48",
"cG 	c #323858",
"dG 	c #313957",
"eG 	c #353848",
"fG 	c #8A6F4D",
"gG 	c #FEB549",
"hG 	c #FAB650",
"iG 	c #D2A35C",
"jG 	c #272211",
"kG 	c #E6DBB2",
"lG 	c #FBF0B5",
"mG 	c #BDB795",
"nG 	c #1A0300",
"oG 	c #C4955F",
"pG 	c #F3B35E",
"qG 	c #F6B254",
"rG 	c #F1B666",
"sG 	c #A5845A",
"tG 	c #38353D",
"uG 	c #1D1F2C",
"vG 	c #59595D",
"wG 	c #2C3047",
"xG 	c #353749",
"yG 	c #896E4E",
"zG 	c #F0B564",
"AG 	c #FCB54C",
"BG 	c #FEB449",
"CG 	c #F9B650",
"DG 	c #D3A35D",
"EG 	c #210D00",
"FG 	c #282413",
"GG 	c #C3955E",
"HG 	c #F6B255",
"IG 	c #EFB666",
"JG 	c #A3855A",
"KG 	c #38363E",
"LG 	c #2C3046",
"MG 	c #323857",
"NG 	c #343749",
"OG 	c #896E4D",
"PG 	c #FDB449",
"QG 	c #2B2615",
"RG 	c #FAEDB1",
"SG 	c #BCB694",
"TG 	c #1A0600",
"UG 	c #C2945D",
"VG 	c #F7B355",
"WG 	c #F5B354",
"XG 	c #EFB767",
"YG 	c #A3845A",
"ZG 	c #38363F",
"`G 	c #343951",
" H 	c #343B51",
".H 	c #595A5E",
"+H 	c #323956",
"@H 	c #343848",
"#H 	c #8A6E4D",
"$H 	c #FCB34B",
"%H 	c #F8B451",
"&H 	c #240E00",
"*H 	c #2C2716",
"=H 	c #BBB593",
"-H 	c #C2945C",
";H 	c #A2845B",
">H 	c #393640",
",H 	c #333A53",
"'H 	c #2B3045",
")H 	c #333956",
"!H 	c #313A55",
"~H 	c #343849",
"{H 	c #8B6E4E",
"]H 	c #F1B464",
"^H 	c #F8B551",
"/H 	c #D4A460",
"(H 	c #251000",
"_H 	c #2E2919",
":H 	c #E6DCB2",
"<H 	c #1C0800",
"[H 	c #C3945C",
"}H 	c #F3B25E",
"|H 	c #EEB666",
"1H 	c #A2835B",
"2H 	c #3A3741",
"3H 	c #333A54",
"4H 	c #212123",
"5H 	c #02030D",
"6H 	c #2B3046",
"7H 	c #F1B462",
"8H 	c #FBB34B",
"9H 	c #FCB348",
"0H 	c #F8B54E",
"aH 	c #D5A55F",
"bH 	c #281302",
"cH 	c #2F2B1A",
"dH 	c #E6DDB3",
"eH 	c #1D0800",
"fH 	c #F2B25F",
"gH 	c #F6B154",
"hH 	c #333A55",
"iH 	c #1F222F",
"jH 	c #343949",
"kH 	c #F0B362",
"lH 	c #FBB348",
"mH 	c #F7B44E",
"nH 	c #2A1604",
"oH 	c #302B1B",
"pH 	c #E7DDB3",
"qH 	c #200A01",
"rH 	c #C59660",
"sH 	c #F1B05E",
"tH 	c #F5B154",
"uH 	c #F5B254",
"vH 	c #A1825A",
"wH 	c #39373F",
"xH 	c #363C53",
"yH 	c #1F2331",
"zH 	c #262628",
"AH 	c #EFB362",
"BH 	c #FBB24B",
"CH 	c #FBB247",
"DH 	c #F7B44D",
"EH 	c #D6A660",
"FH 	c #2E1907",
"GH 	c #E8DCB2",
"HH 	c #FCEDB1",
"IH 	c #BAB593",
"JH 	c #200C01",
"KH 	c #C59661",
"LH 	c #F0B05E",
"MH 	c #F5B054",
"NH 	c #F5B153",
"OH 	c #EFB566",
"PH 	c #A18159",
"QH 	c #383740",
"RH 	c #343B53",
"SH 	c #2B3144",
"TH 	c #323955",
"UH 	c #303A54",
"VH 	c #343946",
"WH 	c #EFB361",
"XH 	c #FAB24A",
"YH 	c #FBB345",
"ZH 	c #F8B34C",
"`H 	c #D8A65F",
" I 	c #331E0B",
".I 	c #2F2B19",
"+I 	c #E6DCB1",
"@I 	c #FAEFB4",
"#I 	c #BAB592",
"$I 	c #210E02",
"%I 	c #C69861",
"&I 	c #F1B15C",
"*I 	c #F5B052",
"=I 	c #F3B152",
"-I 	c #EFB466",
";I 	c #383841",
">I 	c #333B54",
",I 	c #313C56",
"'I 	c #353C54",
")I 	c #212433",
"!I 	c #2A2A2A",
"~I 	c #2B3044",
"{I 	c #343947",
"]I 	c #896D4C",
"^I 	c #FCB247",
"/I 	c #F7B34E",
"(I 	c #D8A661",
"_I 	c #35220E",
":I 	c #2E2A18",
"<I 	c #E8DCB1",
"[I 	c #BAB492",
"}I 	c #230F02",
"|I 	c #C89860",
"1I 	c #F1B05A",
"2I 	c #F5B051",
"3I 	c #F5B152",
"4I 	c #EFB365",
"5I 	c #9F7E58",
"6I 	c #383741",
"7I 	c #313B56",
"8I 	c #5A5A5C",
"9I 	c #2A2F44",
"0I 	c #313855",
"aI 	c #303855",
"bI 	c #8A6C4C",
"cI 	c #EFB161",
"dI 	c #F9B149",
"eI 	c #FAB146",
"fI 	c #F6B24E",
"gI 	c #D8A662",
"hI 	c #382411",
"iI 	c #050001",
"jI 	c #2F2A18",
"kI 	c #241103",
"lI 	c #C99861",
"mI 	c #F1AF5A",
"nI 	c #F5AF50",
"oI 	c #EFB265",
"pI 	c #9E7D58",
"qI 	c #393742",
"rI 	c #343B54",
"sI 	c #343C54",
"tI 	c #212534",
"uI 	c #57575B",
"vI 	c #282828",
"wI 	c #2A2E44",
"xI 	c #303754",
"yI 	c #303755",
"zI 	c #353549",
"AI 	c #8B6C4E",
"BI 	c #EFB262",
"CI 	c #F9B248",
"DI 	c #FAB245",
"EI 	c #D9A763",
"FI 	c #3C2714",
"GI 	c #E8DCB0",
"HI 	c #B9B491",
"II 	c #251204",
"JI 	c #CA9961",
"KI 	c #F1AE5A",
"LI 	c #F5AE51",
"MI 	c #EFB366",
"NI 	c #9D7C57",
"OI 	c #383743",
"PI 	c #313B55",
"QI 	c #333D54",
"RI 	c #212634",
"SI 	c #545358",
"TI 	c #272727",
"UI 	c #313753",
"VI 	c #303753",
"WI 	c #363547",
"XI 	c #8C6C4E",
"YI 	c #F0B364",
"ZI 	c #DBA965",
"`I 	c #3E2A17",
" J 	c #302B19",
".J 	c #E7DDB0",
"+J 	c #FDEEAA",
"@J 	c #B8B491",
"#J 	c #271405",
"$J 	c #CA9A61",
"%J 	c #F1AF59",
"&J 	c #F4AF51",
"*J 	c #F3B050",
"=J 	c #EEB465",
"-J 	c #9B7B56",
";J 	c #363743",
">J 	c #323C52",
",J 	c #343E53",
"'J 	c #222734",
")J 	c #545357",
"!J 	c #262626",
"~J 	c #2A2E42",
"{J 	c #303751",
"]J 	c #363545",
"^J 	c #8D6E4E",
"/J 	c #FBB346",
"(J 	c #F8B34E",
"_J 	c #DCA966",
":J 	c #412C1A",
"<J 	c #312D1B",
"[J 	c #E7DDB1",
"}J 	c #B9B492",
"|J 	c #2A1807",
"1J 	c #CC9C61",
"2J 	c #F2B058",
"3J 	c #F4AF4F",
"4J 	c #F4B050",
"5J 	c #997B56",
"6J 	c #353742",
"7J 	c #313B54",
"8J 	c #343D52",
"9J 	c #232734",
"0J 	c #535256",
"aJ 	c #303551",
"bJ 	c #303650",
"cJ 	c #363444",
"dJ 	c #90704F",
"eJ 	c #FAB24C",
"fJ 	c #FBB347",
"gJ 	c #F8B34F",
"hJ 	c #DEA965",
"iJ 	c #432D1B",
"jJ 	c #332E1D",
"kJ 	c #E9DFB4",
"lJ 	c #FDEEB2",
"mJ 	c #2C1A0B",
"nJ 	c #CE9C63",
"oJ 	c #F2B059",
"pJ 	c #F4AF50",
"qJ 	c #F4B151",
"rJ 	c #EEB466",
"sJ 	c #9A7C57",
"tJ 	c #353743",
"uJ 	c #303A53",
"vJ 	c #505052",
"wJ 	c #292E42",
"xJ 	c #2F3550",
"yJ 	c #303550",
"zJ 	c #353343",
"AJ 	c #8F7051",
"BJ 	c #F1B466",
"CJ 	c #F8B351",
"DJ 	c #DEA866",
"EJ 	c #452F1D",
"FJ 	c #2F2A1A",
"GJ 	c #E9DEB5",
"HJ 	c #FDEEB3",
"IJ 	c #2F1B0D",
"JJ 	c #CF9D65",
"KJ 	c #F2B05C",
"LJ 	c #F4B054",
"MJ 	c #F3B153",
"NJ 	c #ECB367",
"OJ 	c #977A57",
"PJ 	c #353642",
"QJ 	c #323A52",
"RJ 	c #333B51",
"SJ 	c #242736",
"TJ 	c #232325",
"UJ 	c #02040B",
"VJ 	c #282D3D",
"WJ 	c #2F344B",
"XJ 	c #333443",
"YJ 	c #8D7259",
"ZJ 	c #EDB675",
"`J 	c #F5B35D",
" K 	c #F9B459",
".K 	c #F5B45D",
"+K 	c #DBAA6F",
"@K 	c #493424",
"#K 	c #2B2515",
"$K 	c #E7DEBA",
"%K 	c #FDF0BE",
"&K 	c #FBEFB9",
"*K 	c #FBEEB8",
"=K 	c #FCEEB7",
"-K 	c #FAEEB9",
";K 	c #F9EFBA",
">K 	c #FAEFBB",
",K 	c #F8F1C1",
"'K 	c #B9B59A",
")K 	c #332114",
"!K 	c #CDA070",
"~K 	c #EEB26B",
"{K 	c #EFB263",
"]K 	c #EDB263",
"^K 	c #E6B474",
"/K 	c #957A5F",
"(K 	c #383644",
"_K 	c #343A4D",
":K 	c #252835",
"<K 	c #48484A",
"[K 	c #575759",
"}K 	c #575859",
"|K 	c #191B26",
"1K 	c #1F2230",
"2K 	c #202332",
"3K 	c #23222E",
"4K 	c #635245",
"5K 	c #B08E66",
"6K 	c #C19761",
"7K 	c #C99A63",
"8K 	c #C69964",
"9K 	c #BA9871",
"0K 	c #5C4939",
"aK 	c #58452D",
"bK 	c #574328",
"cK 	c #564227",
"dK 	c #554026",
"eK 	c #503E29",
"fK 	c #3A2E20",
"gK 	c #A59F89",
"hK 	c #B6B092",
"iK 	c #B6B08E",
"jK 	c #B5AF8C",
"kK 	c #B4AD8B",
"lK 	c #B4AB88",
"mK 	c #E0D5A6",
"nK 	c #F8EDB2",
"oK 	c #B1A981",
"pK 	c #938D6F",
"qK 	c #948E71",
"rK 	c #928D73",
"sK 	c #928D74",
"tK 	c #928E78",
"uK 	c #716E61",
"vK 	c #463929",
"wK 	c #5E4C32",
"xK 	c #614C2D",
"yK 	c #644E2F",
"zK 	c #634E2F",
"AK 	c #604D36",
"BK 	c #453527",
"CK 	c #987C5E",
"DK 	c #B08C60",
"EK 	c #B18A5A",
"FK 	c #AD8958",
"GK 	c #9F8059",
"HK 	c #655446",
"IK 	c #2C2A35",
"JK 	c #272A3A",
"KK 	c #262936",
"LK 	c #1F202A",
"MK 	c #454448",
"NK 	c #4C4D4E",
"OK 	c #515253",
"PK 	c #575758",
"QK 	c #282024",
"RK 	c #3E363C",
"SK 	c #3C3339",
"TK 	c #3B2F30",
"UK 	c #8D7457",
"VK 	c #DFB477",
"WK 	c #E4B26A",
"XK 	c #E5B26A",
"YK 	c #E2B16B",
"ZK 	c #DEB47B",
"`K 	c #7B6445",
" L 	c #BAB291",
".L 	c #F8EBB6",
"+L 	c #7D785F",
"@L 	c #9F845E",
"#L 	c #E5B978",
"$L 	c #E9B96C",
"%L 	c #EBB96B",
"&L 	c #E8B96D",
"*L 	c #DDB47A",
"=L 	c #766248",
"-L 	c #353133",
";L 	c #353337",
">L 	c #323133",
",L 	c #060206",
"'L 	c #19191F",
")L 	c #535456",
"!L 	c #1E1F2E",
"~L 	c #33364F",
"{L 	c #33374E",
"]L 	c #37333F",
"^L 	c #927654",
"/L 	c #F1BC70",
"(L 	c #FABA5D",
"_L 	c #FBBA5C",
":L 	c #F8B95F",
"<L 	c #F1BE77",
"[L 	c #846943",
"}L 	c #B9B192",
"|L 	c #F8ECB8",
"1L 	c #7E7961",
"2L 	c #A78555",
"3L 	c #F3BE6D",
"4L 	c #F6BC5E",
"5L 	c #F6BC5A",
"6L 	c #F5BD5E",
"7L 	c #E8BA70",
"8L 	c #745F40",
"9L 	c #333640",
"0L 	c #323849",
"aL 	c #313749",
"bL 	c #05070F",
"cL 	c #242428",
"dL 	c #313651",
"eL 	c #313750",
"fL 	c #373543",
"gL 	c #937752",
"hL 	c #F4BD6C",
"iL 	c #FDB959",
"jL 	c #FCB957",
"kL 	c #F9B95C",
"lL 	c #F3BF74",
"mL 	c #836841",
"nL 	c #BAB293",
"oL 	c #F6EDB8",
"pL 	c #7E7B62",
"qL 	c #A68451",
"rL 	c #F3BF69",
"sL 	c #F7BC58",
"tL 	c #F4BC5C",
"uL 	c #E8BA6D",
"vL 	c #725E3E",
"wL 	c #333641",
"xL 	c #31394B",
"yL 	c #31384C",
"zL 	c #2E3445",
"AL 	c #060712",
"BL 	c #252629",
"CL 	c #1D1E2D",
"DL 	c #32374F",
"EL 	c #323950",
"FL 	c #373744",
"GL 	c #927752",
"HL 	c #F2BC6C",
"IL 	c #FBB957",
"JL 	c #FAB95A",
"KL 	c #F5BF72",
"LL 	c #836740",
"ML 	c #BCB395",
"NL 	c #F6EEB8",
"OL 	c #7F7C64",
"PL 	c #A48351",
"QL 	c #F3BF6B",
"RL 	c #E8BA6F",
"SL 	c #705C3D",
"TL 	c #333943",
"UL 	c #2F3A4C",
"VL 	c #30394B",
"WL 	c #2F3546",
"XL 	c #060713",
"YL 	c #242528",
"ZL 	c #323A51",
"`L 	c #363845",
" M 	c #907754",
".M 	c #F3BD6F",
"+M 	c #F9BA5C",
"@M 	c #F8BA5E",
"#M 	c #F3C074",
"$M 	c #81673F",
"%M 	c #BDB496",
"&M 	c #F6EEB9",
"*M 	c #807C64",
"=M 	c #9F8053",
"-M 	c #F2C071",
";M 	c #F3BC5F",
">M 	c #F4BC61",
",M 	c #E6B972",
"'M 	c #6F5C3F",
")M 	c #333A43",
"!M 	c #303C4D",
"~M 	c #303B4C",
"{M 	c #303745",
"]M 	c #080A13",
"^M 	c #232427",
"/M 	c #31394D",
"(M 	c #353748",
"_M 	c #8C775F",
":M 	c #EBBF81",
"<M 	c #F1BD71",
"[M 	c #F2BD72",
"}M 	c #F2BD75",
"|M 	c #EDC387",
"1M 	c #7D694A",
"2M 	c #BDB696",
"3M 	c #FDF0B0",
"4M 	c #817E65",
"5M 	c #957D59",
"6M 	c #EAC284",
"7M 	c #ECBF74",
"8M 	c #ECBE73",
"9M 	c #EABD74",
"0M 	c #DCBB82",
"aM 	c #6B5E49",
"bM 	c #333A46",
"cM 	c #313D4E",
"dM 	c #313C4E",
"eM 	c #313948",
"fM 	c #080B15",
"gM 	c #202124",
"hM 	c #303A4E",
"iM 	c #313B52",
"jM 	c #353A4E",
"kM 	c #5F5752",
"lM 	c #927D5E",
"mM 	c #987D55",
"nM 	c #9A7D57",
"oM 	c #9A7C59",
"pM 	c #988267",
"qM 	c #514639",
"rM 	c #BEB799",
"sM 	c #FCEFA9",
"tM 	c #FBF0B1",
"uM 	c #F6EFBA",
"vM 	c #817F65",
"wM 	c #534839",
"xM 	c #897559",
"yM 	c #8B7451",
"zM 	c #8C7651",
"AM 	c #8B7652",
"BM 	c #84765B",
"CM 	c #4B4A47",
"DM 	c #333C4C",
"EM 	c #313D50",
"FM 	c #323E50",
"GM 	c #313A4A",
"HM 	c #080C17",
"IM 	c #1F2023",
"JM 	c #555658",
"KM 	c #313B50",
"LM 	c #313C54",
"MM 	c #333D53",
"NM 	c #383F51",
"OM 	c #3B404C",
"PM 	c #3D414B",
"QM 	c #41424C",
"RM 	c #41444F",
"SM 	c #1F222A",
"TM 	c #BFB899",
"UM 	c #FDF0AB",
"VM 	c #F5EFBA",
"WM 	c #828066",
"XM 	c #22262D",
"YM 	c #3B404A",
"ZM 	c #393D48",
"`M 	c #3A3D47",
" N 	c #383D48",
".N 	c #363F4E",
"+N 	c #323F52",
"@N 	c #333F50",
"#N 	c #323B4A",
"$N 	c #080C16",
"%N 	c #1E1F22",
"&N 	c #535455",
"*N 	c #191D29",
"=N 	c #313A4E",
"-N 	c #333E54",
";N 	c #364157",
">N 	c #384358",
",N 	c #384459",
"'N 	c #3C465A",
")N 	c #3E485A",
"!N 	c #1E242F",
"~N 	c #C0B999",
"{N 	c #FBF1AF",
"]N 	c #F5EEB9",
"^N 	c #827F66",
"/N 	c #1F2532",
"(N 	c #374053",
"_N 	c #353F53",
":N 	c #363F54",
"<N 	c #363F53",
"[N 	c #343F55",
"}N 	c #323F55",
"|N 	c #324053",
"1N 	c #323F51",
"2N 	c #323C4B",
"3N 	c #505150",
"4N 	c #181D29",
"5N 	c #31394E",
"6N 	c #343C56",
"7N 	c #364257",
"8N 	c #384359",
"9N 	c #39435A",
"0N 	c #3A445C",
"aN 	c #3D485A",
"bN 	c #1D232E",
"cN 	c #FAEFB6",
"dN 	c #FDEFAB",
"eN 	c #807E65",
"fN 	c #1D232F",
"gN 	c #373F54",
"hN 	c #343E55",
"iN 	c #343E54",
"jN 	c #334055",
"kN 	c #324055",
"lN 	c #314054",
"mN 	c #324052",
"nN 	c #323D4B",
"oN 	c #080D16",
"pN 	c #4D4F4F",
"qN 	c #313A51",
"rN 	c #333D58",
"sN 	c #364357",
"tN 	c #374359",
"uN 	c #39455B",
"vN 	c #3D485C",
"wN 	c #BFB99A",
"xN 	c #FAEEB7",
"yN 	c #FBEFAF",
"zN 	c #F5EEBA",
"AN 	c #1B222E",
"BN 	c #353F54",
"CN 	c #343F56",
"DN 	c #333F55",
"EN 	c #324054",
"FN 	c #4E4F51",
"GN 	c #343D56",
"HN 	c #364258",
"IN 	c #3C485A",
"JN 	c #1C222E",
"KN 	c #807D65",
"LN 	c #1A212E",
"MN 	c #353F52",
"NN 	c #334054",
"ON 	c #333F56",
"PN 	c #324057",
"QN 	c #314055",
"RN 	c #323E4C",
"SN 	c #090E16",
"TN 	c #191C2A",
"UN 	c #31394F",
"VN 	c #323E53",
"WN 	c #36425A",
"XN 	c #39435B",
"YN 	c #394658",
"ZN 	c #3C4758",
"`N 	c #1B212C",
" O 	c #FDF0AC",
".O 	c #FBF0AE",
"+O 	c #F5EFB9",
"@O 	c #807E64",
"#O 	c #1A202C",
"$O 	c #353E51",
"%O 	c #333F4D",
"&O 	c #090F16",
"*O 	c #505152",
"=O 	c #323E52",
"-O 	c #364259",
";O 	c #37425A",
">O 	c #38425B",
",O 	c #394659",
"'O 	c #3B4757",
")O 	c #1B212B",
"!O 	c #BFB797",
"~O 	c #FAF1AF",
"{O 	c #F6F0B9",
"]O 	c #181F2B",
"^O 	c #343E51",
"/O 	c #343F54",
"(O 	c #333E4D",
"_O 	c #090E15",
":O 	c #525453",
"<O 	c #30394F",
"[O 	c #323E54",
"}O 	c #39425B",
"|O 	c #3A4656",
"1O 	c #1B202A",
"2O 	c #BFB697",
"3O 	c #FCEFB8",
"4O 	c #FBEFAB",
"5O 	c #F7F0BA",
"6O 	c #838067",
"7O 	c #333E50",
"8O 	c #323F53",
"9O 	c #333E4E",
"0O 	c #0A0F17",
"aO 	c #535555",
"bO 	c #323D54",
"cO 	c #364158",
"dO 	c #38425A",
"eO 	c #384458",
"fO 	c #3B4556",
"gO 	c #BEB597",
"hO 	c #FCEFAA",
"iO 	c #FCF0AD",
"jO 	c #858269",
"kO 	c #313F52",
"lO 	c #0A0F18",
"mO 	c #212125",
"nO 	c #545557",
"oO 	c #30384E",
"pO 	c #323D53",
"qO 	c #374159",
"rO 	c #1A1E29",
"sO 	c #FAF1B0",
"tO 	c #F6EFBC",
"uO 	c #85836B",
"vO 	c #313F51",
"wO 	c #333D55",
"xO 	c #333E57",
"yO 	c #333F57",
"zO 	c #323E4E",
"AO 	c #545657",
"BO 	c #30374D",
"CO 	c #364056",
"DO 	c #364359",
"EO 	c #3A4555",
"FO 	c #191E28",
"GO 	c #FCEFAD",
"HO 	c #FBEFAE",
"IO 	c #FBF1AD",
"JO 	c #F6F0BE",
"KO 	c #85836D",
"LO 	c #171D29",
"MO 	c #313E51",
"NO 	c #333E55",
"OO 	c #333E56",
"PO 	c #0B1018",
"QO 	c #212225",
"RO 	c #545655",
"SO 	c #171A28",
"TO 	c #30364C",
"UO 	c #364457",
"VO 	c #394554",
"WO 	c #191F28",
"XO 	c #C0B899",
"YO 	c #FEEEA8",
"ZO 	c #FEEFA7",
"`O 	c #FEEBA5",
" P 	c #FDEDA6",
".P 	c #FFEDA7",
"+P 	c #FFEDA3",
"@P 	c #FEEDA3",
"#P 	c #FBF0AD",
"$P 	c #FAF2B1",
"%P 	c #F6F1BF",
"&P 	c #85836C",
"*P 	c #161C28",
"=P 	c #313F54",
"-P 	c #171B28",
";P 	c #364057",
">P 	c #37435B",
",P 	c #3A4554",
"'P 	c #191F29",
")P 	c #C1BA9B",
"!P 	c #FBE89F",
"~P 	c #F8DD8E",
"{P 	c #FADB89",
"]P 	c #FADB87",
"^P 	c #FADA86",
"/P 	c #FADA87",
"(P 	c #F9E096",
"_P 	c #FDEBA1",
":P 	c #F7DE8F",
"<P 	c #F9DD89",
"[P 	c #FADC87",
"}P 	c #FADB86",
"|P 	c #F8DD8C",
"1P 	c #FCE79C",
"2P 	c #FDEAA1",
"3P 	c #F7DB8C",
"4P 	c #F9DA87",
"5P 	c #F9D986",
"6P 	c #F9DA84",
"7P 	c #F9DA85",
"8P 	c #F7DC8C",
"9P 	c #F7DD90",
"0P 	c #F5D581",
"aP 	c #F7D47F",
"bP 	c #F7D47D",
"cP 	c #F7D47C",
"dP 	c #F6D37A",
"eP 	c #EFD27D",
"fP 	c #F9E69C",
"gP 	c #FBF0AC",
"hP 	c #FBF2AE",
"iP 	c #FAF2B2",
"jP 	c #F7F2BF",
"kP 	c #85826C",
"lP 	c #161C27",
"mP 	c #333E4F",
"nP 	c #313E52",
"oP 	c #0B1019",
"pP 	c #545656",
"qP 	c #2E384E",
"rP 	c #38455C",
"sP 	c #37455A",
"tP 	c #374558",
"uP 	c #3A4556",
"vP 	c #1A1F2A",
"wP 	c #C3BB9C",
"xP 	c #FCF1B9",
"yP 	c #FEF0AC",
"zP 	c #FEEFAB",
"AP 	c #FEF0AA",
"BP 	c #F6DC8C",
"CP 	c #EBB859",
"DP 	c #F2B651",
"EP 	c #F4B64E",
"FP 	c #F4B74E",
"GP 	c #F4B751",
"HP 	c #EFB755",
"IP 	c #F1CD7B",
"JP 	c #FCEFA8",
"KP 	c #FDE698",
"LP 	c #EBC266",
"MP 	c #F0BD57",
"NP 	c #F2BD54",
"OP 	c #F3BD53",
"PP 	c #F4BD53",
"QP 	c #F2BC55",
"RP 	c #EDBD5C",
"SP 	c #F7DA88",
"TP 	c #FEE697",
"UP 	c #EBC165",
"VP 	c #F2BC58",
"WP 	c #F3BB55",
"XP 	c #F4BC54",
"YP 	c #F1BB55",
"ZP 	c #EAC266",
"`P 	c #FEE89B",
" Q 	c #F3CD77",
".Q 	c #F5BA50",
"+Q 	c #F5B94D",
"@Q 	c #F4B94E",
"#Q 	c #ECBC59",
"$Q 	c #FAE193",
"%Q 	c #FCF0AE",
"&Q 	c #FAF2B4",
"*Q 	c #F7F1C1",
"=Q 	c #85826D",
"-Q 	c #323D4F",
";Q 	c #313E50",
">Q 	c #333E51",
",Q 	c #323F54",
"'Q 	c #313F53",
")Q 	c #0C1019",
"!Q 	c #212124",
"~Q 	c #2D3348",
"{Q 	c #2C354C",
"]Q 	c #2F3A50",
"^Q 	c #38445C",
"/Q 	c #38455B",
"(Q 	c #39455A",
"_Q 	c #3C4556",
":Q 	c #C5BE9E",
"<Q 	c #FCF1AE",
"[Q 	c #FDF1AC",
"}Q 	c #FFF0AD",
"|Q 	c #FFEFA9",
"1Q 	c #F9DC8A",
"2Q 	c #F2B853",
"3Q 	c #FCB547",
"4Q 	c #FBB648",
"5Q 	c #F6B54E",
"6Q 	c #F6CD77",
"7Q 	c #FDEFA9",
"8Q 	c #FFE598",
"9Q 	c #F0C262",
"0Q 	c #F8BB4D",
"aQ 	c #FBBA4C",
"bQ 	c #F9BA4D",
"cQ 	c #F2BA54",
"dQ 	c #FEE694",
"eQ 	c #F0C061",
"fQ 	c #EEC160",
"gQ 	c #FEE898",
"hQ 	c #F6CD75",
"iQ 	c #F9BB53",
"jQ 	c #FCB94B",
"kQ 	c #FCBA49",
"lQ 	c #FBB948",
"mQ 	c #F9B849",
"nQ 	c #FAF1B2",
"oQ 	c #FAF2B5",
"pQ 	c #F7F1C2",
"qQ 	c #85826E",
"rQ 	c #333C4E",
"sQ 	c #333E4C",
"tQ 	c #0C1219",
"uQ 	c #1F1E22",
"vQ 	c #2C354B",
"wQ 	c #303B50",
"xQ 	c #39455C",
"yQ 	c #3C4456",
"zQ 	c #C5BF9F",
"AQ 	c #FCF2BA",
"BQ 	c #FCF2AF",
"CQ 	c #FCF1AC",
"DQ 	c #FEF1AC",
"EQ 	c #FFF0A8",
"FQ 	c #FBDD89",
"GQ 	c #F4B954",
"HQ 	c #FDB546",
"IQ 	c #F6CD74",
"JQ 	c #FEE595",
"KQ 	c #F1C160",
"LQ 	c #F8BC4E",
"MQ 	c #F9BB4C",
"NQ 	c #FAB94B",
"OQ 	c #FBB94A",
"PQ 	c #F2BA51",
"QQ 	c #F9D882",
"RQ 	c #FEEEA5",
"SQ 	c #FEE591",
"TQ 	c #F0C05E",
"UQ 	c #F8BB51",
"VQ 	c #EEC25F",
"WQ 	c #FEE999",
"XQ 	c #FFEEA3",
"YQ 	c #FDBA4B",
"ZQ 	c #FDBB48",
"`Q 	c #FABB49",
" R 	c #F3BE58",
".R 	c #FEE393",
"+R 	c #FAF1B1",
"@R 	c #F9F2B3",
"#R 	c #F7F3C0",
"$R 	c #86836D",
"%R 	c #343B4D",
"&R 	c #313D51",
"*R 	c #313D52",
"=R 	c #303E52",
"-R 	c #323F50",
";R 	c #343E4C",
">R 	c #0D1119",
",R 	c #2A3145",
"'R 	c #2C344A",
")R 	c #2B3549",
"!R 	c #303B4F",
"~R 	c #3A465B",
"{R 	c #39465C",
"]R 	c #C5BFA1",
"^R 	c #FCF3BD",
"/R 	c #FBF2B1",
"(R 	c #FBF1B0",
"_R 	c #FCDE8E",
":R 	c #F5B956",
"<R 	c #FCB548",
"[R 	c #FEB546",
"}R 	c #FDEFAA",
"|R 	c #FFE595",
"1R 	c #F3C061",
"2R 	c #F8BA4A",
"3R 	c #F2BB52",
"4R 	c #F9D984",
"5R 	c #FEEFA6",
"6R 	c #FEE593",
"7R 	c #F0BF5F",
"8R 	c #FABB4D",
"9R 	c #F7BD4F",
"0R 	c #EEC260",
"aR 	c #FEEA9A",
"bR 	c #F7CE76",
"cR 	c #FABC52",
"dR 	c #FEBA4B",
"eR 	c #FEBB4A",
"fR 	c #F2BF5C",
"gR 	c #FEE294",
"hR 	c #F7F2BD",
"iR 	c #85826A",
"jR 	c #171C25",
"kR 	c #353D4D",
"lR 	c #323D50",
"mR 	c #323D51",
"nR 	c #323E51",
"oR 	c #323F4F",
"pR 	c #343D4B",
"qR 	c #0E121A",
"rR 	c #5A5A5A",
"sR 	c #141621",
"tR 	c #282D3C",
"uR 	c #2A3041",
"vR 	c #2A3143",
"wR 	c #2E3748",
"xR 	c #394457",
"yR 	c #38465A",
"zR 	c #3D4655",
"AR 	c #1D212A",
"BR 	c #B3AD98",
"CR 	c #E6DFB9",
"DR 	c #E4DDB0",
"ER 	c #E3DBAF",
"FR 	c #E3DAAE",
"GR 	c #E4D7A8",
"HR 	c #E5CB8C",
"IR 	c #F1B95D",
"JR 	c #FCB74A",
"KR 	c #FEB647",
"LR 	c #FDB646",
"MR 	c #FCF0AB",
"NR 	c #FFE596",
"OR 	c #F2C061",
"PR 	c #F9BA4A",
"QR 	c #F9DA82",
"RR 	c #FDEEA8",
"SR 	c #FFEFA6",
"TR 	c #FEE491",
"UR 	c #F1BF60",
"VR 	c #F7BC4E",
"WR 	c #EDC15F",
"XR 	c #FEE99A",
"YR 	c #FEF0AF",
"ZR 	c #FEBB4B",
"`R 	c #EDC16E",
" S 	c #F5DC9F",
".S 	c #F4E6B1",
"+S 	c #F3E7B5",
"@S 	c #F4E9B9",
"#S 	c #F2E9C3",
"$S 	c #898472",
"%S 	c #181C25",
"&S 	c #333B4C",
"*S 	c #303D4F",
"=S 	c #303E51",
"-S 	c #333D50",
";S 	c #353D4E",
">S 	c #343E4F",
",S 	c #343F4E",
"'S 	c #353F4F",
")S 	c #363C49",
"!S 	c #202021",
"~S 	c #878787",
"{S 	c #808180",
"]S 	c #7A7B7B",
"^S 	c #5B5B5E",
"/S 	c #090C14",
"(S 	c #090C17",
"_S 	c #2B3448",
":S 	c #2D374A",
"<S 	c #353B47",
"[S 	c #5A4C43",
"}S 	c #795B3E",
"|S 	c #765533",
"1S 	c #73522F",
"2S 	c #6F4E2C",
"3S 	c #694B30",
"4S 	c #453121",
"5S 	c #312D27",
"6S 	c #413E31",
"7S 	c #403C30",
"8S 	c #3E392E",
"9S 	c #3D362A",
"0S 	c #513B1E",
"aS 	c #E1AF60",
"bS 	c #F8B850",
"cS 	c #FCB84A",
"dS 	c #FAB749",
"eS 	c #F6B84E",
"fS 	c #F5CF75",
"gS 	c #FEE594",
"hS 	c #F1C15F",
"iS 	c #F8BB50",
"jS 	c #FBBA4F",
"kS 	c #F8BA4D",
"lS 	c #F9D983",
"mS 	c #FFEEA5",
"nS 	c #FEE391",
"oS 	c #F1C05F",
"pS 	c #F9BC4E",
"qS 	c #EDC260",
"rS 	c #FEF0AB",
"sS 	c #F6CF78",
"tS 	c #F8BD55",
"uS 	c #F9BD4F",
"vS 	c #F8BE52",
"wS 	c #ECBA62",
"xS 	c #7C5F31",
"yS 	c #64573F",
"zS 	c #655C46",
"AS 	c #645D49",
"BS 	c #665E4C",
"CS 	c #686153",
"DS 	c #413A32",
"ES 	c #56412F",
"FS 	c #583D21",
"GS 	c #583C1D",
"HS 	c #583D1E",
"IS 	c #543B1C",
"JS 	c #493620",
"KS 	c #322D2F",
"LS 	c #31384A",
"MS 	c #2E394B",
"NS 	c #303A4C",
"OS 	c #2D3546",
"PS 	c #1F2431",
"QS 	c #1C222D",
"RS 	c #1B222C",
"SS 	c #1C212C",
"TS 	c #1B1F29",
"US 	c #28282C",
"VS 	c #707172",
"WS 	c #787879",
"XS 	c #777778",
"YS 	c #7D7D7F",
"ZS 	c #A5A6A7",
"`S 	c #202235",
" T 	c #23283E",
".T 	c #24283C",
"+T 	c #2A2731",
"@T 	c #977658",
"#T 	c #E6AA6B",
"$T 	c #EAA75A",
"%T 	c #ECA859",
"&T 	c #EAA659",
"*T 	c #E4A768",
"=T 	c #8B6641",
"-T 	c #281600",
";T 	c #D8B474",
">T 	c #EEBF66",
",T 	c #EFBE5F",
"'T 	c #EFBD5E",
")T 	c #F0BE5F",
"!T 	c #EDBE5F",
"~T 	c #F2D27B",
"{T 	c #FFED9E",
"]T 	c #FFEDA1",
"^T 	c #FFECA0",
"/T 	c #EBC268",
"(T 	c #F1BE5C",
"_T 	c #F1BE5B",
":T 	c #F1BE5A",
"<T 	c #EFBE5B",
"[T 	c #EBBF60",
"}T 	c #F6DA85",
"|T 	c #FFEC9F",
"1T 	c #FEE38F",
"2T 	c #EDC063",
"3T 	c #F3BB58",
"4T 	c #F3BD58",
"5T 	c #F2BE5A",
"6T 	c #F0BD59",
"7T 	c #EAC264",
"8T 	c #FEE897",
"9T 	c #F7D786",
"0T 	c #F4CA74",
"aT 	c #F5CB74",
"bT 	c #F5CD75",
"cT 	c #F3CD79",
"dT 	c #E7C989",
"eT 	c #524329",
"fT 	c #2F1E14",
"gT 	c #C09569",
"hT 	c #E0A663",
"iT 	c #E2A65D",
"jT 	c #E1A75D",
"kT 	c #DDA65F",
"lT 	c #CEA46E",
"mT 	c #685846",
"nT 	c #313647",
"oT 	c #2E364A",
"pT 	c #30374A",
"qT 	c #565659",
"rT 	c #202232",
"sT 	c #22273C",
"tT 	c #23283B",
"uT 	c #2B282F",
"vT 	c #98724B",
"wT 	c #EFAB5D",
"xT 	c #F8A84A",
"yT 	c #F8A647",
"zT 	c #F8A649",
"AT 	c #F2AB5D",
"BT 	c #906539",
"CT 	c #231907",
"DT 	c #EBDAAE",
"ET 	c #FCE7A1",
"FT 	c #FCE59F",
"GT 	c #FCE49E",
"HT 	c #FCE49A",
"IT 	c #F2CD78",
"JT 	c #F4CD77",
"KT 	c #F5CF76",
"LT 	c #F4D078",
"MT 	c #F0D37F",
"NT 	c #FBE193",
"OT 	c #FCE196",
"PT 	c #FCE293",
"QT 	c #FCE294",
"RT 	c #FDE194",
"ST 	c #FCE193",
"TT 	c #FCE292",
"UT 	c #F3D077",
"VT 	c #F4CF78",
"WT 	c #F4CF76",
"XT 	c #F4CE75",
"YT 	c #F3D179",
"ZT 	c #FCDC89",
"`T 	c #FCDD8C",
" U 	c #FCDC8B",
".U 	c #FDDD8A",
"+U 	c #FCDD8B",
"@U 	c #F5D07B",
"#U 	c #F5D27E",
"$U 	c #F5D07C",
"%U 	c #F3D07F",
"&U 	c #FAE196",
"*U 	c #FFECAA",
"=U 	c #FEEFB4",
"-U 	c #F6ECBE",
";U 	c #5E5946",
">U 	c #311E10",
",U 	c #CD985F",
"'U 	c #F1A851",
")U 	c #F3A74A",
"!U 	c #EFA84E",
"~U 	c #DEA864",
"{U 	c #69523A",
"]U 	c #313546",
"^U 	c #2D364A",
"/U 	c #2F3549",
"(U 	c #242836",
"_U 	c #5C5D5E",
":U 	c #202333",
"<U 	c #23283C",
"[U 	c #2A2930",
"}U 	c #946E46",
"|U 	c #EFA858",
"1U 	c #F8A646",
"2U 	c #F9A645",
"3U 	c #F8A645",
"4U 	c #F3AA59",
"5U 	c #916638",
"6U 	c #1E1B0C",
"7U 	c #EAE0BF",
"8U 	c #FEF0BF",
"9U 	c #FFF0B8",
"0U 	c #FFF0B7",
"aU 	c #F6D588",
"bU 	c #F0B758",
"cU 	c #F5B551",
"dU 	c #F4B54F",
"eU 	c #F4B64F",
"fU 	c #F4B650",
"gU 	c #F0B852",
"hU 	c #E9C167",
"iU 	c #FDE9A0",
"jU 	c #FEEDAF",
"kU 	c #F2B954",
"lU 	c #F6B850",
"mU 	c #F5B850",
"nU 	c #F5B950",
"oU 	c #F5B94F",
"pU 	c #F2B952",
"qU 	c #EEC46A",
"rU 	c #FEEA9E",
"sU 	c #FDE091",
"tU 	c #EEBC5F",
"uU 	c #F6BB55",
"vU 	c #F4BB56",
"wU 	c #EEBD5F",
"xU 	c #F9DE95",
"yU 	c #FFF0B6",
"zU 	c #FCF2C0",
"AU 	c #F4EEC7",
"BU 	c #5D5B4A",
"CU 	c #301D0F",
"DU 	c #CD985D",
"EU 	c #F1A74F",
"FU 	c #F5A647",
"GU 	c #F5A547",
"HU 	c #F1A64C",
"IU 	c #DFA563",
"JU 	c #664E39",
"KU 	c #313446",
"LU 	c #2D3548",
"MU 	c #5B5D5E",
"NU 	c #1F2233",
"OU 	c #23293D",
"PU 	c #232A3B",
"QU 	c #292A31",
"RU 	c #906A44",
"SU 	c #EDA557",
"TU 	c #F8A446",
"UU 	c #F8A444",
"VU 	c #F8A445",
"WU 	c #F2A958",
"XU 	c #916636",
"YU 	c #1C180A",
"ZU 	c #E9E1C1",
"`U 	c #FDF2C3",
" V 	c #FEF2BD",
".V 	c #FDF1BC",
"+V 	c #FFF0B4",
"@V 	c #F7D589",
"#V 	c #F3B653",
"$V 	c #FAB44C",
"%V 	c #FAB54C",
"&V 	c #FBB44B",
"*V 	c #F9B44B",
"=V 	c #F5B64C",
"-V 	c #ECC066",
";V 	c #F6D27F",
">V 	c #F6B950",
",V 	c #FBB649",
"'V 	c #F9B84A",
")V 	c #F7BA4E",
"!V 	c #F0C66A",
"~V 	c #F9DF97",
"{V 	c #FDF0B8",
"]V 	c #FCF3BE",
"^V 	c #FCF2BF",
"/V 	c #5B5848",
"(V 	c #2E1A0D",
"_V 	c #CB955D",
":V 	c #F0A550",
"<V 	c #F5A448",
"[V 	c #F5A446",
"}V 	c #F1A44C",
"|V 	c #DEA464",
"1V 	c #624A37",
"2V 	c #313447",
"3V 	c #2C334B",
"4V 	c #2D3349",
"5V 	c #5C5E5F",
"6V 	c #1F2333",
"7V 	c #242A3E",
"8V 	c #292A32",
"9V 	c #896746",
"0V 	c #E7A45D",
"aV 	c #F1A34D",
"bV 	c #F4A34C",
"cV 	c #F3A44E",
"dV 	c #F0AA60",
"eV 	c #90663C",
"fV 	c #1C1809",
"gV 	c #E9E2BF",
"hV 	c #FEF2C0",
"iV 	c #FDF2BD",
"jV 	c #FDF2BC",
"kV 	c #FDF2BB",
"lV 	c #F7D689",
"mV 	c #F4B652",
"nV 	c #FBB44C",
"oV 	c #FCB34C",
"pV 	c #FAB44A",
"qV 	c #F5B54C",
"rV 	c #EDC166",
"sV 	c #FDF1B3",
"tV 	c #FEF0B3",
"uV 	c #FFEEAC",
"vV 	c #F7D37F",
"wV 	c #FCB749",
"xV 	c #FCB74B",
"yV 	c #FBB749",
"zV 	c #F1C669",
"AV 	c #FEED9F",
"BV 	c #FEF0AD",
"CV 	c #FDE292",
"DV 	c #F1BD5C",
"EV 	c #FAB950",
"FV 	c #FAE098",
"GV 	c #FCF1B7",
"HV 	c #FBF3BD",
"IV 	c #FDF3BE",
"JV 	c #F4EDC6",
"KV 	c #575344",
"LV 	c #2A170C",
"MV 	c #C59462",
"NV 	c #ECA658",
"OV 	c #EFA54E",
"PV 	c #F0A54D",
"QV 	c #EBA653",
"RV 	c #D7A367",
"SV 	c #5D4737",
"TV 	c #2F3446",
"UV 	c #2B334D",
"VV 	c #2C324A",
"WV 	c #222636",
"XV 	c #5E5E61",
"YV 	c #1F2334",
"ZV 	c #292A37",
"`V 	c #77614F",
" W 	c #C99C6F",
".W 	c #D19C65",
"+W 	c #D49D67",
"@W 	c #D49E68",
"#W 	c #D2A375",
"$W 	c #7D6047",
"%W 	c #1C1909",
"&W 	c #E9E3BE",
"*W 	c #FDF3C0",
"=W 	c #FEF2BC",
"-W 	c #F7D68A",
";W 	c #F4B754",
">W 	c #FBB54B",
",W 	c #FBB54A",
"'W 	c #FBB44A",
")W 	c #F9B54A",
"!W 	c #F5B64E",
"~W 	c #EDC266",
"{W 	c #FEECA1",
"]W 	c #FDF2B2",
"^W 	c #FDF1B2",
"/W 	c #F8D480",
"(W 	c #FEB84B",
"_W 	c #FDB74A",
":W 	c #F1C66A",
"<W 	c #FFEFAD",
"[W 	c #FEF2B7",
"}W 	c #FDF3BD",
"|W 	c #FEF3BD",
"1W 	c #FEF3BF",
"2W 	c #524F3F",
"3W 	c #1E110A",
"4W 	c #A28565",
"5W 	c #C39765",
"6W 	c #C69760",
"7W 	c #C49863",
"8W 	c #B3936D",
"9W 	c #4E433E",
"0W 	c #2C3347",
"aW 	c #29324C",
"bW 	c #2B3249",
"cW 	c #222635",
"dW 	c #5F5F62",
"eW 	c #262B3F",
"fW 	c #262C3F",
"gW 	c #50423D",
"hW 	c #544339",
"iW 	c #57463D",
"jW 	c #58463E",
"kW 	c #594A44",
"lW 	c #342A28",
"mW 	c #211F0F",
"nW 	c #EAE5BE",
"oW 	c #FEF3C0",
"pW 	c #F7D688",
"qW 	c #F4B853",
"rW 	c #FAB64C",
"sW 	c #F9B549",
"tW 	c #F8B54A",
"uW 	c #EDC165",
"vW 	c #FEF1B4",
"wW 	c #FFF0AA",
"xW 	c #F7D67F",
"yW 	c #F6BA52",
"zW 	c #FDB84D",
"AW 	c #FCB849",
"BW 	c #FDB84A",
"CW 	c #F3BE5D",
"DW 	c #FEBA4E",
"EW 	c #F4BF5E",
"FW 	c #FEF4BC",
"GW 	c #FEF3BE",
"HW 	c #F4EDC3",
"IW 	c #504D3A",
"JW 	c #080709",
"KW 	c #322D2D",
"LW 	c #3B332E",
"MW 	c #3E3530",
"NW 	c #403631",
"OW 	c #3E3632",
"PW 	c #393538",
"QW 	c #2C3141",
"RW 	c #28314A",
"SW 	c #28324B",
"TW 	c #2A3247",
"UW 	c #212533",
"VW 	c #616263",
"WW 	c #212333",
"XW 	c #262C40",
"YW 	c #252D42",
"ZW 	c #252E41",
"`W 	c #293244",
" X 	c #2F3849",
".X 	c #323949",
"+X 	c #32384A",
"@X 	c #333849",
"#X 	c #1B1D2A",
"$X 	c #252413",
"%X 	c #ECE6BF",
"&X 	c #FEF3BC",
"*X 	c #FEF2BB",
"=X 	c #FFF1B8",
"-X 	c #FFEFB0",
";X 	c #F8D688",
">X 	c #F3B856",
",X 	c #F9B64F",
"'X 	c #F8B64F",
")X 	c #F7B54C",
"!X 	c #F6B64C",
"~X 	c #F3B750",
"{X 	c #EDC268",
"]X 	c #FCF1B2",
"^X 	c #FEF0AE",
"/X 	c #FFEFA8",
"(X 	c #F4BA53",
"_X 	c #F2C66C",
":X 	c #FEF0B0",
"<X 	c #FBBA53",
"[X 	c #FDBB50",
"}X 	c #FCBC51",
"|X 	c #FABC53",
"1X 	c #F5BF60",
"2X 	c #FBDF94",
"3X 	c #FDF1B9",
"4X 	c #FDF3B7",
"5X 	c #FCF3B9",
"6X 	c #F4EDBF",
"7X 	c #4F4B37",
"8X 	c #04080F",
"9X 	c #292F45",
"0X 	c #283247",
"aX 	c #26314B",
"bX 	c #202633",
"cX 	c #626465",
"dX 	c #A6A7A6",
"eX 	c #202433",
"fX 	c #232E42",
"gX 	c #2C384F",
"hX 	c #2E3950",
"iX 	c #2D3A4F",
"jX 	c #2C3A4F",
"kX 	c #30384D",
"lX 	c #2C2713",
"mX 	c #F0E5B7",
"nX 	c #FFF1B3",
"oX 	c #FFF1AF",
"pX 	c #F6D586",
"qX 	c #EBBA61",
"rX 	c #EEB95C",
"sX 	c #EEB85A",
"tX 	c #EEB95A",
"uX 	c #ECBA5B",
"vX 	c #EABA5D",
"wX 	c #E8C36D",
"xX 	c #FFEFA7",
"yX 	c #FFEEA2",
"zX 	c #EDBB5D",
"AX 	c #F2BB56",
"BX 	c #FEE28F",
"CX 	c #EFC064",
"DX 	c #F5BC5D",
"EX 	c #F5BD59",
"FX 	c #F5BE59",
"GX 	c #F2C164",
"HX 	c #FBDC8E",
"IX 	c #FFF1AB",
"JX 	c #F5EBB5",
"KX 	c #4E4932",
"LX 	c #24293C",
"MX 	c #26314A",
"NX 	c #283248",
"OX 	c #646566",
"PX 	c #ADAEAD",
"QX 	c #202434",
"RX 	c #2C3850",
"SX 	c #2F384D",
"TX 	c #32230B",
"UX 	c #E0C488",
"VX 	c #F2CC7B",
"WX 	c #F1C873",
"XX 	c #EFC670",
"YX 	c #EFC56F",
"ZX 	c #EDC46F",
"`X 	c #F4D484",
" Y 	c #FCE299",
".Y 	c #FDE29C",
"+Y 	c #FCE19A",
"@Y 	c #FCE199",
"#Y 	c #FDE298",
"$Y 	c #FCE298",
"%Y 	c #FBE094",
"&Y 	c #EFD07E",
"*Y 	c #F1CE77",
"=Y 	c #F2CE77",
"-Y 	c #F6D781",
";Y 	c #FCE08F",
">Y 	c #FDDF8E",
",Y 	c #FCDE8C",
"'Y 	c #FDDF8C",
")Y 	c #FCDF8C",
"!Y 	c #FBDD8A",
"~Y 	c #EFCC79",
"{Y 	c #F2CC75",
"]Y 	c #F4CC72",
"^Y 	c #F4CD74",
"/Y 	c #F3CE76",
"(Y 	c #F9DB88",
"_Y 	c #FBDB8E",
":Y 	c #FBDB8D",
"<Y 	c #F1CA76",
"[Y 	c #F1CB73",
"}Y 	c #F1CC72",
"|Y 	c #E5C98A",
"1Y 	c #4B3C22",
"2Y 	c #030004",
"3Y 	c #040810",
"4Y 	c #252A3C",
"5Y 	c #282F48",
"6Y 	c #26304C",
"7Y 	c #1F2533",
"8Y 	c #B0B2B1",
"9Y 	c #1F2435",
"0Y 	c #252D43",
"aY 	c #2D3952",
"bY 	c #2F384E",
"cY 	c #382105",
"dY 	c #DDAD65",
"eY 	c #F5B653",
"fY 	c #F8B44A",
"gY 	c #F8B449",
"hY 	c #F7B44B",
"iY 	c #F0B450",
"jY 	c #F6D686",
"kY 	c #FEF0BA",
"lY 	c #FFF1BA",
"mY 	c #FFEAA4",
"nY 	c #ECC469",
"oY 	c #F4BB53",
"pY 	c #F7BB50",
"qY 	c #F6BA50",
"rY 	c #F7BA50",
"sY 	c #F6B84F",
"tY 	c #F1BA54",
"uY 	c #F5D680",
"vY 	c #FFF1AD",
"wY 	c #FFF0AB",
"xY 	c #FEF0A9",
"yY 	c #FFF0A9",
"zY 	c #FEE899",
"AY 	c #EABB5F",
"BY 	c #F6B64A",
"CY 	c #F6B64B",
"DY 	c #F5B74C",
"EY 	c #F2B951",
"FY 	c #FEF1B0",
"GY 	c #FEF1AE",
"HY 	c #EEC267",
"IY 	c #F4B850",
"JY 	c #F7B94C",
"KY 	c #F6B94B",
"LY 	c #E3B56B",
"MY 	c #4D3517",
"NY 	c #252B3D",
"OY 	c #1F2633",
"PY 	c #67676A",
"QY 	c #B1B3B2",
"RY 	c #28344C",
"SY 	c #3C2205",
"TY 	c #E3AD62",
"UY 	c #FBB54D",
"VY 	c #FDB445",
"WY 	c #FDB444",
"XY 	c #FCB244",
"YY 	c #F3B34C",
"ZY 	c #F9D687",
"`Y 	c #FFF1B7",
" Z 	c #FEF1BC",
".Z 	c #FDF2BA",
"+Z 	c #FCBA4B",
"@Z 	c #F5BB51",
"#Z 	c #F7D881",
"$Z 	c #FEF1AB",
"%Z 	c #FDF1B1",
"&Z 	c #FEF1B1",
"*Z 	c #FEF1AF",
"=Z 	c #FFF1AC",
"-Z 	c #EDBC5C",
";Z 	c #F8B749",
">Z 	c #FAB747",
",Z 	c #FAB748",
"'Z 	c #EFC368",
")Z 	c #FDF2B5",
"!Z 	c #FCF2B9",
"~Z 	c #FCF3B6",
"{Z 	c #FEF2B3",
"]Z 	c #EFC165",
"^Z 	c #F8B74A",
"/Z 	c #FDB846",
"(Z 	c #E9B767",
"_Z 	c #523918",
":Z 	c #27324B",
"<Z 	c #1F2634",
"[Z 	c #1E2433",
"}Z 	c #262E47",
"|Z 	c #171D2E",
"1Z 	c #3F2606",
"2Z 	c #E3AE60",
"3Z 	c #FEB445",
"4Z 	c #FFB342",
"5Z 	c #FDB243",
"6Z 	c #F4B34C",
"7Z 	c #F9D688",
"8Z 	c #FEF1BD",
"9Z 	c #FEF1BE",
"0Z 	c #FDF3BB",
"aZ 	c #F1C368",
"bZ 	c #FEB94B",
"cZ 	c #FBBA4B",
"dZ 	c #F6BC52",
"eZ 	c #F8DA82",
"fZ 	c #FFF2AA",
"gZ 	c #FDF2B1",
"hZ 	c #FEE799",
"iZ 	c #ECBD5C",
"jZ 	c #FBB746",
"kZ 	c #FCF2B5",
"lZ 	c #FDF3B9",
"mZ 	c #FEF3B5",
"nZ 	c #F0C265",
"oZ 	c #FBB845",
"pZ 	c #F7B94B",
"qZ 	c #E9B965",
"rZ 	c #553D19",
"sZ 	c #252C3C",
"tZ 	c #AEB0B0",
"uZ 	c #181E2E",
"vZ 	c #432B0A",
"wZ 	c #E4AF60",
"xZ 	c #FCB54D",
"yZ 	c #FFB345",
"zZ 	c #FFB242",
"AZ 	c #F4B34B",
"BZ 	c #FAD788",
"CZ 	c #FDF1BE",
"DZ 	c #FDF1BF",
"EZ 	c #FEF3BB",
"FZ 	c #FFEAA7",
"GZ 	c #F5BC54",
"HZ 	c #FFF2A9",
"IZ 	c #FEF3B0",
"JZ 	c #FDF2B0",
"KZ 	c #FEF2AC",
"LZ 	c #EDBF5C",
"MZ 	c #FCB848",
"NZ 	c #F0C668",
"OZ 	c #FFEEA4",
"PZ 	c #FEF2B5",
"QZ 	c #FDF1B8",
"RZ 	c #FDF2B8",
"SZ 	c #F9B74A",
"TZ 	c #FCB846",
"UZ 	c #FBB944",
"VZ 	c #F7BA4A",
"WZ 	c #E9BB64",
"XZ 	c #57411B",
"YZ 	c #252D3D",
"ZZ 	c #26324B",
"`Z 	c #ADAEB0",
" ` 	c #1E2533",
".` 	c #252D45",
"+` 	c #452C0D",
"@` 	c #E6B163",
"#` 	c #FBB54E",
"$` 	c #FEB446",
"%` 	c #FEB344",
"&` 	c #FCB344",
"*` 	c #F3B44C",
"=` 	c #FEF2BE",
"-` 	c #FFE9A7",
";` 	c #F1C36A",
">` 	c #FABD53",
",` 	c #FDBC4E",
"'` 	c #FBBC4E",
")` 	c #F5BE57",
"!` 	c #FADC89",
"~` 	c #FFF2AB",
"{` 	c #FEF3AF",
"]` 	c #FDF2AF",
"^` 	c #FEF2AF",
"/` 	c #EEBF5D",
"(` 	c #EFC76A",
"_` 	c #FEF3BA",
":` 	c #FDF3B8",
"<` 	c #EFC266",
"[` 	c #FCB844",
"}` 	c #EABA64",
"|` 	c #58411C",
"1` 	c #262D3F",
"2` 	c #283149",
"3` 	c #273346",
"4` 	c #212734",
"5` 	c #ABACAE",
"6` 	c #1E2534",
"7` 	c #232E41",
"8` 	c #442D0F",
"9` 	c #E3B368",
"0` 	c #F7B753",
"a` 	c #F8B44C",
"b` 	c #EFB553",
"c` 	c #F9DA8E",
"d` 	c #FEF2BA",
"e` 	c #FEF2C1",
"f` 	c #FDF2C1",
"g` 	c #FEF2C2",
"h` 	c #FFF1C3",
"i` 	c #FFF2BF",
"j` 	c #FFEBAC",
"k` 	c #F0C672",
"l` 	c #F9BD59",
"m` 	c #FABE58",
"n` 	c #F9BE56",
"o` 	c #F8BE56",
"p` 	c #F3C060",
"q` 	c #FAE091",
"r` 	c #FEF3B1",
"s` 	c #FEF3B6",
"t` 	c #FCF2B6",
"u` 	c #FCF2B7",
"v` 	c #FDF2B6",
"w` 	c #FEF2B2",
"x` 	c #EDC167",
"y` 	c #F6BA58",
"z` 	c #F9BA55",
"A` 	c #F4BF5A",
"B` 	c #EDCA74",
"C` 	c #FEF3B9",
"D` 	c #EEC36E",
"E` 	c #F6B952",
"F` 	c #FAB94D",
"G` 	c #FAB94C",
"H` 	c #F6BB50",
"I` 	c #E8BA68",
"J` 	c #57411D",
"K` 	c #262E3E",
"L` 	c #202734",
"M` 	c #A6A7A9",
"N` 	c #1E2431",
"O` 	c #252F3F",
"P` 	c #262F3F",
"Q` 	c #272E40",
"R` 	c #233041",
"S` 	c #252F40",
"T` 	c #273040",
"U` 	c #44311A",
"V` 	c #D8B379",
"W` 	c #E7B56B",
"X` 	c #E7B266",
"Y` 	c #E4B065",
"Z` 	c #E2AE65",
"`` 	c #DAAF6A",
"  .	c #E8D19A",
". .	c #EFE7BC",
"+ .	c #EEE6C1",
"@ .	c #EEE6C4",
"# .	c #EDE5C4",
"$ .	c #EEE5C1",
"% .	c #EDDEB2",
"& .	c #DBBD82",
"* .	c #DDB673",
"= .	c #DFB371",
"- .	c #DEB371",
"; .	c #DDB36F",
"> .	c #DCB56F",
", .	c #D9B877",
"' .	c #E5D29C",
") .	c #E8DFB3",
"! .	c #E9E0B7",
"~ .	c #E8E0B7",
"{ .	c #E7E0B8",
"] .	c #E8E1B8",
"^ .	c #E8DFB5",
"/ .	c #E7D8A7",
"( .	c #D2B278",
"_ .	c #D6AC6D",
": .	c #D9AD6B",
"< .	c #DAAE6B",
"[ .	c #D8AF6C",
"} .	c #D6B06E",
"| .	c #D5BD85",
"1 .	c #E6DBAF",
"2 .	c #E4DEB5",
"3 .	c #E6DFB6",
"4 .	c #E7DFB9",
"5 .	c #E9DFB7",
"6 .	c #E9DAAB",
"7 .	c #D8B67B",
"8 .	c #DEAF68",
"9 .	c #E1B065",
"0 .	c #E2B164",
"a .	c #E0B368",
"b .	c #D4B275",
"c .	c #4F3F23",
"d .	c #050A11",
"e .	c #262F3B",
"f .	c #293343",
"g .	c #2A3243",
"h .	c #283244",
"i .	c #1F2531",
"j .	c #A1A2A4",
"k .	c #121A25",
"l .	c #121924",
"m .	c #131923",
"n .	c #180D05",
"o .	c #4E3B26",
"p .	c #543C20",
"q .	c #533A1E",
"r .	c #4F381E",
"s .	c #4B351D",
"t .	c #46351F",
"u .	c #473E2D",
"v .	c #484537",
"w .	c #474538",
"x .	c #464438",
"y .	c #464338",
"z .	c #464237",
"A .	c #463F31",
"B .	c #403423",
"C .	c #40311E",
"D .	c #40301E",
"E .	c #3F2F1E",
"F .	c #3E2F1D",
"G .	c #3D2F1D",
"H .	c #3C3020",
"I .	c #3F372A",
"J .	c #3F3B2F",
"K .	c #403C31",
"L .	c #3F3D31",
"M .	c #3F3C30",
"N .	c #3F392B",
"O .	c #382C1D",
"P .	c #382A1A",
"Q .	c #3A2A1A",
"R .	c #3B2B1A",
"S .	c #392B1B",
"T .	c #392C1C",
"U .	c #393022",
"V .	c #3C372C",
"W .	c #3B392E",
"X .	c #3C3A2F",
"Y .	c #3D3A30",
"Z .	c #3E3B30",
"` .	c #423B2D",
" ..	c #413320",
"...	c #46321C",
"+..	c #47331C",
"@..	c #49351C",
"#..	c #48361E",
"$..	c #453622",
"%..	c #170F05",
"&..	c #0D1219",
"*..	c #0E141E",
"=..	c #0F131E",
"-..	c #0E131F",
";..	c #0D131F",
">..	c #0A0D16",
",..	c #696A6B",
"'..	c #9C9D9F",
")..	c #000307",
"!..	c #696A6A",
"~..	c #8D8E8F",
"{..	c #676868",
"]..	c #858685",
"^..	c #5C5C5C",
"/..	c #737373",
"(..	c #636468",
"_..	c #050201",
":..	c #070200",
"<..	c #070201",
"[..	c #090201",
"}..	c #080300",
"|..	c #070300",
"1..	c #060300",
"2..	c #070400",
"3..	c #090400",
"4..	c #080400",
"5..	c #080200",
"6..	c #070100",
"7..	c #050200",
"8..	c #050400",
"9..	c #0A0301",
"0..	c #0A0401",
"a..	c #090401",
"b..	c #090501",
"c..	c #0A0501",
"d..	c #0B0601",
"e..	c #0C0601",
"f..	c #0D0702",
"g..	c #0F0702",
"h..	c #100803",
"i..	c #100903",
"j..	c #110903",
"k..	c #110A04",
"l..	c #120A04",
"m..	c #130B04",
"n..	c #140C05",
"o..	c #150E05",
"p..	c #160F07",
"q..	c #312C27",
"r..	c #686765",
"s..	c #656364",
"t..	c #616060",
"u..	c #060607",
"v..	c #0F1012",
"w..	c #1A1B1F",
"x..	c #32363F",
"y..	c #2A2F3B",
"z..	c #2A2F3A",
"A..	c #2B303A",
"B..	c #2D2F33",
"C..	c #706651",
"D..	c #A08E66",
"E..	c #A28C5F",
"F..	c #A18B5E",
"G..	c #A38C60",
"H..	c #A48D62",
"I..	c #A58E62",
"J..	c #A48F62",
"K..	c #A49061",
"L..	c #A38F60",
"M..	c #A38E60",
"N..	c #A28D5F",
"O..	c #A18D5F",
"P..	c #A08C5F",
"Q..	c #A08C5E",
"R..	c #A08C5D",
"S..	c #A08D5E",
"T..	c #A18E5F",
"U..	c #A28F60",
"V..	c #A59262",
"W..	c #A79263",
"X..	c #A79364",
"Y..	c #A89464",
"Z..	c #A99566",
"`..	c #A99666",
" +.	c #A89565",
".+.	c #A79565",
"++.	c #A59464",
"@+.	c #A49463",
"#+.	c #A39362",
"$+.	c #A29162",
"%+.	c #A39163",
"&+.	c #A39062",
"*+.	c #A38F63",
"=+.	c #A18E62",
"-+.	c #A08F62",
";+.	c #9F8F61",
">+.	c #A29163",
",+.	c #A49163",
"'+.	c #A59264",
")+.	c #A59263",
"!+.	c #A79464",
"~+.	c #A89465",
"{+.	c #AB9667",
"]+.	c #AB9767",
"^+.	c #AC9867",
"/+.	c #AE9A69",
"(+.	c #AF9B6A",
"_+.	c #B09C6A",
":+.	c #B29E6C",
"<+.	c #B39F6D",
"[+.	c #B6A170",
"}+.	c #B8A270",
"|+.	c #BAA371",
"1+.	c #BAA471",
"2+.	c #BBA571",
"3+.	c #BBA572",
"4+.	c #BBA570",
"5+.	c #BDA66F",
"6+.	c #BEA872",
"7+.	c #C0A973",
"8+.	c #C0AB77",
"9+.	c #BFAC82",
"0+.	c #5C5240",
"a+.	c #4D4D4E",
"b+.	c #2B2B2D",
"c+.	c #383E4D",
"d+.	c #3E4658",
"e+.	c #3E4656",
"f+.	c #3F4146",
"g+.	c #AB9B74",
"h+.	c #F3D48A",
"i+.	c #F8D27E",
"j+.	c #F9D280",
"k+.	c #F9D381",
"l+.	c #F9D382",
"m+.	c #F8D47F",
"n+.	c #F8D57F",
"o+.	c #F9D680",
"p+.	c #F8D680",
"q+.	c #F9D781",
"r+.	c #F8D884",
"s+.	c #F7D884",
"t+.	c #F8D784",
"u+.	c #F9D784",
"v+.	c #F8D783",
"w+.	c #F8D682",
"x+.	c #F8D681",
"y+.	c #F9D57F",
"z+.	c #F9D37E",
"A+.	c #F7D680",
"B+.	c #EDD28E",
"C+.	c #706246",
"D+.	c #323234",
"E+.	c #050713",
"F+.	c #393E50",
"G+.	c #3D4459",
"H+.	c #3D465B",
"I+.	c #3D4759",
"J+.	c #3F4247",
"K+.	c #FDD272",
"L+.	c #FED274",
"M+.	c #FED475",
"N+.	c #FFD372",
"O+.	c #FED372",
"P+.	c #FED675",
"Q+.	c #FED776",
"R+.	c #FED878",
"S+.	c #FDD878",
"T+.	c #FDD877",
"U+.	c #FED877",
"V+.	c #FED676",
"W+.	c #FED576",
"X+.	c #FCD675",
"Y+.	c #FDD373",
"Z+.	c #FED271",
"`+.	c #FED272",
" @.	c #FDD46F",
".@.	c #F1D185",
"+@.	c #736545",
"@@.	c #5E5E60",
"#@.	c #363739",
"$@.	c #393F50",
"%@.	c #3E4758",
"&@.	c #3F4246",
"*@.	c #F9D583",
"=@.	c #FED775",
"-@.	c #FFD776",
";@.	c #FED876",
">@.	c #FCD676",
",@.	c #FCD371",
"'@.	c #FED270",
")@.	c #FDD26F",
"!@.	c #FCD471",
"~@.	c #F2D083",
"{@.	c #736443",
"]@.	c #37383A",
"^@.	c #050613",
"/@.	c #383E4F",
"(@.	c #3D4558",
"_@.	c #3D475A",
":@.	c #3F4859",
"<@.	c #404247",
"[@.	c #B2A077",
"}@.	c #F7D587",
"|@.	c #FCD278",
"1@.	c #FAD277",
"2@.	c #FAD379",
"3@.	c #FDD37A",
"4@.	c #FCD379",
"5@.	c #FAD77D",
"6@.	c #FBD87E",
"7@.	c #FCD87E",
"8@.	c #FBD87F",
"9@.	c #FAD87E",
"0@.	c #FBD77D",
"a@.	c #FAD67E",
"b@.	c #F9D379",
"c@.	c #F9D378",
"d@.	c #F9D278",
"e@.	c #FAD278",
"f@.	c #F9D377",
"g@.	c #F9D375",
"h@.	c #F9D479",
"i@.	c #706243",
"j@.	c #373E4E",
"k@.	c #3D4659",
"l@.	c #3C475B",
"m@.	c #3D4859",
"n@.	c #3E434B",
"o@.	c #A69C7F",
"p@.	c #E6CF98",
"q@.	c #E8CC8D",
"r@.	c #E8CC8C",
"s@.	c #E7CC8D",
"t@.	c #E6CB8D",
"u@.	c #E6CA8E",
"v@.	c #E7CA8E",
"w@.	c #E6CA8C",
"x@.	c #E4CA8D",
"y@.	c #E5CA8E",
"z@.	c #E5CA8D",
"A@.	c #E4CA8C",
"B@.	c #E6CA8D",
"C@.	c #E6CB8E",
"D@.	c #E5CB8D",
"E@.	c #E4CB8C",
"F@.	c #E4C98C",
"G@.	c #E3CA8D",
"H@.	c #E2CA8E",
"I@.	c #E2C98E",
"J@.	c #E1C98E",
"K@.	c #E0C98D",
"L@.	c #E0C88D",
"M@.	c #DFC78C",
"N@.	c #E0C78B",
"O@.	c #E0C88B",
"P@.	c #E0C98C",
"Q@.	c #E1C98D",
"R@.	c #E1CA8F",
"S@.	c #E0CA8F",
"T@.	c #E0C98F",
"U@.	c #E0C98E",
"V@.	c #DFC88E",
"W@.	c #DEC78D",
"X@.	c #DEC78C",
"Y@.	c #DDC68B",
"Z@.	c #DCC68A",
"`@.	c #DCC58A",
" #.	c #DBC589",
".#.	c #DCC68B",
"+#.	c #DDC58B",
"@#.	c #DBC48B",
"##.	c #DBC48A",
"$#.	c #DAC389",
"%#.	c #D9C387",
"&#.	c #D9C286",
"*#.	c #D8C186",
"=#.	c #D6C085",
"-#.	c #D7C086",
";#.	c #D6BF85",
">#.	c #D4BF85",
",#.	c #D4BE85",
"'#.	c #D6BE85",
")#.	c #D7BE85",
"!#.	c #D7C085",
"~#.	c #D8C184",
"{#.	c #D7C185",
"]#.	c #D1BE8E",
"^#.	c #625A45",
"/#.	c #6B6B6D",
"(#.	c #373D4F",
"_#.	c #3C475A",
":#.	c #3D495C",
"<#.	c #3C495C",
"[#.	c #3F4855",
"}#.	c #505250",
"|#.	c #605C4C",
"1#.	c #625B47",
"2#.	c #615B46",
"3#.	c #605B47",
"4#.	c #605947",
"5#.	c #5F5848",
"6#.	c #5F5847",
"7#.	c #5F5747",
"8#.	c #605948",
"9#.	c #615949",
"0#.	c #615948",
"a#.	c #615A48",
"b#.	c #5E5948",
"c#.	c #5E5847",
"d#.	c #5D5848",
"e#.	c #5D5849",
"f#.	c #5E5849",
"g#.	c #5E5848",
"h#.	c #5C5847",
"i#.	c #5B5747",
"j#.	c #5A5746",
"k#.	c #5A5646",
"l#.	c #5A5645",
"m#.	c #5B5746",
"n#.	c #5B5846",
"o#.	c #5C5948",
"p#.	c #5B5949",
"q#.	c #5A5848",
"r#.	c #5A5849",
"s#.	c #595749",
"t#.	c #595849",
"u#.	c #595748",
"v#.	c #585748",
"w#.	c #585648",
"x#.	c #575548",
"y#.	c #585447",
"z#.	c #565447",
"A#.	c #555347",
"B#.	c #555247",
"C#.	c #535246",
"D#.	c #535145",
"E#.	c #515045",
"F#.	c #515044",
"G#.	c #514F44",
"H#.	c #4F4F45",
"I#.	c #504F44",
"J#.	c #504E43",
"K#.	c #504F43",
"L#.	c #514F43",
"M#.	c #514E46",
"N#.	c #25241F",
"O#.	c #363E4F",
"P#.	c #3C485C",
"Q#.	c #3D495B",
"R#.	c #3E4A5A",
"S#.	c #404B59",
"T#.	c #414C59",
"U#.	c #424D5A",
"V#.	c #424E5A",
"W#.	c #434E59",
"X#.	c #444E5A",
"Y#.	c #444D5B",
"Z#.	c #454E5B",
"`#.	c #454F5A",
" $.	c #454E59",
".$.	c #464F5A",
"+$.	c #47505B",
"@$.	c #48515B",
"#$.	c #49515B",
"$$.	c #48505B",
"%$.	c #48515C",
"&$.	c #47505A",
"*$.	c #465059",
"=$.	c #475059",
"-$.	c #48515A",
";$.	c #47515B",
">$.	c #47525C",
",$.	c #46515B",
"'$.	c #47515C",
")$.	c #46505C",
"!$.	c #45505B",
"~$.	c #444F5A",
"{$.	c #434E5A",
"]$.	c #434D5A",
"^$.	c #434D59",
"/$.	c #424C58",
"($.	c #434B58",
"_$.	c #424B58",
":$.	c #414C57",
"<$.	c #404C58",
"[$.	c #414B5A",
"}$.	c #434A57",
"|$.	c #1C2027",
"1$.	c #6F6F71",
"2$.	c #040612",
"3$.	c #374050",
"4$.	c #3D495D",
"5$.	c #3D4A5C",
"6$.	c #3F4A5C",
"7$.	c #404B5D",
"8$.	c #404B5E",
"9$.	c #3F4C5F",
"0$.	c #3F4D60",
"a$.	c #404E60",
"b$.	c #414E61",
"c$.	c #424F60",
"d$.	c #424F5F",
"e$.	c #435060",
"f$.	c #445060",
"g$.	c #445161",
"h$.	c #455161",
"i$.	c #435160",
"j$.	c #445261",
"k$.	c #445160",
"l$.	c #455060",
"m$.	c #44505F",
"n$.	c #455262",
"o$.	c #455261",
"p$.	c #445162",
"q$.	c #435061",
"r$.	c #414E5E",
"s$.	c #404D5D",
"t$.	c #404C5C",
"u$.	c #414B5D",
"v$.	c #3F4C5D",
"w$.	c #3F4B5E",
"x$.	c #404C5F",
"y$.	c #424B5B",
"z$.	c #1C212A",
"A$.	c #343536",
"B$.	c #39414F",
"C$.	c #3D495A",
"D$.	c #3E4B5D",
"E$.	c #414B5E",
"F$.	c #414C5F",
"G$.	c #414D61",
"H$.	c #424E60",
"I$.	c #414E5F",
"J$.	c #435161",
"K$.	c #455162",
"L$.	c #455061",
"M$.	c #44515F",
"N$.	c #414D5E",
"O$.	c #404C5D",
"P$.	c #414C5D",
"Q$.	c #414C5E",
"R$.	c #424C5D",
"S$.	c #424C5E",
"T$.	c #1D2129",
"U$.	c #313234",
"V$.	c #050710",
"W$.	c #3C4350",
"X$.	c #41495A",
"Y$.	c #424C5B",
"Z$.	c #444C5C",
"`$.	c #454D5D",
" %.	c #444E5E",
".%.	c #434F5E",
"+%.	c #454F5E",
"@%.	c #444F5D",
"#%.	c #44505D",
"$%.	c #45505E",
"%%.	c #44505E",
"&%.	c #45515E",
"*%.	c #46505D",
"=%.	c #47515E",
"-%.	c #46515E",
";%.	c #46515D",
">%.	c #474F5C",
",%.	c #454F5C",
"'%.	c #47505E",
")%.	c #464F5D",
"!%.	c #454E5C",
"~%.	c #45505C",
"{%.	c #444F5B",
"]%.	c #444F5C",
"^%.	c #434F5B",
"/%.	c #434E5B",
"(%.	c #434E5C",
"_%.	c #424D5B",
":%.	c #434C5A",
"<%.	c #424D59",
"[%.	c #434C59",
"}%.	c #434C5B",
"|%.	c #444C5B",
"1%.	c #454C5B",
"2%.	c #434955",
"3%.	c #1E2027",
"4%.	c #6E6F71",
"5%.	c #2E2F31",
"6%.	c #131620",
"7%.	c #141724",
"8%.	c #131722",
"9%.	c #131721",
"0%.	c #121821",
"a%.	c #131822",
"b%.	c #141922",
"c%.	c #131922",
"d%.	c #111822",
"e%.	c #111720",
"f%.	c #101720",
"g%.	c #10161F",
"h%.	c #11171F",
"i%.	c #12161F",
"j%.	c #131720",
"k%.	c #121720",
"l%.	c #121820",
"m%.	c #11161F",
"n%.	c #10151E",
"o%.	c #0F141D",
"p%.	c #0F141C",
"q%.	c #0F141B",
"r%.	c #0F131A",
"s%.	c #0F121A",
"t%.	c #0D131A",
"u%.	c #0D121B",
"v%.	c #0E131C",
"w%.	c #0D111A",
"x%.	c #0C111A",
"y%.	c #0C1119",
"z%.	c #0B1119",
"A%.	c #0C121A",
"B%.	c #0D121A",
"C%.	c #0D131B",
"D%.	c #0D141C",
"E%.	c #0E141C",
"F%.	c #0E151C",
"G%.	c #0E141B",
"H%.	c #10131D",
"I%.	c #10131E",
"J%.	c #10121A",
"K%.	c #04050A",
"L%.	c #6B6C6D",
"M%.	c #686769",
"N%.	c #47494A",
"O%.	c #38393B",
"P%.	c #363839",
"Q%.	c #353739",
"R%.	c #353738",
"S%.	c #36373A",
"T%.	c #37373A",
"U%.	c #1D1E20",
"V%.	c #0E0F13",
"W%.	c #3A3B3E",
"X%.	c #3D3D40",
"Y%.	c #2E2E30",
"Z%.	c #2A292C",
"`%.	c #2C2B2F",
" &.	c #212226",
".&.	c #1B1C1F",
"+&.	c #17181C",
"@&.	c #18191C",
"#&.	c #636366",
"$&.	c #0A0D18",
"%&.	c #181C2C",
"&&.	c #171C2B",
"*&.	c #181B2B",
"=&.	c #181B2A",
"-&.	c #1A1F2E",
";&.	c #1B202E",
">&.	c #1B2030",
",&.	c #0F121D",
"'&.	c #47474A",
")&.	c #B4B5BA",
"!&.	c #545556",
"~&.	c #101321",
"{&.	c #22283D",
"]&.	c #1F293D",
"^&.	c #22293E",
"/&.	c #20293C",
"(&.	c #202A3C",
"_&.	c #4D4E4F",
":&.	c #212840",
"<&.	c #202940",
"[&.	c #1E2A3F",
"}&.	c #4C4D4F",
"|&.	c #0F1321",
"1&.	c #212841",
"2&.	c #21283F",
"3&.	c #1F2840",
"4&.	c #141824",
"5&.	c #1E283F",
"6&.	c #202740",
"7&.	c #212740",
"8&.	c #21273F",
"9&.	c #202A3A",
"0&.	c #4C4C4D",
"a&.	c #404143",
"b&.	c #232A3D",
"c&.	c #3C3D3F",
"d&.	c #22293F",
"e&.	c #1F263B",
"f&.	c #202837",
"g&.	c #141822",
"h&.	c #4D4D4F",
"i&.	c #393A3C",
"j&.	c #0B0D15",
"k&.	c #171B2A",
"l&.	c #161C2A",
"m&.	c #1B1F2A",
"n&.	c #101219",
"o&.	c #363638",
"p&.	c #010009",
"q&.	c #4D4E4E",
"r&.	c #232323",
"s&.	c #161616",
"t&.	c #151516",
"u&.	c #06070A",
"v&.	c #090E1A",
"w&.	c #080E1A",
"x&.	c #0A0E1B",
"y&.	c #0A0E1C",
"z&.	c #0A0E19",
"A&.	c #0F131B",
"B&.	c #10151D",
"C&.	c #11161E",
"D&.	c #12171F",
"E&.	c #131820",
"F&.	c #12171E",
"G&.	c #11171E",
"H&.	c #12181E",
"I&.	c #12181F",
"J&.	c #121921",
"K&.	c #131A22",
"L&.	c #141B23",
"M&.	c #161C24",
"N&.	c #171D25",
"O&.	c #191E27",
"P&.	c #1A2029",
"Q&.	c #1B2029",
"R&.	c #1B2128",
"S&.	c #1D1F26",
"T&.	c #1D1F25",
"U&.	c #1C1F25",
"V&.	c #1E2028",
"W&.	c #1C2129",
"X&.	c #1B2028",
"Y&.	c #1A1E27",
"Z&.	c #1A1E28",
"`&.	c #191C24",
" *.	c #0A0A0E",
".*.	c #38383A",
"+*.	c #454647",
"@*.	c #48494B",
"#*.	c #4A4B4D",
"$*.	c #535355",
"%*.	c #525354",
"&*.	c #515352",
"**.	c #6F7170",
"=*.	c #818284",
"-*.	c #363F4D",
";*.	c #47515D",
">*.	c #4A5360",
",*.	c #485360",
"'*.	c #485361",
")*.	c #475361",
"!*.	c #475360",
"~*.	c #46525F",
"{*.	c #46515F",
"]*.	c #45515D",
"^*.	c #44515D",
"/*.	c #44525E",
"(*.	c #45525F",
"_*.	c #465360",
":*.	c #485260",
"<*.	c #495361",
"[*.	c #495260",
"}*.	c #4B535F",
"|*.	c #4E535A",
"1*.	c #525457",
"2*.	c #545658",
"3*.	c #535658",
"4*.	c #53565C",
"5*.	c #4E565E",
"6*.	c #424B5A",
"7*.	c #444D5A",
"8*.	c #424953",
"9*.	c #05080F",
"0*.	c #222225",
"a*.	c #838585",
"b*.	c #0D1421",
"c*.	c #1C283D",
"d*.	c #1C293D",
"e*.	c #1C293C",
"f*.	c #1C2A3E",
"g*.	c #1D2A3B",
"h*.	c #394655",
"i*.	c #4A5868",
"j*.	c #465464",
"k*.	c #4C5359",
"l*.	c #797562",
"m*.	c #877B59",
"n*.	c #857752",
"o*.	c #847654",
"p*.	c #7F7559",
"q*.	c #6C6A5C",
"r*.	c #434A4F",
"s*.	c #404856",
"t*.	c #3E4958",
"u*.	c #3E4A59",
"v*.	c #3F4B5B",
"w*.	c #424C5A",
"x*.	c #424A55",
"y*.	c #050910",
"z*.	c #828282",
"A*.	c #0E1421",
"B*.	c #1B283E",
"C*.	c #1A2A3E",
"D*.	c #1B2A3E",
"E*.	c #1D2C3F",
"F*.	c #2D3B4B",
"G*.	c #4B5A6A",
"H*.	c #465361",
"I*.	c #515552",
"J*.	c #CABB91",
"K*.	c #F2D793",
"L*.	c #F3D489",
"M*.	c #F3D48B",
"N*.	c #EED494",
"O*.	c #C0B38C",
"P*.	c #3E413E",
"Q*.	c #3D4550",
"R*.	c #3D4756",
"S*.	c #3D4956",
"T*.	c #414A56",
"U*.	c #0F1322",
"V*.	c #1C293F",
"W*.	c #1D2A40",
"X*.	c #1E2B40",
"Y*.	c #313F4F",
"Z*.	c #414F5F",
"`*.	c #4D5A6A",
" =.	c #51544F",
".=.	c #CCB886",
"+=.	c #F9D682",
"@=.	c #CAB681",
"#=.	c #414039",
"$=.	c #3C444E",
"%=.	c #3D4553",
"&=.	c #3E4755",
"*=.	c #3D4856",
"==.	c #3E4A57",
"-=.	c #404A55",
";=.	c #050911",
">=.	c #202022",
",=.	c #828284",
"'=.	c #1D283F",
")=.	c #1B293F",
"!=.	c #1D2940",
"~=.	c #1D2941",
"{=.	c #1E2A41",
"]=.	c #303C4E",
"^=.	c #3E4A5B",
"/=.	c #505452",
"(=.	c #C9B484",
"_=.	c #FBD580",
":=.	c #FFD472",
"<=.	c #FED371",
"[=.	c #D0BA83",
"}=.	c #414238",
"|=.	c #3C454E",
"1=.	c #3D4755",
"2=.	c #3E4858",
"3=.	c #3E4A58",
"4=.	c #404D58",
"5=.	c #404B55",
"6=.	c #1E1F21",
"7=.	c #1D293E",
"8=.	c #1C293E",
"9=.	c #2B3849",
"0=.	c #3F4C5B",
"a=.	c #4D5B69",
"b=.	c #4C5968",
"c=.	c #465363",
"d=.	c #4E5353",
"e=.	c #C3AF82",
"f=.	c #F8D283",
"g=.	c #FBD175",
"h=.	c #FBD074",
"i=.	c #F7D27D",
"j=.	c #CAB47F",
"k=.	c #41423A",
"l=.	c #444D56",
"m=.	c #414B57",
"n=.	c #404858",
"o=.	c #40495A",
"p=.	c #434A56",
"q=.	c #080C14",
"r=.	c #1F2736",
"s=.	c #293444",
"t=.	c #4E5964",
"u=.	c #4D5864",
"v=.	c #4D5865",
"w=.	c #4C5764",
"x=.	c #48535F",
"y=.	c #49525C",
"z=.	c #4E5153",
"A=.	c #B1A383",
"B=.	c #E4C98F",
"C=.	c #E7C883",
"D=.	c #E7C783",
"E=.	c #BDAE85",
"F=.	c #464843",
"G=.	c #454D55",
"H=.	c #434A55",
"I=.	c #424855",
"J=.	c #414955",
"K=.	c #424A54",
"L=.	c #434954",
"M=.	c #424651",
"N=.	c #0B0D13",
"O=.	c #1B1C1E",
"P=.	c #848483",
"Q=.	c #070C15",
"R=.	c #070D18",
"S=.	c #080E19",
"T=.	c #080E1B",
"U=.	c #080F19",
"V=.	c #09101B",
"W=.	c #0A101B",
"X=.	c #090E1C",
"Y=.	c #131821",
"Z=.	c #10171E",
"`=.	c #10161E",
" -.	c #0F151D",
".-.	c #121620",
"+-.	c #141A22",
"@-.	c #151A23",
"#-.	c #151B23",
"$-.	c #151B22",
"%-.	c #161B22",
"&-.	c #151921",
"*-.	c #141820",
"=-.	c #131417",
"--.	c #2E271B",
";-.	c #453923",
">-.	c #473A1E",
",-.	c #43371D",
"'-.	c #2E2717",
")-.	c #0F1110",
"!-.	c #0D1017",
"~-.	c #0E1018",
"{-.	c #0E1119",
"]-.	c #0E1318",
"^-.	c #10131A",
"/-.	c #13151B",
"(-.	c #1A1B1D",
"_-.	c #848482",
":-.	c #040206",
"<-.	c #151518",
"[-.	c #828383",
"}-.	c #747475",
"|-.	c #313132",
"1-.	c #39393A",
"2-.	c #343537",
"3-.	c #0A0B10",
"4-.	c #1E2023",
"5-.	c #202225",
"6-.	c #202023",
"7-.	c #1F2022",
"8-.	c #1E1E21",
"9-.	c #1D1E1F",
"0-.	c #919392",
"a-.	c #68686A",
"b-.	c #0B0D18",
"c-.	c #141A2A",
"d-.	c #141A2B",
"e-.	c #151C29",
"f-.	c #05070E",
"g-.	c #7E7F82",
"h-.	c #737375",
"i-.	c #202A41",
"j-.	c #202A40",
"k-.	c #212B3E",
"l-.	c #212B3D",
"m-.	c #222B3E",
"n-.	c #232C3D",
"o-.	c #242C3D",
"p-.	c #242C3C",
"q-.	c #0B0E17",
"r-.	c #232A3E",
"s-.	c #212A42",
"t-.	c #202942",
"u-.	c #1F2B3E",
"v-.	c #1F2B3F",
"w-.	c #1F2B40",
"x-.	c #1F2B41",
"y-.	c #9A9A9A",
"z-.	c #1E2B41",
"A-.	c #202A42",
"B-.	c #1F2D43",
"C-.	c #202941",
"D-.	c #1F2C41",
"E-.	c #222C3C",
"F-.	c #232D3D",
"G-.	c #6B6B6C",
"H-.	c #202E44",
"I-.	c #202E45",
"J-.	c #9B9B9D",
"K-.	c #232C3E",
"L-.	c #222F45",
"M-.	c #9D9D9F",
"N-.	c #242A3C",
"O-.	c #363642",
"P-.	c #3A3840",
"Q-.	c #3C393F",
"R-.	c #3D3A40",
"S-.	c #3E3B43",
"T-.	c #383945",
"U-.	c #242F43",
"V-.	c #060914",
"W-.	c #212941",
"X-.	c #2E2F3D",
"Y-.	c #6C6467",
"Z-.	c #776764",
"`-.	c #77655F",
" ;.	c #786660",
".;.	c #786864",
"+;.	c #635B5F",
"@;.	c #2B2F3E",
"#;.	c #253041",
"$;.	c #050914",
"%;.	c #58585A",
"&;.	c #2F2E3B",
"*;.	c #786968",
"=;.	c #896F65",
"-;.	c #8D6E62",
";;.	c #8E6F62",
">;.	c #8C7166",
",;.	c #6E5F5D",
"';.	c #2C2F3D",
");.	c #293144",
"!;.	c #273042",
"~;.	c #272E3E",
"{;.	c #545456",
"];.	c #2E2D3A",
"^;.	c #7A6965",
"/;.	c #8E7063",
"(;.	c #936F60",
"_;.	c #946F61",
":;.	c #917164",
"<;.	c #715F5D",
"[;.	c #293043",
"};.	c #282E3F",
"|;.	c #060813",
"1;.	c #99999B",
"2;.	c #212942",
"3;.	c #202A44",
"4;.	c #2D2D39",
"5;.	c #7A6B69",
"6;.	c #8C7469",
"7;.	c #907366",
"8;.	c #927367",
"9;.	c #91746B",
"0;.	c #6E5F5F",
"a;.	c #2D303E",
"b;.	c #282F3F",
"c;.	c #979798",
"d;.	c #23293F",
"e;.	c #283347",
"f;.	c #374154",
"g;.	c #374155",
"h;.	c #374153",
"i;.	c #364154",
"j;.	c #364254",
"k;.	c #364153",
"l;.	c #373F52",
"m;.	c #3C3E4E",
"n;.	c #655E65",
"o;.	c #6F6564",
"p;.	c #706461",
"q;.	c #726461",
"r;.	c #716363",
"s;.	c #575258",
"t;.	c #2C3140",
"u;.	c #2A3344",
"v;.	c #293344",
"w;.	c #293040",
"x;.	c #050712",
"y;.	c #222A43",
"z;.	c #2F3A4E",
"A;.	c #434E60",
"B;.	c #424C5F",
"C;.	c #484C5A",
"D;.	c #474B56",
"E;.	c #464B54",
"F;.	c #474B55",
"G;.	c #3E4452",
"H;.	c #2B3345",
"I;.	c #2A3445",
"J;.	c #293443",
"K;.	c #29313F",
"L;.	c #040711",
"M;.	c #4E4E50",
"N;.	c #2F3A4F",
"O;.	c #434E61",
"P;.	c #434E62",
"Q;.	c #424F62",
"R;.	c #424E61",
"S;.	c #424D60",
"T;.	c #424D61",
"U;.	c #404D5F",
"V;.	c #414D5F",
"W;.	c #444D5D",
"X;.	c #434D5C",
"Y;.	c #444D5C",
"Z;.	c #3B4656",
"`;.	c #2A3546",
" >.	c #2A3444",
".>.	c #29313E",
"+>.	c #232A42",
"@>.	c #2F3B4F",
"#>.	c #434F63",
"$>.	c #414C60",
"%>.	c #404C5E",
"&>.	c #404D5E",
"*>.	c #424F5D",
"=>.	c #414E5B",
"->.	c #424E5D",
";>.	c #424E5E",
">>.	c #3A4557",
",>.	c #2A3446",
"'>.	c #141727",
")>.	c #2F3B50",
"!>.	c #414E60",
"~>.	c #404C60",
"{>.	c #404D60",
"]>.	c #424D5F",
"^>.	c #434D5D",
"/>.	c #394354",
"(>.	c #293447",
"_>.	c #2A3547",
":>.	c #242A42",
"<>.	c #212B46",
"[>.	c #3F4A5E",
"}>.	c #434C5F",
"|>.	c #434D60",
"1>.	c #454C5A",
"2>.	c #464D5A",
"3>.	c #464D5B",
"4>.	c #2B3546",
"5>.	c #29323F",
"6>.	c #232B46",
"7>.	c #222C46",
"8>.	c #424D5E",
"9>.	c #434B5C",
"0>.	c #484B56",
"a>.	c #52504F",
"b>.	c #565149",
"c>.	c #585246",
"d>.	c #595345",
"e>.	c #59544B",
"f>.	c #47484C",
"g>.	c #2B3343",
"h>.	c #2B3446",
"i>.	c #2B3341",
"j>.	c #49494B",
"k>.	c #151928",
"l>.	c #242A41",
"m>.	c #222B46",
"n>.	c #232C45",
"o>.	c #444A57",
"p>.	c #645B4F",
"q>.	c #CBB389",
"r>.	c #D4B478",
"s>.	c #D8B574",
"t>.	c #D7B473",
"u>.	c #D0B37E",
"v>.	c #897C66",
"w>.	c #2C333E",
"x>.	c #293545",
"y>.	c #2A3340",
"z>.	c #252B42",
"A>.	c #222C44",
"B>.	c #343C4F",
"C>.	c #464F5F",
"D>.	c #454D5E",
"E>.	c #444C5D",
"F>.	c #434C5C",
"G>.	c #464953",
"H>.	c #73634B",
"I>.	c #E5C284",
"J>.	c #EEC16C",
"K>.	c #F0C066",
"L>.	c #EFBE66",
"M>.	c #E8BE76",
"N>.	c #9A8563",
"O>.	c #2E333C",
"P>.	c #2B3645",
"Q>.	c #2A3545",
"R>.	c #2A3440",
"S>.	c #444446",
"T>.	c #161923",
"U>.	c #242A3B",
"V>.	c #242B3F",
"W>.	c #242C3F",
"X>.	c #373E4A",
"Y>.	c #464B56",
"Z>.	c #464C58",
"`>.	c #424956",
" ,.	c #43474D",
".,.	c #776A52",
"+,.	c #E0C38B",
"@,.	c #E7C178",
"#,.	c #E9C075",
"$,.	c #E6BE74",
"%,.	c #DEBC7D",
"&,.	c #978768",
"*,.	c #30353D",
"=,.	c #2F3643",
"-,.	c #2E3543",
";,.	c #2D343F",
">,.	c #070A12",
",,.	c #444445",
"',.	c #05050D",
"),.	c #0A0C18",
"!,.	c #090D19",
"~,.	c #090E19",
"{,.	c #080E18",
"],.	c #080D19",
"^,.	c #080C18",
"/,.	c #0F1219",
"(,.	c #15171C",
"_,.	c #16171C",
":,.	c #14151D",
"<,.	c #13151E",
"[,.	c #12151D",
"},.	c #14151A",
"|,.	c #302B1F",
"1,.	c #61553C",
"2,.	c #655535",
"3,.	c #665435",
"4,.	c #635234",
"5,.	c #5E5037",
"6,.	c #3A3427",
"7,.	c #16191F",
"8,.	c #151922",
"9,.	c #15181E",
"0,.	c #04050B",
"a,.	c #9D9E9F",
"b,.	c #A0A0A2",
"c,.	c #121523",
"d,.	c #1C2033",
"e,.	c #1C2135",
"f,.	c #1B1F32",
"g,.	c #1A1F2F",
"h,.	c #2F3542",
"i,.	c #353C48",
"j,.	c #343A45",
"k,.	c #343A44",
"l,.	c #343945",
"m,.	c #333945",
"n,.	c #323945",
"o,.	c #323844",
"p,.	c #323842",
"q,.	c #35383C",
"r,.	c #756952",
"s,.	c #A99366",
"t,.	c #AC935E",
"u,.	c #AC945D",
"v,.	c #A9925C",
"w,.	c #A18E64",
"x,.	c #675E4A",
"y,.	c #35363B",
"z,.	c #323640",
"A,.	c #30343D",
"B,.	c #2C2F37",
"C,.	c #080A10",
"D,.	c #9B9B9C",
"E,.	c #161A2A",
"F,.	c #222941",
"G,.	c #414A5C",
"H,.	c #4C5768",
"I,.	c #4A5363",
"J,.	c #495363",
"K,.	c #4A5362",
"L,.	c #A4926C",
"M,.	c #F4D28B",
"N,.	c #F8D07B",
"O,.	c #F8D079",
"P,.	c #F5CF7A",
"Q,.	c #EDCD88",
"R,.	c #998966",
"S,.	c #494C51",
"T,.	c #444A5A",
"U,.	c #404753",
"V,.	c #0C0F17",
"W,.	c #A39065",
"X,.	c #F5CF7D",
"Y,.	c #FBCE6D",
"Z,.	c #FCCE69",
"`,.	c #FACD6D",
" '.	c #F2CC7C",
".'.	c #9B875E",
"+'.	c #464A4F",
"@'.	c #3F4755",
"#'.	c #090E17",
"$'.	c #8D8D8F",
"%'.	c #232941",
"&'.	c #1E2941",
"*'.	c #3C495A",
"='.	c #4A5266",
"-'.	c #A49065",
";'.	c #F5CF7C",
">'.	c #FBCE6C",
",'.	c #FBCD69",
"''.	c #FACE6B",
")'.	c #F3CD7B",
"!'.	c #9C885E",
"~'.	c #474B51",
"{'.	c #3F4956",
"]'.	c #060509",
"^'.	c #4D5356",
"/'.	c #A28F66",
"('.	c #F5CF80",
"_'.	c #FCCC6E",
":'.	c #FACB6F",
"<'.	c #F2CD7E",
"['.	c #998860",
"}'.	c #484C51",
"|'.	c #444E5F",
"1'.	c #414958",
"2'.	c #07060C",
"3'.	c #242943",
"4'.	c #4B5366",
"5'.	c #4C5257",
"6'.	c #9F9270",
"7'.	c #EDD190",
"8'.	c #F3CE81",
"9'.	c #F3CD81",
"0'.	c #ECCD8D",
"a'.	c #948667",
"b'.	c #474C54",
"c'.	c #424A58",
"d'.	c #090D17",
"e'.	c #08070D",
"f'.	c #404042",
"g'.	c #141828",
"h'.	c #222946",
"i'.	c #202B46",
"j'.	c #3C4859",
"k'.	c #49535F",
"l'.	c #66665E",
"m'.	c #8B8165",
"n'.	c #928460",
"o'.	c #968662",
"p'.	c #988963",
"q'.	c #998D6E",
"r'.	c #68675D",
"s'.	c #444F5F",
"t'.	c #434B5A",
"u'.	c #0A0D17",
"v'.	c #08090E",
"w'.	c #8B8B8C",
"x'.	c #909193",
"y'.	c #939395",
"z'.	c #939394",
"A'.	c #919193",
"B'.	c #909092",
"C'.	c #8F9090",
"D'.	c #8E8F8F",
"E'.	c #8D8E90",
"F'.	c #8C8C8E",
"G'.	c #87878A",
"H'.	c #838285",
"I'.	c #7C7C7E",
"J'.	c #707072",
"K'.	c #303033",
"L'.	c #232942",
"M'.	c #475463",
"N'.	c #49515A",
"O'.	c #4B5057",
"P'.	c #4B5055",
"Q'.	c #4B5052",
"R'.	c #4A5154",
"S'.	c #444E59",
"T'.	c #434E5E",
"U'.	c #434B5B",
"V'.	c #0A0C17",
"W'.	c #2B2C2E",
"X'.	c #474849",
"Y'.	c #575958",
"Z'.	c #626364",
"`'.	c #666668",
" ).	c #6C6C6E",
".).	c #5D5D5E",
"+).	c #999A9B",
"@).	c #403E40",
"#).	c #222A44",
"$).	c #465161",
"%).	c #45515F",
"&).	c #434F5F",
"*).	c #424E5F",
"=).	c #444E60",
"-).	c #838385",
";).	c #222B43",
">).	c #202A46",
",).	c #444F60",
"').	c #434D5F",
")).	c #464E60",
"!).	c #3C3E3D",
"~).	c #222B44",
"{).	c #3C4658",
"]).	c #4A5262",
"^).	c #4A525F",
"/).	c #4A515D",
"().	c #4A515B",
"_).	c #49505B",
":).	c #444D60",
"<).	c #454D5F",
"[).	c #7E7F81",
"}).	c #3C3C3D",
"|).	c #121726",
"1).	c #232A46",
"2).	c #3B4658",
"3).	c #4B5463",
"4).	c #767062",
"5).	c #7D745D",
"6).	c #80775C",
"7).	c #81795E",
"8).	c #817A65",
"9).	c #65655F",
"0).	c #454D59",
"a).	c #090C16",
"b).	c #808082",
"c).	c #3B3A3D",
"d).	c #3B4557",
"e).	c #877F6A",
"f).	c #E6D09C",
"g).	c #EDD18D",
"h).	c #EED189",
"i).	c #EFD289",
"j).	c #AB9F7E",
"k).	c #484B51",
"l).	c #454C5F",
"m).	c #454959",
"n).	c #090B16",
"o).	c #38383C",
"p).	c #050002",
"q).	c #242A43",
"r).	c #232A45",
"s).	c #242B46",
"t).	c #4B535B",
"u).	c #8A8060",
"v).	c #F1D58F",
"w).	c #FBD475",
"x).	c #FAD375",
"y).	c #B2A273",
"z).	c #484B4C",
"A).	c #464D5F",
"B).	c #454A5A",
"C).	c #0A0B16",
"D).	c #2F2F31",
"E).	c #272728",
"F).	c #121319",
"G).	c #181B25",
"H).	c #191E29",
"I).	c #1C1E29",
"J).	c #2B2222",
"K).	c #4F3B2E",
"L).	c #563C2A",
"M).	c #553C28",
"N).	c #563C29",
"O).	c #563C2B",
"P).	c #553B2B",
"Q).	c #543A2A",
"R).	c #533929",
"S).	c #523927",
"T).	c #523826",
"U).	c #513725",
"V).	c #503725",
"W).	c #503624",
"X).	c #4F3624",
"Y).	c #4F3523",
"Z).	c #4E3523",
"`).	c #4E3524",
" !.	c #4E3725",
".!.	c #4D3827",
"+!.	c #3C2E22",
"@!.	c #060203",
"#!.	c #222B42",
"$!.	c #3A4558",
"%!.	c #4D535B",
"&!.	c #897D5B",
"*!.	c #B3A170",
"=!.	c #494B4A",
"-!.	c #454D5A",
";!.	c #392A23",
">!.	c #5C4437",
",!.	c #5E4434",
"'!.	c #5E4534",
")!.	c #5F4535",
"!!.	c #5D4534",
"~!.	c #5C4433",
"{!.	c #5B4332",
"]!.	c #5A4230",
"^!.	c #59402F",
"/!.	c #573F2E",
"(!.	c #573E2E",
"_!.	c #573F2D",
":!.	c #573F30",
"<!.	c #563F30",
"[!.	c #563F2F",
"}!.	c #574030",
"|!.	c #584132",
"1!.	c #544132",
"2!.	c #42342C",
"3!.	c #272525",
"4!.	c #3E3E3E",
"5!.	c #414141",
"6!.	c #484849",
"7!.	c #11141F",
"8!.	c #32394A",
"9!.	c #343A4F",
"0!.	c #373949",
"a!.	c #68544B",
"b!.	c #CEA37D",
"c!.	c #DCA472",
"d!.	c #DDA46F",
"e!.	c #DDA370",
"f!.	c #DCA270",
"g!.	c #DBA16F",
"h!.	c #DAA16F",
"i!.	c #D9A16E",
"j!.	c #D8A06D",
"k!.	c #D8A06C",
"l!.	c #D89F6B",
"m!.	c #D79F6B",
"n!.	c #D99F6C",
"o!.	c #D9A06C",
"p!.	c #D7A16E",
"q!.	c #D4A372",
"r!.	c #AB8969",
"s!.	c #140401",
"t!.	c #232A44",
"u!.	c #4C535A",
"v!.	c #887B59",
"w!.	c #F2D48A",
"x!.	c #B2A06F",
"y!.	c #494B4B",
"z!.	c #434A59",
"A!.	c #846550",
"B!.	c #D6A37C",
"C!.	c #D8A173",
"D!.	c #D69F70",
"E!.	c #D59F70",
"F!.	c #D59F6F",
"G!.	c #D49E6E",
"H!.	c #D39D6D",
"I!.	c #D29C6C",
"J!.	c #D19B6B",
"K!.	c #D19B6C",
"L!.	c #D09A6B",
"M!.	c #CF9A6D",
"N!.	c #CF9A6F",
"O!.	c #CD996E",
"P!.	c #CB9A6D",
"Q!.	c #CC996D",
"R!.	c #CD9A6C",
"S!.	c #CE9C6E",
"T!.	c #CE9B70",
"U!.	c #CA9E76",
"V!.	c #A2866F",
"W!.	c #2F374C",
"X!.	c #303952",
"Y!.	c #35394A",
"Z!.	c #6B5447",
"`!.	c #D9A372",
" ~.	c #E7A561",
".~.	c #E8A35E",
"+~.	c #E8A35F",
"@~.	c #E7A260",
"#~.	c #E6A15F",
"$~.	c #E6A15E",
"%~.	c #E5A05D",
"&~.	c #E5A05C",
"*~.	c #E59F5C",
"=~.	c #E49F5C",
"-~.	c #E49F5B",
";~.	c #E4A15D",
">~.	c #E3A15E",
",~.	c #DFA265",
"'~.	c #B38962",
")~.	c #150300",
"!~.	c #252B43",
"~~.	c #242B45",
"{~.	c #877A58",
"]~.	c #F1D38A",
"^~.	c #B29F6F",
"/~.	c #494B4C",
"(~.	c #090C15",
"_~.	c #8B674B",
":~.	c #DFA371",
"<~.	c #E29F63",
"[~.	c #E19F60",
"}~.	c #E19E60",
"|~.	c #E09E5F",
"1~.	c #DF9D5F",
"2~.	c #DF9C5E",
"3~.	c #DE9C5F",
"4~.	c #DE9B5E",
"5~.	c #DD9B5F",
"6~.	c #DC9A5F",
"7~.	c #DB9A5F",
"8~.	c #DB9A60",
"9~.	c #DA9A61",
"0~.	c #D89B61",
"a~.	c #D79B5F",
"b~.	c #D89A60",
"c~.	c #D79A60",
"d~.	c #D69B60",
"e~.	c #D29C6A",
"f~.	c #A68467",
"g~.	c #2E3851",
"h~.	c #343A4B",
"i~.	c #6A5346",
"j~.	c #DAA371",
"k~.	c #E9A35C",
"l~.	c #E9A35D",
"m~.	c #E8A25D",
"n~.	c #E7A05E",
"o~.	c #E7A05D",
"p~.	c #E7A15C",
"q~.	c #E6A05B",
"r~.	c #E5A05A",
"s~.	c #E59F5B",
"t~.	c #E49F5A",
"u~.	c #E5A15D",
"v~.	c #E1A265",
"w~.	c #B38862",
"x~.	c #130200",
"y~.	c #242B47",
"z~.	c #4B535A",
"A~.	c #847757",
"B~.	c #FBD375",
"C~.	c #FBD273",
"D~.	c #F6D37E",
"E~.	c #B3A070",
"F~.	c #89664A",
"G~.	c #DDA270",
"H~.	c #E19F63",
"I~.	c #E19F5E",
"J~.	c #E09F5D",
"K~.	c #E09E5D",
"L~.	c #DF9E5C",
"M~.	c #DE9D5C",
"N~.	c #DE9C5C",
"O~.	c #DE9C5D",
"P~.	c #DD9C5D",
"Q~.	c #DD9B5E",
"R~.	c #DC9B5E",
"S~.	c #DB9B5D",
"T~.	c #D99B5D",
"U~.	c #D89A5D",
"V~.	c #D99A5E",
"W~.	c #D89A5E",
"X~.	c #D69A60",
"Y~.	c #D79B60",
"Z~.	c #D49B60",
"`~.	c #D09C6A",
" {.	c #A38267",
".{.	c #4A4A4C",
"+{.	c #0E121C",
"@{.	c #2C3851",
"#{.	c #30384B",
"${.	c #695347",
"%{.	c #D7A374",
"&{.	c #E4A462",
"*{.	c #E6A35F",
"={.	c #E5A25F",
"-{.	c #E5A260",
";{.	c #E4A05E",
">{.	c #E3A05F",
",{.	c #E3A05E",
"'{.	c #E2A05F",
"){.	c #E29F5F",
"!{.	c #E19F5F",
"~{.	c #E1A05F",
"{{.	c #E1A15F",
"]{.	c #E1A25F",
"^{.	c #DFA467",
"/{.	c #B18963",
"({.	c #120200",
"_{.	c #222A46",
":{.	c #232C46",
"<{.	c #4B525A",
"[{.	c #817656",
"}{.	c #F0D28A",
"|{.	c #FDD370",
"1{.	c #FBD272",
"2{.	c #F7D37E",
"3{.	c #B2A070",
"4{.	c #080C15",
"5{.	c #85644A",
"6{.	c #DDA574",
"7{.	c #DFA166",
"8{.	c #DEA063",
"9{.	c #DE9F62",
"0{.	c #DC9E60",
"a{.	c #DC9E61",
"b{.	c #DC9D61",
"c{.	c #DB9C61",
"d{.	c #DB9C60",
"e{.	c #DA9C61",
"f{.	c #D99C61",
"g{.	c #D99B61",
"h{.	c #D59B60",
"i{.	c #D59A62",
"j{.	c #D49A61",
"k{.	c #D39B63",
"l{.	c #D29963",
"m{.	c #D39963",
"n{.	c #D49A64",
"o{.	c #D19B66",
"p{.	c #CC9D6F",
"q{.	c #9D7E66",
"r{.	c #2C3448",
"s{.	c #2B3850",
"t{.	c #2D384C",
"u{.	c #665752",
"v{.	c #CFA885",
"w{.	c #DAA97A",
"x{.	c #D9A774",
"y{.	c #D8A674",
"z{.	c #D8A574",
"A{.	c #D7A574",
"B{.	c #D6A373",
"C{.	c #D5A373",
"D{.	c #D4A374",
"E{.	c #D4A273",
"F{.	c #D3A273",
"G{.	c #D4A373",
"H{.	c #D5A374",
"I{.	c #D6A575",
"J{.	c #D3A679",
"K{.	c #AA8C70",
"L{.	c #110301",
"M{.	c #232B45",
"N{.	c #4A525A",
"O{.	c #7F7454",
"P{.	c #414957",
"Q{.	c #080B14",
"R{.	c #7B6250",
"S{.	c #D4A987",
"T{.	c #D3A47B",
"U{.	c #D1A478",
"V{.	c #D1A277",
"W{.	c #CFA176",
"X{.	c #CE9F75",
"Y{.	c #CD9E73",
"Z{.	c #CD9E74",
"`{.	c #CC9D74",
" ].	c #CC9D73",
".].	c #CC9E73",
"+].	c #CB9C73",
"@].	c #C99C73",
"#].	c #C69B74",
"$].	c #C59A75",
"%].	c #C49B75",
"&].	c #C29B74",
"*].	c #C39A75",
"=].	c #C09A77",
"-].	c #BC9A7D",
";].	c #8D776A",
">].	c #0B0F1B",
",].	c #2A3347",
"'].	c #29354D",
")].	c #2A364E",
"!].	c #3B3C48",
"~].	c #63554F",
"{].	c #69554A",
"]].	c #685547",
"^].	c #675446",
"/].	c #665345",
"(].	c #655245",
"_].	c #645245",
":].	c #645244",
"<].	c #655345",
"[].	c #655346",
"}].	c #665346",
"|].	c #675547",
"1].	c #675548",
"2].	c #67564B",
"3].	c #554A45",
"4].	c #08040A",
"5].	c #232B47",
"6].	c #3B4659",
"7].	c #49525A",
"8].	c #7C7153",
"9].	c #F0D28B",
"0].	c #F7D47E",
"a].	c #393031",
"b].	c #5F504B",
"c].	c #5F4F47",
"d].	c #5D4D43",
"e].	c #5C4C42",
"f].	c #5B4B42",
"g].	c #5B4A41",
"h].	c #5A4A41",
"i].	c #5C4C41",
"j].	c #5C4B42",
"k].	c #5D4B42",
"l].	c #594942",
"m].	c #564842",
"n].	c #554740",
"o].	c #53463F",
"p].	c #524441",
"q].	c #50443F",
"r].	c #4C4240",
"s].	c #393136",
"t].	c #0B0F1C",
"u].	c #2A3349",
"v].	c #29344D",
"w].	c #28344E",
"x].	c #28334E",
"y].	c #282E43",
"z].	c #262E3F",
"A].	c #252D3E",
"B].	c #242B3C",
"C].	c #030510",
"D].	c #242C44",
"E].	c #222A47",
"F].	c #3C4659",
"G].	c #485259",
"H].	c #7B7051",
"I].	c #F6D47E",
"J].	c #424958",
"K].	c #1A1F30",
"L].	c #5D5E5F",
"M].	c #464646",
"N].	c #0B101B",
"O].	c #293347",
"P].	c #27334E",
"Q].	c #25334E",
"R].	c #24324C",
"S].	c #1F2C44",
"T].	c #1D2B45",
"U].	c #1F2B44",
"V].	c #222C47",
"W].	c #3B4759",
"X].	c #49535A",
"Y].	c #7A6F51",
"Z].	c #F0D28D",
"`].	c #FAD376",
" ^.	c #FBD371",
".^.	c #F6D57E",
"+^.	c #4A4B4C",
"@^.	c #070B14",
"#^.	c #1A2132",
"$^.	c #1F2943",
"%^.	c #595B5E",
"&^.	c #444444",
"*^.	c #0C0F1B",
"=^.	c #2A3147",
"-^.	c #29334D",
";^.	c #25334D",
">^.	c #24324B",
",^.	c #202639",
"'^.	c #252B44",
")^.	c #7A6E52",
"!^.	c #F0D18D",
"~^.	c #F7D57E",
"{^.	c #4B4C4D",
"]^.	c #070A14",
"^^.	c #212842",
"/^.	c #404040",
"(^.	c #0D101A",
"_^.	c #2D3244",
":^.	c #2A3448",
"<^.	c #263245",
"[^.	c #242D42",
"}^.	c #232C3F",
"|^.	c #202636",
"1^.	c #050610",
"2^.	c #252C45",
"3^.	c #4A535B",
"4^.	c #F0D18C",
"5^.	c #4A4C4D",
"6^.	c #070A13",
"7^.	c #242C41",
"8^.	c #23293E",
"9^.	c #515254",
"0^.	c #434343",
"a^.	c #1C1C1C",
"b^.	c #16161B",
"c^.	c #131621",
"d^.	c #121722",
"e^.	c #111520",
"f^.	c #10141F",
"g^.	c #0E0F1A",
"h^.	c #252C44",
"i^.	c #7A6E51",
"j^.	c #B4A171",
"k^.	c #4B4D4D",
"l^.	c #464D5C",
"m^.	c #454E5E",
"n^.	c #0A0C16",
"o^.	c #0B0F1A",
"p^.	c #0C111C",
"q^.	c #0C0F18",
"r^.	c #1F2024",
"s^.	c #262728",
"t^.	c #272829",
"u^.	c #27282A",
"v^.	c #282829",
"w^.	c #5D5D61",
"x^.	c #242C48",
"y^.	c #4A545B",
"z^.	c #B4A170",
"A^.	c #0A0B12",
"B^.	c #8F9195",
"C^.	c #BDBEC0",
"D^.	c #C5C6C8",
"E^.	c #C8C8CA",
"F^.	c #796E52",
"G^.	c #EFD08C",
"H^.	c #FBD377",
"I^.	c #15161A",
"J^.	c #262C45",
"K^.	c #4B545C",
"L^.	c #F0D08C",
"M^.	c #464E5C",
"N^.	c #434B59",
"O^.	c #141519",
"P^.	c #F7D57F",
"Q^.	c #4B4E4E",
"R^.	c #444C5A",
"S^.	c #070C14",
"T^.	c #393939",
"U^.	c #242D49",
"V^.	c #242D4A",
"W^.	c #3E4A5C",
"X^.	c #4C566A",
"Y^.	c #4C5467",
"Z^.	c #4C545D",
"`^.	c #7A6E54",
" /.	c #FAD377",
"./.	c #B1A072",
"+/.	c #4A4D4E",
"@/.	c #475060",
"#/.	c #101113",
"$/.	c #353535",
"%/.	c #020406",
"&/.	c #030407",
"*/.	c #030408",
"=/.	c #272D45",
"-/.	c #252E49",
";/.	c #242E4A",
">/.	c #3F4C5C",
",/.	c #7B7057",
"'/.	c #F1D290",
")/.	c #FAD378",
"!/.	c #F6D580",
"~/.	c #B2A172",
"{/.	c #48505E",
"]/.	c #485160",
"^/.	c #454E58",
"//.	c #080C13",
"(/.	c #030507",
"_/.	c #040608",
":/.	c #05050A",
"</.	c #050409",
"[/.	c #8D8D8D",
"}/.	c #929292",
"|/.	c #979899",
"1/.	c #939496",
"2/.	c #909192",
"3/.	c #818183",
"4/.	c #6A6C6B",
"5/.	c #5A5B5B",
"6/.	c #373839",
"7/.	c #302F33",
"8/.	c #252F4A",
"9/.	c #4C555E",
"0/.	c #F0D391",
"a/.	c #B3A373",
"b/.	c #4B4F4D",
"c/.	c #48505D",
"d/.	c #48525F",
"e/.	c #464E58",
"f/.	c #080B13",
"g/.	c #86878A",
"h/.	c #919294",
"i/.	c #959697",
"j/.	c #97979A",
"k/.	c #97989B",
"l/.	c #98989B",
"m/.	c #959699",
"n/.	c #919295",
"o/.	c #828385",
"p/.	c #7E8082",
"q/.	c #76787A",
"r/.	c #737577",
"s/.	c #5D6061",
"t/.	c #4B4E50",
"u/.	c #45484A",
"v/.	c #3D4143",
"w/.	c #3D3F42",
"x/.	c #545558",
"y/.	c #656568",
"z/.	c #6E6F70",
"A/.	c #818283",
"B/.	c #898A8A",
"C/.	c #929493",
"D/.	c #4B4A4E",
"E/.	c #191C2D",
"F/.	c #4E545F",
"G/.	c #7A7057",
"H/.	c #EED393",
"I/.	c #F8D47C",
"J/.	c #FBD477",
"K/.	c #F6D483",
"L/.	c #B3A375",
"M/.	c #4D504F",
"N/.	c #4A515E",
"O/.	c #49515F",
"P/.	c #090A13",
"Q/.	c #8D8C90",
"R/.	c #515153",
"S/.	c #292F46",
"T/.	c #263146",
"U/.	c #262F42",
"V/.	c #45505F",
"W/.	c #4F5B6A",
"X/.	c #4E5968",
"Y/.	c #4E5868",
"Z/.	c #4F5767",
"`/.	c #4E5767",
" (.	c #4E5766",
".(.	c #4D5666",
"+(.	c #4D5565",
"@(.	c #4C5465",
"#(.	c #4C5464",
"$(.	c #4E545C",
"%(.	c #79705C",
"&(.	c #E9D29E",
"*(.	c #F2D58E",
"=(.	c #F4D489",
"-(.	c #F4D487",
";(.	c #EFD491",
">(.	c #AFA17C",
",(.	c #4F5253",
"'(.	c #4C515D",
")(.	c #4B505D",
"!(.	c #494B57",
"~(.	c #0B0B13",
"{(.	c #0D1019",
"](.	c #29303A",
"^(.	c #2F363F",
"/(.	c #2F3640",
"((.	c #2F3540",
"_(.	c #30353F",
":(.	c #2F353F",
"<(.	c #2F3440",
"[(.	c #2E343F",
"}(.	c #2E333F",
"|(.	c #2D333E",
"1(.	c #2D3238",
"2(.	c #444138",
"3(.	c #857B63",
"4(.	c #8E8060",
"5(.	c #928260",
"6(.	c #91805E",
"7(.	c #8A7D60",
"8(.	c #625C4D",
"9(.	c #333537",
"0(.	c #30333A",
"a(.	c #2F3139",
"b(.	c #06060C",
"c(.	c #8B8C8D",
"d(.	c #89898D",
"e(.	c #4D4D4D",
"f(.	c #878789",
"g(.	c #878788",
"h(.	c #191D2E",
"i(.	c #282F39",
"j(.	c #2D333D",
"k(.	c #2D343D",
"l(.	c #2C343C",
"m(.	c #2B333B",
"n(.	c #2A3039",
"o(.	c #292F38",
"p(.	c #282E37",
"q(.	c #282D36",
"r(.	c #282C35",
"s(.	c #272C35",
"t(.	c #262C34",
"u(.	c #262B30",
"v(.	c #403B32",
"w(.	c #685C44",
"x(.	c #6A5C3D",
"y(.	c #6C5D3F",
"z(.	c #6C5E40",
"A(.	c #6A5E46",
"B(.	c #3E3A2E",
"C(.	c #242628",
"D(.	c #23252D",
"E(.	c #23232C",
"F(.	c #1E1F27",
"G(.	c #293249",
"H(.	c #293047",
"I(.	c #4F5768",
"J(.	c #4E5867",
"K(.	c #4D5766",
"L(.	c #4E5666",
"M(.	c #4F5666",
"N(.	c #4F5667",
"O(.	c #505767",
"P(.	c #505868",
"Q(.	c #4F5967",
"R(.	c #51585F",
"S(.	c #948A71",
"T(.	c #EDD49A",
"U(.	c #F5D58C",
"V(.	c #F6D58B",
"W(.	c #F4D48C",
"X(.	c #EED299",
"Y(.	c #8D8066",
"Z(.	c #4D505C",
"`(.	c #4B4E5C",
" _.	c #474A57",
"._.	c #29314A",
"+_.	c #27314B",
"@_.	c #27304A",
"#_.	c #4D5768",
"$_.	c #52565F",
"%_.	c #918260",
"&_.	c #F3D288",
"*_.	c #FBD276",
"=_.	c #F2D189",
"-_.	c #877755",
";_.	c #4C4F53",
">_.	c #4A505D",
",_.	c #494F5F",
"'_.	c #464B58",
")_.	c #868688",
"!_.	c #161B2C",
"~_.	c #28304A",
"{_.	c #4D5769",
"]_.	c #4E566A",
"^_.	c #4D566A",
"/_.	c #4E5668",
"(_.	c #525660",
"__.	c #90805F",
":_.	c #FDD376",
"<_.	c #FBD374",
"[_.	c #F3D387",
"}_.	c #837551",
"|_.	c #4C5054",
"1_.	c #495060",
"2_.	c #464C59",
"3_.	c #858587",
"4_.	c #283049",
"5_.	c #404B5F",
"6_.	c #8D7E5F",
"7_.	c #F4D38B",
"8_.	c #FCD277",
"9_.	c #F9D277",
"0_.	c #F1D288",
"a_.	c #7F734F",
"b_.	c #4D5056",
"c_.	c #495160",
"d_.	c #484D5A",
"e_.	c #0B0C14",
"f_.	c #858586",
"g_.	c #4F5762",
"h_.	c #897F67",
"i_.	c #EDD298",
"j_.	c #F6D387",
"k_.	c #F6D385",
"l_.	c #F3D386",
"m_.	c #EBD295",
"n_.	c #7F765B",
"o_.	c #4C525A",
"p_.	c #494E5B",
"q_.	c #090B13",
"r_.	c #131928",
"s_.	c #272F48",
"t_.	c #26304B",
"u_.	c #4D5665",
"v_.	c #6B6A65",
"w_.	c #A99D81",
"x_.	c #AF9E76",
"y_.	c #B2A076",
"z_.	c #B09F76",
"A_.	c #AA9F81",
"B_.	c #64645C",
"C_.	c #4A525E",
"D_.	c #484D5C",
"E_.	c #090A14",
"F_.	c #272E47",
"G_.	c #4E5862",
"H_.	c #4E555A",
"I_.	c #4F5557",
"J_.	c #505556",
"K_.	c #4E5459",
"L_.	c #4B5263",
"M_.	c #494D5E",
"N_.	c #080914",
"O_.	c #4B5969",
"P_.	c #4A5867",
"Q_.	c #070812",
"R_.	c #272D46",
"S_.	c #272E49",
"T_.	c #262E49",
"U_.	c #070811",
"V_.	c #5B5B5C",
"W_.	c #252D49",
"X_.	c #4B5865",
"Y_.	c #4B5864",
"Z_.	c #4C5664",
"`_.	c #4C5563",
" :.	c #484D5B",
".:.	c #060810",
"+:.	c #272C45",
"@:.	c #54595E",
"#:.	c #64645A",
"$:.	c #656255",
"%:.	c #686456",
"&:.	c #676556",
"*:.	c #686559",
"=:.	c #595C5C",
"-:.	c #4A5260",
";:.	c #495261",
">:.	c #06080F",
",:.	c #141726",
"':.	c #4D5762",
"):.	c #837D6A",
"!:.	c #DBC799",
"~:.	c #E1C88C",
"{:.	c #E4C98A",
"]:.	c #E4CA8A",
"^:.	c #E1CB94",
"/:.	c #A1977B",
"(:.	c #4C4F56",
"_:.	c #4A5160",
"::.	c #4A5162",
"<:.	c #464B5B",
"[:.	c #868587",
"}:.	c #262D49",
"|:.	c #4D555F",
"1:.	c #8C8063",
"2:.	c #F1D492",
"3:.	c #AE9D74",
"4:.	c #4E4F55",
"5:.	c #495061",
"6:.	c #464C5A",
"7:.	c #282C45",
"8:.	c #8D7F5F",
"9:.	c #FCD376",
"0:.	c #FCD273",
"a:.	c #F6D381",
"b:.	c #AE9D70",
"c:.	c #4A5060",
"d:.	c #4A5161",
"e:.	c #464D59",
"f:.	c #070911",
"g:.	c #4E565C",
"h:.	c #8E805E",
"i:.	c #F4D38A",
"j:.	c #FCD275",
"k:.	c #F7D380",
"l:.	c #AE9D6E",
"m:.	c #282D45",
"n:.	c #272D49",
"o:.	c #495867",
"p:.	c #4D565C",
"q:.	c #8E7F5D",
"r:.	c #AE9C6C",
"s:.	c #4E5052",
"t:.	c #4B525F",
"u:.	c #4B515F",
"v:.	c #484C59",
"w:.	c #080911",
"x:.	c #4E555D",
"y:.	c #8F805E",
"z:.	c #F6D480",
"A:.	c #AD9C6C",
"B:.	c #4E5151",
"C:.	c #4B535E",
"D:.	c #494D5B",
"E:.	c #080913",
"F:.	c #676768",
"G:.	c #272E4A",
"H:.	c #4F555D",
"I:.	c #90815F",
"J:.	c #F4D387",
"K:.	c #F8D381",
"L:.	c #AF9C6E",
"M:.	c #4F5251",
"N:.	c #4B5260",
"O:.	c #494D5A",
"P:.	c #262D4A",
"Q:.	c #90825E",
"R:.	c #F9D481",
"S:.	c #B09C70",
"T:.	c #4C525E",
"U:.	c #4B5160",
"V:.	c #080A12",
"W:.	c #252E4B",
"X:.	c #91825F",
"Y:.	c #FFD370",
"Z:.	c #B09D6E",
"`:.	c #515051",
" <.	c #4C525D",
".<.	c #474C59",
"+<.	c #6D6D6F",
"@<.	c #4E555C",
"#<.	c #928360",
"$<.	c #FDD274",
"%<.	c #FED26F",
"&<.	c #F6D47F",
"*<.	c #51504F",
"=<.	c #4B515C",
"-<.	c #938461",
";<.	c #3E495C",
"><.	c #948562",
",<.	c #AE9C6E",
"'<.	c #4B525D",
")<.	c #49505F",
"!<.	c #69696A",
"~<.	c #272D44",
"{<.	c #3F495C",
"]<.	c #4F545C",
"^<.	c #958562",
"/<.	c #F4D288",
"(<.	c #AD9C6D",
"_<.	c #4B515D",
":<.	c #4A505F",
"<<.	c #8B8B8D",
"[<.	c #4C5667",
"}<.	c #4F545B",
"|<.	c #968563",
"1<.	c #F5D288",
"2<.	c #4F514F",
"3<.	c #8D8D8E",
"4<.	c #262D44",
"5<.	c #4E535B",
"6<.	c #968663",
"7<.	c #F5D388",
"8<.	c #AC9C6C",
"9<.	c #4A525C",
"0<.	c #4A515F",
"a<.	c #8E8E90",
"b<.	c #F6D388",
"c<.	c #464B57",
"d<.	c #8F8F91",
"e<.	c #3D485B",
"f<.	c #958662",
"g<.	c #F5D387",
"h<.	c #FDD36F",
"i<.	c #FCD370",
"j<.	c #F6D481",
"k<.	c #AD9B6E",
"l<.	c #4F5151",
"m<.	c #909091",
"n<.	c #FDD36E",
"o<.	c #AC9A6D",
"p<.	c #4F5152",
"q<.	c #F5D386",
"r<.	c #AB996D",
"s<.	c #4E555B",
"t<.	c #958661",
"u<.	c #AB996C",
"v<.	c #959597",
"w<.	c #4D545B",
"x<.	c #F4D386",
"y<.	c #484D59",
"z<.	c #4B5361",
"A<.	c #505253",
"B<.	c #4C5560",
"C<.	c #958663",
"D<.	c #515353",
"E<.	c #4C5462",
"F<.	c #968764",
"G<.	c #AB996F",
"H<.	c #505454",
"I<.	c #4A4F5A",
"J<.	c #090A11",
"K<.	c #97989A",
"L<.	c #FCD375",
"M<.	c #AC9A6F",
"N<.	c #515456",
"O<.	c #4A505A",
"P<.	c #98999A",
"Q<.	c #262D43",
"R<.	c #978865",
"S<.	c #525456",
"T<.	c #999A9C",
"U<.	c #525455",
"V<.	c #494F5A",
"W<.	c #080A11",
"X<.	c #9A9B9D",
"Y<.	c #4D545A",
"Z<.	c #978864",
"`<.	c #FCD377",
" [.	c #AC9B6F",
".[.	c #515455",
"+[.	c #9E9FA1",
"@[.	c #262C43",
"#[.	c #F6D484",
"$[.	c #AB9A70",
"%[.	c #4D5461",
"&[.	c #262D47",
"*[.	c #F4D488",
"=[.	c #F5D484",
"-[.	c #978964",
";[.	c #AE9C70",
">[.	c #998864",
",[.	c #AF9D71",
"'[.	c #515454",
")[.	c #4B4E5B",
"![.	c #F5D488",
"~[.	c #B09D71",
"{[.	c #515453",
"][.	c #272D43",
"^[.	c #F5D389",
"/[.	c #B29E71",
"([.	c #515452",
"_[.	c #998965",
":[.	c #B19E70",
"<[.	c #989899",
"[[.	c #4C545A",
"}[.	c #FBD573",
"|[.	c #FAD574",
"1[.	c #B29F70",
"2[.	c #515351",
"3[.	c #4C545E",
"4[.	c #494F58",
"5[.	c #F6D581",
"6[.	c #B2A071",
"7[.	c #515350",
"8[.	c #090B11",
"9[.	c #636364",
"0[.	c #283048",
"a[.	c #3C4759",
"b[.	c #4D5259",
"c[.	c #FBD472",
"d[.	c #FBD473",
"e[.	c #505350",
"f[.	c #090B12",
"g[.	c #3B4758",
"h[.	c #4D525A",
"i[.	c #988863",
"j[.	c #FAD675",
"k[.	c #FBD571",
"l[.	c #F5D47F",
"m[.	c #B1A171",
"n[.	c #494D58",
"o[.	c #0A0B13",
"p[.	c #282E49",
"q[.	c #282E4A",
"r[.	c #4C5159",
"s[.	c #FBD572",
"t[.	c #B3A172",
"u[.	c #494D59",
"v[.	c #0A0C13",
"w[.	c #4C5157",
"x[.	c #978763",
"y[.	c #B5A171",
"z[.	c #50524F",
"A[.	c #4D525C",
"B[.	c #484F59",
"C[.	c #0A0D14",
"D[.	c #161927",
"E[.	c #495263",
"F[.	c #4B5056",
"G[.	c #988762",
"H[.	c #B4A272",
"I[.	c #485058",
"J[.	c #0A0E14",
"K[.	c #292E44",
"L[.	c #282E46",
"M[.	c #4B4F57",
"N[.	c #FAD578",
"O[.	c #B4A372",
"P[.	c #50514F",
"Q[.	c #4D515C",
"R[.	c #4A515C",
"S[.	c #495058",
"T[.	c #0B0E14",
"U[.	c #181928",
"V[.	c #2A2D43",
"W[.	c #282F42",
"X[.	c #495162",
"Y[.	c #485061",
"Z[.	c #4A4D55",
"`[.	c #958766",
" }.	c #F3D691",
".}.	c #F9D37B",
"+}.	c #B4A477",
"@}.	c #51524F",
"#}.	c #4C515C",
"$}.	c #4B5059",
"%}.	c #151622",
"&}.	c #262838",
"*}.	c #242938",
"=}.	c #373D4C",
"-}.	c #444B5A",
";}.	c #444B58",
">}.	c #434956",
",}.	c #434855",
"'}.	c #414754",
")}.	c #404449",
"!}.	c #867E67",
"~}.	c #D6C395",
"{}.	c #DBC488",
"]}.	c #DDC486",
"^}.	c #DCC185",
"/}.	c #D6BF8A",
"(}.	c #A29677",
"_}.	c #4D4D4C",
":}.	c #494D57",
"<}.	c #474B52",
"[}.	c #0C0E13",
"}}.	c #03050C",
"|}.	c #06060F",
"1}.	c #090C13",
"2}.	c #090D14",
"3}.	c #0A0E15",
"4}.	c #0A0E16",
"5}.	c #0B0E16",
"6}.	c #0B0E15",
"7}.	c #0B0D14",
"8}.	c #090B10",
"9}.	c #1E1B16",
"0}.	c #363023",
"a}.	c #3C3525",
"b}.	c #3E3726",
"c}.	c #3D3524",
"d}.	c #383122",
"e}.	c #28231B",
"f}.	c #13161A",
"g}.	c #14171B",
"h}.	c #878889",
"i}.	c #000302",
"j}.	c #868789",
"k}.	c #0A0B17",
"l}.	c #111523",
"m}.	c #121625",
"n}.	c #121725",
"o}.	c #1F232E",
"p}.	c #20242F",
"q}.	c #1E222D",
"r}.	c #1D222C",
"s}.	c #1C2029",
"t}.	c #1A2028",
"u}.	c #1A1F27",
"v}.	c #191D26",
"w}.	c #171C24",
"x}.	c #161A23",
"y}.	c #17181E",
"z}.	c #201B13",
"A}.	c #271B07",
"B}.	c #261902",
"C}.	c #221701",
"D}.	c #221702",
"E}.	c #1E1402",
"F}.	c #0F0C05",
"G}.	c #04060A",
"H}.	c #05050C",
"I}.	c #88898B",
"J}.	c #181B2C",
"K}.	c #2A324A",
"L}.	c #2A3149",
"M}.	c #293048",
"N}.	c #4F5769",
"O}.	c #4B5564",
"P}.	c #4C5564",
"Q}.	c #4E5665",
"R}.	c #4F5665",
"S}.	c #4F5565",
"T}.	c #53565D",
"U}.	c #94886D",
"V}.	c #DCC28B",
"W}.	c #E0C37F",
"X}.	c #DEC27F",
"Y}.	c #DCBF82",
"Z}.	c #D3BC8A",
"`}.	c #80765E",
" |.	c #494B52",
".|.	c #434651",
"+|.	c #0E1017",
"@|.	c #898A8B",
"#|.	c #171C2C",
"$|.	c #4D5668",
"%|.	c #4F555A",
"&|.	c #9C8B65",
"*|.	c #F3CF82",
"=|.	c #FAD071",
"-|.	c #F8CF74",
";|.	c #F0CD83",
">|.	c #907F5B",
",|.	c #4E5159",
"'|.	c #4C5261",
")|.	c #8A8A8C",
"!|.	c #212F46",
"~|.	c #434F64",
"{|.	c #9D8C64",
"]|.	c #F5CE7D",
"^|.	c #FDCF69",
"/|.	c #FDD067",
"(|.	c #FBCF6A",
"_|.	c #F3CF7D",
":|.	c #8D7C55",
"<|.	c #4D5159",
"[|.	c #4C5363",
"}|.	c #4A4E5B",
"||.	c #0D0E18",
"1|.	c #9E8D67",
"2|.	c #FAD06C",
"3|.	c #FCD068",
"4|.	c #FACF6D",
"5|.	c #F1CF81",
"6|.	c #8A7C56",
"7|.	c #4C5158",
"8|.	c #4B5262",
"9|.	c #4C5262",
"0|.	c #4A4E5D",
"a|.	c #0C0D17",
"b|.	c #252F4B",
"c|.	c #4E5660",
"d|.	c #9D9073",
"e|.	c #EFD493",
"f|.	c #F3D482",
"g|.	c #F4D37E",
"h|.	c #F4D280",
"i|.	c #ECD291",
"j|.	c #81775B",
"k|.	c #4C515A",
"l|.	c #4C5263",
"m|.	c #0B0C15",
"n|.	c #545455",
"o|.	c #4C5663",
"p|.	c #706D65",
"q|.	c #998E6F",
"r|.	c #9B8F66",
"s|.	c #9E9063",
"t|.	c #A19266",
"u|.	c #A09574",
"v|.	c #615F56",
"w|.	c #4D525D",
"x|.	c #4C5264",
"y|.	c #4B4F5D",
"z|.	c #4D555D",
"A|.	c #4F555C",
"B|.	c #4F545A",
"C|.	c #4E5359",
"D|.	c #4D535D",
"E|.	c #4C5360",
"F|.	c #4D5463",
"G|.	c #525253",
"H|.	c #233047",
"I|.	c #4D5462",
"J|.	c #4B5461",
"K|.	c #4B5362",
"L|.	c #4B5364",
"M|.	c #4B505E",
"N|.	c #4F5663",
"O|.	c #4F5662",
"P|.	c #4F5661",
"Q|.	c #4F5560",
"R|.	c #4C5562",
"S|.	c #4C5364",
"T|.	c #4B4F5F",
"U|.	c #0C0E17",
"V|.	c #575B5C",
"W|.	c #656156",
"X|.	c #686253",
"Y|.	c #686351",
"Z|.	c #6A6659",
"`|.	c #595B5A",
" 1.	c #262E4A",
".1.	c #98917C",
"+1.	c #DFCC9A",
"@1.	c #E6CD92",
"#1.	c #E6CE90",
"$1.	c #E6CE92",
"%1.	c #E1CE9C",
"&1.	c #968F78",
"*1.	c #4E535C",
"=1.	c #4E545B",
"-1.	c #A29471",
";1.	c #F3D48C",
">1.	c #F9D37D",
",1.	c #F8D47D",
"'1.	c #F1D58B",
")1.	c #A1956F",
"!1.	c #505359",
"~1.	c #0C0E16",
"{1.	c #A4956C",
"]1.	c #515357",
"^1.	c #0B0D16",
"/1.	c #282E45",
"(1.	c #272F4A",
"_1.	c #A3936B",
":1.	c #F5D385",
"<1.	c #A4946B",
"[1.	c #525458",
"}1.	c #4E5463",
"|1.	c #4A4F5C",
"11.	c #A4926B",
"21.	c #F7D388",
"31.	c #FDD278",
"41.	c #FED477",
"51.	c #F5D485",
"61.	c #A5946A",
"71.	c #535458",
"81.	c #4D5563",
"91.	c #4A4F5D",
"01.	c #0B0C16",
"a1.	c #4E565A",
"b1.	c #F8D287",
"c1.	c #FDD378",
"d1.	c #FDD377",
"e1.	c #F6D485",
"f1.	c #A6946A",
"g1.	c #4E5562",
"h1.	c #4E5563",
"i1.	c #4C4E5D",
"j1.	c #8F8E90",
"k1.	c #4E565B",
"l1.	c #A4936B",
"m1.	c #F6D384",
"n1.	c #A7966B",
"o1.	c #4F5562",
"p1.	c #4D5362",
"q1.	c #0A0C15",
"r1.	c #F5D384",
"s1.	c #A8976D",
"t1.	c #4E5461",
"u1.	c #0A0C14",
"v1.	c #919092",
"w1.	c #50555B",
"x1.	c #A5936B",
"y1.	c #A6966B",
"z1.	c #111625",
"A1.	c #A7946C",
"B1.	c #F7D385",
"C1.	c #F5D486",
"D1.	c #A6956B",
"E1.	c #515355",
"F1.	c #4C5260",
"G1.	c #A7956D",
"H1.	c #494E5A",
"I1.	c #959496",
"J1.	c #131625",
"K1.	c #50555A",
"L1.	c #A8956D",
"M1.	c #FAD374",
"N1.	c #F4D384",
"O1.	c #A4946A",
"P1.	c #505254",
"Q1.	c #A9966D",
"R1.	c #A39268",
"S1.	c #4F5153",
"T1.	c #4C525F",
"U1.	c #99989A",
"V1.	c #AA966D",
"W1.	c #F8D382",
"X1.	c #A29267",
"Y1.	c #141624",
"Z1.	c #292E45",
"`1.	c #AB976D",
" 2.	c #F5D382",
".2.	c #A39167",
"+2.	c #4F5052",
"@2.	c #4B515E",
"#2.	c #98979A",
"$2.	c #292E46",
"%2.	c #AB996E",
"&2.	c #F7D381",
"*2.	c #FDD36D",
"=2.	c #A29066",
"-2.	c #4C505D",
";2.	c #979698",
">2.	c #AD996E",
",2.	c #FCD270",
"'2.	c #F5D381",
")2.	c #A19065",
"!2.	c #525559",
"~2.	c #AE9A6E",
"{2.	c #F8D281",
"]2.	c #FCD26F",
"^2.	c #F5D37F",
"/2.	c #A18F64",
"(2.	c #4E5053",
"_2.	c #49505D",
":2.	c #282D46",
"<2.	c #515559",
"[2.	c #AE9A6F",
"}2.	c #F8D280",
"|2.	c #FDD26C",
"12.	c #9F8D62",
"22.	c #4E5054",
"32.	c #0A0B14",
"42.	c #515558",
"52.	c #F8D17F",
"62.	c #FDD16D",
"72.	c #FCD26E",
"82.	c #9E8C61",
"92.	c #0A0B15",
"02.	c #AE996D",
"a2.	c #F8D17E",
"b2.	c #FDD26A",
"c2.	c #FBD36E",
"d2.	c #9B8B61",
"e2.	c #0C0B15",
"f2.	c #515458",
"g2.	c #F8D17D",
"h2.	c #FDD36A",
"i2.	c #FBD26D",
"j2.	c #F3D380",
"k2.	c #9A8A60",
"l2.	c #4E5055",
"m2.	c #0C0C16",
"n2.	c #AE996C",
"o2.	c #FBD26A",
"p2.	c #FCD36A",
"q2.	c #FBD26E",
"r2.	c #F2D381",
"s2.	c #98895F",
"t2.	c #494E5D",
"u2.	c #262E46",
"v2.	c #AD9A6C",
"w2.	c #F7D27B",
"x2.	c #FCD46B",
"y2.	c #F3D381",
"z2.	c #988960",
"A2.	c #4E5154",
"B2.	c #4B5162",
"C2.	c #494D5C",
"D2.	c #59595B",
"E2.	c #3F4B5D",
"F2.	c #4F5458",
"G2.	c #AD9A6D",
"H2.	c #F7D37D",
"I2.	c #F3D281",
"J2.	c #97885F",
"K2.	c #4F5459",
"L2.	c #AD9A72",
"M2.	c #F6D486",
"N2.	c #FAD272",
"O2.	c #F7D375",
"P2.	c #F1D387",
"Q2.	c #958864",
"R2.	c #4C5259",
"S2.	c #4A5261",
"T2.	c #4A5263",
"U2.	c #A1967E",
"V2.	c #E0CB97",
"W2.	c #E6CC8A",
"X2.	c #E3CB8A",
"Y2.	c #DCCA96",
"Z2.	c #837E68",
"`2.	c #090B14",
" 3.	c #535758",
".3.	c #5C5A4C",
"+3.	c #5F5A48",
"@3.	c #615B48",
"#3.	c #605B48",
"$3.	c #5C5A4D",
"%3.	c #4E5355",
"&3.	c #4A5361",
"*3.	c #49535D",
"=3.	c #494E5C",
"-3.	c #475362",
";3.	c #494F5B",
">3.	c #3F4A5D",
",3.	c #495561",
"'3.	c #485263",
")3.	c #484E5A",
"!3.	c #535457",
"~3.	c #545454",
"{3.	c #545552",
"]3.	c #525651",
"^3.	c #515654",
"/3.	c #474E59",
"(3.	c #080B11",
"_3.	c #48525E",
":3.	c #827C6B",
"<3.	c #C2B087",
"[3.	c #C8B27E",
"}3.	c #C8B27C",
"|3.	c #C7B47E",
"13.	c #C2B28A",
"23.	c #726C60",
"33.	c #4B505C",
"43.	c #485161",
"53.	c #485060",
"63.	c #080B12",
"73.	c #4B505A",
"83.	c #9D8D69",
"93.	c #F0D189",
"03.	c #F7D178",
"a3.	c #F3D17B",
"b3.	c #877A5D",
"c3.	c #4A4E58",
"d3.	c #48505F",
"e3.	c #070B13",
"f3.	c #404A5D",
"g3.	c #A19067",
"h3.	c #F4D281",
"i3.	c #FAD172",
"j3.	c #FAD16F",
"k3.	c #F7D272",
"l3.	c #F0D285",
"m3.	c #8A7C59",
"n3.	c #47505D",
"o3.	c #464E59",
"p3.	c #293046",
"q3.	c #283249",
"r3.	c #4B5156",
"s3.	c #FBD16F",
"t3.	c #F8D171",
"u3.	c #F1D285",
"v3.	c #877956",
"w3.	c #4A4E55",
"x3.	c #2A3146",
"y3.	c #2A3248",
"z3.	c #293247",
"A3.	c #414D5D",
"B3.	c #4B5465",
"C3.	c #475261",
"D3.	c #A3936C",
"E3.	c #F2D389",
"F3.	c #F7D27A",
"G3.	c #F6D279",
"H3.	c #807555",
"I3.	c #49505A",
"J3.	c #494E56",
"K3.	c #090C12",
"L3.	c #151822",
"M3.	c #262D3B",
"N3.	c #262D3E",
"O3.	c #262E3D",
"P3.	c #252D3C",
"Q3.	c #434B56",
"R3.	c #454A4C",
"S3.	c #8A8066",
"T3.	c #CBB687",
"U3.	c #D0B77F",
"V3.	c #D0B77D",
"W3.	c #CBB57C",
"X3.	c #C0AE81",
"Y3.	c #675F4B",
"Z3.	c #44474B",
"`3.	c #434850",
" 4.	c #444850",
".4.	c #414449",
"+4.	c #0B0C11",
"@4.	c #01040D",
"#4.	c #050810",
"$4.	c #050811",
"%4.	c #060A13",
"&4.	c #060912",
"*4.	c #05080B",
"=4.	c #090702",
"-4.	c #110801",
";4.	c #140901",
">4.	c #130A01",
",4.	c #100901",
"'4.	c #0D0501",
")4.	c #060302",
"!4.	c #030508",
"~4.	c #080C1A",
"{4.	c #0C1018",
"]4.	c #0B0F18",
"^4.	c #0B0F17",
"/4.	c #0A0E17",
"(4.	c #0D1016",
"_4.	c #020409",
":4.	c #404B5A",
"<4.	c #475160",
"[4.	c #47525F",
"}4.	c #46505E",
"|4.	c #444E5C",
"14.	c #434D5B",
"24.	c #424C59",
"34.	c #414A58",
"44.	c #414857",
"54.	c #434957",
"64.	c #444958",
"74.	c #454B58",
"84.	c #444955",
"94.	c #10131C",
"04.	c #191D2D",
"a4.	c #27324C",
"b4.	c #474F61",
"c4.	c #484F61",
"d4.	c #4A5062",
"e4.	c #929293",
"f4.	c #273148",
"g4.	c #475062",
"h4.	c #485062",
"i4.	c #495062",
"j4.	c #4A5163",
"k4.	c #4E5769",
"l4.	c #485063",
"m4.	c #465162",
"n4.	c #475161",
"o4.	c #171B2B",
"p4.	c #4D5869",
"q4.	c #4A5057",
"r4.	c #4A5054",
"s4.	c #4C4E53",
"t4.	c #777266",
"u4.	c #A99976",
"v4.	c #B19E72",
"w4.	c #B19E73",
"x4.	c #AE9E7C",
"y4.	c #7D766A",
"z4.	c #A29575",
"A4.	c #F0D292",
"B4.	c #F5D285",
"C4.	c #F7D182",
"D4.	c #F6D284",
"E4.	c #F0D291",
"F4.	c #A49575",
"G4.	c #5D5D5F",
"H4.	c #A7966F",
"I4.	c #F5D185",
"J4.	c #FDD173",
"K4.	c #FAD173",
"L4.	c #F5D284",
"M4.	c #A9976F",
"N4.	c #505354",
"O4.	c #0E1118",
"P4.	c #AC986F",
"Q4.	c #F9D283",
"R4.	c #FDD170",
"S4.	c #FBD172",
"T4.	c #F4D283",
"U4.	c #A9976E",
"V4.	c #515354",
"W4.	c #505659",
"X4.	c #AD996F",
"Y4.	c #F9D182",
"Z4.	c #FDD172",
"`4.	c #FCD172",
" 5.	c #F5D283",
".5.	c #AA986E",
"+5.	c #959396",
"@5.	c #AD9B71",
"#5.	c #F8D282",
"$5.	c #F6D282",
"%5.	c #AC996F",
"&5.	c #4B4F5C",
"*5.	c #0D0F17",
"=5.	c #F8D384",
"-5.	c #AF9C72",
";5.	c #F7D382",
">5.	c #AE9B6F",
",5.	c #AF9D72",
"'5.	c #F6D382",
")5.	c #0C0E15",
"!5.	c #F6D383",
"~5.	c #AE9B70",
"{5.	c #AE9B71",
"]5.	c #4F5457",
"^5.	c #4A4E5A",
"/5.	c #AD9B70",
"(5.	c #525153",
"_5.	c #4D525F",
":5.	c #B09D72",
"<5.	c #AD9B6F",
"[5.	c #4D525E",
"}5.	c #272F4B",
"|5.	c #B09E72",
"15.	c #161928",
"25.	c #282E47",
"35.	c #515457",
"45.	c #AF9C71",
"55.	c #F9D282",
"65.	c #FFD373",
"75.	c #515052",
"85.	c #4D515E",
"95.	c #F8D383",
"05.	c #484C58",
"a5.	c #151828",
"b5.	c #273048",
"c5.	c #AD9A71",
"d5.	c #4C515E",
"e5.	c #4D5669",
"f5.	c #F7D283",
"g5.	c #F7D384",
"h5.	c #AB986E",
"i5.	c #AC9A70",
"j5.	c #535354",
"k5.	c #4D576A",
"l5.	c #4C5866",
"m5.	c #AA976E",
"n5.	c #F8D385",
"o5.	c #AD9A6F",
"p5.	c #27314C",
"q5.	c #090A12",
"r5.	c #A8966D",
"s5.	c #505459",
"t5.	c #4B525E",
"u5.	c #4E586A",
"v5.	c #4E5869",
"w5.	c #4E545A",
"x5.	c #A6956C",
"y5.	c #F7D484",
"z5.	c #AD9A6E",
"A5.	c #525151",
"B5.	c #A6956D",
"C5.	c #FED277",
"D5.	c #525152",
"E5.	c #A6946C",
"F5.	c #FED275",
"G5.	c #FFD374",
"H5.	c #474C57",
"I5.	c #FDD275",
"J5.	c #F8D485",
"K5.	c #4E596A",
"L5.	c #A7966E",
"M5.	c #F7D485",
"N5.	c #27304B",
"O5.	c #4F5559",
"P5.	c #A8966E",
"Q5.	c #F7D285",
"R5.	c #AB9A6D",
"S5.	c #28304B",
"T5.	c #505559",
"U5.	c #A8976E",
"V5.	c #AC9A6E",
"W5.	c #292F47",
"X5.	c #AA986F",
"Y5.	c #F8D286",
"Z5.	c #AB9870",
"`5.	c #F8D386",
" 6.	c #FDD276",
".6.	c #AB9970",
"+6.	c #AE9B6E",
"@6.	c #28304C",
"#6.	c #4B5765",
"$6.	c #293049",
"%6.	c #AF9B6F",
"&6.	c #4E5768",
"*6.	c #AD9A70",
"=6.	c #4D5868",
"-6.	c #AE9C71",
";6.	c #292F49",
">6.	c #27304C",
",6.	c #B19D70",
"'6.	c #505251",
")6.	c #171A2A",
"!6.	c #AC9B6E",
"~6.	c #9C9C9D",
"{6.	c #B39E72",
"]6.	c #AB9A6E",
"^6.	c #4F5150",
"/6.	c #0C0F15",
"(6.	c #505356",
"_6.	c #F8D482",
":6.	c #434F60",
"<6.	c #FCD46E",
"[6.	c #0D0F16",
"}6.	c #AA996C",
"|6.	c #282F49",
"16.	c #4C5766",
"26.	c #AB986C",
"36.	c #0E1117",
"46.	c #AB976B",
"56.	c #AC996D",
"66.	c #AA976C",
"76.	c #4D5767",
"86.	c #515459",
"96.	c #F7D282",
"06.	c #AA976D",
"a6.	c #262F4A",
"b6.	c #515358",
"c6.	c #AB986F",
"d6.	c #FAD372",
"e6.	c #F5D482",
"f6.	c #505053",
"g6.	c #4A505E",
"h6.	c #282E48",
"i6.	c #161A2B",
"j6.	c #0F1119",
"k6.	c #949596",
"l6.	c #505457",
"m6.	c #AC996E",
"n6.	c #F7D281",
"o6.	c #A7966A",
"p6.	c #4E5051",
"q6.	c #A8976B",
"r6.	c #5E5E5E",
"s6.	c #A9986C",
"t6.	c #0E1016",
"u6.	c #27314D",
"v6.	c #FCD272",
"w6.	c #AA996D",
"x6.	c #505252",
"y6.	c #28314D",
"z6.	c #485059",
"A6.	c #27324D",
"B6.	c #FCD173",
"C6.	c #161B2B",
"D6.	c #28324D",
"E6.	c #28324C",
"F6.	c #AD9C72",
"G6.	c #F6D283",
"H6.	c #AD9C70",
"I6.	c #505353",
"J6.	c #28334C",
"K6.	c #4F5358",
"L6.	c #AF9E74",
"M6.	c #AE9D71",
"N6.	c #4B555E",
"O6.	c #0D0F15",
"P6.	c #2A334B",
"Q6.	c #28344D",
"R6.	c #29344B",
"S6.	c #2A334C",
"T6.	c #29324A",
"U6.	c #B09E74",
"V6.	c #AF9E73",
"W6.	c #505352",
"X6.	c #4B555D",
"Y6.	c #4B545D",
"Z6.	c #1A1E2E",
"`6.	c #2B344C",
" 7.	c #2A3348",
".7.	c #4E596B",
"+7.	c #4F5356",
"@7.	c #AE9C76",
"#7.	c #FCD37C",
"$7.	c #FBD279",
"%7.	c #AE9D75",
"&7.	c #4C555D",
"*7.	c #0D0E15",
"=7.	c #A1A1A3",
"-7.	c #2D3547",
";7.	c #2D3448",
">7.	c #2D3447",
",7.	c #515969",
"'7.	c #505768",
")7.	c #4D5566",
"!7.	c #AD9E81",
"~7.	c #F0D49C",
"{7.	c #F4D38F",
"]7.	c #F4D38C",
"^7.	c #EDD395",
"/7.	c #AB9F7F",
"(7.	c #4C545B",
"_7.	c #4A4E57",
":7.	c #181C28",
"<7.	c #161D28",
"[7.	c #161C29",
"}7.	c #272C37",
"|7.	c #292E38",
"17.	c #2A2F38",
"27.	c #282D39",
"37.	c #262B36",
"47.	c #262B35",
"57.	c #292B30",
"67.	c #5F594E",
"77.	c #857761",
"87.	c #8A7B5F",
"97.	c #8E7F60",
"07.	c #8C7D5E",
"a7.	c #877A5F",
"b7.	c #615A4D",
"c7.	c #2D2E31",
"d7.	c #2A2E34",
"e7.	c #282C32",
"f7.	c #24272C",
"g7.	c #03020F",
"h7.	c #02030F",
"i7.	c #03050F",
"j7.	c #02050C",
"k7.	c #131624",
"l7.	c #3B4152",
"m7.	c #404757",
"n7.	c #404756",
"o7.	c #3F4655",
"p7.	c #3E4753",
"q7.	c #3D4753",
"r7.	c #3D4653",
"s7.	c #3C4552",
"t7.	c #3B4552",
"u7.	c #3B4451",
"v7.	c #3B4450",
"w7.	c #3A4350",
"x7.	c #3A424F",
"y7.	c #3A414E",
"z7.	c #39404D",
"A7.	c #393F4C",
"B7.	c #383F4C",
"C7.	c #383E4C",
"D7.	c #373D4B",
"E7.	c #363D49",
"F7.	c #353D48",
"G7.	c #363B45",
"H7.	c #242D47",
"I7.	c #475262",
"J7.	c #475162",
"K7.	c #455160",
"L7.	c #424D62",
"M7.	c #455163",
"N7.	c #12151E",
"O7.	c #223149",
"P7.	c #23304A",
"Q7.	c #404C61",
"R7.	c #485261",
"S7.	c #465160",
"T7.	c #9C9B9F",
"U7.	c #151929",
"V7.	c #55585A",
"W7.	c #676252",
"X7.	c #686252",
"Y7.	c #696354",
"Z7.	c #666458",
"`7.	c #0F121B",
" 8.	c #9A999D",
".8.	c #91876E",
"+8.	c #DFC892",
"@8.	c #E5C987",
"#8.	c #E7CA87",
"$8.	c #E7CB8B",
"%8.	c #E1CA98",
"&8.	c #867D68",
"*8.	c #495059",
"=8.	c #4D535C",
"-8.	c #9F8F6C",
";8.	c #F3D289",
">8.	c #F9D179",
",8.	c #FAD175",
"'8.	c #F9D178",
")8.	c #F2D18B",
"!8.	c #948565",
"~8.	c #4B5058",
"{8.	c #474D5C",
"]8.	c #4D555C",
"^8.	c #A09069",
"/8.	c #F4D285",
"(8.	c #FBD173",
"_8.	c #FDD171",
":8.	c #FBD174",
"<8.	c #F3D287",
"[8.	c #968762",
"}8.	c #0E111B",
"|8.	c #A29169",
"18.	c #F2D285",
"28.	c #988761",
"38.	c #4D5055",
"48.	c #4F545D",
"58.	c #A39169",
"68.	c #F3D384",
"78.	c #9A8963",
"88.	c #0E131A",
"98.	c #50555D",
"08.	c #A3926A",
"a8.	c #9D8C65",
"b8.	c #4E5156",
"c8.	c #494F5C",
"d8.	c #9B9A9C",
"e8.	c #272D47",
"f8.	c #4F565C",
"g8.	c #FDD271",
"h8.	c #A18F66",
"i8.	c #4F5155",
"j8.	c #10111B",
"k8.	c #151829",
"l8.	c #272D48",
"m8.	c #A29067",
"n8.	c #A39269",
"o8.	c #505256",
"p8.	c #10101A",
"q8.	c #262F4B",
"r8.	c #A5936C",
"s8.	c #A49369",
"t8.	c #515356",
"u8.	c #4C5362",
"v8.	c #0F101A",
"w8.	c #5F5F60",
"x8.	c #A5946C",
"y8.	c #FED273",
"z8.	c #A4936A",
"A8.	c #9E9D9F",
"B8.	c #A6946D",
"C8.	c #F4D382",
"D8.	c #50545A",
"E8.	c #A59369",
"F8.	c #4F5254",
"G8.	c #0E1019",
"H8.	c #A9976D",
"I8.	c #F6D281",
"J8.	c #A5936A",
"K8.	c #151A29",
"L8.	c #A6936A",
"M8.	c #A7946A",
"N8.	c #FED16F",
"O8.	c #A89569",
"P8.	c #FDD16F",
"Q8.	c #FDD16E",
"R8.	c #A8966B",
"S8.	c #0F111A",
"T8.	c #282D47",
"U8.	c #A8946A",
"V8.	c #F7D280",
"W8.	c #FED16E",
"X8.	c #F7D181",
"Y8.	c #AD996D",
"Z8.	c #F7D180",
"`8.	c #FCD171",
" 9.	c #F6D081",
".9.	c #AC986D",
"+9.	c #FCD170",
"@9.	c #0F1118",
"#9.	c #AB986D",
"$9.	c #FCD16F",
"%9.	c #FED06C",
"&9.	c #F6D280",
"*9.	c #A9956A",
"=9.	c #FDD16C",
"-9.	c #4E525E",
";9.	c #AA966A",
">9.	c #9D9CA0",
",9.	c #9F9EA2",
"'9.	c #AA966C",
")9.	c #AB9769",
"!9.	c #A1A0A4",
"~9.	c #A2A1A5",
"{9.	c #A2A1A6",
"]9.	c #9F9FA3",
"^9.	c #F8D37F",
"/9.	c #AC986C",
"(9.	c #AD996C",
"_9.	c #99989C",
":9.	c #515150",
"<9.	c #98989C",
"[9.	c #AE9B6D",
"}9.	c #515050",
"|9.	c #4F535A",
"19.	c #F5D380",
"29.	c #AE9C6F",
"39.	c #99999D",
"49.	c #A4916A",
"59.	c #AD9C6E",
"69.	c #040308",
"79.	c #4F535B",
"89.	c #4E5250",
"99.	c #4E525B",
"09.	c #A49169",
"a9.	c #AC9B6D",
"b9.	c #4E5150",
"c9.	c #0C0F16",
"d9.	c #3F4B5C",
"e9.	c #A5916B",
"f9.	c #F7D183",
"g9.	c #4D5050",
"h9.	c #4F535C",
"i9.	c #F6D182",
"j9.	c #A9976C",
"k9.	c #4E5050",
"l9.	c #49515C",
"m9.	c #F5D182",
"n9.	c #F5D281",
"o9.	c #474B59",
"p9.	c #0C0E18",
"q9.	c #040409",
"r9.	c #A49069",
"s9.	c #A89469",
"t9.	c #474F5D",
"u9.	c #474C5A",
"v9.	c #A59069",
"w9.	c #A79368",
"x9.	c #A59068",
"y9.	c #F6D181",
"z9.	c #A79369",
"A9.	c #4F5359",
"B9.	c #A59168",
"C9.	c #FCD16D",
"D9.	c #A69369",
"E9.	c #4D5051",
"F9.	c #F7D080",
"G9.	c #F5D27F",
"H9.	c #A0A1A3",
"I9.	c #A69169",
"J9.	c #FCD06C",
"K9.	c #F5D17F",
"L9.	c #4B4F51",
"M9.	c #4E5358",
"N9.	c #FCD06F",
"O9.	c #4D5458",
"P9.	c #FDD06F",
"Q9.	c #FCD06E",
"R9.	c #F6D07F",
"S9.	c #4D5459",
"T9.	c #A69269",
"U9.	c #FDD06E",
"V9.	c #FDD06B",
"W9.	c #F6D07D",
"X9.	c #A59367",
"Y9.	c #4C5052",
"Z9.	c #464E5F",
"`9.	c #A3A2A4",
" 0.	c #A7936A",
".0.	c #FCCF6E",
"+0.	c #F6D07E",
"@0.	c #A49267",
"#0.	c #4C4F51",
"$0.	c #464E5E",
"%0.	c #4E5357",
"&0.	c #F6CF7E",
"*0.	c #FBCF6C",
"=0.	c #A49268",
"-0.	c #4D5257",
";0.	c #A79468",
">0.	c #FCD06A",
",0.	c #FBD06B",
"'0.	c #F5D07D",
")0.	c #A39267",
"!0.	c #4D5158",
"~0.	c #F7D17E",
"{0.	c #FCCF6A",
"]0.	c #FAD06A",
"^0.	c #F3D17C",
"/0.	c #A29265",
"(0.	c #F7D07D",
"_0.	c #FCCF6B",
":0.	c #FBD06D",
"<0.	c #A19166",
"[0.	c #4A4F53",
"}0.	c #454E5D",
"|0.	c #454C59",
"10.	c #3F4A5F",
"20.	c #4B5158",
"30.	c #FCCF6F",
"40.	c #FDCE6C",
"50.	c #FBCF6F",
"60.	c #F2D07F",
"70.	c #A09067",
"80.	c #494E53",
"90.	c #3F4A60",
"00.	c #4C5258",
"a0.	c #A59571",
"b0.	c #F3D28B",
"c0.	c #F7D07A",
"d0.	c #F7D079",
"e0.	c #EED087",
"f0.	c #9B8E69",
"g0.	c #474E53",
"h0.	c #404B60",
"i0.	c #4A5467",
"j0.	c #8E8877",
"k0.	c #C8B68E",
"l0.	c #CDB785",
"m0.	c #CDB883",
"n0.	c #CDB884",
"o0.	c #C8B78B",
"p0.	c #837E6B",
"q0.	c #454F57",
"r0.	c #4F5352",
"s0.	c #495057",
"t0.	c #43505F",
"u0.	c #444F5E",
"v0.	c #454E5A",
"w0.	c #11151D",
"x0.	c #43505E",
"y0.	c #434F5D",
"z0.	c #454F5F",
"A0.	c #454F60",
"B0.	c #2B3246",
"C0.	c #2A3346",
"D0.	c #495562",
"E0.	c #47505F",
"F0.	c #45505D",
"G0.	c #47505C",
"H0.	c #181E26",
"I0.	c #171C26",
"J0.	c #181D27",
"K0.	c #181D28",
"L0.	c #1A1F29",
"M0.	c #1A202A",
"N0.	c #181E27",
"O0.	c #191F27",
"P0.	c #192028",
"Q0.	c #181D26",
"R0.	c #161A24",
"S0.	c #04050C",
"T0.	c #00040A",
"U0.	c #01040A",
"V0.	c #010408",
"W0.	c #131623",
"X0.	c #1F2636",
"Y0.	c #1E2535",
"Z0.	c #323744",
"`0.	c #343A47",
" a.	c #353A47",
".a.	c #323845",
"+a.	c #313945",
"@a.	c #303945",
"#a.	c #313844",
"$a.	c #303643",
"%a.	c #2F3541",
"&a.	c #2C333D",
"*a.	c #2B333C",
"=a.	c #29323C",
"-a.	c #29313B",
";a.	c #28303A",
">a.	c #283039",
",a.	c #292F39",
"'a.	c #292F37",
")a.	c #1B1F2F",
"!a.	c #2A324B",
"~a.	c #29334C",
"{a.	c #444E5D",
"]a.	c #444B56",
"^a.	c #27334D",
"/a.	c #465261",
"(a.	c #454F5B",
"_a.	c #434C57",
":a.	c #191E2E",
"<a.	c #495159",
"[a.	c #4D514F",
"}a.	c #4E504D",
"|a.	c #4E4F4D",
"1a.	c #4D4F50",
"2a.	c #464F5E",
"3a.	c #181D2E",
"4a.	c #878170",
"5a.	c #BBAA82",
"6a.	c #C2AC7D",
"7a.	c #C6AF7E",
"8a.	c #C4AF81",
"9a.	c #C0B18E",
"0a.	c #6C685F",
"aa.	c #444B57",
"ba.	c #171C2D",
"ca.	c #4B5254",
"da.	c #AC9B73",
"ea.	c #F1D085",
"fa.	c #F4CF7C",
"ga.	c #7C7359",
"ha.	c #494E57",
"ia.	c #454A58",
"ja.	c #6E6E70",
"ka.	c #4D5353",
"la.	c #AE9C6B",
"ma.	c #FBCE6B",
"na.	c #FCCF6C",
"oa.	c #F9D070",
"pa.	c #EFD088",
"qa.	c #807356",
"ra.	c #AF9C6B",
"sa.	c #F7CF78",
"ta.	c #FCCE6C",
"ua.	c #FDCE6B",
"va.	c #F9CF6F",
"wa.	c #EFD086",
"xa.	c #807353",
"ya.	c #4A4F58",
"za.	c #161C2B",
"Aa.	c #AD9A6A",
"Ba.	c #F6CE7A",
"Ca.	c #FBCD6E",
"Da.	c #FDCD6C",
"Ea.	c #ECCF86",
"Fa.	c #7C7253",
"Ga.	c #484F60",
"Ha.	c #444C57",
"Ia.	c #0C1118",
"Ja.	c #F2CF87",
"Ka.	c #F5CD7A",
"La.	c #F3CF7A",
"Ma.	c #E8CF90",
"Na.	c #776F57",
"Oa.	c #494F59",
"Pa.	c #727274",
"Qa.	c #4E545D",
"Ra.	c #837D69",
"Sa.	c #B2A178",
"Ta.	c #B5A172",
"Ua.	c #B5A26F",
"Va.	c #5E5C56",
"Wa.	c #454D58",
"Xa.	c #9FA0A2",
"Ya.	c #4E5455",
"Za.	c #4E5252",
"`a.	c #4D5057",
" b.	c #3E4A5D",
".b.	c #46505F",
"+b.	c #465260",
"@b.	c #495663",
"#b.	c #4C5661",
"$b.	c #465060",
"%b.	c #090D16",
"&b.	c #495665",
"*b.	c #555859",
"=b.	c #635F53",
"-b.	c #666051",
";b.	c #676151",
">b.	c #676150",
",b.	c #636054",
"'b.	c #475061",
")b.	c #080D15",
"!b.	c #3E485B",
"~b.	c #9D937A",
"{b.	c #DCC592",
"]b.	c #E3C68A",
"^b.	c #E3C78A",
"/b.	c #E1C78C",
"(b.	c #DAC798",
"_b.	c #837C69",
":b.	c #465061",
"<b.	c #B19F76",
"[b.	c #F5D184",
"}b.	c #FBCE76",
"|b.	c #FCCF76",
"1b.	c #EFD18B",
"2b.	c #8F8163",
"3b.	c #747476",
"4b.	c #4E5454",
"5b.	c #B39F71",
"6b.	c #F8D07D",
"7b.	c #FDCE70",
"8b.	c #FCCE6D",
"9b.	c #FACF70",
"0b.	c #F2D084",
"ab.	c #90805D",
"bb.	c #4A4E56",
"cb.	c #454A59",
"db.	c #4F5353",
"eb.	c #B39F70",
"fb.	c #F8CF7B",
"gb.	c #FCCE6E",
"hb.	c #FBCF6B",
"ib.	c #FAD06F",
"jb.	c #F1D082",
"kb.	c #8F805C",
"lb.	c #090A15",
"mb.	c #B39E6F",
"nb.	c #F7CF7B",
"ob.	c #90805C",
"pb.	c #B39E70",
"qb.	c #F7CF7C",
"rb.	c #FCCE6F",
"sb.	c #F1D083",
"tb.	c #4B4E55",
"ub.	c #908F91",
"vb.	c #B29D6F",
"wb.	c #FACF6F",
"xb.	c #F2D082",
"yb.	c #90815C",
"zb.	c #4C4E55",
"Ab.	c #FDCF6E",
"Bb.	c #FBD06F",
"Cb.	c #91825C",
"Db.	c #4C4E54",
"Eb.	c #464D5D",
"Fb.	c #454A56",
"Gb.	c #737374",
"Hb.	c #B19D6F",
"Ib.	c #F9D07D",
"Jb.	c #FECF6E",
"Kb.	c #FECF6A",
"Lb.	c #F3D182",
"Mb.	c #92825C",
"Nb.	c #4B4E54",
"Ob.	c #474E5C",
"Pb.	c #717172",
"Qb.	c #4C5566",
"Rb.	c #F9CF7D",
"Sb.	c #FFCF6E",
"Tb.	c #FBD070",
"Ub.	c #92835C",
"Vb.	c #4B4D52",
"Wb.	c #454A57",
"Xb.	c #B39C70",
"Yb.	c #FACF7D",
"Zb.	c #FCD06B",
"`b.	c #94845D",
" c.	c #444A56",
".c.	c #B39B6F",
"+c.	c #94855E",
"@c.	c #4A5664",
"#c.	c #B29A6F",
"$c.	c #FED06F",
"%c.	c #949495",
"&c.	c #4F5256",
"*c.	c #B19B6F",
"=c.	c #F4D282",
"-c.	c #95855E",
";c.	c #4F5255",
">c.	c #B09A6E",
",c.	c #FCD26D",
"'c.	c #95865F",
")c.	c #484E5D",
"!c.	c #96865F",
"~c.	c #AF9A6D",
"{c.	c #97875F",
"]c.	c #FDD16B",
"^c.	c #4B4E52",
"/c.	c #454C58",
"(c.	c #FED16D",
"_c.	c #949395",
":c.	c #4F5154",
"<c.	c #B0996D",
"[c.	c #FED16A",
"}c.	c #98875F",
"|c.	c #505154",
"1c.	c #B0986D",
"2c.	c #FDD06D",
"3c.	c #FED069",
"4c.	c #F4D080",
"5c.	c #AF986C",
"6c.	c #FDD06C",
"7c.	c #FDD069",
"8c.	c #FCD06D",
"9c.	c #474E5B",
"0c.	c #AD986B",
"ac.	c #FCD169",
"bc.	c #F3D180",
"cc.	c #AD976A",
"dc.	c #FCD16C",
"ec.	c #F3D17F",
"fc.	c #4A4D51",
"gc.	c #AC966A",
"hc.	c #FCD16B",
"ic.	c #FDD169",
"jc.	c #AC9669",
"kc.	c #FDD16A",
"lc.	c #FBD16D",
"mc.	c #4D5054",
"nc.	c #F9D17B",
"oc.	c #FCD16A",
"pc.	c #FBD16C",
"qc.	c #F2D17E",
"rc.	c #998A60",
"sc.	c #8E8D8F",
"tc.	c #AC9768",
"uc.	c #FDD06A",
"vc.	c #9B8A60",
"wc.	c #4B4D51",
"xc.	c #454C5C",
"yc.	c #4D5152",
"zc.	c #F4D07C",
"Ac.	c #9D8C61",
"Bc.	c #AB9668",
"Cc.	c #F8D17B",
"Dc.	c #FBD16A",
"Ec.	c #F4D17C",
"Fc.	c #9E8D61",
"Gc.	c #4A4C50",
"Hc.	c #AC9769",
"Ic.	c #A08D62",
"Jc.	c #10121B",
"Kc.	c #F8D27D",
"Lc.	c #A28F64",
"Mc.	c #AD986A",
"Nc.	c #FED16B",
"Oc.	c #A48F65",
"Pc.	c #494C50",
"Qc.	c #181A29",
"Rc.	c #3E495B",
"Sc.	c #4D5154",
"Tc.	c #AF9B6C",
"Uc.	c #F8D17C",
"Vc.	c #A59167",
"Wc.	c #B29D6E",
"Xc.	c #FAD27D",
"Yc.	c #A69368",
"Zc.	c #444C58",
"`c.	c #0F131C",
" d.	c #838384",
".d.	c #B59E70",
"+d.	c #FBD17D",
"@d.	c #F7D27F",
"#d.	c #494D51",
"$d.	c #29334B",
"%d.	c #4D5667",
"&d.	c #4B5665",
"*d.	c #B5A072",
"=d.	c #FAD17F",
"-d.	c #FDD26E",
";d.	c #818182",
">d.	c #191D2A",
",d.	c #2B3247",
"'d.	c #273245",
")d.	c #B5A175",
"!d.	c #F6D285",
"~d.	c #FAD177",
"{d.	c #FBD275",
"]d.	c #FAD275",
"^d.	c #F3D283",
"/d.	c #AB9A71",
"(d.	c #4C4E52",
"_d.	c #474F59",
":d.	c #464F58",
"<d.	c #10141B",
"[d.	c #2B3142",
"}d.	c #2B3244",
"|d.	c #414A57",
"1d.	c #48515F",
"2d.	c #48515E",
"3d.	c #4C4E51",
"4d.	c #AD9F80",
"5d.	c #E1C790",
"6d.	c #E4C787",
"7d.	c #E4C886",
"8d.	c #E3C886",
"9d.	c #DEC78E",
"0d.	c #A3977A",
"ad.	c #4B4E51",
"bd.	c #484E57",
"cd.	c #464C54",
"dd.	c #111318",
"ed.	c #04050E",
"fd.	c #070914",
"gd.	c #080A15",
"hd.	c #060913",
"id.	c #101116",
"jd.	c #292318",
"kd.	c #392E1A",
"ld.	c #3D321A",
"md.	c #3F331B",
"nd.	c #3D331B",
"od.	c #38301B",
"pd.	c #221E14",
"qd.	c #0F1015",
"rd.	c #0D0E14",
"sd.	c #858486",
"td.	c #515152",
"ud.	c #02010A",
"vd.	c #040104",
"wd.	c #0D101F",
"xd.	c #0C111E",
"yd.	c #0C121E",
"zd.	c #0D121E",
"Ad.	c #161924",
"Bd.	c #151923",
"Cd.	c #141821",
"Dd.	c #13171F",
"Ed.	c #13161F",
"Fd.	c #13161E",
"Gd.	c #13161B",
"Hd.	c #28221C",
"Id.	c #453B2D",
"Jd.	c #4B3F2D",
"Kd.	c #4F432F",
"Ld.	c #524532",
"Md.	c #524636",
"Nd.	c #383027",
"Od.	c #131317",
"Pd.	c #11131B",
"Qd.	c #0F1016",
"Rd.	c #282F43",
"Sd.	c #4A4F57",
"Td.	c #8D826B",
"Ud.	c #DEC695",
"Vd.	c #E4C789",
"Wd.	c #E6C887",
"Xd.	c #E7C888",
"Yd.	c #E3C78F",
"Zd.	c #A59579",
"`d.	c #4B4D58",
" e.	c #484C57",
".e.	c #42464F",
"+e.	c #858687",
"@e.	c #283047",
"#e.	c #978967",
"$e.	c #FBD378",
"%e.	c #FCD27A",
"&e.	c #F6D286",
"*e.	c #474D57",
"=e.	c #3E4A5E",
"-e.	c #9A8A65",
";e.	c #F6D488",
">e.	c #A9956B",
",e.	c #4F5050",
"'e.	c #4D505D",
")e.	c #454D56",
"!e.	c #848587",
"~e.	c #4C5358",
"{e.	c #998A62",
"]e.	c #FED172",
"^e.	c #4A505B",
"/e.	c #464C57",
"(e.	c #495469",
"_e.	c #4D5358",
":e.	c #9A8961",
"<e.	c #F7D284",
"[e.	c #FED174",
"}e.	c #FFD171",
"|e.	c #474B57",
"1e.	c #3D485D",
"2e.	c #FED173",
"3e.	c #FED170",
"4e.	c #A49167",
"5e.	c #3C475C",
"6e.	c #998961",
"7e.	c #9A8860",
"8e.	c #A49166",
"9e.	c #3B475B",
"0e.	c #FED16C",
"ae.	c #F6D17F",
"be.	c #474D5A",
"ce.	c #454A55",
"de.	c #3B475A",
"ee.	c #4B5157",
"fe.	c #F6D17E",
"ge.	c #4B5258",
"he.	c #99885F",
"ie.	c #FFD26C",
"je.	c #F7D17F",
"ke.	c #A49066",
"le.	c #4D4E51",
"me.	c #484E59",
"ne.	c #89898A",
"oe.	c #9A8960",
"pe.	c #FED26E",
"qe.	c #FFD26B",
"re.	c #A49165",
"se.	c #8A8A8B",
"te.	c #4B4E4F",
"ue.	c #9B8A62",
"ve.	c #FFD26A",
"we.	c #A39064",
"xe.	c #3A4658",
"ye.	c #9B8A64",
"ze.	c #FED26D",
"Ae.	c #4B4D50",
"Be.	c #464D58",
"Ce.	c #444954",
"De.	c #9C8B64",
"Ee.	c #4C4F50",
"Fe.	c #444A55",
"Ge.	c #9E8D65",
"He.	c #FED370",
"Ie.	c #A39066",
"Je.	c #919192",
"Ke.	c #9E8C64",
"Le.	c #FED26B",
"Me.	c #A59166",
"Ne.	c #4C4F4F",
"Oe.	c #9F8D64",
"Pe.	c #474F5A",
"Qe.	c #9F8D63",
"Re.	c #F6D180",
"Se.	c #F7D27E",
"Te.	c #444957",
"Ue.	c #444857",
"Ve.	c #4D5157",
"We.	c #9F8C63",
"Xe.	c #F7D17D",
"Ye.	c #A59165",
"Ze.	c #4B4D4F",
"`e.	c #444956",
" f.	c #A69166",
".f.	c #434856",
"+f.	c #A69165",
"@f.	c #4A4C4E",
"#f.	c #252D46",
"$f.	c #4D5058",
"%f.	c #A18D64",
"&f.	c #FCD16E",
"*f.	c #4A4C4F",
"=f.	c #444755",
"-f.	c #090914",
";f.	c #4C5058",
">f.	c #A28D64",
",f.	c #F8D080",
"'f.	c #F6D17C",
")f.	c #454B5C",
"!f.	c #0A0A14",
"~f.	c #4C5056",
"{f.	c #A18E65",
"]f.	c #464C5D",
"^f.	c #7F7F80",
"/f.	c #A38E65",
"(f.	c #A38E67",
"_f.	c #FED06A",
":f.	c #0A0D15",
"<f.	c #7E7E80",
"[f.	c #A28F68",
"}f.	c #434B55",
"|f.	c #9F906F",
"1f.	c #F1D28E",
"2f.	c #F7D07C",
"3f.	c #494D54",
"4f.	c #434E5D",
"5f.	c #424B56",
"6f.	c #0A0F16",
"7f.	c #242F4A",
"8f.	c #404A5C",
"9f.	c #B3A27F",
"0f.	c #B9A377",
"af.	c #BAA578",
"bf.	c #B9A578",
"cf.	c #B5A47F",
"df.	c #7C7768",
"ef.	c #424854",
"ff.	c #42495B",
"gf.	c #3F4959",
"hf.	c #7B7B7D",
"if.	c #292F3D",
"jf.	c #2D2F37",
"kf.	c #2E2F35",
"lf.	c #2F3035",
"mf.	c #2F3134",
"nf.	c #2D3236",
"of.	c #29323D",
"pf.	c #283444",
"qf.	c #2B3648",
"rf.	c #2E3745",
"sf.	c #767677",
"tf.	c #223148",
"uf.	c #233147",
"vf.	c #293245",
"wf.	c #090D1A",
"xf.	c #777779",
"yf.	c #121621",
"zf.	c #131829",
"Af.	c #141A25",
"Bf.	c #494A4B",
"Cf.	c #7B7C7C",
"Df.	c #7A7A7B",
"Ef.	c #050505",
"Ff.	c #262627",
"Gf.	c #2D2E2F",
"Hf.	c #4C4C4C",
"If.	c #AAABAD",
"Jf.	c #252626",
"Kf.	c #212024",
"Lf.	c #11151F",
"Mf.	c #121520",
"Nf.	c #1C1F2A",
"Of.	c #1B1E29",
"Pf.	c #191D27",
"Qf.	c #161A25",
"Rf.	c #141721",
"Sf.	c #1C1A17",
"Tf.	c #383020",
"Uf.	c #3C301C",
"Vf.	c #3C311C",
"Wf.	c #3C301B",
"Xf.	c #3D301B",
"Yf.	c #3B2F1A",
"Zf.	c #3A2E1A",
"`f.	c #392D19",
" g.	c #382C19",
".g.	c #372C18",
"+g.	c #372B18",
"@g.	c #362B18",
"#g.	c #362C18",
"$g.	c #372C19",
"%g.	c #372D19",
"&g.	c #382D1A",
"*g.	c #382E1A",
"=g.	c #392E19",
"-g.	c #3A2E19",
";g.	c #3B2F19",
">g.	c #3C3018",
",g.	c #3D3119",
"'g.	c #3D331C",
")g.	c #312B1E",
"!g.	c #121111",
"~g.	c #17181B",
"{g.	c #212121",
"]g.	c #191918",
"^g.	c #181816",
"/g.	c #141414",
"(g.	c #293042",
"_g.	c #293345",
":g.	c #3F495A",
"<g.	c #3E4859",
"[g.	c #3F485A",
"}g.	c #3E4552",
"|g.	c #6D6554",
"1g.	c #E0CA95",
"2g.	c #E9C985",
"3g.	c #EAC984",
"4g.	c #EACA83",
"5g.	c #E9CA83",
"6g.	c #E9C983",
"7g.	c #EAC883",
"8g.	c #E9C782",
"9g.	c #E8C681",
"0g.	c #E7C680",
"ag.	c #E6C67F",
"bg.	c #E5C57F",
"cg.	c #E5C47E",
"dg.	c #E4C47E",
"eg.	c #E3C47D",
"fg.	c #E4C57E",
"gg.	c #E5C67F",
"hg.	c #E5C680",
"ig.	c #E5C581",
"jg.	c #E5C681",
"kg.	c #E6C680",
"lg.	c #E7C57E",
"mg.	c #E7C67D",
"ng.	c #E5C67C",
"og.	c #E6C67A",
"pg.	c #E7C67A",
"qg.	c #E2C784",
"rg.	c #BBAB83",
"sg.	c #494746",
"tg.	c #424753",
"ug.	c #424755",
"vg.	c #2E303A",
"wg.	c #0B111B",
"xg.	c #253247",
"yg.	c #313D53",
"zg.	c #3C485D",
"Ag.	c #3B485C",
"Bg.	c #72684E",
"Cg.	c #EED28C",
"Dg.	c #FCD477",
"Eg.	c #F9D16D",
"Fg.	c #F5D278",
"Gg.	c #C6B17C",
"Hg.	c #414655",
"Ig.	c #404759",
"Jg.	c #3F4759",
"Kg.	c #414859",
"Lg.	c #2C2F3A",
"Mg.	c #39393C",
"Ng.	c #09080D",
"Og.	c #313D55",
"Pg.	c #3B475E",
"Qg.	c #3C485E",
"Rg.	c #3F4654",
"Sg.	c #72674C",
"Tg.	c #FDD46E",
"Ug.	c #FFD371",
"Vg.	c #FFD36F",
"Wg.	c #FFD470",
"Xg.	c #FED36C",
"Yg.	c #FED26C",
"Zg.	c #FBD067",
"`g.	c #F7D174",
" h.	c #C7B179",
".h.	c #464540",
"+h.	c #3F4554",
"@h.	c #3F4758",
"#h.	c #2B303B",
"$h.	c #3E3D41",
"%h.	c #3A475C",
"&h.	c #3B485D",
"*h.	c #6D654D",
"=h.	c #FFD474",
"-h.	c #FCD067",
";h.	c #FDD068",
">h.	c #F9D074",
",h.	c #C9B179",
"'h.	c #46433E",
")h.	c #3E4553",
"!h.	c #3F4657",
"~h.	c #2B2D38",
"{h.	c #403F43",
"]h.	c #0B101D",
"^h.	c #232E40",
"/h.	c #39475C",
"(h.	c #3B475C",
"_h.	c #F9D281",
":h.	c #F8D380",
"<h.	c #F8D481",
"[h.	c #F9D482",
"}h.	c #F8D583",
"|h.	c #F9D37F",
"1h.	c #FECE68",
"2h.	c #FECF68",
"3h.	c #CBB27B",
"4h.	c #3D4454",
"5h.	c #3B4456",
"6h.	c #3E4556",
"7h.	c #282C37",
"8h.	c #3C3B40",
"9h.	c #08080C",
"0h.	c #0C111D",
"ah.	c #2D394E",
"bh.	c #555751",
"ch.	c #AFA483",
"dh.	c #B8A679",
"eh.	c #B7A478",
"fh.	c #B6A377",
"gh.	c #B6A276",
"hh.	c #B4A177",
"ih.	c #B3A177",
"jh.	c #AF9F75",
"kh.	c #B09F74",
"lh.	c #B1A075",
"mh.	c #B2A175",
"nh.	c #B3A275",
"oh.	c #B5A276",
"ph.	c #B7A376",
"qh.	c #B8A477",
"rh.	c #BAA478",
"sh.	c #BAA57A",
"th.	c #B9A579",
"uh.	c #B9A475",
"vh.	c #BCA370",
"wh.	c #DAB970",
"xh.	c #FECF67",
"yh.	c #F9D172",
"zh.	c #CCB37A",
"Ah.	c #45423D",
"Bh.	c #3D4452",
"Ch.	c #3A4456",
"Dh.	c #3D4556",
"Eh.	c #272B36",
"Fh.	c #39383C",
"Gh.	c #07070C",
"Hh.	c #354157",
"Ih.	c #384557",
"Jh.	c #3D4955",
"Kh.	c #464D52",
"Lh.	c #484C4E",
"Mh.	c #484C4C",
"Nh.	c #474C4C",
"Oh.	c #484C4D",
"Ph.	c #474C4D",
"Qh.	c #464D4E",
"Rh.	c #464C4F",
"Sh.	c #474C4F",
"Th.	c #474C4E",
"Uh.	c #474D4D",
"Vh.	c #484D4E",
"Wh.	c #484D4D",
"Xh.	c #4A4E4F",
"Yh.	c #4A4E50",
"Zh.	c #4C4D50",
"`h.	c #4C4E4D",
" i.	c #504D42",
".i.	c #B09962",
"+i.	c #F8D076",
"@i.	c #FECE67",
"#i.	c #FECF65",
"$i.	c #FDD065",
"%i.	c #F9D171",
"&i.	c #CEB47B",
"*i.	c #45433C",
"=i.	c #3B4251",
"-i.	c #394356",
";i.	c #3C4656",
">i.	c #252B35",
",i.	c #36363A",
"'i.	c #07060B",
")i.	c #374457",
"!i.	c #3A4959",
"~i.	c #404E5D",
"{i.	c #414E5D",
"]i.	c #424F5E",
"^i.	c #414F5E",
"/i.	c #41505E",
"(i.	c #404F5E",
"_i.	c #42505F",
":i.	c #B29D6B",
"<i.	c #F8CF77",
"[i.	c #FECF66",
"}i.	c #FDD066",
"|i.	c #F9D170",
"1i.	c #CEB57B",
"2i.	c #44433C",
"3i.	c #3A4151",
"4i.	c #394355",
"5i.	c #384355",
"6i.	c #242934",
"7i.	c #343338",
"8i.	c #374358",
"9i.	c #3B495B",
"0i.	c #3F4D5F",
"ai.	c #3E4E5F",
"bi.	c #3F4F5F",
"ci.	c #415060",
"di.	c #405060",
"ei.	c #425062",
"fi.	c #425061",
"gi.	c #494E51",
"hi.	c #B5A16F",
"ii.	c #F8D177",
"ji.	c #FED065",
"ki.	c #CDB67B",
"li.	c #43413B",
"mi.	c #384254",
"ni.	c #384154",
"oi.	c #3C4354",
"pi.	c #242833",
"qi.	c #323236",
"ri.	c #354258",
"si.	c #354358",
"ti.	c #374459",
"ui.	c #3B495D",
"vi.	c #3F4E60",
"wi.	c #3F4E5F",
"xi.	c #414F61",
"yi.	c #414F62",
"zi.	c #424F63",
"Ai.	c #424F64",
"Bi.	c #415061",
"Ci.	c #4A4D50",
"Di.	c #B7A374",
"Ei.	c #FAD06B",
"Fi.	c #F7D275",
"Gi.	c #CDB77E",
"Hi.	c #42403B",
"Ii.	c #394050",
"Ji.	c #3C4355",
"Ki.	c #222631",
"Li.	c #2E3B51",
"Mi.	c #2D3B50",
"Ni.	c #2E3A50",
"Oi.	c #354255",
"Pi.	c #374356",
"Qi.	c #3B485B",
"Ri.	c #3C485B",
"Si.	c #3B495C",
"Ti.	c #3A495C",
"Ui.	c #3B4A5D",
"Vi.	c #3B4B5E",
"Wi.	c #3B4B5D",
"Xi.	c #3C4A5D",
"Yi.	c #3E495D",
"Zi.	c #3D4A5D",
"`i.	c #3D4B5D",
" j.	c #464B50",
".j.	c #B1A37F",
"+j.	c #EAD190",
"@j.	c #EDCF86",
"#j.	c #EDCF84",
"$j.	c #EED083",
"%j.	c #EBD189",
"&j.	c #C7B88E",
"*j.	c #3A4253",
"=j.	c #2E2E32",
"-j.	c #0C101E",
";j.	c #212B3C",
">j.	c #1F2C3F",
",j.	c #1F2C40",
"'j.	c #212F42",
")j.	c #202E43",
"!j.	c #202F44",
"~j.	c #212F44",
"{j.	c #222F44",
"]j.	c #29303F",
"^j.	c #4B4A44",
"/j.	c #5E5944",
"(j.	c #60583E",
"_j.	c #645B41",
":j.	c #655B42",
"<j.	c #645E47",
"[j.	c #57564E",
"}j.	c #2E3541",
"|j.	c #2B384B",
"1j.	c #2D384B",
"2j.	c #30394A",
"3j.	c #232D3F",
"4j.	c #242D3C",
"5j.	c #252E3C",
"6j.	c #272E3B",
"7j.	c #282F3C",
"8j.	c #262F3D",
"9j.	c #263140",
"0j.	c #11131F",
"aj.	c #222E41",
"bj.	c #283043",
"cj.	c #232F43",
"dj.	c #233042",
"ej.	c #0D101D",
"fj.	c #1E2635",
"gj.	c #1F2737",
"hj.	c #1E2636",
"ij.	c #202737",
"jj.	c #202836",
"kj.	c #1F2837",
"lj.	c #1F2838",
"mj.	c #202736",
"nj.	c #1E2836",
"oj.	c #898989",
"pj.	c #808080",
"qj.	c #7E7E7F",
"rj.	c #848586",
"sj.	c #68686B",
"tj.	c #01020C",
"uj.	c #868788",
"vj.	c #7D7F7F",
"wj.	c #7D7E7F",
"xj.	c #7B7C7E",
"yj.	c #3D3D3D",
"zj.	c #01010C",
"Aj.	c #02020C",
"Bj.	c #1A2130",
"Cj.	c #182030",
"Dj.	c #18202F",
"Ej.	c #18212F",
"Fj.	c #182130",
"Gj.	c #192132",
"Hj.	c #182131",
"Ij.	c #192231",
"Jj.	c #1A2331",
"Kj.	c #1E2634",
"Lj.	c #1D2633",
"Mj.	c #1C2533",
"Nj.	c #1C2434",
"Oj.	c #1B2433",
"Pj.	c #1C2534",
"Qj.	c #1D2535",
"Rj.	c #1D2331",
"Sj.	c #1C283B",
"Tj.	c #1C283C",
"Uj.	c #1B283A",
"Vj.	c #1C273A",
"Wj.	c #1C263A",
"Xj.	c #1B283B",
"Yj.	c #1C273D",
"Zj.	c #1B273C",
"`j.	c #1B273B",
" k.	c #1B273A",
".k.	c #222E40",
"+k.	c #222E3F",
"@k.	c #212C3E",
"#k.	c #202C3E",
"$k.	c #0A0F1A",
"%k.	c #1B273D",
"&k.	c #1A263C",
"*k.	c #1A263D",
"=k.	c #1A263E",
"-k.	c #1B273E",
";k.	c #1C273E",
">k.	c #1B263C",
",k.	c #1F2C3E",
"'k.	c #202D40",
")k.	c #222C3F",
"!k.	c #232B3B",
"~k.	c #101523",
"{k.	c #1C273C",
"]k.	c #1C263C",
"^k.	c #1B253C",
"/k.	c #1A263B",
"(k.	c #1A273B",
"_k.	c #1B263A",
":k.	c #1B263B",
"<k.	c #212D40",
"[k.	c #222D3F",
"}k.	c #1E2738",
"|k.	c #1C2538",
"1k.	c #1B2737",
"2k.	c #1B2738",
"3k.	c #1C2738",
"4k.	c #1E2739",
"5k.	c #1D2739",
"6k.	c #1D2638",
"7k.	c #1D2537",
"8k.	c #1C2637",
"9k.	c #1C2638",
"0k.	c #1C2639",
"ak.	c #1C2737",
"bk.	c #1E2537",
"ck.	c #1D2939",
"dk.	c #222C3D",
"ek.	c #21293A",
"fk.	c #212B3B",
"gk.	c #212937",
"hk.	c #0B111C",
"ik.	c #0B111D",
"jk.	c #0B111E",
"kk.	c #0C111F",
"lk.	c #0C121F",
"mk.	c #0C121D",
"nk.	c #0D121F",
"ok.	c #0D1320",
"pk.	c #0E1320",
"qk.	c #0E1522",
"rk.	c #0E1524",
"sk.	c #0F1624",
"tk.	c #0F1623",
"uk.	c #0F1521",
"vk.	c #0E1621",
"wk.	c #0E1420",
"xk.	c #0D141F",
"yk.	c #0C151F",
"zk.	c #0C121C",
"Ak.	c #0D121C",
"Bk.	c #0B101A",
"Ck.	c #03040E",
"Dk.	c #808183",
"Ek.	c #030008",
"Fk.	c #03030D",
"Gk.	c #06080E",
"Hk.	c #070C13",
"Ik.	c #050711",
"Jk.	c #060711",
"Kk.	c #04050F",
"Lk.	c #05050F",
"Mk.	c #050510",
"Nk.	c #060611",
"Ok.	c #060811",
"Pk.	c #7C7D7F",
"Qk.	c #10121E",
"Rk.	c #1D2335",
"Sk.	c #1D2334",
"Tk.	c #1D2433",
"Uk.	c #1C2433",
"Vk.	c #1D2634",
"Wk.	c #202735",
"Xk.	c #0E131D",
"Yk.	c #393F48",
"Zk.	c #48515D",
"`k.	c #444D59",
" l.	c #414B56",
".l.	c #404955",
"+l.	c #404854",
"@l.	c #3F4854",
"#l.	c #3E4754",
"$l.	c #3F4754",
"%l.	c #3F4753",
"&l.	c #2A2F37",
"*l.	c #12151B",
"=l.	c #404550",
"-l.	c #3C4452",
";l.	c #272E3F",
">l.	c #7A7B7D",
",l.	c #121422",
"'l.	c #1E2A3B",
")l.	c #1F2B3C",
"!l.	c #202C3D",
"~l.	c #3C4551",
"{l.	c #485563",
"]l.	c #485363",
"^l.	c #14181F",
"/l.	c #3D4858",
"(l.	c #242B3E",
"_l.	c #0F1220",
":l.	c #454E61",
"<l.	c #13181F",
"[l.	c #101422",
"}l.	c #3C4450",
"|l.	c #495868",
"1l.	c #485768",
"2l.	c #455065",
"3l.	c #445062",
"4l.	c #454D62",
"5l.	c #475164",
"6l.	c #3A4458",
"7l.	c #101423",
"8l.	c #3D4350",
"9l.	c #485869",
"0l.	c #48576A",
"al.	c #475669",
"bl.	c #475063",
"cl.	c #101322",
"dl.	c #434D5E",
"el.	c #0E111F",
"fl.	c #465666",
"gl.	c #595852",
"hl.	c #5B5850",
"il.	c #5E5A50",
"jl.	c #5F5B51",
"kl.	c #5B5A57",
"ll.	c #474C56",
"ml.	c #424A5C",
"nl.	c #424A5B",
"ol.	c #232833",
"pl.	c #161922",
"ql.	c #494F60",
"rl.	c #364055",
"sl.	c #0F1221",
"tl.	c #3E4350",
"ul.	c #ADA489",
"vl.	c #DAC693",
"wl.	c #DFC68E",
"xl.	c #DEC792",
"yl.	c #D4C5A0",
"zl.	c #605C54",
"Al.	c #41495B",
"Bl.	c #414959",
"Cl.	c #333D52",
"Dl.	c #455165",
"El.	c #0D111F",
"Fl.	c #BFAE84",
"Gl.	c #FAD27C",
"Hl.	c #EAD096",
"Il.	c #6A604A",
"Jl.	c #232531",
"Kl.	c #171A24",
"Ll.	c #495161",
"Ml.	c #494F52",
"Nl.	c #474F53",
"Ol.	c #444E57",
"Pl.	c #2F384A",
"Ql.	c #0F1323",
"Rl.	c #3D424F",
"Sl.	c #515554",
"Tl.	c #C0AC7E",
"Ul.	c #FCD174",
"Vl.	c #FAD279",
"Wl.	c #EFD08F",
"Xl.	c #6D6248",
"Yl.	c #444852",
"Zl.	c #414757",
"`l.	c #22252F",
" m.	c #171B24",
".m.	c #4A5061",
"+m.	c #877F6F",
"@m.	c #A3936F",
"#m.	c #A49569",
"$m.	c #A1936A",
"%m.	c #948B70",
"&m.	c #424343",
"*m.	c #78797B",
"=m.	c #111423",
"-m.	c #2B3749",
";m.	c #455263",
">m.	c #212B3A",
",m.	c #C0AA7D",
"'m.	c #FAD178",
")m.	c #EFCE8D",
"!m.	c #70634A",
"~m.	c #454852",
"{m.	c #414659",
"]m.	c #21242E",
"^m.	c #181B24",
"/m.	c #4D5156",
"(m.	c #BFAC83",
"_m.	c #E4CC91",
":m.	c #595340",
"<m.	c #77787A",
"[m.	c #232F41",
"}m.	c #1F2A39",
"|m.	c #FBD177",
"1m.	c #EECE8C",
"2m.	c #434852",
"3m.	c #404658",
"4m.	c #20252D",
"5m.	c #171A25",
"6m.	c #BEA775",
"7m.	c #F9D078",
"8m.	c #E8CA84",
"9m.	c #5A4F38",
"0m.	c #272D40",
"am.	c #2A3648",
"bm.	c #313B4E",
"cm.	c #303D4D",
"dm.	c #161B26",
"em.	c #3C424F",
"fm.	c #BEA779",
"gm.	c #EFCE8C",
"hm.	c #716449",
"im.	c #43474F",
"jm.	c #404557",
"km.	c #414656",
"lm.	c #21242D",
"mm.	c #4E4F53",
"nm.	c #FAD077",
"om.	c #FFCF69",
"pm.	c #FBCF6E",
"qm.	c #EAC881",
"rm.	c #5B4D35",
"sm.	c #282E40",
"tm.	c #4A4A4A",
"um.	c #202630",
"vm.	c #3C414E",
"wm.	c #515556",
"xm.	c #BBA578",
"ym.	c #EECF8A",
"zm.	c #72674A",
"Am.	c #42484F",
"Bm.	c #414456",
"Cm.	c #21232F",
"Dm.	c #BDA571",
"Em.	c #FFCF6A",
"Fm.	c #FFD069",
"Gm.	c #FBD06E",
"Hm.	c #E9C881",
"Im.	c #5A4C35",
"Jm.	c #767779",
"Km.	c #494949",
"Lm.	c #232940",
"Mm.	c #293547",
"Nm.	c #1F2530",
"Om.	c #3B414E",
"Pm.	c #B9A576",
"Qm.	c #FBD176",
"Rm.	c #F0D08A",
"Sm.	c #75694B",
"Tm.	c #41484F",
"Um.	c #3F4656",
"Vm.	c #BDA572",
"Wm.	c #F9D177",
"Xm.	c #FED167",
"Ym.	c #584B34",
"Zm.	c #282D40",
"`m.	c #757677",
" n.	c #494748",
".n.	c #202530",
"+n.	c #3B414F",
"@n.	c #515656",
"#n.	c #B9A677",
"$n.	c #FCD175",
"%n.	c #F1CF88",
"&n.	c #796A4C",
"*n.	c #434751",
"=n.	c #3E4657",
"-n.	c #BFA673",
";n.	c #FED268",
">n.	c #EAC983",
",n.	c #564932",
"'n.	c #282D41",
")n.	c #111322",
"!n.	c #474646",
"~n.	c #283447",
"{n.	c #7D6D4E",
"]n.	c #424650",
"^n.	c #20242E",
"/n.	c #C1A875",
"(n.	c #FDD269",
"_n.	c #E8CA83",
":n.	c #544832",
"<n.	c #111222",
"[n.	c #747577",
"}n.	c #444243",
"|n.	c #3A404D",
"1n.	c #515557",
"2n.	c #B8A476",
"3n.	c #7D6F4F",
"4n.	c #3E4555",
"5n.	c #21252F",
"6n.	c #C3AA77",
"7n.	c #FAD26F",
"8n.	c #E8CB85",
"9n.	c #524832",
"0n.	c #111223",
"an.	c #424141",
"bn.	c #B7A377",
"cn.	c #F1D088",
"dn.	c #7F7150",
"en.	c #3E4554",
"fn.	c #C5AB78",
"gn.	c #FED369",
"hn.	c #FBD370",
"in.	c #E7CB86",
"jn.	c #514832",
"kn.	c #121323",
"ln.	c #414040",
"mn.	c #39404C",
"nn.	c #807251",
"on.	c #41464F",
"pn.	c #C5AB79",
"qn.	c #504732",
"rn.	c #777879",
"sn.	c #3F3D3E",
"tn.	c #212530",
"un.	c #B4A075",
"vn.	c #F1D087",
"wn.	c #817352",
"xn.	c #41464E",
"yn.	c #C6AC79",
"zn.	c #FED36A",
"An.	c #E7CB85",
"Bn.	c #4F4631",
"Cn.	c #131523",
"Dn.	c #3D3C3C",
"En.	c #212631",
"Fn.	c #B39E75",
"Gn.	c #F2D087",
"Hn.	c #827552",
"In.	c #40454E",
"Jn.	c #3D4554",
"Kn.	c #C6AD7A",
"Ln.	c #E8CA86",
"Mn.	c #4F4632",
"Nn.	c #141524",
"On.	c #3B3A3B",
"Pn.	c #222732",
"Qn.	c #51555B",
"Rn.	c #B29D75",
"Sn.	c #F7D082",
"Tn.	c #F2D086",
"Un.	c #837653",
"Vn.	c #42464E",
"Wn.	c #3C4455",
"Xn.	c #21252E",
"Yn.	c #545252",
"Zn.	c #C7AE7B",
"`n.	c #E9CB87",
" o.	c #514734",
".o.	c #272D41",
"+o.	c #292E47",
"@o.	c #141525",
"#o.	c #151825",
"$o.	c #24293F",
"%o.	c #495362",
"&o.	c #222632",
"*o.	c #B19D73",
"=o.	c #FDD174",
"-o.	c #FED070",
";o.	c #F2D185",
">o.	c #857754",
",o.	c #41454E",
"'o.	c #3D4355",
")o.	c #3D4354",
"!o.	c #191C26",
"~o.	c #535251",
"{o.	c #C7AF7B",
"]o.	c #FFD26E",
"^o.	c #E9CC88",
"/o.	c #524933",
"(o.	c #737477",
"_o.	c #242A3F",
":o.	c #393E4B",
"<o.	c #B09C73",
"[o.	c #FDD074",
"}o.	c #867955",
"|o.	c #3D4456",
"1o.	c #1A1D27",
"2o.	c #545251",
"3o.	c #C9AF7B",
"4o.	c #FAD179",
"5o.	c #FFD26F",
"6o.	c #E9CB88",
"7o.	c #272F41",
"8o.	c #151726",
"9o.	c #383E4B",
"0o.	c #B09A71",
"ao.	c #F8D083",
"bo.	c #FDD073",
"co.	c #887A56",
"do.	c #3D4453",
"eo.	c #23262F",
"fo.	c #1B1F28",
"go.	c #555351",
"ho.	c #FFD16F",
"io.	c #544A36",
"jo.	c #383E4A",
"ko.	c #F8D082",
"lo.	c #8A7B58",
"mo.	c #43464F",
"no.	c #3E4454",
"oo.	c #555350",
"po.	c #CAAF7B",
"qo.	c #564D37",
"ro.	c #2B3447",
"so.	c #AF9970",
"to.	c #8C7C59",
"uo.	c #242730",
"vo.	c #CAAF7C",
"wo.	c #574E38",
"xo.	c #2A3548",
"yo.	c #222733",
"zo.	c #3A3F4C",
"Ao.	c #F2D183",
"Bo.	c #8C7D58",
"Co.	c #43474E",
"Do.	c #55534F",
"Eo.	c #CAB07C",
"Fo.	c #EACC89",
"Go.	c #68696B",
"Ho.	c #333335",
"Io.	c #161A27",
"Jo.	c #8D7E58",
"Ko.	c #3D4555",
"Lo.	c #1D1F29",
"Mo.	c #4C5160",
"No.	c #FAD17A",
"Oo.	c #595039",
"Po.	c #353537",
"Qo.	c #2A3749",
"Ro.	c #AE9970",
"So.	c #F8D081",
"To.	c #FED073",
"Uo.	c #8E7F59",
"Vo.	c #43474B",
"Wo.	c #3D4552",
"Xo.	c #3C4351",
"Yo.	c #1E2029",
"Zo.	c #CAB07D",
"`o.	c #FAD07B",
" p.	c #EACD89",
".p.	c #5B523B",
"+p.	c #616265",
"@p.	c #232C43",
"#p.	c #2B374A",
"$p.	c #232832",
"%p.	c #FED072",
"&p.	c #F4D184",
"*p.	c #90805A",
"=p.	c #42474B",
"-p.	c #1E2129",
";p.	c #FAD07C",
">p.	c #FED071",
",p.	c #FAD273",
"'p.	c #EBCD88",
")p.	c #5E543D",
"!p.	c #273143",
"~p.	c #2A314A",
"{p.	c #2C384A",
"]p.	c #232934",
"^p.	c #92815C",
"/p.	c #43464B",
"(p.	c #3B4452",
"_p.	c #3A414F",
":p.	c #1E212A",
"<p.	c #565451",
"[p.	c #CAAE7B",
"}p.	c #62573F",
"|p.	c #26314D",
"1p.	c #262F4C",
"2p.	c #293149",
"3p.	c #AB966E",
"4p.	c #F8D181",
"5p.	c #94835E",
"6p.	c #42464C",
"7p.	c #1E212B",
"8p.	c #575351",
"9p.	c #C9AD7A",
"0p.	c #FBD07A",
"ap.	c #ECCD88",
"bp.	c #655A41",
"cp.	c #293142",
"dp.	c #2D394B",
"ep.	c #252A35",
"fp.	c #51555D",
"gp.	c #A9956E",
"hp.	c #95845F",
"ip.	c #3A4353",
"jp.	c #242731",
"kp.	c #1F232C",
"lp.	c #575452",
"mp.	c #C8AC7A",
"np.	c #FCCF7B",
"op.	c #685C43",
"pp.	c #242D44",
"qp.	c #222D41",
"rp.	c #2E3A4C",
"sp.	c #252B36",
"tp.	c #968660",
"up.	c #3A4453",
"vp.	c #242732",
"wp.	c #4E5464",
"xp.	c #575555",
"yp.	c #FBD17C",
"zp.	c #EDCF89",
"Ap.	c #6A5E45",
"Bp.	c #303C4F",
"Cp.	c #51555E",
"Dp.	c #F4D183",
"Ep.	c #978761",
"Fp.	c #41474C",
"Gp.	c #394454",
"Hp.	c #3A4252",
"Ip.	c #252732",
"Jp.	c #22262F",
"Kp.	c #565656",
"Lp.	c #C5AF7C",
"Mp.	c #F9D27D",
"Np.	c #F9D376",
"Op.	c #ECD18C",
"Pp.	c #6A6047",
"Qp.	c #293045",
"Rp.	c #282D37",
"Sp.	c #50555E",
"Tp.	c #998861",
"Up.	c #3A4251",
"Vp.	c #252832",
"Wp.	c #505765",
"Xp.	c #505867",
"Yp.	c #565858",
"Zp.	c #C6B385",
"`p.	c #F5D287",
" q.	c #F9D27C",
".q.	c #EBD394",
"+q.	c #6C644E",
"@q.	c #2A2F42",
"#q.	c #58575B",
"$q.	c #454548",
"%q.	c #191C28",
"&q.	c #262A3B",
"*q.	c #242B3B",
"=q.	c #222A38",
"-q.	c #303845",
";q.	c #424A57",
">q.	c #3C4754",
",q.	c #3D4652",
"'q.	c #3D4551",
")q.	c #3E4550",
"!q.	c #A4936C",
"~q.	c #F4D182",
"{q.	c #9A8A61",
"]q.	c #3B4454",
"^q.	c #262932",
"/q.	c #24262E",
"(q.	c #4E525D",
"_q.	c #AE9F84",
":q.	c #CDB586",
"<q.	c #D1B881",
"[q.	c #D1B97F",
"}q.	c #CFB982",
"|q.	c #C4B58E",
"1q.	c #5D584B",
"2q.	c #282C3A",
"3q.	c #242939",
"4q.	c #5A595D",
"5q.	c #222323",
"6q.	c #313235",
"7q.	c #242427",
"8q.	c #04040D",
"9q.	c #060710",
"0q.	c #F7D184",
"aq.	c #FED171",
"bq.	c #9C8B61",
"cq.	c #3A4454",
"dq.	c #101014",
"eq.	c #16110C",
"fq.	c #231A0D",
"gq.	c #231B0E",
"hq.	c #1F190C",
"iq.	c #17130A",
"jq.	c #070607",
"kq.	c #232225",
"lq.	c #434444",
"mq.	c #414243",
"nq.	c #9E8D64",
"oq.	c #242932",
"pq.	c #34373A",
"qq.	c #383D4A",
"rq.	c #F6D184",
"sq.	c #42474C",
"tq.	c #34383B",
"uq.	c #A5936D",
"vq.	c #F5D183",
"wq.	c #9F8D66",
"xq.	c #3A4355",
"yq.	c #333739",
"zq.	c #A08F67",
"Aq.	c #42474D",
"Bq.	c #3A4455",
"Cq.	c #333437",
"Dq.	c #A09066",
"Eq.	c #42484C",
"Fq.	c #313236",
"Gq.	c #02050D",
"Hq.	c #0B101E",
"Iq.	c #0C1121",
"Jq.	c #0A0E1A",
"Kq.	c #0F131D",
"Lq.	c #10141D",
"Mq.	c #3A4254",
"Nq.	c #262D3A",
"Oq.	c #303641",
"Pq.	c #333944",
"Qq.	c #333942",
"Rq.	c #323841",
"Sq.	c #333742",
"Tq.	c #323741",
"Uq.	c #31363F",
"Vq.	c #313540",
"Wq.	c #212632",
"Xq.	c #1F242F",
"Yq.	c #1E232F",
"Zq.	c #1D222F",
"`q.	c #1E2430",
" r.	c #303134",
".r.	c #232D40",
"+r.	c #414A5A",
"@r.	c #485362",
"#r.	c #3F4650",
"$r.	c #373D49",
"%r.	c #4E5A6A",
"&r.	c #A6936B",
"*r.	c #0A101A",
"=r.	c #4F5867",
"-r.	c #4E5966",
";r.	c #353C4E",
">r.	c #353C4F",
",r.	c #343D4E",
"'r.	c #353D4F",
")r.	c #363D4F",
"!r.	c #363D50",
"~r.	c #373E51",
"{r.	c #374051",
"]r.	c #384050",
"^r.	c #1C212B",
"/r.	c #485766",
"(r.	c #3D4651",
"_r.	c #363C48",
":r.	c #51555C",
"<r.	c #3B4555",
"[r.	c #272A34",
"}r.	c #080F18",
"|r.	c #435162",
"1r.	c #323C4E",
"2r.	c #323C4D",
"3r.	c #343C50",
"4r.	c #353F51",
"5r.	c #354052",
"6r.	c #363F4F",
"7r.	c #2F3034",
"8r.	c #8E8E8E",
"9r.	c #3A434F",
"0r.	c #A6926C",
"ar.	c #3C4454",
"br.	c #3D4353",
"cr.	c #282B34",
"dr.	c #3D4855",
"er.	c #4A5766",
"fr.	c #31394C",
"gr.	c #313A4C",
"hr.	c #323C4F",
"ir.	c #343F53",
"jr.	c #353E4F",
"kr.	c #1B202B",
"lr.	c #303135",
"mr.	c #39424D",
"nr.	c #343B47",
"or.	c #4F5A6B",
"pr.	c #F7D486",
"qr.	c #A29168",
"rr.	c #272A35",
"sr.	c #070E17",
"tr.	c #3A4655",
"ur.	c #425060",
"vr.	c #4A5765",
"wr.	c #2C3744",
"xr.	c #323A49",
"yr.	c #333D4E",
"zr.	c #333D51",
"Ar.	c #333E52",
"Br.	c #343D4F",
"Cr.	c #090E1B",
"Dr.	c #39414D",
"Er.	c #4F596A",
"Fr.	c #4F555B",
"Gr.	c #A5926A",
"Hr.	c #F7D588",
"Ir.	c #3C4555",
"Jr.	c #060D17",
"Kr.	c #384453",
"Lr.	c #414F60",
"Mr.	c #474F56",
"Nr.	c #303232",
"Or.	c #36342F",
"Pr.	c #383730",
"Qr.	c #3A3933",
"Rr.	c #3C3B35",
"Sr.	c #3C3E3E",
"Tr.	c #343C48",
"Ur.	c #313C4F",
"Vr.	c #333C4F",
"Wr.	c #1A1F2B",
"Xr.	c #323336",
"Yr.	c #090D1B",
"Zr.	c #202D46",
"`r.	c #2C384E",
" s.	c #3F4B5F",
".s.	c #3F4C5E",
"+s.	c #A3916A",
"@s.	c #FFD475",
"#s.	c #41454B",
"$s.	c #060E15",
"%s.	c #394553",
"&s.	c #5F5E58",
"*s.	c #B7A885",
"=s.	c #C8B37E",
"-s.	c #CCB67B",
";s.	c #CEB97D",
">s.	c #CDBB84",
",s.	c #BBAF8E",
"'s.	c #3F413F",
")s.	c #313B4C",
"!s.	c #303C50",
"~s.	c #323B4E",
"{s.	c #1B202C",
"]s.	c #323337",
"^s.	c #353946",
"/s.	c #50596B",
"(s.	c #F6D487",
"_s.	c #42444A",
":s.	c #3C4453",
"<s.	c #272C34",
"[s.	c #050E14",
"}s.	c #384451",
"|s.	c #6A6351",
"1s.	c #E0C78A",
"2s.	c #F9D371",
"3s.	c #F6D57D",
"4s.	c #D9C58B",
"5s.	c #444236",
"6s.	c #313A4D",
"7s.	c #1B1F2B",
"8s.	c #363A47",
"9s.	c #525A6C",
"0s.	c #4F596C",
"as.	c #4E575E",
"bs.	c #FED479",
"cs.	c #F6D787",
"ds.	c #A5956C",
"es.	c #43454A",
"fs.	c #3C4451",
"gs.	c #050C13",
"hs.	c #374451",
"is.	c #67614C",
"js.	c #E1C682",
"ks.	c #F9D16C",
"ls.	c #FDD266",
"ms.	c #FDD367",
"ns.	c #FAD471",
"os.	c #DDC584",
"ps.	c #454232",
"qs.	c #2F3847",
"rs.	c #2E384F",
"ss.	c #2E394F",
"ts.	c #383C47",
"us.	c #545C6C",
"vs.	c #515A6C",
"ws.	c #4D575E",
"xs.	c #A59979",
"ys.	c #F3D696",
"zs.	c #F9D489",
"As.	c #F8D488",
"Bs.	c #F6D689",
"Cs.	c #F3D895",
"Ds.	c #A79976",
"Es.	c #44474A",
"Fs.	c #3C4550",
"Gs.	c #282D34",
"Hs.	c #040A13",
"Is.	c #374252",
"Js.	c #3E4D60",
"Ks.	c #435163",
"Ls.	c #4C565F",
"Ms.	c #67624E",
"Ns.	c #F9D26C",
"Os.	c #FDD368",
"Ps.	c #FAD470",
"Qs.	c #E0C685",
"Rs.	c #474234",
"Ss.	c #2F3647",
"Ts.	c #2F384F",
"Us.	c #30394C",
"Vs.	c #333438",
"Ws.	c #3E4450",
"Xs.	c #3D4351",
"Ys.	c #3C4250",
"Zs.	c #39424F",
"`s.	c #4C5861",
" t.	c #6C685B",
".t.	c #91815F",
"+t.	c #96825B",
"@t.	c #96835B",
"#t.	c #928158",
"$t.	c #8C7D5B",
"%t.	c #5C5443",
"&t.	c #282B2D",
"*t.	c #252B33",
"=t.	c #1A1E22",
"-t.	c #040813",
";t.	c #364151",
">t.	c #3E4C61",
",t.	c #404F61",
"'t.	c #465566",
")t.	c #4B5760",
"!t.	c #66614F",
"~t.	c #E0C582",
"{t.	c #FDD265",
"]t.	c #FBD470",
"^t.	c #E0C686",
"/t.	c #484135",
"(t.	c #303647",
"_t.	c #35363A",
":t.	c #040A14",
"<t.	c #454F5D",
"[t.	c #373D45",
"}t.	c #35404F",
"|t.	c #3C4B60",
"1t.	c #404F63",
"2t.	c #465567",
"3t.	c #4A5760",
"4t.	c #65614E",
"5t.	c #E0C581",
"6t.	c #FAD16D",
"7t.	c #FDD366",
"8t.	c #E1C687",
"9t.	c #494135",
"0t.	c #30384C",
"at.	c #37373B",
"bt.	c #090F1C",
"ct.	c #030409",
"dt.	c #040912",
"et.	c #343B44",
"ft.	c #03080F",
"gt.	c #3B4A5E",
"ht.	c #465466",
"it.	c #4A5660",
"jt.	c #636050",
"kt.	c #DEC582",
"lt.	c #FAD16E",
"mt.	c #FED265",
"nt.	c #E1C688",
"ot.	c #484234",
"pt.	c #2E3444",
"qt.	c #2F384B",
"rt.	c #37383C",
"st.	c #2B374D",
"tt.	c #3A404C",
"ut.	c #333F4E",
"vt.	c #3A4A60",
"wt.	c #3C4C60",
"xt.	c #635F50",
"yt.	c #DEC482",
"zt.	c #E0C789",
"At.	c #484235",
"Bt.	c #2E3544",
"Ct.	c #38393D",
"Dt.	c #2A364C",
"Et.	c #353A46",
"Ft.	c #394961",
"Gt.	c #3C4D62",
"Ht.	c #DEC383",
"It.	c #F9D26D",
"Jt.	c #FDD364",
"Kt.	c #FDD365",
"Lt.	c #484236",
"Mt.	c #393A3E",
"Nt.	c #030309",
"Ot.	c #343A43",
"Pt.	c #3A4961",
"Qt.	c #3B4C61",
"Rt.	c #445363",
"St.	c #605D51",
"Tt.	c #DDC283",
"Ut.	c #FAD26D",
"Vt.	c #E1C78B",
"Wt.	c #494237",
"Xt.	c #3A3B3F",
"Yt.	c #060A14",
"Zt.	c #070C16",
"`t.	c #080D17",
" u.	c #37393D",
".u.	c #1B150D",
"+u.	c #1B140C",
"@u.	c #1C150B",
"#u.	c #1A130B",
"$u.	c #16100A",
"%u.	c #080605",
"&u.	c #02050B",
"*u.	c #303A4A",
"=u.	c #394960",
"-u.	c #3A4B60",
";u.	c #445264",
">u.	c #485461",
",u.	c #5E5C50",
"'u.	c #DBC181",
")u.	c #FED264",
"!u.	c #FED267",
"~u.	c #E2C68C",
"{u.	c #4A4337",
"]u.	c #2D364F",
"^u.	c #3B3C3F",
"/u.	c #39404B",
"(u.	c #9B917D",
"_u.	c #C4B085",
":u.	c #C7B17F",
"<u.	c #C8B180",
"[u.	c #C6AE80",
"}u.	c #BDAC87",
"|u.	c #6D6756",
"1u.	c #373C42",
"2u.	c #333B46",
"3u.	c #333A45",
"4u.	c #2C3038",
"5u.	c #2D3847",
"6u.	c #39495F",
"7u.	c #394A61",
"8u.	c #5C5A4F",
"9u.	c #DAC181",
"0u.	c #FDD164",
"au.	c #E2C68A",
"bu.	c #4A4437",
"cu.	c #2E3645",
"du.	c #2E354E",
"eu.	c #2F374B",
"fu.	c #3B3C40",
"gu.	c #4A5764",
"hu.	c #374049",
"iu.	c #515B6C",
"ju.	c #4F5B6D",
"ku.	c #4E5B6D",
"lu.	c #4D5A6B",
"mu.	c #535659",
"nu.	c #F5D48C",
"ou.	c #FAD382",
"pu.	c #EED396",
"qu.	c #3D454C",
"ru.	c #394453",
"su.	c #394451",
"tu.	c #313840",
"uu.	c #2A3543",
"vu.	c #38495E",
"wu.	c #415066",
"xu.	c #465267",
"yu.	c #5C5A50",
"zu.	c #D7C080",
"Au.	c #FCD265",
"Bu.	c #E2C789",
"Cu.	c #4B4537",
"Du.	c #2D364C",
"Eu.	c #2E384A",
"Fu.	c #171F2A",
"Gu.	c #878686",
"Hu.	c #495764",
"Iu.	c #4F5B6E",
"Ju.	c #4D5A6C",
"Ku.	c #525656",
"Lu.	c #BBA87B",
"Mu.	c #F8D484",
"Nu.	c #F1D38E",
"Ou.	c #7D7153",
"Pu.	c #3D444D",
"Qu.	c #384454",
"Ru.	c #394350",
"Su.	c #2E353E",
"Tu.	c #384A60",
"Uu.	c #405065",
"Vu.	c #435165",
"Wu.	c #5A584F",
"Xu.	c #D7BF80",
"Yu.	c #F9D16F",
"Zu.	c #FCD264",
"`u.	c #F9D271",
" v.	c #E1C789",
".v.	c #4D4738",
"+v.	c #2F3645",
"@v.	c #888788",
"#v.	c #2B313D",
"$v.	c #505A6B",
"%v.	c #4E5A6C",
"&v.	c #F2D38B",
"*v.	c #7E7252",
"=v.	c #3D434C",
"-v.	c #364252",
";v.	c #36414E",
">v.	c #2D333C",
",v.	c #232E3C",
"'v.	c #38495D",
")v.	c #37495F",
"!v.	c #435265",
"~v.	c #59574E",
"{v.	c #D7BE80",
"]v.	c #F9D16E",
"^v.	c #E2C88A",
"/v.	c #4E4838",
"(v.	c #303646",
"_v.	c #2C3849",
":v.	c #393A3D",
"<v.	c #898889",
"[v.	c #37404A",
"}v.	c #2B303C",
"|v.	c #FDD379",
"1v.	c #F3D28D",
"2v.	c #7F7152",
"3v.	c #3C424B",
"4v.	c #36404E",
"5v.	c #2C323C",
"6v.	c #202B38",
"7v.	c #38485D",
"8v.	c #384960",
"9v.	c #404F64",
"0v.	c #445165",
"av.	c #58574E",
"bv.	c #D6BD7E",
"cv.	c #FED063",
"dv.	c #F9D270",
"ev.	c #E1C888",
"fv.	c #4F4939",
"gv.	c #2F3646",
"hv.	c #2D374C",
"iv.	c #161E29",
"jv.	c #8C8A8B",
"kv.	c #4E596C",
"lv.	c #4A5865",
"mv.	c #515555",
"nv.	c #F2D18D",
"ov.	c #7F7153",
"pv.	c #3B414A",
"qv.	c #354050",
"rv.	c #2B313B",
"sv.	c #1F2836",
"tv.	c #38475D",
"uv.	c #384860",
"vv.	c #435164",
"wv.	c #435065",
"xv.	c #58574D",
"yv.	c #D5BD7D",
"zv.	c #F9D16B",
"Av.	c #FCD065",
"Bv.	c #F8D16F",
"Cv.	c #E2CA87",
"Dv.	c #504B39",
"Ev.	c #8F8D8E",
"Fv.	c #525556",
"Gv.	c #BCA679",
"Hv.	c #FAD482",
"Iv.	c #7F7252",
"Jv.	c #394149",
"Kv.	c #343F4F",
"Lv.	c #363D4E",
"Mv.	c #38475E",
"Nv.	c #3E4D63",
"Ov.	c #435266",
"Pv.	c #58554D",
"Qv.	c #D4BB7B",
"Rv.	c #FDD063",
"Sv.	c #E3CA86",
"Tv.	c #534D39",
"Uv.	c #303747",
"Vv.	c #918F90",
"Wv.	c #080C1B",
"Xv.	c #525757",
"Yv.	c #807352",
"Zv.	c #394048",
"`v.	c #363C4D",
" w.	c #2D303C",
".w.	c #384961",
"+w.	c #3D4D64",
"@w.	c #425165",
"#w.	c #425164",
"$w.	c #57554D",
"%w.	c #D4BA7B",
"&w.	c #FDD167",
"*w.	c #E5CA86",
"=w.	c #554F3A",
"-w.	c #2F3746",
";w.	c #303136",
">w.	c #929192",
",w.	c #28344B",
"'w.	c #2A303A",
")w.	c #4D596C",
"!w.	c #817451",
"~w.	c #384047",
"{w.	c #343C4D",
"]w.	c #2B313C",
"^w.	c #38465D",
"/w.	c #384962",
"(w.	c #425066",
"_w.	c #415165",
":w.	c #425167",
"<w.	c #445263",
"[w.	c #55544D",
"}w.	c #D3BA7B",
"|w.	c #FDD166",
"1w.	c #FDD168",
"2w.	c #FAD170",
"3w.	c #E6CB87",
"4w.	c #58513D",
"5w.	c #303848",
"6w.	c #2E3135",
"7w.	c #4F5969",
"8w.	c #BEA87B",
"9w.	c #FCD276",
"0w.	c #F2D188",
"aw.	c #817452",
"bw.	c #383F46",
"cw.	c #343E4D",
"dw.	c #333D4D",
"ew.	c #2A323D",
"fw.	c #38455D",
"gw.	c #374961",
"hw.	c #3B4B63",
"iw.	c #415064",
"jw.	c #415067",
"kw.	c #52534C",
"lw.	c #D2BA7C",
"mw.	c #FAD171",
"nw.	c #5B5440",
"ow.	c #2E3847",
"pw.	c #505969",
"qw.	c #525657",
"rw.	c #F2D187",
"sw.	c #837552",
"tw.	c #383E46",
"uw.	c #313D4D",
"vw.	c #2A323E",
"ww.	c #374860",
"xw.	c #3B4B62",
"yw.	c #414F63",
"zw.	c #405064",
"Aw.	c #CCBA83",
"Bw.	c #F3D37E",
"Cw.	c #F7D175",
"Dw.	c #F9D276",
"Ew.	c #E4CC92",
"Fw.	c #5C5746",
"Gw.	c #2E3849",
"Hw.	c #2E2F33",
"Iw.	c #373F49",
"Jw.	c #4E5A6B",
"Kw.	c #F2D287",
"Lw.	c #847752",
"Mw.	c #383E44",
"Nw.	c #343D4D",
"Ow.	c #313C4D",
"Pw.	c #2B323F",
"Qw.	c #354257",
"Rw.	c #35475E",
"Sw.	c #3F4E65",
"Tw.	c #414E64",
"Uw.	c #4A5058",
"Vw.	c #A49D82",
"Ww.	c #C2B383",
"Xw.	c #C5B181",
"Yw.	c #B5A989",
"Zw.	c #4D4E49",
"`w.	c #2A2B30",
" x.	c #080B19",
".x.	c #50596A",
"+x.	c #BDA87B",
"@x.	c #F3D286",
"#x.	c #887854",
"$x.	c #393D45",
"%x.	c #2B333F",
"&x.	c #31425A",
"*x.	c #33445C",
"=x.	c #3C4B62",
"-x.	c #404E64",
";x.	c #3F4F63",
">x.	c #3E4C5F",
",x.	c #424955",
"'x.	c #424649",
")x.	c #3B3D3B",
"!x.	c #333534",
"~x.	c #2A2E33",
"{x.	c #212B37",
"]x.	c #1F2A43",
"^x.	c #27282D",
"/x.	c #080C19",
"(x.	c #38404A",
"_x.	c #505A6A",
":x.	c #525756",
"<x.	c #BDA779",
"[x.	c #887855",
"}x.	c #3A3D45",
"|x.	c #323B4C",
"1x.	c #2C3340",
"2x.	c #313E53",
"3x.	c #30425A",
"4x.	c #31425B",
"5x.	c #3A4A62",
"6x.	c #3D4E62",
"7x.	c #3D4D61",
"8x.	c #3D4C62",
"9x.	c #374556",
"0x.	c #2F3C4B",
"ax.	c #233040",
"bx.	c #1F2B3D",
"cx.	c #252529",
"dx.	c #38414A",
"ex.	c #BDA678",
"fx.	c #F3D185",
"gx.	c #8A7954",
"hx.	c #3A3C43",
"ix.	c #333B4B",
"jx.	c #313A4B",
"kx.	c #010409",
"lx.	c #2D3F57",
"mx.	c #3B4C62",
"nx.	c #3C4B61",
"ox.	c #3C4B63",
"px.	c #3B4A62",
"qx.	c #38485E",
"rx.	c #334356",
"sx.	c #2D3B4C",
"tx.	c #263447",
"ux.	c #202C3C",
"vx.	c #141B26",
"wx.	c #232428",
"xx.	c #39424B",
"yx.	c #BCA578",
"zx.	c #F9D180",
"Ax.	c #F3D284",
"Bx.	c #8A7A53",
"Cx.	c #393B40",
"Dx.	c #333B49",
"Ex.	c #2D3440",
"Fx.	c #01050A",
"Gx.	c #2E3F57",
"Hx.	c #2D3D56",
"Ix.	c #38485F",
"Jx.	c #3C4C62",
"Kx.	c #3B4961",
"Lx.	c #39485F",
"Mx.	c #37475C",
"Nx.	c #334255",
"Ox.	c #2B394C",
"Px.	c #243346",
"Qx.	c #1E2B3D",
"Rx.	c #1F2A3C",
"Sx.	c #1F2C3B",
"Tx.	c #131B25",
"Ux.	c #222326",
"Vx.	c #A4A4A6",
"Wx.	c #080B1A",
"Xx.	c #495767",
"Yx.	c #3B424B",
"Zx.	c #515B6B",
"`x.	c #4F5B6C",
" y.	c #4F596B",
".y.	c #F4D284",
"+y.	c #8B7A52",
"@y.	c #383B3F",
"#y.	c #323A47",
"$y.	c #323948",
"%y.	c #2E3440",
"&y.	c #03070B",
"*y.	c #2F3848",
"=y.	c #2D3B4E",
"-y.	c #314053",
";y.	c #3B4B60",
">y.	c #3B4A60",
",y.	c #3A485A",
"'y.	c #394656",
")y.	c #384551",
"!y.	c #334049",
"~y.	c #2C3843",
"{y.	c #27323D",
"]y.	c #232E39",
"^y.	c #202B39",
"/y.	c #1E2B3C",
"(y.	c #1F2A3D",
"_y.	c #1F2B3B",
":y.	c #121B25",
"<y.	c #2A2D30",
"[y.	c #44474E",
"}y.	c #40434A",
"|y.	c #050A17",
"1y.	c #060C17",
"2y.	c #060D18",
"3y.	c #070D19",
"4y.	c #0C1423",
"5y.	c #2E333E",
"6y.	c #2F333E",
"7y.	c #2E343D",
"8y.	c #30353E",
"9y.	c #24272E",
"0y.	c #060C16",
"ay.	c #070C17",
"by.	c #262D39",
"cy.	c #8B7A53",
"dy.	c #373B3E",
"ey.	c #313A47",
"fy.	c #303847",
"gy.	c #04060B",
"hy.	c #020814",
"iy.	c #030B19",
"jy.	c #1E2B3A",
"ky.	c #3B4B5F",
"ly.	c #3B4B61",
"my.	c #3C4A5C",
"ny.	c #424B51",
"oy.	c #626050",
"py.	c #6E6549",
"qy.	c #6E6546",
"ry.	c #6D6344",
"sy.	c #6C6142",
"ty.	c #655D44",
"uy.	c #44443D",
"vy.	c #202C39",
"wy.	c #202D3E",
"xy.	c #17212F",
"yy.	c #101620",
"zy.	c #0F161F",
"Ay.	c #43454C",
"By.	c #89898E",
"Cy.	c #88878B",
"Dy.	c #7F8081",
"Ey.	c #7A7B7C",
"Fy.	c #8C8F90",
"Gy.	c #11151C",
"Hy.	c #252D3B",
"Iy.	c #515657",
"Jy.	c #8C7B54",
"Ky.	c #363A3D",
"Ly.	c #313947",
"My.	c #2F3644",
"Ny.	c #020610",
"Oy.	c #1C2837",
"Py.	c #3A4A5F",
"Qy.	c #3D4A58",
"Ry.	c #5E5D52",
"Sy.	c #D5C494",
"Ty.	c #F0D187",
"Uy.	c #EED289",
"Vy.	c #EBD497",
"Wy.	c #9C9275",
"Xy.	c #262E37",
"Yy.	c #253143",
"Zy.	c #293445",
"`y.	c #2C3745",
" z.	c #2D3646",
".z.	c #2C3746",
"+z.	c #2E3547",
"@z.	c #727475",
"#z.	c #3A3B3D",
"$z.	c #11131A",
"%z.	c #020510",
"&z.	c #373A3E",
"*z.	c #313847",
"=z.	c #2F3743",
"-z.	c #1F2630",
";z.	c #1D2636",
">z.	c #3B4A5F",
",z.	c #3F4A58",
"'z.	c #625D4A",
")z.	c #DFC683",
"!z.	c #F7D071",
"~z.	c #F9D06D",
"{z.	c #9F8F67",
"]z.	c #2A3036",
"^z.	c #263243",
"/z.	c #2A334A",
"(z.	c #6F7273",
"_z.	c #3D3E40",
":z.	c #525658",
"<z.	c #303846",
"[z.	c #303844",
"}z.	c #020511",
"|z.	c #3A495E",
"1z.	c #3C4A5E",
"2z.	c #625C47",
"3z.	c #E0C680",
"4z.	c #F9D06E",
"5z.	c #FCCF67",
"6z.	c #FED066",
"7z.	c #F6D27B",
"8z.	c #9F8F62",
"9z.	c #2A3136",
"0z.	c #253142",
"az.	c #283147",
"bz.	c #2C3247",
"cz.	c #6D7071",
"dz.	c #49525E",
"ez.	c #01050F",
"fz.	c #B8A578",
"gz.	c #8D7C56",
"hz.	c #363B3E",
"iz.	c #313A46",
"jz.	c #252C36",
"kz.	c #192432",
"lz.	c #3C4A60",
"mz.	c #404A56",
"nz.	c #625B49",
"oz.	c #E1C782",
"pz.	c #F8D06E",
"qz.	c #FDCF67",
"rz.	c #FED067",
"sz.	c #9D8D60",
"tz.	c #2B3237",
"uz.	c #263343",
"vz.	c #283546",
"wz.	c #2A3449",
"xz.	c #273446",
"yz.	c #2A3246",
"zz.	c #1C202E",
"Az.	c #6B6D6F",
"Bz.	c #3B3C3E",
"Cz.	c #B6A578",
"Dz.	c #F5D286",
"Ez.	c #373A3D",
"Fz.	c #323943",
"Gz.	c #313843",
"Hz.	c #01040F",
"Iz.	c #182331",
"Jz.	c #3C4B5D",
"Kz.	c #3C4A5F",
"Lz.	c #3D4B5F",
"Mz.	c #404B57",
"Nz.	c #5E5A4A",
"Oz.	c #DCC688",
"Pz.	c #F5D178",
"Qz.	c #F8CF70",
"Rz.	c #F8D06F",
"Sz.	c #9A8B63",
"Tz.	c #2D3237",
"Uz.	c #29303E",
"Vz.	c #2A313F",
"Wz.	c #2D323F",
"Xz.	c #2C323F",
"Yz.	c #2A3341",
"Zz.	c #1B202D",
"`z.	c #66696B",
" A.	c #2E3A4E",
".A.	c #2E3A51",
"+A.	c #222C3E",
"@A.	c #232D49",
"#A.	c #2A374E",
"$A.	c #39475B",
"%A.	c #51565C",
"&A.	c #B4A684",
"*A.	c #F0D394",
"=A.	c #F4D287",
"-A.	c #8A7A52",
";A.	c #3E392F",
">A.	c #3A3A33",
",A.	c #363430",
"'A.	c #0E0F0E",
")A.	c #182231",
"!A.	c #3D4B5E",
"~A.	c #3C4B5F",
"{A.	c #3D4B60",
"]A.	c #505451",
"^A.	c #B2A984",
"/A.	c #CEBB82",
"(A.	c #D8C082",
"_A.	c #DCC281",
":A.	c #DCC790",
"<A.	c #8C8368",
"[A.	c #403E37",
"}A.	c #595343",
"|A.	c #605841",
"1A.	c #665B42",
"2A.	c #6B5F45",
"3A.	c #6C6149",
"4A.	c #5E594E",
"5A.	c #2C323E",
"6A.	c #273144",
"7A.	c #626567",
"8A.	c #212D49",
"9A.	c #4E5C70",
"0A.	c #4C5B6E",
"aA.	c #4C5B6D",
"bA.	c #4C5A6D",
"cA.	c #77756B",
"dA.	c #958B70",
"eA.	c #988A69",
"fA.	c #988967",
"gA.	c #988964",
"hA.	c #9A8A63",
"iA.	c #BDAC7D",
"jA.	c #C6B17A",
"kA.	c #C7B078",
"lA.	c #C9B379",
"mA.	c #C9B47D",
"nA.	c #C0B188",
"oA.	c #332D1C",
"pA.	c #151D2C",
"qA.	c #3D4C5F",
"rA.	c #3F4D5A",
"sA.	c #434C4C",
"tA.	c #494F46",
"uA.	c #515245",
"vA.	c #555346",
"wA.	c #565344",
"xA.	c #565548",
"yA.	c #4D4F4A",
"zA.	c #878069",
"AA.	c #E0CC9B",
"BA.	c #E7CD8C",
"CA.	c #EACF89",
"DA.	c #EDD08B",
"EA.	c #ECD193",
"FA.	c #C7B793",
"GA.	c #323132",
"HA.	c #606365",
"IA.	c #354054",
"JA.	c #4D5B6D",
"KA.	c #4B5A6C",
"LA.	c #4D5968",
"MA.	c #4C5863",
"NA.	c #4C5760",
"OA.	c #4D565E",
"PA.	c #615B49",
"QA.	c #DCC68D",
"RA.	c #F9D478",
"SA.	c #EAD290",
"TA.	c #483E22",
"UA.	c #3E4B5E",
"VA.	c #3E4D61",
"WA.	c #3F4F61",
"XA.	c #44525F",
"YA.	c #455361",
"ZA.	c #47535F",
"`A.	c #485560",
" B.	c #4A5357",
".B.	c #8A7F5F",
"+B.	c #F9D272",
"@B.	c #D3BC89",
"#B.	c #37332C",
"$B.	c #606263",
"%B.	c #232C42",
"&B.	c #DFC68A",
"*B.	c #F9D476",
"=B.	c #EFD389",
"-B.	c #544928",
";B.	c #3F4E61",
">B.	c #404F62",
",B.	c #445368",
"'B.	c #495259",
")B.	c #8B7E5C",
"!B.	c #FBD36C",
"~B.	c #F8D379",
"{B.	c #D7C088",
"]B.	c #3A352B",
"^B.	c #262C3C",
"/B.	c #252D44",
"(B.	c #5F6162",
"_B.	c #DEC589",
":B.	c #F0D388",
"<B.	c #5D5130",
"[B.	c #455368",
"}B.	c #49535B",
"|B.	c #8A7E5B",
"1B.	c #F2D286",
"2B.	c #D8C189",
"3B.	c #39352B",
"4B.	c #262C3D",
"5B.	c #5F6263",
"6B.	c #4E5864",
"7B.	c #605D4E",
"8B.	c #DDC487",
"9B.	c #F1D386",
"0B.	c #675B36",
"aB.	c #3C495B",
"bB.	c #3D4C60",
"cB.	c #3F4C61",
"dB.	c #8A7F5C",
"eB.	c #F2D388",
"fB.	c #FAD37B",
"gB.	c #D9C18A",
"hB.	c #39342B",
"iB.	c #333436",
"jB.	c #605D50",
"kB.	c #DBC386",
"lB.	c #FFD46C",
"mB.	c #F2D484",
"nB.	c #6F633D",
"oB.	c #07090D",
"pB.	c #111825",
"qB.	c #3E4F60",
"rB.	c #435264",
"sB.	c #8A7F5D",
"tB.	c #FFD36E",
"uB.	c #DAC18A",
"vB.	c #3A342A",
"wB.	c #252B3B",
"xB.	c #323335",
"yB.	c #1F2B43",
"zB.	c #04060D",
"AB.	c #4B5A69",
"BB.	c #605E4F",
"CB.	c #DBC286",
"DB.	c #F2D481",
"EB.	c #776A42",
"FB.	c #0A0B11",
"GB.	c #3A4859",
"HB.	c #3B4C5E",
"IB.	c #3D4E60",
"JB.	c #455464",
"KB.	c #8A7F5E",
"LB.	c #F2D489",
"MB.	c #FBD271",
"NB.	c #FED36E",
"OB.	c #D9C28A",
"PB.	c #38352B",
"QB.	c #242D41",
"RB.	c #01000A",
"SB.	c #606364",
"TB.	c #48566A",
"UB.	c #02050E",
"VB.	c #4D576B",
"WB.	c #4A5A69",
"XB.	c #4F5964",
"YB.	c #5F5D4F",
"ZB.	c #DAC284",
"`B.	c #F4D57F",
" C.	c #7E7046",
".C.	c #0C0D13",
"+C.	c #08111D",
"@C.	c #2F3E4F",
"#C.	c #36485C",
"$C.	c #37485E",
"%C.	c #37485D",
"&C.	c #3B4C5F",
"*C.	c #445262",
"=C.	c #455463",
"-C.	c #49535C",
";C.	c #8A805F",
">C.	c #F1D489",
",C.	c #D9C38C",
"'C.	c #37362B",
")C.	c #232C3C",
"!C.	c #616364",
"~C.	c #262F3C",
"{C.	c #374357",
"]C.	c #4C5A6A",
"^C.	c #4F5A65",
"/C.	c #5E5D50",
"(C.	c #D9C284",
"_C.	c #F6D57F",
":C.	c #83744A",
"<C.	c #0C0F13",
"[C.	c #070B17",
"}C.	c #060D1B",
"|C.	c #28374D",
"1C.	c #2C3E58",
"2C.	c #30425D",
"3C.	c #34465E",
"4C.	c #394A5F",
"5C.	c #8B815D",
"6C.	c #FAD67C",
"7C.	c #D9C38B",
"8C.	c #37352B",
"9C.	c #364356",
"0C.	c #273447",
"aC.	c #283548",
"bC.	c #242E3B",
"cC.	c #394557",
"dC.	c #4E5B65",
"eC.	c #5D5C50",
"fC.	c #D8C183",
"gC.	c #86784D",
"hC.	c #040A19",
"iC.	c #25344B",
"jC.	c #283A59",
"kC.	c #283B59",
"lC.	c #293D57",
"mC.	c #465564",
"nC.	c #495458",
"oC.	c #8B805C",
"pC.	c #F2D387",
"qC.	c #FCD36F",
"rC.	c #DAC38A",
"sC.	c #38342C",
"tC.	c #28354A",
"uC.	c #222D3A",
"vC.	c #5C5B4F",
"wC.	c #D8BF83",
"xC.	c #FAD274",
"yC.	c #8A7B50",
"zC.	c #0D1012",
"AC.	c #030817",
"BC.	c #263958",
"CC.	c #263B5A",
"DC.	c #273B57",
"EC.	c #36465D",
"FC.	c #4A5458",
"GC.	c #FDD56F",
"HC.	c #FAD579",
"IC.	c #D9C189",
"JC.	c #485469",
"KC.	c #475569",
"LC.	c #242C3E",
"MC.	c #D6BE82",
"NC.	c #8E7D53",
"OC.	c #0E1013",
"PC.	c #080E17",
"QC.	c #01050B",
"RC.	c #030714",
"SC.	c #253958",
"TC.	c #253A59",
"UC.	c #263B57",
"VC.	c #34445B",
"WC.	c #8C805D",
"XC.	c #FBD26F",
"YC.	c #FAD479",
"ZC.	c #656667",
"`C.	c #475667",
" D.	c #3C4959",
".D.	c #5B5A4F",
"+D.	c #908054",
"@D.	c #090D18",
"#D.	c #020713",
"$D.	c #243857",
"%D.	c #243959",
"&D.	c #324359",
"*D.	c #4B525B",
"=D.	c #8D805E",
"-D.	c #F3D488",
";D.	c #FED46B",
">D.	c #FAD478",
",D.	c #D8C087",
"'D.	c #37332A",
")D.	c #2E3A4F",
"!D.	c #465362",
"~D.	c #212936",
"{D.	c #212835",
"]D.	c #3D4A5B",
"^D.	c #5A5950",
"/D.	c #D3BB81",
"(D.	c #F9D274",
"_D.	c #FED26A",
":D.	c #FDD36C",
"<D.	c #928254",
"[D.	c #0F1113",
"}D.	c #000408",
"|D.	c #202D45",
"1D.	c #243757",
"2D.	c #253959",
"3D.	c #263957",
"4D.	c #314159",
"5D.	c #8D7F5D",
"6D.	c #FCD36D",
"7D.	c #363228",
"8D.	c #020512",
"9D.	c #505864",
"0D.	c #5A594F",
"aD.	c #D0B97E",
"bD.	c #938355",
"cD.	c #0A101C",
"dD.	c #060B17",
"eD.	c #020613",
"fD.	c #243756",
"gD.	c #253856",
"hD.	c #2F4058",
"iD.	c #8D7F5B",
"jD.	c #FBD36D",
"kD.	c #D5BE85",
"lD.	c #353228",
"mD.	c #222C3B",
"nD.	c #030108",
"oD.	c #1A2231",
"pD.	c #181E30",
"qD.	c #595950",
"rD.	c #CEB87D",
"sD.	c #FCD26C",
"tD.	c #948456",
"uD.	c #00040B",
"vD.	c #010513",
"wD.	c #1E2B42",
"xD.	c #243554",
"yD.	c #2D3F58",
"zD.	c #4C5357",
"AD.	c #8C7E59",
"BD.	c #FDD46B",
"CD.	c #F8D478",
"DD.	c #353229",
"ED.	c #636465",
"FD.	c #565851",
"GD.	c #F9D176",
"HD.	c #F6D47D",
"ID.	c #968559",
"JD.	c #0F1114",
"KD.	c #0A101D",
"LD.	c #080D18",
"MD.	c #010512",
"ND.	c #233553",
"OD.	c #223756",
"PD.	c #233856",
"QD.	c #2C3E57",
"RD.	c #8B7D58",
"SD.	c #F5D487",
"TD.	c #D6BE86",
"UD.	c #37322A",
"VD.	c #222B3B",
"WD.	c #272F40",
"XD.	c #2D3A52",
"YD.	c #2B3853",
"ZD.	c #29354F",
"`D.	c #445066",
" E.	c #555852",
".E.	c #CAB37C",
"+E.	c #96865A",
"@E.	c #101115",
"#E.	c #253550",
"$E.	c #243755",
"%E.	c #253855",
"&E.	c #2C3C54",
"*E.	c #887B57",
"=E.	c #F3D487",
"-E.	c #D6BD86",
";E.	c #2F3B51",
">E.	c #2A374F",
",E.	c #293450",
"'E.	c #434F65",
")E.	c #545753",
"!E.	c #F6D37D",
"~E.	c #97875A",
"{E.	c #24334C",
"]E.	c #2B3A51",
"^E.	c #4A5259",
"/E.	c #847959",
"(E.	c #EFD48E",
"_E.	c #F7D279",
":E.	c #D4BE89",
"<E.	c #37342C",
"[E.	c #222D3C",
"}E.	c #202D3F",
"|E.	c #202B3B",
"1E.	c #344154",
"2E.	c #263345",
"3E.	c #283550",
"4E.	c #434E64",
"5E.	c #545754",
"6E.	c #C6AE7B",
"7E.	c #99875B",
"8E.	c #111216",
"9E.	c #020714",
"0E.	c #1E2D46",
"aE.	c #28364E",
"bE.	c #415164",
"cE.	c #736E5D",
"dE.	c #D3C297",
"eE.	c #DDC48A",
"fE.	c #E0C68A",
"gE.	c #DEC891",
"hE.	c #C0B391",
"iE.	c #323432",
"jE.	c #222D3D",
"kE.	c #202A3B",
"lE.	c #28354D",
"mE.	c #26334F",
"nE.	c #535755",
"oE.	c #C3AD7A",
"pE.	c #98865A",
"qE.	c #0A1120",
"rE.	c #0B111F",
"sE.	c #202D47",
"tE.	c #28364F",
"uE.	c #434F5C",
"vE.	c #464F53",
"wE.	c #4F504A",
"xE.	c #565045",
"yE.	c #585144",
"zE.	c #565246",
"AE.	c #4B4C4A",
"BE.	c #252D3A",
"CE.	c #313B51",
"DE.	c #263348",
"EE.	c #26324E",
"FE.	c #26324D",
"GE.	c #C1AB78",
"HE.	c #96855B",
"IE.	c #0B1222",
"JE.	c #293750",
"KE.	c #414E5C",
"LE.	c #424E5B",
"ME.	c #222F41",
"NE.	c #1E2A3A",
"OE.	c #171F2C",
"PE.	c #313C52",
"QE.	c #414D62",
"RE.	c #26334B",
"SE.	c #3F4C60",
"TE.	c #525755",
"UE.	c #BEAA77",
"VE.	c #F6D07A",
"WE.	c #FBD16E",
"XE.	c #F4D27F",
"YE.	c #95845B",
"ZE.	c #111419",
"`E.	c #0C1324",
" F.	c #0E1423",
".F.	c #3E4E5D",
"+F.	c #3E4E5E",
"@F.	c #3D4B5B",
"#F.	c #374353",
"$F.	c #212E40",
"%F.	c #1F2A3A",
"&F.	c #181F2E",
"*F.	c #2B2B2B",
"=F.	c #222936",
"-F.	c #535855",
";F.	c #BCA975",
">F.	c #FBCE6F",
",F.	c #95835C",
"'F.	c #13151C",
")F.	c #0D1425",
"!F.	c #0D1426",
"~F.	c #0E1425",
"{F.	c #232F4A",
"]F.	c #283750",
"^F.	c #3F4F64",
"/F.	c #404F60",
"(F.	c #3F4D5C",
"_F.	c #3D4B59",
":F.	c #303C52",
"<F.	c #49566B",
"[F.	c #3E4B61",
"}F.	c #BBA977",
"|F.	c #FCCF70",
"1F.	c #FAD072",
"2F.	c #F2D182",
"3F.	c #93835B",
"4F.	c #0D1625",
"5F.	c #28374F",
"6F.	c #3D4D63",
"7F.	c #3E4E62",
"8F.	c #404E5F",
"9F.	c #3F4E5E",
"0F.	c #404E5E",
"aF.	c #444D55",
"bF.	c #444C52",
"cF.	c #424C51",
"dF.	c #424A4F",
"eF.	c #41494E",
"fF.	c #1D2B3D",
"gF.	c #606162",
"hF.	c #313C51",
"iF.	c #212637",
"jF.	c #52565C",
"kF.	c #B9A983",
"lF.	c #EED190",
"mF.	c #92835F",
"nF.	c #0F100E",
"oF.	c #0A1016",
"pF.	c #0B0F14",
"qF.	c #24344E",
"rF.	c #2D3D55",
"sF.	c #2D3D54",
"tF.	c #2E3D54",
"uF.	c #36465A",
"vF.	c #404D5A",
"wF.	c #505453",
"xF.	c #7A735D",
"yF.	c #7E7354",
"zF.	c #807553",
"AF.	c #817654",
"BF.	c #817557",
"CF.	c #6F6958",
"DF.	c #252A32",
"EF.	c #1E2A3D",
"FF.	c #1E2A3C",
"GF.	c #303030",
"HF.	c #252C46",
"IF.	c #22283B",
"JF.	c #7D796C",
"KF.	c #9C8F71",
"LF.	c #9D8F6B",
"MF.	c #9C8D6A",
"NF.	c #998A68",
"OF.	c #93835E",
"PF.	c #9D8A5D",
"QF.	c #9D8958",
"RF.	c #9F8C5A",
"SF.	c #A6966D",
"TF.	c #443B28",
"UF.	c #23334D",
"VF.	c #253650",
"WF.	c #263750",
"XF.	c #33425A",
"YF.	c #3B4B5C",
"ZF.	c #DDC892",
"`F.	c #EBCD82",
" G.	c #EDCD7D",
".G.	c #EFCD7F",
"+G.	c #ECCD86",
"@G.	c #CCB98C",
"#G.	c #2C2A24",
"$G.	c #202938",
"%G.	c #5E5F60",
"&G.	c #232C44",
"*G.	c #1E2536",
"=G.	c #3D4A5E",
"-G.	c #4C525B",
";G.	c #4C5459",
">G.	c #51504C",
",G.	c #F5D280",
"'G.	c #F5D181",
")G.	c #EDD08F",
"!G.	c #6B5C3E",
"~G.	c #24334F",
"{G.	c #253551",
"]G.	c #263650",
"^G.	c #263550",
"/G.	c #33425B",
"(G.	c #394B5C",
"_G.	c #404954",
":G.	c #70674D",
"<G.	c #F9CF6C",
"[G.	c #FCCF65",
"}G.	c #FCCE67",
"|G.	c #F9D072",
"1G.	c #312D20",
"2G.	c #1E2434",
"3G.	c #3D495E",
"4G.	c #B7A170",
"5G.	c #F6D07B",
"6G.	c #FACF72",
"7G.	c #F2CF84",
"8G.	c #766544",
"9G.	c #25334F",
"0G.	c #32425A",
"aG.	c #3A4A5E",
"bG.	c #404853",
"cG.	c #71674B",
"dG.	c #E9CB7F",
"eG.	c #FBD068",
"fG.	c #FECE61",
"gG.	c #FFCF62",
"hG.	c #FAD06D",
"iG.	c #D9BE7E",
"jG.	c #322E21",
"kG.	c #B7A371",
"lG.	c #7A6A47",
"mG.	c #263349",
"nG.	c #26344D",
"oG.	c #26354E",
"pG.	c #27364F",
"qG.	c #38495F",
"rG.	c #394A5D",
"sG.	c #3F4953",
"tG.	c #71684A",
"uG.	c #E9CD7D",
"vG.	c #FECF63",
"wG.	c #FECF62",
"xG.	c #322D21",
"yG.	c #1E2938",
"zG.	c #1D2B3E",
"AG.	c #1E2A3E",
"BG.	c #5A5B5C",
"CG.	c #B5A477",
"DG.	c #F7D074",
"EG.	c #F6D076",
"FG.	c #F0D188",
"GG.	c #786948",
"HG.	c #324158",
"IG.	c #6E674A",
"JG.	c #E8CE7F",
"KG.	c #F9D16A",
"LG.	c #FCD064",
"MG.	c #D8BE7F",
"NG.	c #322D20",
"OG.	c #1F2937",
"PG.	c #1D2635",
"QG.	c #27364D",
"RG.	c #212735",
"SG.	c #A59D7F",
"TG.	c #DCC78E",
"UG.	c #E0C785",
"VG.	c #DECA93",
"WG.	c #6C644A",
"XG.	c #03070F",
"YG.	c #060911",
"ZG.	c #04040B",
"`G.	c #040817",
" H.	c #3E4957",
".H.	c #6C6651",
"+H.	c #E5D091",
"@H.	c #F5D37A",
"#H.	c #D5C18D",
"$H.	c #302F25",
"%H.	c #35445B",
"&H.	c #39485E",
"*H.	c #3B495F",
"=H.	c #3E4B60",
"-H.	c #333A4B",
";H.	c #525A58",
">H.	c #5B5B4E",
",H.	c #605C4A",
"'H.	c #625E4C",
")H.	c #676657",
"!H.	c #525857",
"~H.	c #15181F",
"{H.	c #39495C",
"]H.	c #39495D",
"^H.	c #3B4959",
"/H.	c #918B6F",
"(H.	c #988D64",
"_H.	c #9A8F62",
":H.	c #9C8E62",
"<H.	c #9B8E67",
"[H.	c #88816A",
"}H.	c #272D31",
"|H.	c #404D62",
"1H.	c #424F65",
"2H.	c #3F4C62",
"3H.	c #3C495E",
"4H.	c #303746",
"5H.	c #26334C",
"6H.	c #4A5662",
"7H.	c #4C5762",
"8H.	c #4C5865",
"9H.	c #4B5966",
"0H.	c #4C5967",
"aH.	c #4D5764",
"bH.	c #39485C",
"cH.	c #38485C",
"dH.	c #394757",
"eH.	c #3C4750",
"fH.	c #3F484D",
"gH.	c #3E494D",
"hH.	c #40494C",
"iH.	c #41494D",
"jH.	c #3A444D",
"kH.	c #1F2A3B",
"lH.	c #555657",
"mH.	c #3E4B62",
"nH.	c #3D495F",
"oH.	c #2D3443",
"pH.	c #4A5966",
"qH.	c #495966",
"rH.	c #4B5968",
"sH.	c #4E5866",
"tH.	c #39495E",
"uH.	c #38485B",
"vH.	c #3A4A5A",
"wH.	c #3B4A59",
"xH.	c #3B4A5A",
"yH.	c #3C4A5A",
"zH.	c #374757",
"AH.	c #1D2A3C",
"BH.	c #2D3342",
"CH.	c #353F4E",
"DH.	c #38495B",
"EH.	c #39495A",
"FH.	c #374659",
"GH.	c #3E4B5F",
"HH.	c #3D4A5F",
"IH.	c #2C3241",
"JH.	c #4D5A69",
"KH.	c #4F5A66",
"LH.	c #0A1019",
"MH.	c #39495B",
"NH.	c #38495C",
"OH.	c #394A5B",
"PH.	c #38475A",
"QH.	c #1D2A3F",
"RH.	c #525355",
"SH.	c #313131",
"TH.	c #374258",
"UH.	c #374257",
"VH.	c #354156",
"WH.	c #354155",
"XH.	c #344052",
"YH.	c #141923",
"ZH.	c #131622",
"`H.	c #2F3946",
" I.	c #354353",
".I.	c #344256",
"+I.	c #354356",
"@I.	c #354456",
"#I.	c #384558",
"$I.	c #39475A",
"%I.	c #354256",
"&I.	c #333333",
"*I.	c #090F18",
"=I.	c #232D3E",
"-I.	c #2D3649",
";I.	c #2B3347",
">I.	c #2E394C",
",I.	c #2E394D",
"'I.	c #2D374B",
")I.	c #2B3548",
"!I.	c #293647",
"~I.	c #2C3645",
"{I.	c #050A14",
"]I.	c #19222E",
"^I.	c #1C2A3D",
"/I.	c #1D2A3E",
"(I.	c #2E364F",
"_I.	c #2A354D",
":I.	c #29354C",
"<I.	c #29314B",
"[I.	c #283148",
"}I.	c #222F43",
"|I.	c #243041",
"1I.	c #040915",
"2I.	c #1C293A",
"3I.	c #3A3A3A",
"4I.	c #1E2233",
"5I.	c #2B364F",
"6I.	c #2A344D",
"7I.	c #01050E",
"8I.	c #070B16",
"9I.	c #242A39",
"0I.	c #29324B",
"aI.	c #272E42",
"bI.	c #202431",
"cI.	c #252A36",
"dI.	c #30384A",
"eI.	c #2D3449",
"fI.	c #292F44",
"gI.	c #2A3144",
"hI.	c #2C3143",
"iI.	c #060715",
"jI.	c #232D3B",
"kI.	c #1D2430",
"lI.	c #A3A3A3",
"mI.	c #A7A7A7",
"nI.	c #A4A4A4",
"oI.	c #919191",
"pI.	c #11121B",
"qI.	c #141723",
"rI.	c #151724",
"sI.	c #151824",
"tI.	c #141623",
"uI.	c #1A1D29",
"vI.	c #04040E",
"wI.	c #11131D",
"xI.	c #11131E",
"yI.	c #747578",
"zI.	c #7C7D7E",
"AI.	c #8C8C8D",
"BI.	c #8E8E8F",
"CI.	c #AEAEAE",
"DI.	c #060508",
"EI.	c #616161",
"FI.	c #5D5D5D",
"GI.	c #020009",
"HI.	c #070001",
"II.	c #070102",
"JI.	c #727171",
"KI.	c #4E4E4E",
"LI.	c #2A2A2D",
"MI.	c #0E0F18",
"NI.	c #0E0F17",
"OI.	c #090B19",
"PI.	c #090A17",
"QI.	c #07080D",
"RI.	c #382A22",
"SI.	c #6A503D",
"TI.	c #6F523B",
"UI.	c #6F533D",
"VI.	c #6C5643",
"WI.	c #483C33",
"XI.	c #1E1E22",
"YI.	c #1C1F27",
"ZI.	c #1D1F28",
"`I.	c #211E22",
" J.	c #4A4034",
".J.	c #65553F",
"+J.	c #69593E",
"@J.	c #6B5B41",
"#J.	c #69593F",
"$J.	c #5A4E3C",
"%J.	c #1F1A17",
"&J.	c #111319",
"*J.	c #11141D",
"=J.	c #12141E",
"-J.	c #15161F",
";J.	c #1A1918",
">J.	c #413A2C",
",J.	c #4C402C",
"'J.	c #4E3F2B",
")J.	c #4C3E29",
"!J.	c #493C27",
"~J.	c #473A24",
"{J.	c #463723",
"]J.	c #443621",
"^J.	c #433520",
"/J.	c #433420",
"(J.	c #443721",
"_J.	c #443722",
":J.	c #453723",
"<J.	c #463824",
"[J.	c #483A25",
"}J.	c #493B27",
"|J.	c #4B3C28",
"1J.	c #4C3D29",
"2J.	c #4D3F2A",
"3J.	c #4E412C",
"4J.	c #4F422D",
"5J.	c #50442E",
"6J.	c #50442F",
"7J.	c #50452E",
"8J.	c #51452E",
"9J.	c #51442F",
"0J.	c #52442F",
"aJ.	c #534630",
"bJ.	c #574933",
"cJ.	c #5A4C37",
"dJ.	c #574C3B",
"eJ.	c #2D271E",
"fJ.	c #080A0E",
"gJ.	c #080711",
"hJ.	c #070813",
"iJ.	c #13100C",
"jJ.	c #3E3627",
"kJ.	c #4B402B",
"lJ.	c #524530",
"mJ.	c #534631",
"nJ.	c #51432E",
"oJ.	c #51432D",
"pJ.	c #50422D",
"qJ.	c #4F412C",
"rJ.	c #4F432D",
"sJ.	c #4E412B",
"tJ.	c #4C3F2A",
"uJ.	c #4A3D28",
"vJ.	c #4A3E29",
"wJ.	c #4B3F2A",
"xJ.	c #4E422D",
"yJ.	c #544631",
"zJ.	c #564A37",
"AJ.	c #3B342A",
"BJ.	c #090B18",
"CJ.	c #0A0A11",
"DJ.	c #1F1810",
"EJ.	c #2E2212",
"FJ.	c #30220E",
"GJ.	c #30230C",
"HJ.	c #31230D",
"IJ.	c #32240E",
"JJ.	c #32240F",
"KJ.	c #332610",
"LJ.	c #352710",
"MJ.	c #362811",
"NJ.	c #372914",
"OJ.	c #392A15",
"PJ.	c #3C2E18",
"QJ.	c #40321B",
"RJ.	c #443620",
"SJ.	c #473925",
"TJ.	c #413629",
"UJ.	c #393737",
"VJ.	c #606261",
"WJ.	c #202533",
"XJ.	c #1F2436",
"YJ.	c #1E2437",
"ZJ.	c #202536",
"`J.	c #1F2535",
" K.	c #222634",
".K.	c #424653",
"+K.	c #2F323A",
"@K.	c #23293C",
"#K.	c #25242C",
"$K.	c #7E6449",
"%K.	c #E2AF75",
"&K.	c #EBAF6A",
"*K.	c #EAAE6B",
"=K.	c #E2B27A",
"-K.	c #987F61",
";K.	c #404045",
">K.	c #3B4150",
",K.	c #3C414D",
"'K.	c #42403E",
")K.	c #BCA881",
"!K.	c #E8C885",
"~K.	c #EDC87B",
"{K.	c #EEC97B",
"]K.	c #EAC87E",
"^K.	c #D2BC87",
"/K.	c #585243",
"(K.	c #394049",
"_K.	c #373F50",
":K.	c #4F4C41",
"<K.	c #D3C397",
"[K.	c #E7CB8F",
"}K.	c #EACA8A",
"|K.	c #EACA88",
"1K.	c #E9CA88",
"2K.	c #E9CA87",
"3K.	c #E9C987",
"4K.	c #E8C986",
"5K.	c #E7C986",
"6K.	c #EACC87",
"7K.	c #EACC88",
"8K.	c #EACD88",
"9K.	c #EACE87",
"0K.	c #EBCC88",
"aK.	c #EBCC89",
"bK.	c #EBCD8A",
"cK.	c #EACE89",
"dK.	c #EBCE89",
"eK.	c #EBCE8B",
"fK.	c #E4CD96",
"gK.	c #1B1D20",
"hK.	c #191C27",
"iK.	c #1D1D25",
"jK.	c #4A4332",
"kK.	c #D5C292",
"lK.	c #E6CC8B",
"mK.	c #E8CC88",
"nK.	c #EBCD89",
"oK.	c #EACB88",
"pK.	c #E9CC89",
"qK.	c #EACC8B",
"rK.	c #EAD098",
"sK.	c #A7987A",
"tK.	c #282C3B",
"uK.	c #2B2E42",
"vK.	c #282D3F",
"wK.	c #2A2B31",
"xK.	c #968565",
"yK.	c #E1C58B",
"zK.	c #E5C481",
"AK.	c #E6C57F",
"BK.	c #E5C47F",
"CK.	c #E6C47D",
"DK.	c #E6C57E",
"EK.	c #E7C480",
"FK.	c #E7C57F",
"GK.	c #E7C67E",
"HK.	c #E8C67F",
"IK.	c #E5C685",
"JK.	c #C3AB81",
"KK.	c #585A5B",
"LK.	c #1F253C",
"MK.	c #1F253B",
"NK.	c #30343F",
"OK.	c #26252E",
"PK.	c #886842",
"QK.	c #F1B264",
"RK.	c #FAAF53",
"SK.	c #F9B054",
"TK.	c #F1B46A",
"UK.	c #9F7F56",
"VK.	c #3F4045",
"WK.	c #44403B",
"XK.	c #C6AD78",
"YK.	c #F7CC73",
"ZK.	c #FCCB66",
"`K.	c #FCCB64",
" L.	c #F8CB6A",
".L.	c #DEBF7A",
"+L.	c #5B5240",
"@L.	c #3C434E",
"#L.	c #5A5445",
"$L.	c #F6D27E",
"%L.	c #FBD178",
"&L.	c #FBD076",
"*L.	c #FAD176",
"=L.	c #F9D076",
"-L.	c #F8D176",
";L.	c #F8D175",
">L.	c #F9D075",
",L.	c #FAD075",
"'L.	c #FAD074",
")L.	c #FAD073",
"!L.	c #FAD174",
"~L.	c #F8D274",
"{L.	c #F8D273",
"]L.	c #F9D275",
"^L.	c #F9D175",
"/L.	c #F8D377",
"(L.	c #F8D479",
"_L.	c #F3D58B",
":L.	c #857552",
"<L.	c #1B1C20",
"[L.	c #1D1D27",
"}L.	c #4D422C",
"|L.	c #F7D277",
"1L.	c #F7D276",
"2L.	c #F6D789",
"3L.	c #AF9D74",
"4L.	c #282E3E",
"5L.	c #2D2F34",
"6L.	c #A38D63",
"7L.	c #F5CF82",
"8L.	c #FBCE71",
"9L.	c #FBCE6E",
"0L.	c #FACE6F",
"aL.	c #FACE6E",
"bL.	c #FBCD6C",
"cL.	c #FACD6C",
"dL.	c #FACD6E",
"eL.	c #FBCD6F",
"fL.	c #F9CD6C",
"gL.	c #F5CD76",
"hL.	c #CFB179",
"iL.	c #26190A",
"jL.	c #595C5D",
"kL.	c #464C5C",
"lL.	c #303540",
"mL.	c #24252E",
"nL.	c #8B6A43",
"oL.	c #F1B061",
"pL.	c #FCAE51",
"qL.	c #FBAE53",
"rL.	c #F3B367",
"sL.	c #A27E55",
"tL.	c #3C434F",
"uL.	c #454038",
"vL.	c #CBAF76",
"wL.	c #FACC6F",
"xL.	c #FECB63",
"yL.	c #FECA60",
"zL.	c #FACB66",
"AL.	c #DDBD78",
"BL.	c #5B5241",
"CL.	c #3F4653",
"DL.	c #3A475B",
"EL.	c #3E4856",
"FL.	c #5C5545",
"GL.	c #E4CB8D",
"HL.	c #F9D27A",
"IL.	c #FCCF73",
"JL.	c #FCCF72",
"KL.	c #FACF71",
"LL.	c #FBD170",
"ML.	c #FBD072",
"NL.	c #1A1C21",
"OL.	c #51462D",
"PL.	c #E5C986",
"QL.	c #F8D276",
"RL.	c #FBD171",
"SL.	c #FCD072",
"TL.	c #F9D786",
"UL.	c #2C2E33",
"VL.	c #F7D07E",
"WL.	c #FECC69",
"XL.	c #FECD69",
"YL.	c #FDCD68",
"ZL.	c #FDCD67",
"`L.	c #FDCD6A",
" M.	c #FDCD69",
".M.	c #FCCC6A",
"+M.	c #FBCC68",
"@M.	c #FBCD67",
"#M.	c #F7CC71",
"$M.	c #D0B172",
"%M.	c #251806",
"&M.	c #20263C",
"*M.	c #1F263C",
"=M.	c #222942",
"-M.	c #252630",
";M.	c #8B6B46",
">M.	c #F1B066",
",M.	c #FCAD54",
"'M.	c #FBAC56",
")M.	c #F2B26A",
"!M.	c #A17E56",
"~M.	c #404047",
"{M.	c #44403A",
"]M.	c #C9AE77",
"^M.	c #F8CD70",
"/M.	c #FDCA64",
"(M.	c #FDCA62",
"_M.	c #F8CB68",
":M.	c #DABC78",
"<M.	c #3C4A5B",
"[M.	c #5C5646",
"}M.	c #E4CA90",
"|M.	c #FAD17B",
"1M.	c #FCD073",
"2M.	c #FBD073",
"3M.	c #F9CF71",
"4M.	c #F8D071",
"5M.	c #F9CF70",
"6M.	c #F9D173",
"7M.	c #1B1C22",
"8M.	c #171D2D",
"9M.	c #161D2C",
"0M.	c #544931",
"aM.	c #E8CC8A",
"bM.	c #F7D278",
"cM.	c #F9D174",
"dM.	c #F8D173",
"eM.	c #F7D173",
"fM.	c #282C3E",
"gM.	c #2C2E34",
"hM.	c #A18F60",
"iM.	c #FDCE6D",
"jM.	c #FECC6B",
"kM.	c #FDCD6B",
"lM.	c #FCCD69",
"mM.	c #FBCE67",
"nM.	c #FBCD6A",
"oM.	c #FCCD6B",
"pM.	c #FCCC6B",
"qM.	c #FBCC6B",
"rM.	c #FBCC6A",
"sM.	c #FACC68",
"tM.	c #F8CD73",
"uM.	c #CFB173",
"vM.	c #241805",
"wM.	c #343434",
"xM.	c #303640",
"yM.	c #232944",
"zM.	c #262631",
"AM.	c #8A6C4B",
"BM.	c #EDB26E",
"CM.	c #F6AF5E",
"DM.	c #EEB36F",
"EM.	c #A07E5A",
"FM.	c #394556",
"GM.	c #3A4553",
"HM.	c #41423F",
"IM.	c #C5AD7D",
"JM.	c #F3CC78",
"KM.	c #F8CA6D",
"LM.	c #F9C96C",
"MM.	c #F5CC73",
"NM.	c #D5BC7F",
"OM.	c #545247",
"PM.	c #404B58",
"QM.	c #3D4C5D",
"RM.	c #5B574B",
"SM.	c #E2CB99",
"TM.	c #F3CF80",
"UM.	c #F4D07F",
"VM.	c #F4D17E",
"WM.	c #F4D07E",
"XM.	c #F4D17F",
"YM.	c #F5D17D",
"ZM.	c #F5D07E",
"`M.	c #F5D383",
" N.	c #F0D692",
".N.	c #7F7352",
"+N.	c #1B1B23",
"@N.	c #1B1D27",
"#N.	c #574E37",
"$N.	c #E6CF96",
"%N.	c #F5D282",
"&N.	c #272C3E",
"*N.	c #2B2F34",
"=N.	c #F2D38A",
"-N.	c #F8CF7A",
";N.	c #F8CE78",
">N.	c #F7CE78",
",N.	c #F6CD78",
"'N.	c #F5CD79",
")N.	c #F6CD79",
"!N.	c #F5CE79",
"~N.	c #F5CC77",
"{N.	c #F5CE7A",
"]N.	c #F2CF82",
"^N.	c #C9B17C",
"/N.	c #201706",
"(N.	c #0B0E18",
"_N.	c #373E50",
":N.	c #414A5B",
"<N.	c #242735",
"[N.	c #786452",
"}N.	c #C9A074",
"|N.	c #CE9D67",
"1N.	c #CD9E67",
"2N.	c #C8A173",
"3N.	c #87735C",
"4N.	c #3B404B",
"5N.	c #3D4247",
"6N.	c #A6997D",
"7N.	c #CFB780",
"8N.	c #D2B577",
"9N.	c #D4B577",
"0N.	c #D2B77C",
"aN.	c #B8A883",
"bN.	c #4C4F4E",
"cN.	c #414C5C",
"dN.	c #AFA58B",
"eN.	c #BBA880",
"fN.	c #BCA77B",
"gN.	c #BAA67A",
"hN.	c #B9A678",
"iN.	c #B6A274",
"jN.	c #B6A375",
"kN.	c #B7A476",
"lN.	c #B8A576",
"mN.	c #BAA679",
"nN.	c #BDA879",
"oN.	c #BEAA7B",
"pN.	c #BFAB7B",
"qN.	c #C0AB7C",
"rN.	c #C0AB7D",
"sN.	c #C2AD7F",
"tN.	c #C4B081",
"uN.	c #C6B283",
"vN.	c #C7B384",
"wN.	c #C9BA93",
"xN.	c #645D4C",
"yN.	c #151C2C",
"zN.	c #161D2D",
"AN.	c #161C2D",
"BN.	c #4A453C",
"CN.	c #BBAE8F",
"DN.	c #BEAE80",
"EN.	c #BCAC7C",
"FN.	c #BAA97C",
"GN.	c #BAA77B",
"HN.	c #B9A67A",
"IN.	c #B7A579",
"JN.	c #B7A477",
"KN.	c #B6A376",
"LN.	c #B6A275",
"MN.	c #B5A375",
"NN.	c #B7A577",
"ON.	c #B8A677",
"PN.	c #B9A778",
"QN.	c #BAA879",
"RN.	c #BBA87A",
"SN.	c #BBA97A",
"TN.	c #BDA97B",
"UN.	c #BCA97B",
"VN.	c #BCA97A",
"WN.	c #BBA878",
"XN.	c #BEA973",
"YN.	c #D3B571",
"ZN.	c #FAD883",
"`N.	c #282E3A",
" O.	c #888069",
".O.	c #C5B386",
"+O.	c #C5AD7A",
"@O.	c #C3AB7A",
"#O.	c #C2AA79",
"$O.	c #C1A977",
"%O.	c #C0A878",
"&O.	c #BEA878",
"*O.	c #BBA676",
"=O.	c #BBA576",
"-O.	c #BAA477",
";O.	c #BCA476",
">O.	c #BDA577",
",O.	c #BBA375",
"'O.	c #B8A57B",
")O.	c #9D9074",
"!O.	c #120D05",
"~O.	c #2D2C35",
"{O.	c #39302D",
"]O.	c #3B2F29",
"^O.	c #3C3029",
"/O.	c #382E2C",
"(O.	c #2B2B32",
"_O.	c #273041",
":O.	c #323E4F",
"<O.	c #394657",
"[O.	c #3A4758",
"}O.	c #53524D",
"|O.	c #565248",
"1O.	c #57524A",
"2O.	c #56534C",
"3O.	c #525454",
"4O.	c #535654",
"5O.	c #535656",
"6O.	c #535655",
"7O.	c #545755",
"8O.	c #555655",
"9O.	c #555656",
"0O.	c #555758",
"aO.	c #555757",
"bO.	c #545756",
"cO.	c #555756",
"dO.	c #555654",
"eO.	c #545555",
"fO.	c #545553",
"gO.	c #555553",
"hO.	c #565552",
"iO.	c #292D33",
"jO.	c #0F1527",
"kO.	c #11172A",
"lO.	c #131A2C",
"mO.	c #141B2D",
"nO.	c #131A2B",
"oO.	c #565B5E",
"pO.	c #535958",
"qO.	c #535756",
"rO.	c #535757",
"sO.	c #535657",
"tO.	c #545757",
"uO.	c #555755",
"vO.	c #545654",
"wO.	c #535651",
"xO.	c #968259",
"yO.	c #F5D186",
"zO.	c #FDD470",
"AO.	c #3C4149",
"BO.	c #565655",
"CO.	c #535450",
"DO.	c #525350",
"EO.	c #51534F",
"FO.	c #515251",
"GO.	c #4F504E",
"HO.	c #4E504F",
"IO.	c #404244",
"JO.	c #0B0E19",
"KO.	c #232B43",
"LO.	c #303E50",
"MO.	c #4D5867",
"NO.	c #4D5967",
"OO.	c #4E5865",
"PO.	c #4E5967",
"QO.	c #242E3C",
"RO.	c #0F1528",
"SO.	c #101629",
"TO.	c #12192C",
"UO.	c #13192B",
"VO.	c #12182B",
"WO.	c #4F5868",
"XO.	c #4F5766",
"YO.	c #53575A",
"ZO.	c #90815D",
"`O.	c #364052",
" P.	c #3B424E",
".P.	c #373736",
"+P.	c #212741",
"@P.	c #3F4A61",
"#P.	c #424D63",
"$P.	c #455167",
"%P.	c #445166",
"&P.	c #242D3E",
"*P.	c #0E1628",
"=P.	c #11192B",
"-P.	c #12172B",
";P.	c #4D596E",
">P.	c #4B576D",
",P.	c #4B586D",
"'P.	c #8F8160",
")P.	c #F2D28A",
"!P.	c #AD986C",
"~P.	c #364156",
"{P.	c #363634",
"]P.	c #445364",
"^P.	c #455166",
"/P.	c #0C1325",
"(P.	c #0E1526",
"_P.	c #101628",
":P.	c #0F1629",
"<P.	c #323A4D",
"[P.	c #4D586D",
"}P.	c #8F8260",
"|P.	c #F1D287",
"1P.	c #FAD271",
"2P.	c #F9D67F",
"3P.	c #AC976A",
"4P.	c #191D2F",
"5P.	c #485868",
"6P.	c #232A3A",
"7P.	c #0C1123",
"8P.	c #0D1324",
"9P.	c #0E1528",
"0P.	c #0E1527",
"aP.	c #48576C",
"bP.	c #8E8260",
"cP.	c #F1D188",
"dP.	c #AB966A",
"eP.	c #242C45",
"fP.	c #344056",
"gP.	c #475368",
"hP.	c #3B434D",
"iP.	c #475165",
"jP.	c #303B4E",
"kP.	c #384255",
"lP.	c #495869",
"mP.	c #070D1E",
"nP.	c #080F20",
"oP.	c #080F21",
"pP.	c #091022",
"qP.	c #081021",
"rP.	c #313B4B",
"sP.	c #50555F",
"tP.	c #8E8160",
"uP.	c #F1D089",
"vP.	c #AC9569",
"wP.	c #3A444E",
"xP.	c #465066",
"yP.	c #374256",
"zP.	c #2F3B4D",
"AP.	c #060C1F",
"BP.	c #080E20",
"CP.	c #080E21",
"DP.	c #090D20",
"EP.	c #070D1F",
"FP.	c #48596B",
"GP.	c #8F8161",
"HP.	c #AC956A",
"IP.	c #334056",
"JP.	c #465469",
"KP.	c #3B434F",
"LP.	c #0C0F1A",
"MP.	c #2D3B51",
"NP.	c #060D1D",
"OP.	c #070D1D",
"PP.	c #070E1E",
"QP.	c #080D1F",
"RP.	c #2B3545",
"SP.	c #47566A",
"TP.	c #49566C",
"UP.	c #48586A",
"VP.	c #8F8261",
"WP.	c #EFD187",
"XP.	c #FCCF6D",
"YP.	c #FBCF6D",
"ZP.	c #AC956B",
"`P.	c #455565",
" Q.	c #475369",
".Q.	c #6F7073",
"+Q.	c #070E1C",
"@Q.	c #060D1C",
"#Q.	c #070C1E",
"$Q.	c #2C3646",
"%Q.	c #908460",
"&Q.	c #F0D387",
"*Q.	c #FBD06C",
"=Q.	c #AC966B",
"-Q.	c #485668",
";Q.	c #1E2A42",
">Q.	c #050C1C",
",Q.	c #060C1B",
"'Q.	c #070D1B",
")Q.	c #080C1C",
"!Q.	c #060B1D",
"~Q.	c #293242",
"{Q.	c #455468",
"]Q.	c #47566B",
"^Q.	c #918662",
"/Q.	c #F1D389",
"(Q.	c #FACF6E",
"_Q.	c #FAD070",
":Q.	c #4F576A",
"<Q.	c #4E586B",
"[Q.	c #505B6D",
"}Q.	c #060C1C",
"|Q.	c #070C1A",
"1Q.	c #090C1C",
"2Q.	c #060B1C",
"3Q.	c #2A3241",
"4Q.	c #4D5760",
"5Q.	c #938A70",
"6Q.	c #EDD59D",
"7Q.	c #F0D38A",
"8Q.	c #A99A78",
"9Q.	c #202B45",
"0Q.	c #3E4653",
"aQ.	c #0D101B",
"bQ.	c #343F52",
"cQ.	c #364255",
"dQ.	c #364256",
"eQ.	c #343F51",
"fQ.	c #343F50",
"gQ.	c #343E52",
"hQ.	c #323D4E",
"iQ.	c #101729",
"jQ.	c #040A1B",
"kQ.	c #050A18",
"lQ.	c #050818",
"mQ.	c #040919",
"nQ.	c #151C2D",
"oQ.	c #323C50",
"pQ.	c #354254",
"qQ.	c #353F4D",
"rQ.	c #50514D",
"sQ.	c #766C50",
"tQ.	c #7B6F54",
"uQ.	c #7A715A",
"vQ.	c #544F46",
"wQ.	c #2E384D",
"xQ.	c #2E394E",
"yQ.	c #0E111C",
"zQ.	c #0B1325",
"AQ.	c #060C1D",
"BQ.	c #070B1A",
"CQ.	c #080B1B",
"DQ.	c #050B1D",
"EQ.	c #171E30",
"FQ.	c #1D293F",
"GQ.	c #212A37",
"HQ.	c #202937",
"IQ.	c #1D2333",
"JQ.	c #6E6F72",
"KQ.	c #0D1527",
"LQ.	c #080E1F",
"MQ.	c #080E1D",
"NQ.	c #080E1C",
"OQ.	c #090F1F",
"PQ.	c #192034",
"QQ.	c #1E2A44",
"RQ.	c #6C6C6F",
"SQ.	c #1E2942",
"TQ.	c #1E2A43",
"UQ.	c #1D2A41",
"VQ.	c #0A1021",
"WQ.	c #0B101F",
"XQ.	c #0B0F1E",
"YQ.	c #0B1020",
"ZQ.	c #0A1023",
"`Q.	c #182034",
" R.	c #1F2D44",
".R.	c #69696C",
"+R.	c #272F3E",
"@R.	c #111829",
"#R.	c #0C1221",
"$R.	c #0D1323",
"%R.	c #1A2033",
"&R.	c #212D3F",
"*R.	c #212F43",
"=R.	c #222F42",
"-R.	c #121A24",
";R.	c #111420",
">R.	c #121927",
",R.	c #131A28",
"'R.	c #151C2B",
")R.	c #151D2A",
"!R.	c #131A24",
"~R.	c #484848",
"{R.	c #030007",
"]R.	c #02000A",
"                                                                                                                                                                                                                                                                                                                                                                                                                                                                                                                                                                                                                                 ",
"                                                                                                                                                                                                                                                                                                                                                                                                                                                                                                                                                                                                                                 ",
"                                                                                                                                                                                                                                                                                                                                                                                                                                                                                                                                                                                                                                 ",
"                                                                                                                                                                                                                                                                                                                                                                                                                                                                                                                                                                                                                                 ",
"                                                                                                                                                                                                                                                                                                                                                                                                                                                                                                                                                                                                                                 ",
"                                                                                                                                                                                                                                                                                                                                                                                                                                                                                                                                                                                                                                 ",
"                                                                                                                                                                                                                                                                                                                                                                                                                                                                                                                                                                                                                                 ",
"                                                                                                                                                                                                                                                                                                                                                                                                                                                                                                                                                                                                                                 ",
"                                                                                                                                                                                                                                                                                                                                                                                                                                                                                                                                                                                                                                 ",
"                                                                                                                                                                                                                                                                                                                                                                                                                                                                                                                                                                                                                                 ",
"                                                                                                                                                                                                                                                                                                                                                                                                                                                                                                                                                                                                                                 ",
"                                                                                                                                                                                                                                                                                                                                                                                                                                                                                                                                                                                                                                 ",
"                                                                                                                                                                                                                                                                                                                                                                                                                                                                                                                                                                                                                                 ",
"                                                                                                                                                                                                                                                                                                                                                                                                                                                                                                                                                                                                                                 ",
"                                                                                                                                                                                                                                                                                                                                                                                                                                                                                                                                                                                                                                 ",
"                                                                                                                                                                                                                                                                                                                                                                                                                                                                                                                                                                                                                                 ",
"                                                                                                                                                                                                                                                                                                                                                                                                                                                                                                                                                                                                                                 ",
"                                                                                                                                                                                                                                                                                                                                                                                                                                                                                                                                                                                                                                 ",
"                                                                                                                                                                                                                                                                                                                                                                                                                                                                                                                                                                                                                                 ",
"                                                                                                                                                                                                                                                                                                                                                                                                                                                                                                                                                                                                                                 ",
"                                                                                                                                                                                                                                                                                                                                                                                                                                                                                                                                                                                                                                 ",
"                                                                                                                                                                                                                                                                                                                                                                                                                                                                                                                                                                                                                                 ",
"                                                                                                                                                                                                                                                                                    .  +  @  #  $  %  &  *  =  -  ;  >  ,  >  '  -  )  !  =  !  )  ~                                                                                                                                                                                                                                                                             ",
"                                                                                                                                                                                                                                                                                    {  ]  ]  ]  ]  ^  /  (  (  _  (  (  (  (  (  (  :  <  :  <  (  [                                                                                                                                                                                                                                                                             ",
"                                                                                                                                                                                                                                                                                    }  |  1  |  2  2  1  3  4  5  4  6  6  4  4  6  6  6  7  8  9  0                                                                                                                                                                                                                                                                             ",
"                                                                                                                                                                                                                                                                                 a  _  |  b  c  2  d  |  e  4  f  f  4  4  f  f  4  g  3  8  8  e  h                                                                                                                                                                                                                                                                             ",
"                                                                                                                                                                                                                                                                                    i  |  j  j  |  2  d  f  4  f  3  4  4  4  4  k  k  4  l  e  m  n                                                                                                                                                                                                                                                                             ",
"                                                                                                                                                                                                                                                                                    {  b  j  j  o  o  f  5  4  6  4  4  f  4  6  4  f  4  l  e  p  q                                                                                                                                                                                                                                                                             ",
"                                                                                                                                                                                                                                                               r  s  s  t  u  v  w  x  y  z  z  z  6  2  A  B  B  C  D  D  D  E  E  F  G  H  I  J  K  L  M  s  N  M  t  O                                                                                                                                                                                                                                                        ",
"                                                                                                                                                                                                                                                               P  Q  Q  2  j  |  l  R  S  T  U  V  W  X  Y  Z  `  `  `   . .. +. +. @. #. $. %. &. *. =. Q  Q  Q  Q  Q  -.                                                                                                                                                                                                                                                       ",
"                                                                                                                                                                                                                                                               %  Q  2  f  f  f  ;. >. ,. '. ). !. ~. {. ]. ^. /. (. (. _. :. <. [. [. }. |. |. 1. 2. 3. ^  ^  2  ^  ^  4.                                                                                                                                                                                                                                                       ",
"                                                                                                                                                                                                                                                               5. Q  5  f  f  f  6. 7. 8. 9. 9. 0. a. b. c. d. d. e. f. g. g. h. i. j. k. l. m. n. o. p. q. ^  |  2  Q  r.                                                                                                                                                                                                                                                       ",
"                                                                                                                                                                                                                                                               s. Q  |  3  f  f  6. 7. t. u. v. w. x. y. z. A. B. C. D. D. E. F. G. H. I. I. J. K. L. M. q. Q  2  2  Q  N.                                                                                                                                                                                                                                                       ",
"                                                                                                                                                                                                                                                               O. Q  |  f  f  f  7  P. t. Q. R. S. T. U. V. W. X. X. Y. Z. `. Y.  + .+ ++ @+ #+ $+ %+ &+ q. Q  2  2  ^  *+                                                                                                                                                                                                                                                       ",
"                                                                                                                                                                                                                                                               5. Q  |  f  f  e  =+ -+ ;+ >+ ,+ '+ )+ !+ ~+ {+ ]+ ^+ /+ (+ /+ _+ :+ <+ [+ [+ @+ }+ |+ 1+ 2+ Q  2  2  ^  3+                                                                                                                                                                                                                                                       ",
"                                                                                                                                                                                                                                                               5. Q  f  f  f  4  =+ 4+ 5+ >+ >+ 6+ 7+ 8+ 9+ 0+ a+ b+ c+ c+ d+ e+ f+ g+ h+ i+ j+ k+ l+ m+ 2+ Q  2  2  |  n+                                                                                                                                                                                                                                                       ",
"                                                                                                                                                                                                                                                               O. Q  f  f  f  4  =+ o+ ;+ p+ q+ r+ s+ t+ u+ v+ w+ x+ y+ z+ A+ B+ C+ D+ E+ F+ G+ H+ I+ m+ J+ |  |  ]  ]  K+                                                                                                                                                                                                                                                       ",
"                                                                                                                                                                                                                                                               s. Q  f  f  f  4  =+ 4+ L+ M+ M+ N+ O+ P+ Q+ Q+ R+ S+ T+ U+ V+ W+ X+ Y+ Z+ G+ `+  @ .@ +@ H  |  |  ]  ]  K+                                                                                                                                                                                                                                                       ",
"                                                                                                                                                                                                                                                               @@ Q  f  f  f  4  =+ #@ $@ %@ &@ *@ =@ U+ -@ ;@ >@ ,@ '@ )@ !@ ~@ {@ ]@ ^@ /@ `+ (@ _@ m+ H  3  |  ^  ]  K+                                                                                                                                                                                                                                                       ",
"                                                                                                                                                                                                                                                               :@ Q  f  f  f  4  =+ <@ [@ }@ |@ 1@ 2@ 3@ 4@ >@ 5@ 6@ ;@ '@ '@ 7@ 8@ 9@ 0@ `+ /@ H+ a@ m+ ^  3  |  ]  ]  b@                                                                                                                                                                                                                                                       ",
"                                                                                                                                                                                                                                                               c@ Q  e  4  6  6  d@ <@ e@ }@ f@ |@ g@ h@ i@ j@ k@ ;@ l@ m@ n@ ~@ o@ p@ q@ r@ s@ t@ u@ v@ ]  f  f  k  w@ x@                                                                                                                                                                                                                                                       ",
"                                                                                                                                                                                                                                                               y@ Q  3  4  6  6  d@ <@ z@ A@ f@ f@ B@ B@ C@ k@ l@ >@ l@ D@ E@ F@ G@ H@ I@ J@ K@ L@ M@ v@ ]  f  f  k  ]  N@                                                                                                                                                                                                                                                       ",
"                                                                                                                                                                                                                                                               O@ Q  3  4  4  6  d@ P@ Q@ R@ f@ S@ T@ U@ i@ k@ j@ >@ l@ D@ E@ ~@ V@ W@ X@ Y@ Z@ `@  # .# ]  f  f  k  5  +#                                                                                                                                                                                                                                                       ",
"                                                                                                                                                                                                                                                               @# Q  ]  f  f  4  d@ P@ ## $# f@ f@ [@ U@ %# k@ &# &# *# )@ =# -# ;# ># ,# '# :+ )# !# ~# ]  f  f  5  5  +#                                                                                                                                                                                                                                                       ",
"                                                                                                                                                                                                                                                               {# Q  ]  f  f  4  d@ ]# ^# A@ S@ f@ f@ f@ /# (# _# :# <# [# }# |# 1# 2# 3# 4# 5# 6# 7# 8# f  f  f  f  j  +#                                                                                                                                                                                                                                                       ",
"                                                                                                                                                                                                                                                               9# Q  5  5  k  4  d@ P@ Q@ R@ f@ f@ f@ R@ 0# *@ 1@ a# b# c# R@ R@ d# e# f# g# h# i# j# k# 4  f  f  f  3  l#                                                                                                                                                                                                                                                       ",
"                                                                                                                                                                                                                                                               9# Q  2  5  k  4  d@ <@ Q@ $# f@ f@ |@ A@ A@ M+ m# n# o# o# n# p# q# q# q# r# f@ s# t# u# 6  4  f  f  f  v#                                                                                                                                                                                                                                                       ",
"                                                                                                                                                                                                                                                               9# Q  |  5  5  4  d@ <@ w# S@ f@ f@ f@ [@ S@ [@ R@ p# }@ x# o# q# n# n# }@ }@ y# z# A# B# 6  f  5  f  3  C#                                                                                                                                                                                                                                                       ",
"                                                                                                                                                                                                                                                               D# Q  |  |  3  e  d@ E# F# G# H# H# I# w# J# |@ 0# 0# m# 0# 0# |@ J# K# L# M# ^# N# O# P# 6  f  f  3  3  Q#                                                                                                                                                                                                                                                       ",
"                                                                                                                                                                                                                                                               R# Q  |  |  3  3  7  S# T# U# V# W# X# Y# Z# `#  $  $ `# `#  $ `# .$ +$ @$ #$ $$ $$ T# %$ 4  f  f  3  3  &$                                                                                                                                                                                                                                                       ",
"                                                                                                                                                                                                                                                               *$ Q  |  |  |  3  4  7  =+ =$ =$ -$ ;$ >$ >$ ,$ ,$ ,$ ,$ ,$ '$ >$ '$ >$ ;$ '$ '$ >$ )$ !$ 4  f  f  ]  ]  3+                                                                                                                                                                                                                                                       ",
"                                                                                                                                                                                                                                                               ~$ Q  |  |  |  j  6  7  l  6. 8  6. 6. 6. 6. 6. 6. 6. {$ {$ {$ {$ ]$ {$ {$ x  x  ]$ =$ !$ e  3  5  ^$ ]  /$                                                                                                                                                                                                                                                       ",
"                                                                                                                                                                                                                                                               ($ Q  Q  2  ^  f  6  6  8  6. 6. 6. =$ 6. 6. 6. 6. 6. 6. 6. 6. :  :  {$ {$ x  _$ :$ <$ 6. e  3  5  ^  ]  [$                                                                                                                                                                                                                                                       ",
"                                                                                                                                                                                                                                                               }$ |$ 1$ 2$ 3$ 4$ 5$ g  6$ x  =$ =$ =$ 6. =$ =$ =$ =$ =$ 6. 6. 8  (  :  6. 7$ x  8$ 8$ 6. j  Q  Q  Q  Q  9$                                                                                                                                                                                                                                                       ",
"                                                                                                                                                                                                                                                                                 0$ j  6. 6. 6. =$ 6. =$ )$ a$ a$ )$ )$ a$ 7$ 6. <$ 8  6. !$ x  b$ c$ d$ e$ f$ g$ h$ i$ j$                                                                                                                                                                                                                                                       ",
"                                                                                                                                                                                                                                                                                 k$ 2  e  9  6. 6. 6. l$ m$ n$ o$ o$ p$ m$ q$ r$ s$ t$ 6. 7$ x  6. c$ u$                                                                                                                                                                                                                                                                         ",
"                                                                                                                                                                                                                                                                                 v$ 2  e  e  8  !$ -$ w$ x$ y$ y$ z$ A$ B$ C$ D$ E$ -$ 8  8  9  7$ c$ F$                                                                                                                                                                                                                                                                         ",
"                                                                                                                                                                                                                                                                                 G$ |  e  e  e  g  H$ I$ J$ K$ L$ M$ N$ y$ O$ P$ Q$ ;$ l  R$ S$ p  4  T$                                                                                                                                                                                                                                                                         ",
"                                                                                                                                                                                                                                                                                 U$ |  4  4  4  l  =+ V$ W$ X$ Y$ Z$ `$  % .% +% @% H$ l  p  8  p  j  #%                                                                                                                                                                                                                                                                         ",
"                                                                                                                                                                                                                                                                                 $% j  4  4  j  7  H$ %% B$ &%  % *%  % &% =% -% ;% >% l  8  8  p  j  ,%                                                                                                                                                                                                                                                                         ",
"                                                                                                                                                                                                                                                                                 '% j  p  f  8  6. !$ )% !% ~% {% ]% ]% ^% /% (% _% !$ l  R$ p  f  o  :%                                                                                                                                                                                                                                                                         ",
"                                                                                                                                                                                                                                          <% [% }% R# |% 1% 2% 3% 4% 4% 3% 5% 5% 6% c  3  p  9  6$ 6$ 7% 8% 9% 0% a% b% c% d% e% f% 7$ l  8  8  6  e  g% h% i% j% k% i% h% l% h% m% n% $  o%                                                                                                                                                                                                                                     ",
"                                                                                                                                                                                                                                          p% |  |  |  |  |  |  |  |  |  |  3  4  6  c  m  k  p  e  g  6$ 8  !$ q% g  7  7  6  l  8  3  e  6  !$ 6  4  e  j  j  3  |  f  f  |  j  j  3  |  r%                                                                                                                                                                                                                                     ",
"                                                                                                                                                                                                                                          n% j  |  |  |  |  |  |  j  j  j  3  4  4  l  s% f  f  f  e  e  e  4  c$ 8  e  l  c  e  e  e  l  4  4  6  4  4  4  4  f  f  f  f  f  e  e  3  3  t%                                                                                                                                                                                                                                     ",
"                                                                                                                                                                                                                                          u% o  j  2  2  |  |  |  1  c  b  f  4  f  4  6  6  6  4  f  f  4  6  6  6  6  6  6  6  6  6  6  6  6  6  6  4  f  f  f  f  f  f  f  f  4  f  f  0                                                                                                                                                                                                                                      ",
"                                                                                                                                                                                                                                          u% ]  |  j  f  5  3  e  o  j  |  j  f  4  6  6  6  6  6  4  f  4  4  4  6  6  4  6  6  4  4  4  4  4  4  4  4  4  4  4  f  f  f  f  e  3  f  4  v%                                                                                                                                                                                                                                     ",
"                                                                                                                                                                                                                                          w% j  f  6  4  f  5  4  6  6  f  ^  5  f  6  6  4  6  6  f  f  3  3  3  3  3  3  o  c  3  3  3  3  3  3  3  e  4  4  4  4  f  5  f  3  4  f  4  x%                                                                                                                                                                                                                                     ",
"                                                                                                                                                                                                                     y% z% A% B% B% C% D% E% F% d@ G% H% =+ 3  I% D  G  D  F  J% K% I% I% K% I% I% J% L% M% M% K% N% O% M% I% I% F  F  F  F  F  F  F  F  J% J% J% J% J% K% K% D  b  o  7  y  P% G$ Q% R% ;  ;  S% -  T%                                                                                                                                                                                                          ",
"                                                                                                                                                                                                                     U% Q  Q  Q  Q  Q  Q  V% W% X% Y% Z% `%  & .& +& @& #& $& %& && *& =& -& -& *& && ;& ;& >& ,& ,& '& )& >& !& ~& {& ]& ~& {& {& {& {& ^& /& (& _& :& <& [& }& |& 1& 2& 3& 4& Q  Q  Q  Q  Q  Q  Q  <%                                                                                                                                                                                                          ",
"                                                                                                                                                                                                                     5& Q  Q  6& 6& 1  q% 7& 8& 9& 0& i@ a& b& c& d& e& f& g& h& i& j& j& g& g& k& k& l& m& l& m& m& m& m& n& o& o& o& o& o& o& o& p& p& p& q& o& p& r& r& p& s& t& u& v& v& w& H$ |  x& Q  2  |  Q  y&                                                                                                                                                                                                          ",
"                                                                                                                                                                                                                     z& ^  Q  ^  d  |  z  7& A& B& C& D& E& F& G& H& I& J& K& K& K& L& M& N& K& O& P& J& Q& J& J& J& J& J& H& J& R& O& J& S& S& R& S& T& U& V& W& Q& X& Y& U& Z& `&  * .* +* @* =+ |  Q  Q  2  |  Q  #*                                                                                                                                                                                                          ",
"                                                                                                                                                                                                                     $* Q  Q  A  q. A  q% #@ %* &* C& D& ** =* -* T& P& S& U& ;* >* ,* '* K& '* >* )* S& !* S& >* >* ~* >* ~* ,* {* ]* {* {* ^* {* {* /* /* (* _* _* _* :* <* [* }*  * .* |* @* =$ |  2  Q  2  2  Q  1*                                                                                                                                                                                                          ",
"                                                                                                                                                                                                                     $* Q  Q  Q  Q  2  y  #@ 2* &* &* 3* 4* 5* 6* 7* 8* 9* 0* a* b* 9* 9* 9* b* b* b* b* b* b* 9* c* c* d* e* f* f* g* h* g* d* f* d* i* j* k* U& l* m* n* o* p* q* r* .* s* @* H$ o  2  2  2  Q  Q  t*                                                                                                                                                                                                          ",
"                                                                                                                                                                                                                     $* Q  Q  Q  Q  2  y  u* 2* &* v* w* x* y* z* A* A* B* C* D* E* F* E* E* E* G* H* I* J* K* K* L* M* N* O* P* Q* R* Q* S* S* T* U* V* W* X* Y* Z* `*  = n* .= += @= #= s* $= ,$ o  2  2  2  Q  Q  %=                                                                                                                                                                                                          ",
"                                                                                                                                                                                                                     $* Q  Q  Q  Q  d  6  #@ &= *= == w* -= ;= >= ,= '= )= != != ~= {= ]= ]= ]= ^= /= (= _= _= := <= [= }= |= 1= 2= 3= 4= 4= 3= 5= 6= 7= 8= 9= 0= a= `* b= c= d= e= f= s* g= h= ,$ j  q. 2  2  Q  Q  i=                                                                                                                                                                                                          ",
"                                                                                                                                                                                                                     j= Q  Q  Q  x& d  7  ]# *@ p# k= l= m= n= o= p= q= q= r= r= s= r= t= t= t= r= s= s= s= u= u= v= v= v= v= v= w= w= x= w= w= x= v= y= z= A= B= C= D= E= F= G= H= I= J= K= h= H$ b  A  2  Q  2  Q  L=                                                                                                                                                                                                          ",
"                                                                                                                                                                                                                     M= 2  2  Q  Q  4  N= O= M# n# P= Q= R= S= T= U= V= W= X= Y= X= Y= Y= Z= Y= Y= X= Y= `= Z= Z= `=  -  -  -  -  - .- +- +- +- +- .- `= @- #- $- %- &- *- =- -- ;- >- ,- '- )- >% c  2  Q  Q  2  Q  !-                                                                                                                                                                                                          ",
"                                                                                                                                                                                                                     ~- |  |  5  {- 4  N= O= M# o# n# n# n# ]- ^- /- (- W= W= _- :- <- <- (- [- }- |- 1- 2- 3- 3- 3- 4- 5- 5- 6- 7- 8-  -  - 9-  - 8- `= `= 0- a- b- c- *- d- e- f- g- #= h- i- =+ o  2  Q  Q  |  Q  j-                                                                                                                                                                                                          ",
"                                                                                                                                                                                                                     k- 2  2  ^  l- f  d@ <@ G# 0# n# p# p+ m- n- o- p- q- /- }- W= W= W= W= W= W= W= r- Y= r- <- (- s- t- t- s- s- 8-  - u- 9- v- w- x- y- w= z- A- B- C- C- D- E- F- G- H- I- ;. j  2  Q  2  |  Q  j-                                                                                                                                                                                                          ",
"                                                                                                                                                                                                                     J- Q  Q  ^  K- f  =+ L- |@ }@ M- M- m# N- O- P- Q- R- S- T- U- V- W- X- V- V- V- Y- Z- Z- `-  ;  ;  ;  ; D@ .; .; +; +; T+ T+ @; )@ m@ #; $; %; &; *; =; -; ;; >; ,; '; ); >% j  x& x& d  2  Q  !;                                                                                                                                                                                                          ",
"                                                                                                                                                                                                                     ~; Q  ^  {- {- f  d@ {; ]; R@ M- 0# f@ o# f@ o# f@ f@ f@ f@ c# c# c# c# c# c# c# a# a# a# a# a# a# a# a# ^; /; /; /; (; L# (; (; _; :; <; [; }; |; 1; 2; 3; 4; 5; 6; x* 7; ,$ o  5  6& ^$ ^  Q  8;                                                                                                                                                                                                          ",
"                                                                                                                                                                                                                     9; Q  5  5  d  f  N= 0; b# f@ M- 0# f@ f@ f@ f@ f@ B@ B@ B@ z# z# z# z# z# z# z# z# a; a; a; a; a; a; a; a; a; a; a; a; s# s# a; b; c; b; d; e; f; g; g; f; h; i; j; k; l; ,$ o  f  5  d  d  Q  m;                                                                                                                                                                                                          ",
"                                                                                                                                                                                                                     [$ 2  b  b  |  3  ;. n; b# R@ R@ f@ f@ B@ B@ B@ B@ B@ B@ B@ z# z# z# z# z# z# z# a; o; o; o; o; a; a; a; a; a; a; a; a; p; p; p; q; q; p; p; r; r; p; b; s; t; u; q; v; w; H$ y  j  j  j  j  Q  x;                                                                                                                                                                                                          ",
"                                                                                                                                                                                                                     y; 3  z; c  3  l  A; B; &@ f@ R@ f@ B@ B@ B@ B@ B@ B@ B@ C; B@ B@ B@ C; C; C; C; C; C; C; C; C; C; C; C; o; p; p; p; p; r; r; r; r; D; E; F; G; H; F; I; J; G; H; I; K; L; >% e  3  o  4  4  Q  M;                                                                                                                                                                                                          ",
"                                                                                                                                                                                                                     N; 3  _  R$ R$ 7$ O; P; Q; G# 1@ g@ R; R; s# S; S; h@ h@ T; T; T; T; T; T; T; T; q; q; q; q; q; q; q; q; D; U; V; V; V; W; X; W; U; U; X; U; F; Y; Z; Y; Y; `; Z;  > .> +> =+ e  4  4  f  3  Q  @>                                                                                                                                                                                                          ",
"                                                                                                                                                                                                                  #> $> |  3  3  3  e  %> &> *> => #$ .$ $$ => -> -> -> -> ;> >> ,> V# V# '> )> )> )> !> ~> ~> ~> ~> ~> ~> ~> !> {> ,> ]> ]> ]> ]> ,> '> !> !> >> >> ^> /> (> _> :> <> !> ,> [> !$ g  f  f  f  3  Q  }>                                                                                                                                                                                                          ",
"                                                                                                                                                                     |> 1> 2> 3> 4> 5> 6> l% 7> 7> h% i% k% 8> 8> 5> }  3  3  3  k  R$ e  7  ;. 9> -$ ;$ ;$ ;$ N= N= ;$ ;$ ;$ ;$ ;. =+ ;. =+ =+ =+ =+ N= A; N= N= ;. =+ =+ =+ =+ =+ =+ =+ =+ =+ =+ =+ d@ d@ d@ =+ =+ 0> ;. ;. ;. =+ H$ =$ =$ 0> s% 4  f  f  f  e  o  a> b> c> d> d> e> f> f> f> f> f> g> h> i> j>                                                                                                                                                                ",
"                                                                                                                                                                     k> 3  3  3  m  f  f  f  f  f  f  f  3  e  5  k  j  3  5  f  4  5  5  f  R$ l> p  8  m> 6. 6. 8  8  8  6. 6. 4  8  8  4  4  4  4  4  4  4  4  4  4  4  4  4  4  4  4  4  4  4  4  e  4  4  4  4  4  4  4  6  g  g  g  6  4  f  f  f  f  f  f  3  f  3  f  m  f  f  5  5  f  f  f  d  d  d  n>                                                                                                                                                                ",
"                                                                                                                                                                     o> 3  3  f  5  f  f  f  f  f  3  f  f  4  5  k  e  R$ w@ 5  4  ]  {- 4  f  m  4  f  f  l  l  p  p  8  e  4  f  p  f  f  f  f  f  f  f  f  f  f  f  f  f  f  f  f  f  f  f  f  5  f  f  f  f  f  f  f  f  4  g  e  e  4  f  f  f  f  f  f  f  f  f  f  m  d  5  f  5  d  5  3  c  5  3  f  d>                                                                                                                                                                ",
"                                                                                                                                                                     p> |  3  f  4  f  f  f  f  f  f  f  m  c$ f  k  3  3  ]  5  f  ]  k  l  o  e  e  e  f  4  3  3  p  8  f  ]  f  f  f  f  f  f  f  f  f  f  f  4  4  4  4  f  f  f  f  f  f  5  k  m  f  f  3  f  3  3  f  f  4  f  4  f  f  f  f  f  f  f  f  f  f  f  f  ]  3  ]  3  j  |  |  j  |  3  |  q>                                                                                                                                                                ",
"                                                                                                                                                                     r> 3  5  f  4  f  f  f  f  4  4  f  f  4  4  4  f  f  f  f  4  3  f  e  e  e  z; s> t> t> t> R$ R$ e  l  z; 3  3  3  3  3  3  3  3  f  f  4  4  4  4  4  f  5  f  f  f  f  f  4  4  4  4  e  f  3  3  3  3  3  3  3  3  f  f  f  4  4  4  4  4  4  4  4  |  |  2  j  j  j  |  |  j  e  |  u>                                                                                                                                                                ",
"                                                                                                                                                                  v> w> e  e  4  4  6  4  4  4  x> !$ l  e  e  l  4  e  3  ]  ^  B  y> y> y> C  y> y> H  t> z> z> p  t> z; z; H  D  D  C  H  H  B  B  A> ^  ^  H  A> A> ^  A> H  H  A> A> A> A> A> B> 1  ]  ]  A> A> H  H  H  A> B  B  B  ]  ]  ]  ]  ]  b  3  b  b  b  b  B> J+ J+ B  b  1  c  f  j  c  c  4  c  C>                                                                                                                                                             ",
"                                                                                                                                                n+ D> E> i% F> 8> E> x  G> H> H> I> J> K> L> M> N> N> N> M> N> O> P> Q> R> S> T> U> V> W> X> Y> Z> `>  , ., +, @, #, $, %, &, *, =, -, ;, >, >, >, >, ,, ,, ,, ,, >, ,, ', ), !, ~, -, {, {, {, ], ], {, {, ^, ^, /, (, (, _, !, !, !, :, :, <, <, [, }, ', ', :, :, :, ', ', |, 1, 2, 3, 4, 5, 6, 7, 8, 9, 0, a, b, c, d, e, f, g, Q  =                                                                                                                                         ",
"                                                                                                                                                C# |  3  5  ]  ]  f  h, i, j, k, l, m, n, o, p, p, q, p, r, s, t, u, v, w, x, y, z, A, B, C, D, E, F, G, H, I, J, K, L, M, N, O, P, Q, R, S, T, U, V, U, T, W, X, Y, Y, Z, `,  ' .' +' @' #' $' %' %' $' &' *' =' -' -' ;' >' >' ,' >' '' )' !' !' !' ~' ~' '' {' '' '' ]' ^' /' (' _' :' <' [' }' |' 1' 2' 2' 3' 4' e  ]  |  Q  Q  Q  5'                                                                                                                                        ",
"                                                                                                                                                6' 3  3  f  f  R$ f  >$ 7' 8' C; o; Y; 9' 0' a' a' b' c' d' e' c' c' f' g' h' i' j' k' k' `* l' m' n' o' p' q' r' s' t' u' v' -- w' x' y' y' z' A' A' B' B' C' C' D' E' B' F' G' G' H' H' G' G' G' G' G' I' I' J' I' I' G' K' H' H' H' L' M' N' N' N' O' O' O' P' O' L' Q' R' R' R' S' T' U' V' W' X' Y' Z' Z' `'  ) 3  1  A  Q  Q  Q  .)                                                                                                                                        ",
"                                                                                                                                                +) 3  f  4  4  m  3  @) 7' d; #) I; $) %) &) b' b' *) =) *) e' -) ;) >) ,) ') )) !) ~) {) {) ]) ^) /) () _) :) <) 0' [) }) |) 1) 2) 3) 3) 4) 5) 6) 6) 7) 8) 9) 9) 0) 9) 9) a) b) b) b) a) b) b) b) b) c) d) e) e) f) g) h) i) a) a) b) `* c= `* j) j) j) k) k) k) l) c) m) n) o) p) q) r) s) t) u) v) w) x) y) z) [> e  1  1  2  Q  Q  A)                                                                                                                                        ",
"                                                                                                                                                B) |  4  6  f  f  e  A; C) q; C; I; $) D) E) *) *) =) F) G) H) *) &) I) J) K) L) M) ^) ^) N) O) P) Q) R) S) T) E) *) I) U) V) W) 4) 5) 7) 5) 7) 7) 7) 8) 8) 9) 9) 0) i) b) l) l) l) l) l) l) l) l) l) l) c) `* j) j) j) c) c) D= l) D= l) k) k) k) k) j) j) l' X) Y) l' l) Z) m) `)  ! .! +! @! #! $! %! &! *! =! -! g  5  |  2  2  Q  A)                                                                                                                                        ",
"                                                                                                                                                ;! f  4  3  5  f  e  -$ >! T; ,! #) H; '! E) *) =) F) =) *) *) *) )! !! ~! {! ]! ^! /! (! _! _! :! <! [! }! |! E) E) 1! 2! 3! 4! 5! i' 6! n' P' P' 7! 7! 7! 8! 8! 9! 0! a! b! c! d! d! d! d! d! d! d! e! e! e! e! e! G= e! e! f! e! e! e! e! e! e! d! d! g! h! h! i! j! k! i! l! m! n! o! p! q! r! s! t! u! v! w! x! 4  |  j  |  2  Q  A)                                                                                                                                        ",
"                                                                                                                                                y! 3  f  f  {- 5  e  -$ z! A! B! C! D! '! F) =) F) =) *) =) E! E! F! G! H! I! J! K! L! M! N! O! P! Q! R! S! T! U! &) V! W! X! Y! Z! `!  ~ .~ +~ @~ #~ $~ %~ &~ *~ $~ =~ -~ =~ ;~ >~ ,~ '~ '~ '~ '~ '~ >~ >~ )~ )~ >~ >~ !~ )~ '~ '~ =~ =~ ~~ $~ {~ ]~ ^~ /~ /~ (~ (~ -~ _~ :~ <~ [~ }~ |~ 9! 1~ 2~ 3~ 4~ 5~ 6~ +* 7~ j  |  c  |  Q  Q  8~                                                                                                                                        ",
"                                                                                                                                                9~ |  f  3  m  R$ 3  A; 0~ A! B! C! D! a~ F) F) F) F) F) b~ b~ b~ )! &) c~ d~ e~ f~ g~ h~ i~ j~ k~ l~ m~ 1! n~ E) E) &) o~ p~ q~ r~ s~ t~ t~ t~ u~ u~ u~ v~ v~ v~ u~ w~ w~ w~ w~ x~ x~ x~ w~ y~ z~ y~ A~ B~ B~ A~ C~ C~ C~ D~ e~ e~ E~ e~ v~ t~ u~ F~ G~ G~ G~ G~ H~ w~ I~ J~ D~ 2! K~ L~ D' M~ N~ O~ P~ Q~ 6~ R~ S~ j  2  j  A  q. Q  T~                                                                                                                                        ",
"                                                                                                                                                $  f  4  3  R$ R$ 3  >$ U~ D; o; C! V~ W~ E) X~ E) =) b~ Y~ X~ Z~ `~ Z~  {  { <) <) .{ <) +{ V! <) @{ @{ n~ #{ ${ ${ n~ %{ &{ r' *{ *{ *{ @{ @{ r' *{ *{ *{ *{ ={ -{ *{ -{ ;{ >{ >{ >{ >{ >{ >{ >{ >{ ;{ ={ ={ ={ ={ ={ ={ ={ &{ r' &{ r' ={ ,{ ,{ ,{ ,{ '{ '{ '{ ,{ &{ &{ &{ <) ){ !{ ~{ {{ ]{ R' ^{ 3= /{ ({ +* _{ 4  e  e  f  2  Q  )                                                                                                                                         ",
"                                                                                                                                                u% 4  !$ 9  8  p  8  '$ :{ q; #) <{ C! [{ X~ X~ E) =) b~ `~ F! `~ `~ }{ |{ X~ 1{ X~ E) 2{ X~ %{ #{ 3{ n~ 4{ %{ ${ ${ n~ 5{ 6{ 7{ %{ 8{ 8{ 8{ 8{ 8{ 5{ 9{ 0{ 7{ a{ >{ %{ %{ b{ b{ b{ b{ b{ a{ a{ b{ a{ c{ c{ c{ 5{ 5{ 5{ 5{ 5{ 5{ 5{ 5{ 5{ c{ c{ c{ c{ c{ c{ c{ c{ c{ c{ a{ b{ %{ d{ e{ ~{ f{ ]{ g{ h{ i{ j{ k{ l{ m{ n{ o{ p{ q{ r{ s{ t{    u{ v{ w{ x{                                                                                                                         ",
"                                                                                                                              y{ b> b> z{ d> A{ B{ 6  ;. C{ D{ E{ F{ G{ H{ #) I{ J{ I; K{ 1{ E) =) F) L{ E) M{ E) E) E) X~ X~ 1{ N{ X~ 5{ 5{ 4{ #{ ${ %{ 9{ &{ 5{ n~ #{ b{ 8{ 7{ %{ 5{ 1{ 6{ 1{ 8{ 8{ c{ c{ O{ P{ c{ 5{ 5{ 5{ 5{ 5{ 5{ 5{ 5{ 5{ c{ c{ c{ c{ c{ c{ c{ 5{ 5{ 5{ 5{ 5{ 5{ 5{ c{ Q{ R{ R{ a{ a{ a{ c{ c{ c{ >{ ${ n~ S{ T{ U{ V{ W{ X{ Y{ Z{ `{  ] .] +] @] #] $] %] &] $= *] =] -] ;] >] ,]                                                                                                                         ",
"                                                                                                                              e> |  j  3  3  |  j  4  d@ C) '] T; p; p; )] !] ~] U@ G; {] 5{ M{ &) 2{ E) &) &) E) E) E) X~ X~ X~ `~ `~ X~ ]] r' n~ %{ n~ n~ n~ %{ n~ n~ ${ 5{ 5{ 5{ 5{ 5{ 5{ 5{ 5{ c{ c{ c{ c{ 7{ c{ 5{ 5{ 5{ 5{ 5{ 5{ 5{ 5{ 5{ c{ c{ 5{ 5{ 5{ 5{ 5{ 5{ 5{ 5{ 5{ 5{ 5{ 5{ c{ Q{ Q{ Q{ a{ a{ a{ c{ c{ c{ 7{ 7{ n~ ^] /] (] _] :] <] Y{ Z{ [] }] |] 1] 2] 3] 4] 5] 6] 7] 8] c  5  f  p  d>                                                                                                                         ",
"                                                                                                                              9] o  3  j  j  |  |  b  O; 0] c# B@ B@ B@ a] b] ~] c] )] {] >{ )! E) E) E) &) E) X~ X~ X~ X~ X~ X~ X~ 5{ 5{ 5{ %{ n~ n~ n~ n~ n~ n~ n~ %{ 5{ 5{ 5{ c{ 5{ c{ c{ c{ c{ c{ c{ c{ c{ c{ c{ c{ c{ c{ 5{ 5{ 5{ 5{ 5{ 5{ c{ c{ 7{ 5{ 5{ 5{ 5{ 5{ 5{ 5{ 5{ 5{ 5{ 5{ c{ c{ c{ Q{ c{ c{ c{ c{ c{ c{ c{ c{ r' d] e] f] G' g] h] i] j] k] l] m] n] o] p] |# 6] q] r] p{ g  4  m  f  b>                                                                                                                         ",
"                                                                                                                              s] j  2  |  o  o  j  j  t] X% g@ B@ B@ C; u] v] w] x] y] z] 5{ X~ X~ X~ X~ E) X~ X~ X~ X~ X~ X~ 5{ 5{ 5{ 5{ 5{ 5{ %{ %{ %{ n~ n~ n~ n~ n~ %{ 5{ c{ c{ c{ c{ c{ c{ c{ O{ c{ c{ c{ c{ c{ c{ c{ c{ c{ c{ c{ 5{ 5{ c{ c{ c{ c{ c{ c{ c{ 5{ 5{ 5{ 5{ 8{ R{ Q{ A] c{ c{ c{ Q{ c{ c{ c{ c{ c{ c{ c{ c{ '{ B] C] D] E] F] G] H] I] J] K] L] M] N] O] 6] P] Q] r] R] q% f  f  4  S]                                                                                                                         ",
"                                                                                                                              T] 2  2  |  c  o  o  o  @) U] T@ B@ C; V] W] X] R{ 5{ Y] X~ X~ `~ X~ }{ }{ X~ X~ X~ X~ X~ X~ 5{ 5{ 5{ 5{ 5{ 5{ 5{ 5{ 5{ 5{ %{ %{ %{ %{ n~ n~ %{ 5{ 5{ 5{ %{ 7{ c{ c{ c{ c{ c{ c{ c{ c{ c{ c{ c{ c{ c{ 5{ 5{ 5{ 5{ 5{ 5{ 5{ 5{ 5{ 5{ 5{ 5{ 5{ 5{ 8{ R{ R{ 8{ c{ c{ c{ c{ c{ c{ c{ c{ c{ c{ c{ a{ %{ t' Z] `]  ^ .^ +^ @^ #^ $^ %^ &^ *^ =^ -^ ;^ >^ ,^ '^ )^ 6  f  f  g  !^                                                                                                                         ",
"                                                                                                                              ~^ ]  1  b  o  j  c  g  {^ B$ ]^ ^^ B@ /^ (^ _^ 5{ 5{ b{ X~ X~ `~ X~ X~ 1{ X~ X~ X~ X~ X~ X~ 5{ 5{ 5{ 5{ 5{ 5{ 5{ 5{ 5{ 5{ 5{ 5{ 5{ 5{ %{ n~ n~ n~ 4{ U! n~ %{ 7{ a{ a{ :^ c{ c{ c{ 5{ 5{ 5{ 5{ 5{ %{ 5{ 5{ 5{ 5{ 5{ 5{ 5{ 5{ 5{ 5{ 5{ 5{ 5{ 5{ %{ %{ 5{ 5{ 5{ 5{ 5{ 5{ c{ c{ c{ c{ c{ c{ c{ a{ &{ s' <^ [^ }^ |^ 1^ 2^ ,= 3^ 4^ 5^ 6^ 7^ 8^ 9^ 0^ a^ b^ c^ o  3  f  g  d^                                                                                                                         ",
"                                                                                                                  e^ e^ f^ g^ h^ ]  i^ c  y  y  q% j^ k^ l^ ^^ ^^ C; V] m^ n^ b{ 5{ X~ X~ X~ X~ X~ X~ E) X~ X~ X~ X~ X~ X~ 5{ 5{ 5{ 5{ 5{ 5{ 5{ 5{ 5{ 5{ 5{ 5{ 5{ 5{ 5{ %{ n~ n~ .{ .{ .{ r' 9{ c{ :^ :^ c{ c{ 5{ 5{ 5{ %{ %{ n~ n~ n~ %{ %{ 5{ 5{ 5{ %{ %{ %{ %{ %{ %{ %{ %{ %{ %{ 5{ 5{ %{ %{ %{ %{ ;{ o^ o^ ;{ %{ &{ &{ &{ r' n~ p^ 1! u, q^ r^ s^ t^ u^ v^ w^ x^ y^ z^ n+ A^ B^ C^ D^ j  3  p  8  b> v# E^ F^ G^ H^                                                                                                          ",
"                                                                                                               I^ 8> 8> J^ K^ {$ 3  z> )$ L^ M^ N^ O^ P^ Q^ R^ S^ T^ U^ V^ W^ Y] X~ `~ X~ X~ `~ X~ E) E) X~ X~ X~ X~ X~ X~ X~ E) n~ n~ %{ 5{ 5{ 5{ 5{ 5{ 5{ 5{ 5{ 5{ 5{ 5{ %{ %{ 4{ .{ .{ @{ r' 9{ A] A] c{ c{ c{ 5{ %{ n~ n~ n~ n~ n~ n~ %{ 5{ 5{ 5{ %{ n~ n~ n~ n~ n~ n~ n~ %{ %{ %{ 5{ %{ %{ %{ %{ ${ X^ X^ ${ %{ 4{ 4{ 4{ %{ b{ %{ .{ Y^ Z^ `^  / ./ +/ @/ #/ $/ %/ &/ */ =/ Q] -/ ;/ c  _  p  8  _  t% >/ i> ,/ '/ )/                                                                                                       ",
"                                                                                                               !/ |  |  4  6  6  l  e  ~/ {/ ]/ Q; ^/ M# f@ S^ b] b] // (/ W^ Y] E) )! X~ X~ X~ X~ X~ E) X~ X~ X~ X~ X~ X~ E) &) &) &) E) X~ X~ X~ X~ 5{ 5{ 5{ 5{ 5{ 5{ 5{ 5{ 5{ 5{ %{ n~ @{ @{ .{ 4{ 9{ 5{ c{ 5{ 5{ %{ n~ n~ n~ n~ n~ n~ %{ 5{ 5{ 5{ 5{ %{ %{ %{ %{ %{ %{ %{ %{ %{ %{ 5{ 5{ 5{ 5{ 5{ b{ b{ b{ 5{ 5{ 5{ 5{ 5{ 8{ _/ :/ </ [/ |{ +{  / }/ |/ 1/ 2/ 3/ 4/ 5/ 6/ 7/ 8/ 9/ 0/ x> a/ l> l> }  }  b/ c/ c/ {  d/                                                                                                       ",
"                                                                                                               e/ 5  4  4  6  7  7  6. ~/ f/ n# n# m# 0# g/ S^ S^ h/ // i/ :^ b{ E) E) X~ X~ X~ X~ X~ X~ X~ X~ X~ X~ E) E) &) &) &) &) &) E) X~ X~ X~ X~ X~ 5{ 5{ 8{ 6{ 6{ 8{ 5{ 8{ 5{ n~ p^ n~ n~ %{ %{ %{ %{ %{ %{ n~ n~ n~ %{ %{ %{ %{ 5{ 5{ 5{ 5{ 5{ 5{ 5{ 5{ b{ b{ b{ b{ 5{ 5{ 5{ 5{ 5{ 5{ 5{ 5{ 5{ 5{ 5{ 5{ 5{ 5{ 5{ 5{ 8{ 8{ 8{ 5{ ]] U! 0' j/ k/ l/ m/ n/ o/ p/ q/ r/ s/ t/ u/ v/ w/ x/ (  l> l> i  y/ b/ z/ A/ B/                                                                                                       ",
"                                                                                                               C/ f  6  4  s% 4  t$ 6. ~/ D/ o# R@ 0# R@ E/ F/ 9& 9& P= G/ H/ 1{ `~ `~ `~ F) F) F) F) F) X~ X~ X~ X~ E) E) E) E) E) E) &) &) E) E) E) E) E) %{ 5{ 8{ 8{ 8{ 5{ %{ 5{ 5{ 5{ %{ n~ %{ 5{ %{ n~ n~ n~ n~ n~ n~ n~ %{ 5{ 5{ 5{ 5{ 5{ 5{ 5{ 5{ 5{ 5{ 5{ 5{ b{ b{ b{ 5{ 5{ 5{ 5{ 5{ 5{ 5{ 5{ 5{ 5{ 5{ 5{ 5{ 5{ 5{ 5{ ${ b{ %{ %{ %{ E) I/ t, J/ K/ L/ M/ N/ O/ P/ Q/ R/ S/ T/ U/ V/ _  W/ }  X/ i  X/ {  c/ Y/ Z/                                                                                                       ",
"                                                                                                               `/ o  x> 6  6  6  9  6. ~/  ( x# }@ y# S^ .( +( @( #( @( b~ X~ L{ `~ `~ $( $( F) F) F) F) F) X~ X~ X~ X~ X~ X~ X~ X~ X~ E) E) &) &) &) &) &) E) 5{ 5{ 5{ 5{ 5{ %{ %{ 5{ %{ n~ n~ n~ %{ 5{ %{ %{ %{ %{ %{ %{ %{ 5{ 5{ 5{ 5{ 5{ 5{ 5{ 5{ 5{ 5{ 5{ 5{ 5{ 5{ %( %( 5{ 5{ 5{ 5{ 5{ 5{ 5{ 5{ 5{ 5{ 5{ 5{ 5{ 5{ 5{ 5{ b{ X~ U! ]] X~ X~ U! b' &( *( =( -( ;( >( ,( '( )( !( ~( {( ]( ^( W/ _  X/ i  X/ /( /( <  ((                                                                                                       ",
"                                                                                                               C/ g  g  g  6  6  !$ =$ k^ C$ }@ _( y# :( <( X~ X~ }{ X~ F) F) =) F) F) F) F) F) F) F) F) F) X~ X~ X~ X~ X~ X~ X~ X~ X~ X~ X~ E) E) E) E) E) E) E) E) %{ %{ 5{ 5{ %{ 5{ %{ %{ %{ %{ 5{ 5{ 5{ 5{ 5{ 5{ 5{ 5{ 5{ 5{ 5{ 5{ 5{ 5{ 5{ 5{ 5{ 5{ X~ X~ X~ 5{ 5{ 5{ 5{ 5{ 5{ 5{ 5{ 5{ X~ X~ X~ X~ X~ X~ X~ ]] ]] ]] |{ |{ Y^ [(  { L{ X~ E) }( |( 1( @- 2( 3( 4( 5( 6( 7( 8( 9( 0( a( b( a/ l> l> c( d( i  X/ y/ e(                                                                                                       ",
"                                                                                                               f( l  4  l  l  6  4  6. g( h( g/ i( j( k( l( 6{ @( @( F) F) F) *) F) F) F) F) F) F) F) F) F) X~ X~ X~ X~ X~ X~ X~ 2{ E) E) E) X~ X~ X~ X~ 1{ E) &) &) E) %{ 5{ 8{ 5{ 5{ 5{ 5{ 5{ 5{ %{ %{ 5{ 5{ 5{ 5{ 5{ 5{ 5{ %{ ]] ]] ]] ]] ]] U! U! E) E) E) E) E) E) E) %{ %{ X~ X~ X~ X~ X~ X~ X~ X~ X~ X~ 2{ |{ |{ |{ |{ m( n( n( Y^ X~ X~ F) o( -) p( s- q( r( s( t( u( v( @/ w( x( y( z( }  i  l> c( i  i  X/ A( B(                                                                                                       ",
"                                                                                                C( D( C# H^ E( F( l  =$ !$ !$ =$ =$ a$ G( H( f@ j( j( :( I( J( }{ b~ F) F) F) =) =) =) =) *) =) =) =) =) X~ X~ X~ E) =) =) =) -) G) G) G) 0' E) X~ X~ 1{ K(  { <) V! <) ]] 6{ 6{ 5{ 5{ 5{ 5{ H/ H/ ]] %{ 5{ 5{ 5{ 5{ 5{ 5{ 5{ ]] Z^ Z^ Z^ Z^ Z^ Z^ Z^ &) &) &) &) Z^ Z^ Z^ <) E) E) E) E) E) E) E) E) L( L( M( M( Z^  {  {  { N( N( [( [(  { E) =) o( -) }( 4- 8- 2( O( P( Q( R( S( T( U( V( W( X( Y( :  :  :  :  y/ y/ Z( `( g%  _ |> ._                                                                                        ",
"                                                                                                +_ 3  9  {  @_ 3  ]$ #_ $_ $_ ;% %_ &_ *_ -% f@ =_ y# -_ ;_ >_ X~ L{ b~ b~ F) =) M( M( M( M( M( L( 2{ 2{ L{ L{ L{ ]] 2{ M( -) ,_ '_ '_ '_ )_ *) =) =) 2{ !_ M( G) I/ 0' Z^ K( K( ]] ]] ]] |{ |{ |{  {  { L{ L{ L{ L{ |{ |{ |{  {  {  { M( M(  {  { M( M( M( M( M( M( M( M(  {  { 2{ 2{ 2{ M( }( }( }( G) G) G) G) G) G) G) G) G) M( ~_ {_ ]_ )_ ^_ /_ (_ v- __ Z= :_ <_ [_ }_ |_ 1_ 2_ 3_ 4_ 5_ 6_ 7_ 8_ 9_ 0_ a_ b_ {  <  }  }  }  t> E^                                                                                        ",
"                                                                                                f> |  |  |  |  ^  c_ d_ e_ M# Q@ b; a; h@ B@ f_ S^ g_ y# h_ i_ j_ j_ k_ l_ m_ n_ o_ o_ o_ o_ o_ p_ q_ r_ s_ s_ r_ t_ u_ v_ 8& 8& 8& 8& 8& w_ %# %# %# x_ y_ z_ z_ A_ s_ A_ p_ B_ B_ s_ s_ C_ C_ r_ y_ y_ t_ D_ D_ t_ t_ t_ t_ t_ t_ t_ u_ u_ t_ u_ u_ 8& E_ E_ E_ E_ E_ u_ u_ u_ u_ u_ u_ u_ u_ u_ u_ F_ F_ F_ F_ u_ u_ u_ x_ G_ G_ r_ y_ H_ I_ q_ J_ K_ p_ L_ M_ N_ O_ P_ Q_ R_ S_ T_ U_ V_ W_ X_ Y_ Z_ `_  : .: +: Y( (  p  3  _  _  @:                                                                                        ",
"                                                                                                #: 3  |  |  |  |  $: %: x# &: =_ S^ b] *: b] *: *: =: *: *: &: f@ S@ R@ c# a# J# [@ [@ [@ |@ 1@ a# a# c# 1@ 1@ J# Q@ R; g@ T@ [@ [@ [@ [@ [@ |@ 1@ 1@ 1@ c# 1@ ]; M+ M+ M+ M+ M+ M+ M+ M+ M+ M+ M+ *@ &@ -: -: -: *@ M+ M+ M+ M+ *@ -: -: *@ [@ [@ [@ Q@ J# J# 1@ 1@ 1@ 1@ 1@ Q@ [@ [@ [@ [@ [@ M+ M+ 0# o# o# o# o# o# o# o# ;: >: ,: ': ': R. ): ): /# /# R. R. R. !: ~: {: ]: ^: /: (: _: /# /# :: <: [: }: |: l$ 1: 8  3  3  e  e  2:                                                                                        ",
"                                                                                                1> 3  |  |  o  |  3: 4: 5: 6: }@ b] b] *: *: *: *: *: *: *: 6: 5: f@ c# 7: 8: c# [@ A@ A@ [@ Q@ 1@ J# 1@ J# J# 9: 9: 0: Q@ [@ [@ [@ A@ a: A@ Q@ J# Q@ 1@ Q@ 1@ *@ M+ M+ M+ p+ p+ p+ p+ p+ p+ q+ p+ p+ M+ *@ *@ *@ M+ M+ M+ M+ p+ M+ *@ *@ M+ A@ [@ [@ 1@ 9: 9: J# J# 1@ Q@ Q@ [@ [@ [@ [@ [@ [@ [@ [@ 0# x# o# o# o# o# o# o# o# o# ,: P= ,: ,: ): ): R. R. R. R. R. b: b: b: i@ i@ c: E_ E_ b: R. b: R. d: e: |: f: g: 6. e  f  6  e  h:                                                                                        ",
"                                                                                                2> |  |  |  o  |  i: j: R@ y# S^ *: *: *: *: *: *: *: *: b] 5: 5: f@ f@ r# r# f@ f@ R@ R@ f@ c# 1@ J# 1@ J# J# J# J# 1@ [@ [@ Q@ g@ ^^ A@ [@ J# J# 1@ 1@ 1@ 1@ M# *@ M+ M+ p+ p+ M+ M+ M+ M+ p+ p+ p+ p+ M+ M+ M+ M+ M+ M+ M+ p+ p+ *@ *@ M+ M+ 1@ 1@ J# J# J# 1@ 1@ f@ f@ c# Q@ [@ [@ [@ f@ |@ |@ |@ o# o# o# o# o# o# o# o# n# k: k= P= P= P= l: ): R. R. R. R. R. R. R. b: b: :: :: :: E_ b: b: b: R. m: e: |: f: g: 8  6  f  6  3  n:                                                                                        ",
"                                                                                                !^ 3  |  j  o  j  o: W_ |@ S@ ,! p: p: ,! c] a] a] a] B@ g@ c# a# J# J# J# J# J# G# G# G# H# H# H# H# H# j: j: j: j: H# N# w# q: r: r: r: r: F# F# X_ X_ s: t: s: u: s: v: w: w: x: x: w: w: w: y: z: z: z: z: z: z: A: A: A: B: B: u: s: C: s: s: D: r: r: r: r: I# w# G# G# G# I# I# I# I# I# G# ^/ G# E: E: G# ^/ F: &@ &@ F: &= F: Q; Q; G: G: H: H: H: H: H: H: H: H: I: H: H: H: H: I: I: H: J: K: L: M: N: O: 7$ p  6  f  6  3  P:                                                                                        ",
"                              Q: R: S:                                                       T: E> 3  |  3  f  f  U: V: W: X: Y: Z: `: Z: 0] U] U] U] U] U]  < .< +< @< W% #< $< %< #< %< #< &< %< &< $< *< *< *< *< =< =< =< =< -< -< -< -< -< ;< -< ;< >< >< >< ;< ;< ;< ;< ;< ;< ;< ;< ,< '< )< -< -< -< -< -< -< -< -< )< )< '< '< )< )< )< )< )< )< -< -< -< !< ~< ~< ~< Z% {< {< {< {< ]< Z% ~< {< ^< ^< ^< Z% ]< ~< /< /< /< (< _< _< _< V: '< :< << << << << << << << [< }< }< |: |< |< [< << 1< 2< 1< 3< 4< 9  p  8  f  4  3  5<                                                                                        ",
"                              #  6< +_ 7< 7< `/ 8< 9< 0< a< a< b< c< c< c< c< d< e< e< e< =] f< 3  3  3  5  f  f  !$ g< h< i< i< j< k< i< l< g( g( g( g( m< j< k< l< k< k< n< G( G( G( G( G( F% F% G( n< G( G( G( G( @) @) @) >$ F% F% A; t] t] O; t] O; O; O; O; O; O; O; O; O; O; O; O; O; t] t] t] t] O; A; N= O; O; O; O; O; A; G( G( G( G( G( n< G( F% F% A; A; O; O; d@ d@ N= N= N= N= N= N= N= N= ;$ ;$ ;$ A; ;$ ;$ ;$ N= N= A; A; N= A; G( G( F% F% F% F% o< o< o< >$ o< ;$ A; F% G( G( g( g( g( m< g( p< x  p  f  4  f  f  3  q< r< w> E> d^ s< t< u< v< w< u< u< x< y< z< b> b> #: d> d> e> f> 2> A<                   ",
"                              H^ |  |  3  c  g  6  6  7  6  6  6  6  6  x> x> x> y  y  6  e  e  l  e  8  8  4  4  i^ g  e  l  !$ 6. 6. {$ 6. 6. 6. 6. 6. 9  :  9  p  e  l  4  e  4  4  4  6  4  e  l  x> c  c  g  g  g  c  e  e  e  g  e  g  g  e  g  g  c  c  c  c  c  e  e  c  g  g  g  g  g  g  g  g  g  g  g  g  g  g  g  g  e  l  g  g  g  l  g  6  6  6  6  6  6  4  4  4  6  6  6  6  6  6  c$ 6  6  6  6  6  6  6  6  4  4  4  4  4  4  4  4  4  4  4  4  e  e  e  c  c  e  e  e  e  c  e  e  l  !$ 6$ 6$ 3  4  f  3  f  f  |  3  ^  ]  3  g  g  o  g  l  6  6  6  6  e  f  f  f  f  f  f  f  3  e> B<                   ",
"                              C< ]  |  3  e  c  o  6  6  4  4  6  6  g  g  g  x> 6  6  6  o  6  6  6  6  8  4  6  g  g  3  3  !$ g  l  6$ !$ 6. 6. 6. 6. p  p  _  ]  3  3  3  3  5  f  4  4  f  f  4  4  f  4  4  6  6  4  f  f  4  6  6  6  f  4  6  6  4  4  f  3  3  3  ]  e  g  g  g  g  g  g  g  c  c  g  g  g  g  g  g  g  l  g  g  c  3  3  c  l  6  6  6  4  4  f  m  4  6  6  6  6  6  6  6  6  6  6  6  6  6  6  6  6  4  f  f  f  f  f  f  f  f  f  f  f  f  f  f  f  f  f  f  f  f  f  f  3  e  B> D< 3  6  4  c  4  |  o  |  2  |  |  o  j  j  e  j  4  4  4  4  j  f  f  f  f  f  f  f  f  d> E<                   ",
"                              F< 3  1  c  f  t> e  f  4  f  f  4  4  f  f  f  4  6  6  6  6  6  6  6  6  l  4  e  6  e  e  4  !$ !$ !$ 6$ 6. 6. 6. 7$ 7$ 8  8  8  e  3  z> 3  3  5  f  f  4  f  3  f  4  4  6  6  6  6  6  4  4  f  4  4  6  4  6  6  6  4  f  f  3  3  3  3  3  b  b  e  e  c  g  g  e  e  y  l  g  !$ !$ !$ !$ g  g  g  g  l  e  g  l  6  6  6  4  4  4  f  4  6  6  6  6  6  6  6  6  6  6  6  6  6  6  6  6  6  6  6  4  f  f  f  f  f  f  3  f  f  3  3  ]  3  f  e  4  e  3  3  3  3  3  e  f  4  4  e  4  f  f  f  |  5  f  f  f  f  f  |  f  |  f  f  f  3  R$ f  4  4  5  f  3  ,] @>                   ",
"                              G< o  b  e  4  e  l  6  e  f  f  f  f  f  f  f  f  4  4  4  4  4  4  4  4  o  f  R$ R$ p  9  p  8  6. 6. 7$ 6$ H< 6. 6. 6. 6. 6. 6. _  ]  A> 3  f  3  3  3  3  3  3  3  3  e  e  e  e  e  4  4  f  f  f  4  6  6  6  6  6  4  4  4  4  4  4  l  e  3  3  3  3  3  e  e  3  z> l  6. 6$ 7$ 6. 0> 9  4  g  I< !$ g  c  e  6  6  6  6  6  6  6  4  6  6  6  8  6  6  6  6  6  0> c$ 8  6  4  6  4  4  6  4  4  p  p  f  f  f  f  f  3  f  5  3  3  ]  3  3  g  l  e  3  3  3  3  3  3  f  f  3  3  f  f  3  3  f  3  3  3  f  f  3  f  f  3  f  3  e  e  l  6  4  e  ]  3  3  ,] @>                   ",
"                              J< o  j  f  c$ 6  g  7  6  c  c  o  o  c  c  c  c  c  c  c  c  c  c  c  4  c$ 4  G  K< t> _  L< R$ 8  9  :  9  9  L< s% p  _  _  3  ]  ^  ^  3  5  ]  ]  ]  ]  5  ]  5  ]  ]  ]  ]  ^  2  2  2  d  ]  ]  ]  ]  5  5  5  5  ]  ]  3  3  ]  ]  ]  ]  A> /  ]  ^  ]  ]  ]  A> z; 3  1  M< N< R$ p  8  8  7$ 6$ l  e  f  3  3  3  3  f  3  3  3  ]  ]  ]  ]  3  3  3  3  3  3  3  3  3  3  e  3  3  ]  ]  ]  ^  ]  ]  ]  ]  ]  ]  ]  ]  ]  ^  ^  A> ]  ]  ]  3  3  ]  ]  ]  ^  A  J+ ]  ]  ]  ]  ]  ]  ]  ]  ]  ^  A  A  A  ]  k  /  3  3  3  3  ]  ]  B> M< e  3  6  f  3  3  ,] @>                   ",
"                              O< j  f  f  4  4  x> P< Q< R< R< S< f% T< T< T< T< Q< Q< Q< Q< U< U< V< h, >$ Y( Q  Q  Q  Q  Q  Q  d  0> ;. 6. 6. L< Q  Q  W< q. Q  Q  Q  Q  Q  q. q. Q  Q  Q  Q  Q  Q  Q  Q  Q  Q  Q  Q  Q  Q  Q  Q  Q  Q  Q  2+ 2+ q. 2+ W< W< W< W< X< Y< Z< Z< Z< `<  [ .[ +[ @[ #[ $[ %[ &[ *[ =[ -[ ;[ 9, >[ ,[ '[ )[ ![ ~[ {[ ][ `< Z< Y< Y< Y< Y< Y< Y< Y< X< W< W< W< X< X< Y< Y< Y< X< Y< Y< X< W< 2+ 2+ q. q. q. Q  Q  Q  Q  Q  Q  Q  Q  Q  Q  Q  Q  Q  Q  Q  Q  Q  Q  Q  Q  Q  Q  Q  Q  Q  Q  Q  Q  Q  Q  Q  Q  Q  Q  Q  Q  Q  Q  q. q. 2+ X< Y< ^[ /[ ([ _[ :[ 3  e  f  ]  3  ,] @>                   ",
"                              1% |  |  3  4  f  p< <[ [[ '; }[ |[ 1[ 2[ 2[ 3[ 4[ 5[ 5[ 5[ 5[ 6[ K] K] 7[ L] 8[ 9[ 0[ a[ b[ c[ d[ e[ f[ g[ h[ g[ i[ j[ k[ l[ m[ n[ o[ p[ q[ n[ o[ o[ o[ r[ s[ t[ u[ u[ v[ o[ o[ o[ s[ r[ r[ r[ r[ r[ r[ r[ w[ w[ w[ x[ y[ y[ z[ A[ B[ C[ D[ D[ E[ F[ G[ H[ I[ J[ K[ L[ M[ N[ O[ P[ Q[ R[ S[ T[ 5[ 5[ U[ V[ W[ X[ Y[ Z[ `[ `[  } .} +} +} +} @} #} $} $} %} %} &} *} =} -} -} ;} &} ;} >} ,} '} )} !} !} ~} {} ]} ~} ~} ^} /} (} (} _} _} _} :} <} [} }} |} |} }} 1} 1} 1} 1} 2} 3} 3} 4} 5} 6} 7} 7} 7} 8} 9} 0} a} [} b} _} !} !} c} d} %} +} e} f} g} h} E  ]  f  w@ 3  ,] @>                   ",
"                              1% 3  o  3  f  e  R< i} j} N( N( ;) ;) ;) ]_ ]_ ]_ ]_ ]_ ]_ ]_ ]_ ]_ ]_ c' k} l} m} n} P' H' o} p} q} r} s} t} t} u} v} w} x} y} 9! z} A} B} C} D} E} C} F} G} H} H} H} G} F} F} F} H} H} H} H} H} E} E} E} C} C} E} E} F] z} B} B} B} B} I} I} B} B} J} J} B} J} J} J} K} L} M} N} O} P} Q} R} S} T} U} V} W} X} Y} Z} `}  |  |  |  |  | .| .| .| +| +| @| @| @| #| $| @| @| @| %| @| &| @| *| @| *| $| =| =| -| -| ;| >| ,| '| >| )| )| ,| !| ;| ~| -| =| =| =| {| ]| {| {| ]| ]| =| Z& ^| ^| /| /| (| {| _| {| {| !| #| :| #| #| .| <| [| }| L} || 1| 2| J% |  o  e  |  #: @>                   ",
"                              1% |  g  3  3  5  3| 4| 5| Z^ G) G) G) '_ '_ '_ '_ '_ '_ '_ '_ '_ '_ '_ |( &( 6| 7| B' 8| 9| k) 0| a| b| c| +- d| e| f| || g| h| i| j| k| k| l| m| n| n| o| g] p| g] p| q| g] g] g] g] g] g] g] r| r| r| r| r| r| r| r| o| n| n| n| n| n| n| n| :] s| s| s| s| s| s| ,* !* j* j* t| u| v| w| x| y| z| A| B| C| D| E| T& k* F| G| H| H| H| I| J| K| K| K| K| K| K| h* K| L| M| i* i* i* i* i* i* i* N| f* d* O| d* d* b* b* d* P| P| Q| Q| Q| g* P| R| f* S| f* S| d* e* S| S| S| S| K| O| f* S| L| L| T| K| U| K| i* M' J| V| I| j* H& J& X& W| ,* H| X| Y| X< ^  4  j  |  #: @>                   ",
"                              1% |  g  5  R$ f  U< Z| n( Z^ G) G) c' '_ '_ '_ '_ '_ '_ '_ '_ '_ '_ '_ c| `|  1 .1 +1 8) @1 l) #1 $1 %1 &1 +- *1 =1 -1 ;1 >1 `) ,1 '1 )1 k| l| n| !1 !1 !1 ~1 {1 r| {1 ]1 ^1 r| r| r| r| r| ^1 ^1 n| o| /1 /1 o| o| o| l| m| m| m| m| _* (1 (1 (1 _1 _1 _1 _1 :1 s| s| ,* <1 k* [1 }1 |1 11 x| .-  - 21 31 41 <| O& !* S& T& S& T& T& H& I& I& V| N& N& 51 N& N& 61 51 51 i* i* M| M| M| j* 71 i* N| i* f* f* f* f* f* 81 81 81 91 81 81 91 81 01 81 f* 71 71 i* i* f* M| M| M| M| i* N| N| K| h* a1 i* b1 i* b1 E| c1 U& H& J& T& T& O& R& d1 {* e1 f1 g1 J% ^  ]  A  |  ,] h1                   ",
"                              1% |  3  f  k  f  3| N] i1 j1 }( '_ k1 v- ,_ l1 |( '_ '_ '_ '_ '_ '_ '_ '_ m1 n1 o1 ^! p1 q1 r1 s1 t1 u1 v1 r, w1 x1 y1 z1 A1 B1 C1 D1 E1 E1 F1 R' K' E' E' E' K' K' K' L' L' J' h] R' Q' h] <] G1 g{ g{ g{ X{ A' A' H1 M& H1 H1 H1 _] _] H1 M& _] H' c1 c1 c1 c1 c1 k* H| I1 J1 K1 u| L1 M1 R}  - __ 2( N1 O1 P1 c* f* T| T| Q1 R1 R1 S1 F] B} B} B} B} B} B} J} K} K} J} J} J} a* J} K} T1 K} K} U1 K} K} K} U1 K} V1 W1 U1 L} X1 W1 L} W1 L} Y1 Y1 U1 U1 U1 U1 U1 L} U1 U1 U1 U1 U1 U1 U1 U1 U1 U1 U1 Z1 K} a* J} B} K} `1  2  2 .2 +2 L| f* i* c* @2 #2 2+ 1  ^  q. 2  d> $2                   ",
"                              1% |  f  f  {- 3  p< N] %2 ;) o( '_ &2 v- k1 c| '_ '_ '_ '_ '_ '_ '_ '_ '_ *2 =2 -2 s1 ;2 >2 ,2 '2 )2 !2 v1 +- b' ~2 {2 ]2 z, ^2 /2 (2 _2 :2 <2 y, [2 [2 [2 [2 [2 [2 }2 |2 12 12 12 12 12 22 22 32 42 42 52 52 (2 (2 62 72 i] i] 82 72 92 02 a2 b2 c2 d2 e2 f2 f2 f2 g2 h2 i2 j2 k2 l2 m2 n2 `| x- p( o2 p2 q2 r2 s2 t2 u2 v2 w2 w2 H] x2 y2 x2 y2 z2 z2 A2 A2 A2 A2 B2 C2 D2 B2 A2 A2 E2 C* D* A2 D* D* A2 F2 F2 G2 F2 E* E* H2 I2 I2 I2 H2 I2 D2 J2 J2 J2 K2 K2 D* D* K2 K2 D* D* K2 K2 K2 K2 F2 F2 A2 A2 L2 L2 L2 z2 F2 M2 N2 O2 P2 Q2 R2 v2 S2 t2 T2 U2 A  |  |  Q  Q  n> V2                   ",
"                              D# |  f  f  {- e  3| W2 X2 Y2 Z2 `2  3 `2 .3 `2 '_ '_ '_ '_ '_ '_ '_ '_ '_ '_ ){ +3 @3 #3 $3 %3 &3 *3 =3 M( '_ )_ -3 ;3 >3 ,3 '3 )3 !3 ~3 {3 ]3 ]3 ^3 ^3 /3 /3 (3 (3 (3 (3 _3 _3 _3 _3 :3 <3 [3 [3 }3 |3 |3 13 23 33 43 4= 53 63 '3 73 83 93 03 a3 b3 c3 d3 e3 f3 g3 h3 i3 j3 k3 l3 m3 n3 o3 p3 q3  - `= r3 s3 t3 u3 v3 v3 w3 x3 y3 z3 z3 A3 B3 C3 D3 E3 F3 G3 H3 I3 J3 J3 K3 J3 L3 L3 M3 M3 M3 G3 G3 G3 G3 N3 O3 N3 P3 Q3 R3 S3 T3 T3 T3 T3 T3 J3 J3 U3 U3 U3 V3 V3 W3 W3 W3 H3 H3 X3 X3 X3 X3 Y3 Z3 `3 Z3 Y3  4 Y3 Y3 X3 X3 Y3 Y3 .4 +4 @4 #4 +4 $4 %4 &4 ]  |  ^  5  Q  *4 =4                   ",
"                              -4 |  f  f  {- f  ;4 >4 ,4 '4 )4 9: !4 ~4 {4 `2 v- 9- '_ '_ '_ '_ '_ '_ '_ x- o2 ]4 ^4 /4 (4 _4 :4 <4 '_ k1 ,_ ,_ [4 }4 [) |4 |4 14 &( 24 24 34 44 -3 -3 -3 -3 54 54 64 64 74 74 74 r^ 74 74 r^ 14 84 94 04 04 94 a4 a4 |4 b4 c4 c4 >) >) >) |4 >) b4 b4 d4 d4 d4  /  / e4 f4 g4 g4 h4 i4 A| +- q3 u-  - .- A| k} /4 j4 (4 /4 /4 k} `| &( k4 k4 44 -3 -3 -3 l4 _4 _4 ^4 j4 j4 j4 ^4 _4 m4 m4 m4 m4 -3 -3 -3 54 54 ^4 -3 -3 54 n4 -3 n4 l4 ]4 n4 34 34 34 o4 /4 34 /4 /4 o4 `| `| p4 q4 q4 q4 q4 q4 r4 p4 r4 p4 s4 s4 q4 `| p4 p4 t4 u4 u4 u4 o4 v4 w4 x4 y4 1  ^  6& ^  Q  *4 z4                   ",
"                              A4 |  |  d  {- e  '$ L- B4 C4 D4 D! E4  > 3@ F4 9- 9- 9- '_ '_ '_ '_ '_ '_ p( 8- v-  - 8-  - ^_ G4 H4 |( u- p( ^_ F) F) }( F) F) F) =) ^_ ^_ ^_ ^_ ,_ '_ H4 )_ H4 -) }( }( *) G) G) *) *) )_ H4 '_ '_ '_ '_ '_ '_ '_ '_ '_ G) G) c' c' a' a' a' a' b' G) I4 I4 I4 J4 K4 L4 r, c| 2( +- +- +- +-  - v- v- v- v- v- v- 9- 9- 9- 9- u- +- +- u- v- 9- u- u- 9- 9- 9- q( M4 y- y- y-  - N4  -  - O4 u- u- u- u- 9- p( u- p( p( u- u- 9- u- q( q( 9- 9- 9- 9- 9- 9- 9- 9- &1 &1 &1 q3 &1 P4 P4 P4 P4 P4 P4 P4 X2 Q4 P4 Q4 R4 Q4 Q4 Q4 Q4 S4 S4 T4 S} c| U4 V4 W4 b  Q  Q  Q  Q  e> X4                   ",
"                              Y4 |  2  Q  {- 3  >$ Z4 `4 E4  5 D! D! D! .5 R4 9- 9- 9- 9- 9- 9- 9- 9- 9- 7- /_ &2 +5 4- 6- G4 G4 @5 H4 [4 '_ '_ -) M( !_ 2{ #5 $5 G4 G4 ^_ ^_ H4 p( '_ ^_ ,_ ^_ G4 G4 ^_ H4 '_ p( )_ H4 H4 '_ '_ '_ '_ '_ '_ '_ '_ '_ '_ )_ '_ )_ c| |( |( )_ )_ |( a' J4 I4 %5 s, =3 o2 c| v1 &5 R4 q3 9-  - `= 8- 9- v- (_ (_ v- 2( q3 9- 9- 9- 9- 9- 9- 9- u-  -  -  - u- q( y- *5 *5 *5 =5 z| z| z| z|  - u- p( p( u- 9- v- v- v- 9- 9- u- 9- q( 9-  - 9- 9- 9- 9- 9- 9- 9- `2 `2 `2 `2 `2 9- 9- q3 P4 P4 P4 P4 P4 P4 2( P4 2( -5 Q4 Q4 ;5 ;5 P4 P4 P4 P4 l1 >5 r4 ,5 c  ^  ^  1  Q  '5 )5                   ",
"                              Y4 |  Q  Q  x& |  >$ !5 ~5 {5 ]5 D! D! ]5 ^5 /5 __ 9- 9- 9- 9- 9- 9- 9- 9- 6- 8- p( (5 _5 +5 :5 /_ ^_ '_ <5 <5 v- u- )_ ^_ G4 /_ (_ (_ (_ (- [5 M4 k@ k@ }5 }5 &# &# &# M4 |5 |5 k@ k@ *# *5 k@ j@ 15 15 15 l@ l@ j@ j@ j@ =5 `2 `2 `2 =5 25 `2 `2 `2 `2 z| &1 q3 o2 2( 2( +- 2( 35 -5 8- q( z| 45 q( `2 z| q( z| 55 F4 `2 k@ k@ k@ k@ k@ k@ j@ *5 U= U= U= |5 65 65 65 )@ )@ 75 )@ 65 65 *# *# k@ k@ k@ k@ k@ &# k@ k@ k@ k@ *# k@ *# l@ 85 l@ )@ ;@ )@ ;@ )@ ;@ )@ D@ )@ l@ l@ l@ l@ l@ 95 95 05 95 15 a5 b5 b5 c5 15 -@ -@ 95 95 -@ 95 15 }5 d5 e5 f5 g5 y  |  Q  A  Q  h5 i5                   ",
"                              j5 |  Q  Q  x& |  >$ #$ {5 k5 l5 m5 V~ n5 l: l_ l_ o5 p5 p5 q5 p5 m_ o5 o5 m_ r5 s5 t5 t5 j_ u5 v5 o5 p5 w5 x5 A_ y5 z5 A5 x_ x_ B5 2@ /# C5 %* %* ': ': D5 D5 D5 ': ': D5 E5 E: E: E: L# L# D5 D5 b# b# L# b# &@ &@ &@ &@ D5 E: !4 E: ~4 E: -= ~4 !: ]/ F5 K: K: H: G5 _: H5 I5 J5 K5 x_ r_ p_ q5 q5 L5 x5 x5 x5 I_ q_ r_ M5 B5 N5 2@ :: C@ C@ C@ :: R. R. R. R. R. ,: O5 O5 ;: P5 P= Q5 Q5 R5 !: b: m: b: /# R. !: !: R. R. ,: ': ': ,: ,: ,: ,: ,: ,: ,: ,: ,: ,: ,: ]/ S5 S5 ': ': ,: ,: ,: &= &= -: &= &@ &@ &@ &@ -: ]; b# b# 1@ 1@ 1@ 0: J# r: 2< 3: j  2  x& Q  Q  T5 U5                   ",
"                              V5 2  x& Q  x& |  ;$ O= W5 m5 X5 Y5 Z5 `5 I{ `5 C; C; C; B@ B@ B@ B@ f@ f@ [@ |@ |@ M+ M+ M+ ]; -: b# &@ &@ &@ &@ -: &@ L# ]; o# M+ b# J# 1@ 1@ c# 1@ a# a# s# s# R; R; s# a; )4 a; s# a# a# a# J# c# a# a# a# z# a# a# c# J# a# s# s# s# s# s# s# J# J# J# J# J# 9: 9: J# E: E: &@ &@ &@ &= ]/ ,: P= %* ): l: l: P= ,: P= >+ >+ M+ M+ M+ M+ o#  6 o# o# o# o# o# 0# [@ |@ f@ f@ f@ f@ f@ x# o# .6 b# b# ]; o# o# o# o# o# o# n# n# o# o# o# o# o# ]; ]; ]; ]; o# n# o# -: -: &@ -: -: -: -: -: &@ M# &@ *@ [@ [@ |@ 0# |@ 0# 0# 1@ &@ 1@ |@ g@ T@ +6 @6 #6 |  Q  2  |  Q  $6 %6                   ",
"                              &6 Q  x& Q  2  |  -$ ]# *6 I; =6 -6 I; G; C! C; C; B@ C; S^ T^ S^ R@ f@ f@ o# n# o# n# o# n# o# o# ]; ]; ]; ]; ]; ]; ]; o# o# o# |@ c# c# c# f@ c# a# a; s# s# s# s# s# s# a; s# ;6 s# a# c# a# |@ c# c# c# c# c# c# B@ c# J# J# J# J# J# J# J# J# J# J# J# J# J# J# J# &@ &@ &@ &@ &@ ]/ ]/ ]/ ,: P= l: l: l: l: P= P= P= >+ >6 >6 M+ M+ M+ o# o# o# o# o# o# |@ [@ [@ [@ [@ [@ [@ [@ f@ ]; o# o# ]; ]; o# o# o# o# o# o# o# o# n# o# f@ ]; ]; o# o# ]; ]; ]; o# n# o# o# ]; ]; ]; ]; ]; ]; ]; ]; ]; *@ p+ M+ M+ |@ |@ a: [@ M+ [@ |@ Q@ |@ S@ ,6 Q@ '6 )6 |  q. |  1  ^  $6 !6                   ",
"                              s. Q  Q  q. q. 2  =$ ~6 {6 A! =6 F; ]6 G; C! ,! R^ ,! R^ h/ T^ R@ f@ f@ f@ f@ M- o# n# o# n# o# n# n# n# n# n# n# n# n# n# f@ f@ ^6 ^6 r# c# f@ c# ^; a; a; a; b; b; b; )4 a; s# ;6 s# a# c# 0: Q@ J# J# J# J# J# J# J# J# 9: 9: 9: s# s# +6 9: 9: J# J# J# J# J# J# J# G# &@ &@ &@ &@ F: ]/ ]/ S5 P= P= P= ): ): P= ,: P= P= m# o# o# o# o# o# *@ *@ *@ *@ |@ [@ e@ |@ [@ [@ [@ [@ g@ f@ ]; ]; ]; b# b# ]; o# o# o# o# o# o# b# b# ]; f@ |@ ]; ]; o# ]; b# b# ]; o# ]; b# b# b# b# b# b# b# b# ]; n# 0# o# *@ *@ [@ [@ M- R@ R@ Q@ [@ Q@ /6 (6 _6 :6 <6 [6 |  q. 2  2  Q  }6 T~                   ",
"                              @@ Q  Q  q. q. A  l  |6 16 26 36 46 56 66 76 86 86 +6 w# w# G# ^/ q: q: q: ^/ F: 96 96 96 96 96 96 6+ 6+ 6+ 6+ 06 06 06 e_ a6 b6 c6 c6 d6 e6 f6 f6 g6 %: %: %: h6 h6 h6 h6 i6 i6 W_ j6 i6 k6 f6 W_ l6 l6 l6 d_ i6 l6 f6 f6 d_ l6 l6 f6 f6 m6 n6 n6 n6 n6 n6 n6 n6 n6 n6 o6 p6 p6 p6 p6 p6 q6 q6 r6 H: J: J: H: H: J: s6 Y_ ~4 ~4 Y_ t6 u6 v6 w6 u6 x6 s: s: x6 x6 x6 s: v6 v6 v6 !4 d6 d6 !4 v6 v6 a6 a6 v6 v6 v6 a6 a6 a6 a6 y6 b6 z6 N# ^/ q: q: a6 b6 b6 z6 q: ^/ z6 a6 a6 a6 a6 a6 a6 a6 a6 v6 Q; v6 u6 u6 u6 96 96 ~4 Q; q: z6 s: A6 B6 C6 D6 E6 F6 G6 2  q. Q  2  Q  H6 =                    ",
"                              O. n  {  f, I6 J6 K6 L6 M6 N6 O6 P6 Q6 T# R6 R6 S6 T6 R6 U6 T6 T# T# T# T# T# T6 T# T# V6 V6 W6 W6 V6 X6 Y6 Z6 `6  7 .7 +7 @7 #7 L^ $7 %7 &7 *7 =7 -7 7_ 7_ ;7 >7 >7 >7 ,7 '7 )7 )7 !7 !7 ~7 {7 ]7 ~7 ~7 ~7 ~7 ~7 ^7 /7 (7 _7 :7 :7 :7 <7 [7 [7 =7 =7 =7 =7 *7 }7 }7 }7 )% %7 %7 %7 |7 17 17 17 27 27 27 37 47 47 47 47 57 57 67 %7 %7 %7 77 77 77 #_ 87 87 87 87 87 #_ 77 97 97 77 97 97 97 57 57 57 97 77 77 77 &7 &7 &7 %7 %7 77 %7 77 67 67 77 &7 %7 &7 67 %% 07 67 L^ L^ L^ L^ 27 27 27 27 27 a7 a7 b7 c7 d7 `6 Z6 Z6 Z6 e7 e7 f7 f7 g7 h7 i7 j7 k7 l7 Q  Q  Q  Q  Q  Q  m7                   ",
"                                                   n7 o  q% q% 7  x> !$ !$ 7  7  ;. ;. >% =$ =$ =+ 6  y  q% q% q% q% q% >% >% >% =$ 7  7  7  =$ =$ =$ =$ 7  7  =$ =$ =$ >% >% x> !$ x> !$ !$ q% q% q% g  c  c  c  c  g  g  g  x> x> x> x> x> x> x> x> x> x> x> x> x> x> x> x> x> q% q% q% q% q% q% x> x> q% q% q% x> q% q% !$ x> q% q% q% q% q% q% q% q% q% q% q% q% q% q% q% 7  7  7  q% 7  7  7  q% >% !$ !$ >% >% =$ =$ =$ =$ =$ =$ =$ ;. ;. ;. =$ 6. >% >% !$ g  6  q% z  q% q% q% x> q% >% 6. !$ !$ !$ !$ !$ !$ >% !$ !$ 7  0> t$ 6. 6. =$ 6. 6. =$ =$ =$ =$ =+ 7  7  4  s% 6  8  o7 p7 q7 r7 s7 t  t7                      ",
"                                                   u7 j  b  j  f  3  3  e  6  g  6  4  8  8  p  8  6. 6. e  e  e  e  e  e  p  9  8  p  p  p  8  8  8  8  8  8  8  6. 6  6  6  l  e  e  e  e  e  e  e  3  3  3  3  3  e  c  e  g  g  g  g  g  g  g  g  g  g  g  g  g  g  g  g  g  g  g  g  g  g  g  g  g  g  g  g  g  g  g  g  g  g  g  g  g  o  o  o  g  g  g  g  6  g  g  g  g  g  g  g  g  g  g  g  g  6$ 6$ l  6. 6  6  6. 6. =$ 6. 6. 6. 8  p  p  _  L< g  g  c  o  o  o  e  e  f  p  !$ 8  p  v7 p  e  e  e  4  e  e  e  p  p  S$ 7$ 9  _  _  3  l  l  !$ !$ x> g  y  j  f  3  d  w7                                        ",
"                                                   ~- |  |  |  f  c  g  g  7  g  4  f  p  p  p  p  p  p  p  m  R$ p  p  8  p  p  p  p  p  p  p  p  p  p  p  p  p  _  e  !$ 6  8  p  _  3  3  3  3  3  3  3  ]  3  3  e  c  e  g  g  g  g  g  g  g  g  g  g  g  g  g  g  g  g  g  g  g  g  g  6$ g  g  6$ 6$ 6$ 6$ g  g  g  6$ g  g  g  g  g  g  g  g  g  g  g  g  g  g  g  g  D< D< g  g  g  6$ !$ !$ 6. 6. 6. 6. 6. 6  6. 6. 6. 6. 6. 6. 6. 6. 6. 6. l  g  g  g  g  g  e  3  k  f  w@ m  8  8  p  R$ p  p  p  f  p  f  f  p  k  p  (  7$ p  8  p  f  6  6  6  g  I< g  g  j  3  3  |  ,%                                        ",
"                                                   j= ^  {- k  d  f  4  4  4  4  k  f  8  l  6. !$ l  c  8  c  f  3  e  8  p  e  p  4  l  p  p  8  8  p  6. 6. 6. 8  l  l  6  8  _  _  p  3  3  3  3  3  3  3  3  3  3  e  g  g  g  g  g  g  g  g  g  g  g  g  g  g  g  g  g  y  6  g  g  g  g  g  g  g  g  g  6$ 6$ g  g  g  g  g  g  g  g  g  g  g  g  g  g  g  g  c  3  3  c  g  g  g  g  g  l  6. 6. !$ 6. !$ 6. 7$ 6. 6$ 8  p  9  9  8  p  p  _  6$ 6$ e  g  e  g  e  3  3  f  R$ p  l  6$ 8  8  3  3  e  l  3  w@ k  3  3  p  t> l  p  l  p  R$ e  4  p  f  j  j  e  f  ]  ^  ^  @@                                        ",
"                                                   j= d  {- {- {- {- f  f  f  f  f  e  l  !$ 6. x> H< !$ l  6$ 3  ]  e  4  5  3  l  6$ 6$ l  4  8  8  9  8  8  8  8  8  8  8  8  9  p  e  3  f  f  3  3  3  3  3  3  3  3  e  c  g  g  g  g  g  g  g  g  g  g  g  g  g  g  g  g  g  l  l  g  D< D< g  6$ 6$ g  g  g  g  g  g  g  g  g  g  g  g  g  g  g  g  g  c  e  e  3  3  e  6  g  g  g  g  l  6  8  9  9  8  8  8  8  8  9  _  _  _  _  _  _  _  9  9  _  _  _  _  _  _  _  R$ k  R$ L< 6$ x  6. e  L< !$ x> c  c  3  i^ z> 3  R$ L< l  e  3  _  x7 x7 k  k  k  k  k  k  ^  ^  ^  V5                                        ",
"                                                   j= Q  Q  Q  Q  Q  Q  Q  Q  Q  Q  g  l  p  p  x> !$ 6. >% H$ =$ !$ >% 4  m  p  6. l  x  =$ =+ 7  =$ =$ =$ =$ =$ =$ =$ =$ =$ =$ ;. 6. !$ !$ !$ x> x> 6  6  6  6  y  g  g  g  x> y7 y7 y7 y7 y7 y7 y7 y7 y7 y7 y7 y7 y7 y7 y7 y7 y7 z7 z7 y7 y7 y7 y7 >% >% >% y7 x> x> q% 7  q% y7 y7 y7 y7 y7 y7 y7 y7 y7 y7 x> x> x> x> g  q% 7  q% x> x> q% !$ =$ !$ !$ !$ !$ 7  7  7  0> 6. !$ !$ =$ =$ =$ =$ =$ 7  7  6  !$ !$ !$ !$ !$ 6$ 6. 6. 6  A7 6$ l  p  k  l  H< H$ B7 G% ,$ C7 H< 8  p  p  x7 _  3  4  Q  Q  Q  Q  Q  Q  Q  Q  Q  Q  Q  V5                                        ",
"                                                   D7 E7 F7 G7 H7 I7 J7 K7 L7 L7 M7 1: e  f  p  l  !$ N7 O7 P7 P7 Q7 R7 =$ _  R$ p  l  ;$ |7 S7 T7 U7 M^ M^ V7 N^ N^ W7 W7 W7 W7 X7 Y7 Y7 Y7 Z7 Z7 `7 17 17 17 17 17 17 17  8  8 Q7 Q7 Q7 Q7 .8 .8 .8 .8 Q7 Q7 Q7 .8 .8 Z7 +8 @8 #8 c7 c7 a7 a7 $8 $8 .7 %8 &8  7  7  7 %8 %8 &8 &8 &8 *8 Z7 =8 -8 -8 -8 -8 ;8 ;8 >8 >8 >8 >8 %8 9_ 9_ 9_ 9_ ,8 ,8 '8 `6 )8 )8 )8 !8 !8 !8 !8 ~8 )8 !8 !8 ,8 ,8  7 Y7  7 &8 %8 %8 =8 -8 -8 -8 a7 d7 `6 {8 ]8 6$ 8  p  v7 p  )$ ^8 /8 (8 _8 :8 <8 !$ m  R$ v7 _  3  [8 }8 |8 |8 18 28 38 48 58 9~ ;! L  8~                                        ",
"                                                                                 68 t% 3  4  6  g  y  78 88 98 98 88 0_ =$ _  w@ x7 _  F% <@ {/ `: 08 a8 b8 c8 b8 c8 d8 e8 e8 C$ f8 f8 f8 f8 g8 g8 g8 /% h8 i8 i8 h( j8 k8 l8 k8 m8 m8 f8 n8 f8 f8 f8 f8 f8 f8 f8 n8 U] U] U] o8 p8 o8 X% q8 X% X% X% X% Z: U] U] U] U] r8 r8 d8 s8 s8 f8 n8 f8 s8 Z: d8 s8 s8 s8 s8 s8 s8 s8 0] X% 0] t8 t8 t8 t8 X% X% r8 r8 r8 r8 U] r8 U] r8 U] U] U] r8 r8 r8 U] r8 r8 Z: Z: U] U] U] U] X% u8 D/ v8 w8 H< !$ 8  p  l  '$ x8 y8 z8 A8 B8 C8 !$ p  (  m  f  5  D8                                                                            ",
"                                                                                 E8 F8 3  f  6  3  o  9% 88 G8 H8 c8 I8 =+ z> _  p  9  >$ L- J8 K8 L8 a8 L8 L8 L8 L8 L8 L8 L8 L8 M8 P$ P$ -% N8 N8 N8 O8 P8 P8 Q8 ]% ]% ]% ]% ]% N8 x$ R8 R8 R8 R8 R8 R8 R8 R8 R8 R8 R8 R8 R8 S8 l^ l^ l^ S8 e8 e8 e8 T8 L8 T8 T8 L8 P$ P$ P$ L8 L8 L8 L8 P$ -% P$ L8 L8 L8 L8 L8 L8 L8 L8 L8 L8 L8 L8 L8 L8 L8 L8 L8 L8 T8 L8 L8 L8 L8 L8 L8 L8 U8 R8 R8 T8 L8 L8 U8 M8 M8 L8 L8 T8 T8 T8 T8 S8 l^ S8 n8 V8 H< 8  p  k  l  ,$ 4+ W8 l^ B$ X8 C8 !$ e  3  f  f  |  Y8                                                                            ",
"                                                                                 Z8 t% |  f  4  f  6  `8 N8 y$ G8 M8 &8 !$ _  p  L< 6$ >$ Z4  9 .9 K8 L8 L8 L8 L8 L8 L8 L8 L8 L8 L8 L8 L8 L8 +% +9 @9 @9 O8 N8 #9 #9 #9 #9 x$ R8 R8 R8 R8 R8 R8 R8 R8 R8 R8 R8 R8 R8 $9 $9 $9 $9 $9 98 98 $9 $9 $9 $9 $9 98 T8 L8 L8 L8 T8 R8 S8 S8 98 98 S8 S8 S8 R8 T8 L8 L8 L8 L8 L8 L8 L8 L8 L8 L8 L8 L8 L8 L8 L8 L8 L8 L8 L8 L8 L8 L8 L8 T8 98 R8 $9 S8 T8 T8 R8 T8 e8 T8 x$ S8 S8 S8 S8 %9 &9 *9 B8 =9 6$ p  v7 /  e  ,$ -9 ;9 >9 B$ ,9 '9 l  R$ k  k  {- 5  g%                                                                            ",
"                                                                                 )9 !9 3  f  f  k  f  ~9 {9 .% .% ]9 ^9 >% 6$ p  t> /9 ,$ (9  9 _9 K8 :9 L8 L8 L8 L8 L8 L8 L8 T8 L8 L8 L8 R8 R8 M8 #9 N8 ]% ]% N8 N8 x$ R8 R8 R8 R8 R8 R8 R8 R8 R8 R8 R8 R8 R8 R8 l^ $9 $9 $9 $9 98 $9 $9 $9 $9 $9 $9 <9 $9 S8 [9 }9 }9 T8 R8 $9 $9 $9 <9 <9 <9 |9 |9 R8 R8 R8 R8 98 98 98 98 98 R8 T8 }9 }9 L8 L8 U8 R8 R8 T8 T8 R8 R8 R8 R8 S8 S8 $9 $9 98 K8 $9 $9 l^ S8 $9  ( l^  ( l^ $9 $9 W$ *9 B8 19 6$ R$ R$ /  _  -$ 29 39  ( A8 49 '9 c  w@ {- 5  ^  d  59                                                                            ",
"                                                                                 69 t% f  p  k  f  6  ~9 {9 79 89 99 09 ;. 8  /  ^$ p  >$ #@ a9 b9 D/ c9  (  (  ( >9  ( r8 0] U]  <  < 0] n8 n8 n8 n8 n8 n8 n8 n8 n8 n8 n8 n8 n8 n8 n8 n8 n8 n8 u8 U] u8 u8 u8 u8 u8 u8 ;9 t# t# t# t# t# d9 u8 u8 U] u8 u8 u8  < U] U] u8 u8 ;9 B$ ;9 ;9 ;9 ;9 >9 ;9 ;9 >9 ;9 B$ ;9 ;9 ;9 ;9 ;9  (  (  (  (  (  ( ;9  ( u8 u8 u8 ;9 ;9 ;9 ;9 u8 u8 ;9 ;9 ;9 d9 ;9 ;9 u8 u8 ;9 u8 u8 u8 u8 ;9  ( e9 r8 f9 G> L< p  x7 w@ z> -$ g9 h9  ( n8 Z% i9 x> 4  f  k  ]  x& j9                                                                            ",
"                                                                                 k9 r% f  p  f  f  7  l9 m9 n9 o9 G8 p9 N= 8  /  /  (  -$ q9 ~6 {> r9 s9 U# U# P6 t9 P6 U# s9 r9 r9 u9 U# U# r9 T6 T6 R6 v9 v9 v9 v9 v9 v9 v9 v9 w9 w9 w9 w9 w9 v9 x9 y9 ,> ,> ,> y9 z9 ~6 ~6 A9 A9 A9 ~6 ~6 ~6 ~6 z9 z9 ,> y9 ,> ,> ,> ,> ,> ,> y9 y9 g9 g9 y9 g9 g9 B9 g9 C9 D9 v9 v9 v9 E9 C9 ,> ,> ,> ,> ,> ,> ,> ,> {> {> {> ,> >> >> ,> ,> ~6 F9 F9 G9 G9 ]# ]# u* H9 u* u* <@ u* u* u* u* (9 u* I9 s{ H< 6. 8  A( L< -$ J9 W8 ;9 u8 K9 i9 j^ 6  f  {- ]  d  L9                                                                            ",
"                                                                                 M9 r% f  8  f  f  7  N9 O9 P9 o9 99 Q9 N= 6. _  _  9  =$ ,$ A; ;. A; ;$ ;4 ;4 ;$ ;$ ;$ ;4 A; ;$ R9 R9 A; A; ,$ ,$ ,$ ,$ ,$ ,$ ,$ ,$ ,$ ,$ ,$ ;$ N= N= N= N= N= N= N= N= A; A; A; A; A; A; A; N= =+ N= N= N= S9 N= N= A; A; A; A; A; A; A; A; A; N= N= N= N= N= =+ N= N= N= N= N= N= N= N= N= N= N= N= N= N= T9 T9 T9 A; A; N= A; A; A; A; A; A; F% F% F% F% F% o< o< h, h, h, h, h, U9 h, h, U9 g< V9 W9 x  6$ 8  8  x7 l  -$ D9 B$ $9  ( K9 i9 j^ 6  f  k  5  x& X9                                                                            ",
"                                                                                 k9 r% |  6  f  f  7  N9 O9 P9 o9 Y9 T7 -$ 6. _  (  _  6$ Z9 7$ 9  6$ 6$ A7 6$ 8  8  z> z> L< A7 9  9  9  9  /9 /9 /9 /9 9  9  9  L< L< L< L< e  p  p  p  p  e  e  p  p  9  L< L< L< L< e  e  e  3  e  _  e  e  e  p  _  e  e  e  e  e  e  e  e  _  _  _  _  _  9  _  p  p  _  _  _  _  _  p  p  p  p  p  p  p  p  _  _  9  _  _  9  9  9  9  9  9  9  9  9  9  9  9  6. 7$ 7$ 7$ 7$ :  :  x  7$ 9  _  _  6$ 6$ 8  p  A( L< -$ t9 z8 [9 e9 `9  0 j^ 6  f  {- 3  d  v#                                                                            ",
"                                                                                 k9 .0 f  4  p  p  7  N9 m9 +0 @0 Y9 W7 N= 8  _  p  _  9  A7 9  _  6. _  _  _  _  L< M< /9 t> t> _  _  _  _  _  _  _  _  _  _  _  _  3  3  3  3  3  3  3  3  3  3  3  3  3  3  3  3  3  3  3  3  3  3  3  3  3  3  3  3  3  3  3  3  3  3  3  3  3  3  3  3  3  3  3  f  3  3  3  3  3  3  3  f  f  3  3  3  3  3  3  3  3  3  3  3  _  _  _  t> /  /  /  /  /  /  /  p  _  M< t> p  S$ p  9  6$ 6$ A7 6$ I< l  p  p  x7 8  -$ t9 B$ H8 l^ K9 #0 j^ 6  f  {- 3  x& 6'                                                                            ",
"                                                                                 M9 $0 f  p  p  8  =$ N9 %0 +0 @0 Y9 V6 -$ 8  _  p  _  _  A7 L< _  6$ _  8  L< p  6. _  6$ _  t> /  /  /  /  /  /  v7 A( _  _  _  3  3  3  3  3  3  3  3  3  3  3  3  3  3  3  3  3  3  3  3  3  3  3  3  3  3  3  3  3  3  3  3  3  3  3  3  3  3  3  3  3  3  3  3  3  3  3  3  3  3  3  3  3  3  _  3  3  3  3  3  B> 3  3  3  ]  A> A> /  /  /  /  /  /  /  /  /  R$ t> C  /  &0 v7 S$ _  6$ 6$ 6$ 6$ 9  p  t> v7 *0 p  -$ =0 y8 l^ B4 n8 {7 j^ 6  f  w@ 5  Q  B+                                                                            ",
"                                                                                 k9 t% 4  8  p  p  >% N9 %0 +0 @0 -0 T6 -$ 8  6$ 6$ 6$ 9  A7 6. 6. 6. p  p  _  p  8  z; z> z> z> z; z; z; z; t> t> t> _  _  t> _  t> 3  3  3  3  3  3  3  3  3  3  3  3  3  3  3  3  3  3  3  3  3  3  3  3  z; B> B> 3  3  3  3  3  3  3  3  3  3  3  3  3  3  3  3  3  3  3  3  3  3  3  3  3  z; z; 3  3  3  3  3  3  3  3  3  /  /  /  /  /  /  /  /  /  /  /  /  t> _  /  /  /  t> _  9  _  _  _  6$ e  e  L< p  ;0 }  >0 t9 B$ ,0 %9 A8 '0 H$ 6  p  {- ]  x& )0                                                                            ",
"                                                                                 69 q< f  6  p  6. =+ !0 m9 ~0 {0 ]0 D9 ;$ 6. >% 6. =$ 8  9  6. p  p  _  C  ^0 /0 (0 `< Z< /0 _0 :0 (0 (0 <0 <0 <0 <0 M% [0 G  G  G  G  G  G  D  I% I% }0 <0 <0 <0 <0 I% E  J+ J+ E  C  C  C  I  <0 <0 <0 <0 (0 |0 |0 }0 H  ^  ^  ^  ^  ^  ^  H  I% <0 <0 <0 <0 <0 <0 I  D  H  ^  H  /  H  D  D  I% <0 <0 (0 :0 :0 :0 <0 10 H  ^  D  L% L% 20 L% L% K% 30 30 40 30 40 (0 /0 <0 30 30 <0 ^0 C  C  /  /  M< 6$ H< H< =$ S$ x/ >0 50 z8 %9 60 v8 70 H$ 6  p  w@ |  Q  80                                                                            ",
"                                                                                 90 t% o  6  6  6  H$ 00 O9 @0 z$ a0 b0 c0 d0 e0 _% _% f0 {$ p  f  e  L< }0 g0 h0 i0 j0 k0 l0 m0 n0 o0 p0 q0 r0 s0 t0 u0 v0 w0 x0 y0 z0 A0 B0 C0 D0 E0 F0 G0 H0 I0 J0 K0 L0 M0 N0 O0 P0 Q0  1 R0 S0 T0 U0 V0 W0 X0 Y0 Z0 `0  a .a +a @a #a $a %a &a *a =a J0 -a ;a >a ,a 'a )a !a ~a {a ]a T3 O3 ^a /a (a _a l0 :a <a [a }a |a {a 1a 2a 3a ~a 4a 5a 6a 7a 8a 9a 0a aa ba ca da ea fa ga ha `< I  /  R$ _  H< ia ja 9% ka la ma ;> ,0 60 >9 na oa H$ 6. c$ p  3  Q  F<                                                                            ",
"                                                                                 pa t% o  6  6  4  !$ 00 qa ra ~0 J$ %9 ;9 u8  ( u8 t# sa Q< L< 3  g  /9 Y< ta ua va wa xa ya za Aa Ba Ca Da Ea Fa Ga Ha Ia Ja Ka La Ma Na Oa Pa Qa Ra Sa Ta Ua Ua Va Wa Xa Ya Za `a  b .b +b @b #b $b %b %b &b *b =b -b ;b >b ,b 'b )b !b ~b {b ]b ^b /b (b _b Ca Fa :b <b [b }b |b |b 1b 2b 3b 4b 5b 6b 7b 8b 9b 0b ab bb cb db eb fb gb hb ib jb kb lb mb nb ob pb qb rb sb tb ub vb wb 2+ ^( L< t> _  6. xb yb f/ zb W% Ab Bb  9 Cb Db Eb <7 H$ 6  6  p  3  Q  }%                                                                            ",
"                                                                                 Fb t% f  p  p  p  =$ 00 O9 Gb Hb Z$ Ib Ib Jb Kb Jb Kb Lb %$ 6  3  e  z> X< Mb Nb Ob Pb Ob Qb Rb Rb Rb Sb Tb Ub Vb Wb Xb Yb Zb `b  c .c +c @c #c $c %c &c *c =c -c ;c >c ,c 'c )c !c ~c ~c {c ]c ^c /c (c _c =c =c :c <c [c }c |c 1c 2c 3c 4c 5c 6c 7c 8c 9c 0c 9c ac bc cc dc !c ec fc fc fc gc hc ic jc kc Rb lc kc mc nc oc pc qc rc sc tc uc vc wc xc yc zc Ac Bc Cc Dc Ec Fc Gc Hc Ic W< Jc p  /  /  <$ A9 Kc Lc Mc Mc  > .> Db Nc Oc {/ Pc H$ 6  8  R$ 3  Q  |%                                                                            ",
"                                                                                 Qc Rc f  p  p  p  =$ ~9 Sc -0 n9 Z$ _9 Tc C4 Uc C4 Kb Vc Wc 6. w@ w@ _  Z< Xc Yc Zc `c  d .d +d @d +d #d #d $d %d &d *d =d -d ;d >d ,d 'd )d !d ~d {d ]d ^d /d (d _d :d <d [d }d |d 1d 2d 3d 4d 5d 6d 7d 8d (d 9d 0d ad bd cd dd ed fd gd hd id jd kd ld md md nd od pd qd rd 5c sd td ud td vd vc wd Tb xd yd zd Ad Bd Cd Dd Ed Fd qc qc Fd Gd Hd Id Jd Kd Kd Kd Ld Md Nd Od Pd Qd Rd Sd Z< /  v7 /  /  6. U  Td Ud *6 =6 Vd Vd Vd Lc ~5 @6 Pc Wd y  8  5  3  Q  Xd                                                                            ",
"                                                                                 Yd Zd 8  6  8  6. 6. `d  e ]0 H8 .e ~0 +e @e #e @e Kb Vc T< 6  p  p  p  Z< Xc $e Zc %e #d #d &e *e `c &e *e =e -e ;e >e ,e 'e )e ;d !e )d ~e {e ]e ^e /e (e _e :e <e Tb [e }e |e 1e 1e 2e )c 3e 4e 5e 6e 7e 8e 9e 0e ad ae be ce ce ed de tc ee @| fe ge $d -e he ie je ke le me ne td oe pe qe vc re se md zd te ue ve we xe ye ce qc qc Fd ze Ae Be yc Kd Ce Md Nd Md Md De Pd Ee Fe Ge He ^( _  _  _  =$ 7. 2< Ie Je Lc Ke Ke Vd .> Le Me <7 Wd y  6  k  f  Q  Ne                                                                            ",
"                                                                                 Oe Pe 6. 7  6. 6  =+ `d Qe ra }9 .9 Re Oc @e D4 Se Jb Te Ue l  p  p  _  |0 Ve We Xe #d Ye #d +d @d Ze #d -e =e -e ;e `e  f .f +f )d )d @f #f !d $f {d /e %f 6e (d &f *f =f -f cd td td ;f >f ,f 'f 5e )f 6e 6e 9e !f ~f {f ]f hd tc ed de hd ]f +| fe ge ^f ;e /f Ad (f _f :f me ~c td pc <f [f vc wd }f ^f Ad Ad |f 1f 2f 3f 4f 5f 6f qc 7f 8f 9f 0f af bf bf Nd cf Ld df ef ff gf Fe hf He if 6$ p  8  ;. jf kf lf 56 *6 Ke Ke Ke Lc {5 '6 mf H$ 6  4  w@ ]  Q  nf                                                                            ",
"                                                                                 of a> 6. 6. 6  4  7  00 pf y$ qf _9 Oc +e Tc @e rf C4 Te T< l  p  p  _  Z< sf tf uf &e vf &e #d @d Ze wf md zd ge ge xf yf zf Af ,d #f @f Bf Cf Df Ef Ff Xe 6e Gf Hf If Jf Kf Lf Mf 1e Nf Gd Of Pf Qf 9d Gf Gf 0e Rf Sf Tf Uf Vf hd 5f Wf Xf Yf Zf `f  g .g Jd Jd .g +g @g le #g 1d ~c ud oe $g %g &g *g =g .g .g &d -g ;g >g qe ,g ,g 'g ud )g vc !g Bd ~g {g cf Nd ]g Pd Pd Pd ^g Fe /g  [ I  _  R$ 9  -$ (g kf _g :g W; <g W; [g Lc E4 W: =7 H$ 6  4  w@ ]  Q  ((                                                                            ",
"                                                                                 }g |g p  p  p  p  =$ 00 O9 J$ _9 z$ 1g Tc Tc 1g C4 H8 2g f% l  p  t$ 8  Z< 3g 4g 5g `c .d 6g Ze Rf 7g 8g 9g 0g ag ag bg cg dg eg ]c dc dc fg gg hg ig jg Qf kg lg mg ng og pg qg rg sg tg ug vg wg xg yg zg ad Ag Bg Cg Dg Eg Gd Gd Gd ze ze Fg Tf Gg Hg Ig Jg Jg Kg Lg Mg Ng Og }d Pg Qg Rg Og Sg wc Tg Ug Tg Vg Kg Wg Xg Yg Zg qe ze `g ee ]f  h .h +h @h @h #h $h Ec %h De &h he *h =h .[ K< v7 v7 t> x  -h ;h }] }] >h ,h 'h F; [g )h 2< !h H$ 6  4  k  ]  Q  B/                                                                            ",
"                                                                                 ~h I6 f  p  p  p  =$ {h P8 n9 N$ z$ Kb ]h ^h /h (h m] _h :h 6  p  <h (  `< [h }h Zc %e %e #d |h 1h 2h 3h 4h 4h 3h 3h 5h 6h 7h 8h 9h 0h ah bh ch dh eh fh gh hh ih jh kh lh mh nh 8h 8h oh ph qh rh sh th uh vh vh vh wh xh yh zh Ah Bh 9h Ch Dh Eh Fh Gh Hh Ih Jh Kh Lh Mh Nh oh 8h 8h Oh 0h oh Ph Qh ic Rh Sh Sh Sh Th Uh Vh Wh Xh Yh Zh `h Bh  i .i +i @i #i $i $i %i &i $d *e *i =i -i  [ K< v7 v7 R$ l  ;i >i ,i 'i )i !i ~i =6 Ke Kc {i ]i =$ 4  f  k  3  2  ^i                                                                            ",
"                                                                                 ~h I6 6  6  8  p  =$ /i {9 P9 Z$ +e .9 (i _i :i <i [i }i |i 6. 6. m> _  `< 1i 2i 3i &e &e 6g 4i 5i 6i vc 'e 7i 8i 9i 0i ai bi ci di ei fi gi hi ii ji ki li mi ni ki oi pi qi ri si ti si si ui Y1 vi wi xi yi 6i zi Ai Bi Ci Di ci di Ei Fi Gi Hi Ii 6i Ji Ji 0i Ki Ki Li Mi Ni Oi Pi Qi Ri Ei Si Ti zi Ki Ji Ui Vi Vi yi Wi Xi ti Yi Yi ti Zi `i  j .j +j @j #j $j %j &j ge he *j =i =j -j C  /  /  3  6  ;j >i 'i l{ >j ,j v; =6 Ke {6 2< ;7 ;. f  k  {- ]  Q  'j                                                                            ",
"                                                                                 )j a> 6  6  o  6  7  {h pf `$ X$ !j t# ~j {j ]j ^j /j (j _j 6$ H< >% /9 Z< :j <j 3i 6g 6g .d 8c [j }j |j 1j 2j 3j 4j rd 5j 6j 7j 8j 9j 8j 0j aj bj zi cj dj ej fj cj gj hj ij jj kj lj lj mj nj M} Ji cj oj pj qj rj li sj tj uj 7j vj wj xj yj zj Aj Bj Cj Dj Dj Ej Fj Gj Hj Ij Jj Kj Lj Mj Nj Oj Pj Qj !d Rj qg Sj !d Tj Uj Vj Wj Xj Yj Zj `j  k .k Rj +k Sj 1j qg @k #k $k *j Ee %k &k *k K< /  w@ 3  6  =k -k )i ;k >k ,k N# 76 76 '] ,4 !h H$ e  f  {- 5  Q  'k                                                                            ",
"                                                                                 of )k 6  6. 6  6. 7  00 m9 P9 !k rf ~k {k ]k ^k /k (k _k He L< A7 1: }  Z< :k <k :e &e #d Ze [k }k Ae |k 1k 2k 3k 4k Bj 5k 6k 7k 8k 9k 0k ak bk ck dk ek fk gk hk ik Ae jk kk lj lk Mj mk nk ok pk gj qk qk pj rk sk tk uk vk wk xk yk yk zk Ak Bk Ck fg Dk Ek Cj 4k !d Fk Gk Wj Hk Ik Jk Jk Kk Lk Mk fg Nk Og rg Ok !d Of Pk Qk Rk Ik Sk Tk Uk Vk Wk Xk 1k Yk Zk sg @k `k ld  l .l +l @l #l K< v7 v7 R$ 6  =k $l %l &l &l *l =l -l ;l K: p6 >l y7 e  f  {- 5  Q  ,l                                                                            ",
"                                                                                 'l |g p  p  p  e  !$ )l !l ~0 ~l rf {l ]l ^l /l (l _l :l  [ /9 x  <l (  Y< [l }l :e |l &e Ze 1l 2l 3l 4l >d 5l 6l 7l gg 8l 9l 0l 8k al zk bl cl dl el fl dj gl hl ik }j il jl 8j kl 0k ll xk ml nl gj ol pl ql rk Zb mi rl sl 0l kl tl 8k Mj ul vl li fg 4k Nk Dk Ek !d Aj wl 8j Jk Sk xl yl zl Al Bl Bj Nk rg rg 4k qg Of Cl Dl Sk Hk Ik Jk lk  k $c El )d Yk Fl Gl @k w^ 0e Hl Il +l Jl Kl D  w@ ^$ ]  o  Ll Ml &l Nl Ol Pl Ql Rl Sl A_ Tl }7 x> 3  {- l- 2  |  ,l                                                                            ",
"                                                                                 Ul I6 k  p  p  4  6$ )l Vl Wl Xl Yl Zl `l  m .m +m @m #m  [ /9 =$ T9 {$ Y< $m %m &m *m =m -m ;m >m Ae ,m 2j 2j 3j |j 'm )m !m ~m al yk {m zk ml ]m ^m /m (m _m gl gl }j il :m 8j 0k <m <m zk [m }m gj |m 1m (m (m oj tk 9( 2m 3m 4m 4m 4m zk 5m 6m Aj 7m Nk Ok Ok 4k Rj 8m 9m Wj Sk 0m am mk Kj [m bm cm Sj rg Ok dm !d Tj rl em fm Sk Sk Jk gm hm im 4k jm Yk Fl Uf Tj km lm mm Hl nm om #l D  /  v7 3  6  pm qm rm sm tm um vm wm xm p_ Tl ym x> 3  {- {- 5  |  zm                                                                            ",
"                                                                                 Am )k f  f  6  6  !$ Bm Cm Dm Xl Z5 Em Fm Gm Hm Im Jm Km `< i^ 8  6. {$ Y< Lm Mm Nm Om Pm Qm Rm bj vc 7l 2j Sm {e Tm Um Vm Wm ~m Xm Ym Zm 7k `m  n .n qk +n gl @n #n $n %n &n kj *n ak Kj 0j =n -n ;n |m rk ik gl >n zi ,n 'n )n !n zk zk zk ~n {n ]n ]c Ok dm {e {e ^n /n (n _n ll mk ll :n gm <n [n 'm Sj Sj Cj Cj qg dg rl }n fm |n fm Tk gm 1n 2n 1j 3n 4n Fl 5n 6n 7n 8n 9n 0n an bn cn D  v7 K- k  4  dn en fn gn hn in jn kn xm J_ ln mn y7 g  4  f  o  |  nn                                                                            ",
"                                                                                 on a> f  6  6  6  !$ pn qn rn sn C! tn Fm un Hm vn wn xn He 3  8  yn S$ 2+ zn An Bn Cn Dn En Fn Gn dg Fj Bj Bj cm cm :f Hn In sl Jn Kn Ln Mn ig Nn ki On Pn Ae Qn Rn Sn Tn Un Vn Wn Xn Xn cl Yn Zn `n  o .o .o +o @o ki #o $o %o &o Ln *o Xn =o -o ;o 6n cm Bj cm le gg }e >o ,o Wn 'o 2m )o !o ~o [n Tj Qj Qj Bj Qj {o Ui ]o ^o /o (o _o Fe )o :o im <o [o }o ]c |o 8i 1o 2o 3o 4o 5o 6o 7o F  20 8o ^$ s% 9o 0o gn ao um bo co xm xm do eo 17 j^ g  4  4  o  j  fo                                                                            ",
"                                                                                 go )k 3  f  4  4  6  ho io jo Z5 ]6 ko lo mo no oo po qo `< M< 6$ p  ro Q  so to uo vo vo wo [d xo yo zo Ao Bo Co Do Eo Fo Go Ho Ho Ho Ho Io Jo Ko Lo Mo No No Oo Po Qo Ro So To Uo Vo Wo Xo Yo Zo `o  p .p +p  p @p #p $p %p &p *p Uo ,e =p -p ;p >p ,p ,p 'p )p ,p !p ~p {p ]p ^p ^p /p (p _p :p <p ,p [p [p )p ,p Mo }p |p 1p 2p 3p 4p 5p 6p 7p 8p 9p 0p ap bp cp dp ep fp gp hp 'f ip jp 20 kp 8o 8o k  lp mp np op pp qp rp sp tp up vp wp z  p  {- {- 5  2  xp                                                                            ",
"                                                                                 Q: )k ]  {- {- {- f  yp Eb m5 C! I; zp Ap Bp no Cp Dp Ep Z< z; l  m  5  Q  Fp Gp Hp Ip Jp Kp Kp cj Lp Mp Np Np Op Pp Qp Rp Sp Tp tk Up tk tk wi Vp Wp Xp Yp Zp `p nc  q .q +q @q /n #q @j /n $q %q &q *q *q =q -q ;q >q ,q 'q 8m Ck )q tk xi zi !q ~q si =q {q ]q ^q /q (q 'q _q :q 6i ^m gj <q [q }q |q 1q 2q 3q 1q *q 4q 5q Tp Sg Ji 0i 6q Up 7q 8q 9q 0q aq 3q bq cq dq eq fq gq hq iq  [ 20 8o jq ^$ s% lp kq lq mq nq [# oq xm up A_ pq  8 q% 4  {- 8o ^$ Q  qq                                                                            ",
"                                                                                 rq Zd 3  f  5  f  4  $: A$ sq tq I; tn uq vq wq xq yq zq X< i^ 6  k  3  Q  Aq Bq Cq Dq Dq Eq Fq 9f Gq Hq Iq Jq i+ Kq Lq Mq Sg hl Nq Oq Pq fj Qq Rq `m Sq Tq Uq Ff Vq }n =p +j Wq gl pj Pq gl Xq Yq Zq Zj `q  r fm Zj Zi .r +r ik @r #r $r %r &r *r =r -r zl Kk ;r >r ,r 'r 6i $r 7l fg ^n fg le )r !r ~r Kj Uq Jk {r Kk =n ]r Dj 4k 4k Nk ^r 7l 8m /r (r _r :r <r [r }r 81 |r 1r 2r 3r 4r -j H  ^$ G  3  7  5r 6r .( (# [# 7r 8r do o_ 9r 0r ar y  f  ]  Q  Q  Q  br                                                                            ",
"                                                                                 cr dr j  o  4  6  6  er fr sq C! gr hr ir jr kr lr mr nr X< i^ e  f  3  Q  or pr qr rr sr tr Fq ur vr wr xr yr zr j+ Ar th On Br Cr Dr hk $r Qq Er Fr yl Gr Hr Hr Rk Rd Ir 6i fj Nq Wq Wq hk <q Jr Wn Tk Mj Mj :n !n si Kr pj @r Lr Lr Mr ,m (m Nr Or zl Jk Pr Qr [r *h @g 6i 4j Rr 7l 7l 1j fg Fk Sr `j Ik Tr _e Pm Sb 7c Ur Eg Vr Ok Nk Nk Cj Fk Wr Xr Yr Zr Zr Ob `r  s .s +s @s #s $s -j A> w@ l- R$ z  %s &s *s pp =s -s ;s >s ,s 's 0r )s o  j  ]  |  j  |  !s                                                                            ",
"                                                                                 ~s Rc |  f  f  6  6. )6 {s k5 C! ]s ^s /s (s _s :s <s [s 2+ B  H  H  ^  Q  }s |s 1s 2s 1s 3s 4s 8m 5s 6s 7s 8s zr 9s 0s as ;n %r bs bs %r %r vc cs ds 0k es Hk Qm Ik Zj fs tk _m gs %r $r gl <q hs &o Jj kj Mj yl gm ei is 'e @r Mr js ks ks pj *r ls lk ms ns os ns ps qs zi $r 1j rs |j {e cm 8m ss Xj Ik Tr Tr _e ts us 2n !d Gl Nk vs Af dc Aj ws :r xs ys zs As Bs Cs Ds Es Fs Gs Hs Is z; R$ 6& G  <$ Js Ks Ls Ms Ns Os Ps Qs O+ Rs Ss &> c  |  ^  ^  2  Q  4%                                                                            ",
"                                                                                 Ts Us |  5  k  p  p  G6 Vs Ws Xs Ys Zs `s  t .t +t @t #t $t %t &t *t =t Q  -t ;t >t ,t 't )t !t ~t {t ]t ^t /t 9s (t _t ck ni $r :t bs @r <t Qq [t }t |t 1t ll 2t Qm `j 3t zi 4t 5t hl fk gl <q 6t %o 7k 3m kj xk 0j si 7t 8t @r ,m rs 9t 9t Pq 0t Qi Uk Tq Ff at Qb +l 6m 6i fg rs bt |j {e ct Tp dt 7j kl 0k Sk Hk et [m ft fg vs Cj vs 6l Rj xi gt ht it ys jt kt lt mt nt ot pt qt rt st tt ut vt vt wt xt yt zt zt At Bt Ct Dt Et Ft Gt Ht !$ l  e  R$ ]  Q  It                                                                            ",
"                                                                                 Jt K^ Kt 4> 5> 5> 4> Lt Mt Nt <7 ;7 q{ Ot Pt Qt Rt 06 St Tt Ut Vt Wt Xt Yt Zt `t  u .u +u @u #u $u %u _t &u @+ *u =u -u ;u 0i >u bs bs hk 8t :f ,u 'u )u ak Kj gm Sq !u ~u wi ik gk fk ik fj Ki 6t }t xj {u _n ]u ^u Pi /u fj Mr 9t gk (u rs 8t _u :u Rm <u [u ;r [r ~r }u Up dc ,m |j Um |j cm xi |u 1u kj kj zk Kj Lj 2u 3u |j Af Af Af 4u |j xi gt 5u 6u 7u 8u 9u 0u `< J+ q. E  E  2+ au bu cu du eu fu gu hu iu ju ,4 ku lu N7 mu nu nu ou pu qu ru su tu uu V2                                                                            ",
"                                                                                          vu wu xu yu zu 2  6  6. x  x  G( Au Bu Cu k: Du Eu Fu Gu Gu Hu Iu `< 2+ 6& q. q. Ju Ku Lu 7p Mu Nu Ou Nu Pu Np Qu Vi hk bs bs %r <t Ru Su Tu Uu Vu  k Vk =n Wu Mg xi @n Xu fk 4t @n Vi Yu Zu Un `u  v .v +v @v #v hk Mr @r @r 2j rs dj Yg $v %v ^q &v *v =v -v ;v ^m Um ,m |k ,m 9t cm ]n >v ,v 'v )v 1n !v ~v {v ]v #r ^v #c /v (v 3j ]n _v :v <v [v }v |v 1v X< 1  ]  1  B> 2+ 2v 3v 4v 5v 6v 7v 8v 9v 0v av Td bv y  4  4  f  o  cv                                                                                                 ",
"                                                                                                      dv Q  c  m  6. =$ F% ev fv gv E/ hv iv jv kv lv mv nv He 2+ 2  ]  ^  Q  ov pv qv rv 2n sv Vm )m [p tv fj uv Br bs Cr hl pj vv wv xv yv zv Av xv )m Bv .o Br Cv gs 4t ik pj Dv cp Ev .r Fv Gv Hv Iv Jv hl Kv Lv @r %r %r ik Mv Nv Ov .p Pv Qv Rv Sv Tv sk %r 2j Sm (u rs 9t &r Uv Eo Vv _u Vv Wv Ev Xv Yv rs 2j 3k 2j 2j 7l vc Zv `v  w .w +w @w #w 2+ b  B> ]  1  2+ $w %w &w *w =w -w ;w >w ,w 'w )w !w g  j  ]  j  o  ~w                                                                                                 ",
"                                                                                                      {w Q  3  v7 6. =$ F% ]w l= ^w /w (w _w :w <w [w }w |w He Ju ^  5  {- Q  1w 2w js Oq Pq 3w 4w 5w 7i Oq uv bs bs fk uv Dr 6w (m pj qj 9f 7w 7w Hd 9f rd hl ,m bs hl ik hl hl gl |m :f 9f 9f vc sk 6n fj hl 8w Lv Cr %r %r hl gl sk 4w 7w 7w Qq Ng Ru <t 9w 3j %r ik 9t {e rs %r hk pj :f Qq Qq 7i 0w aw Dr %r rs 3j 3j 3j ,m Tm Bj 8t qj {o -d ,d bw Q  j  b  |  j  2+ cw dw *w ew fw gw hw iw jw kw lw !w g  6  f  f  j  }%                                                                                                 ",
"                                                                                                      mw Q  R$ k  f  8  A; 2g P= ^w 3* nw ow pw qw <w rw sw .[ F  ^  f  {- A  tw uw vw @r Lr 9w %r $r ww <t %r @r Lr @r bs Cr hl gl xw Br ik Wq 6w (m yw Nq Nq ik zw Oq Wq ik ik ik hk Oq Aw Aw ik ik ik Aw Nq Br js Lr Lr Bw Cw xw hl gl rk gl pj 8t gl hl |j <t >u Dr %r |j |j {e rs Cr %r hl hl Dr #r @r hl Um |j {e {e {e rs 2j 3k 2j 2j rs rs Dw Ew Q  {- {- {- ]  Q  Fw Gw Hw Iw fw Jw Kw y5 Lw Mw Td Nw g  4  k  k  k  }%                                                                                                 ",
"                                                                                                      Ow Q  3  {- w@ p  F% Pw k= Qw B& Rw Sw pw Tw Uw Vw sw  [ C  3  m  {- ^  Ww Xw 2k {e @r Bw Bw #r >u ct %r %r %r %r %r bs hl fj hl bs uv hl ik ik Nq +n gl (m (m gl ik ik fj Pq Wq hl %r %r %r %r uv bs |j ik hl %r %r %r Wq Wq ik ik ik ik ik ik hk rd 6w Cw %r %r bs bs Yw @r js Lr :t hl %r hl %r %r |j %r 3j 6l 6l 2j 2j 5l #c 6l 2j @r ks Zw `w Q  {- l- K- ^$ Q   x .x +x Iw @x #x $x %x &x *x ,4 Nw l  f  {- {- 5  =x                                                                                                 ",
"                                                                                                      Ow Q  3  f  3  4  F% -x l= Qw l: ;x >x ,x Tw 'x )x !x `< s> L< 5  d  2  ~x {x ]x 9t %r %r %r %r hl hl %r %r %r Dr $r ik gl ik ik $r hl ik (m ik hl ik ik ik ik ik ik hk fj (m ^x xw :t :t xw ^x xw xw Wq Wq ik ik fk ik ik (m (m gl ik ik ik ik hl %r hl ik ik hl %r %r 9w @r %r <t ww $r 9w %r <t Dr %r hl hl %r %r Cr Mr Lr Lr 3j 2j ,m /x Dw (x q. ]  ]  R$ 3  q. _x :x +x <x [x }x |x 1x 2x 3x 4x 5x g  6  k  5  c  2%                                                                                                 ",
"                                                                                                      Ow Q  g  f  3  6  6x qa fv 7x B& 8x 9x :w <w 0x ax bx He A> 3  {- d  2  cx dx ]x rs Dr ww ww <t %r bs Dr <t Lr 9w hl ik gl ik ik ik hk Pq 'e fj ik 4t ik ik gl (m (m gl ik fk bs ex :t xw ^x fx gx ^x zw Wq ik ik fk ik ik fk ik ik gl (m gl gl gl ik gl gl hl 9w @r bs %r %r %r %r %r %r %r %r <t #r Mr bs %r %r %r Cr hx ix Bw (v 2j rs jx kx Ew q. 3  c  l  3  Q  lx mx nx ox px qx rx 1x 2x sx tx ux x> 6  3  {- 3  vx                                                                                                 ",
"                                                                                                      wx Q  3  f  3  6  xx yx zx Ax Bx Cx Dx Ex Uw 0x ax Fx Z< A> R$ k  |  A  Gx Hx Ix 2j Lr %r hl %r @r Cr ww hk hl bs bs %r hl fk hl hl ik ik ik ik ik ik ik ik ik ik fk hl hk (m gl zw Zb Zb Zb ^x xw :t Cw %r hl gl (m (m gl ik ik ik ik ik ik ik ik ik hk ik hl @r bs bs bs %r %r %r %r %r %r %r 9w %r Cr bs %r %r %r %r bs Lr @r rs rs |j Jx Kx Lx Q  ]  e  p  z; q. Mx Nx nx Ox Px Qx Rx Sx Tx Ux Vx ux g  4  k  l- ^  Wx                                                                                                 ",
"                                                                                                      wx Q  5  p  _  l  xx Xx Yx Ax Zx Du `x Ex  y .y +y @y Z< A> f  f  o  A  W3 #y 2k rs bs bs bs %r %r bs ik hl bs bs Dr >u $r ik ik ik (m 4t fk ik hl uv ik ik ik fk fk hk Oq Wq ^x ^x ^x ^x ^x ^x ^x xw :t :t :t ik hk Oq gl gl gl (m gl ik ik hl gl (m gl ik fk ik ik ik fk fk ik ik ik ik ik hl %r hl ik ik ik hl bs Br ik %r hl gk {e {e Tm $y %y Q  ^  {- w@ t> q. &y Nx nx ox *y =y -y ;y >y Ux ,y 'y l  f  {- {- 5  )y                                                                                                 ",
"                                                                                                      !y Q  l- {- {- 6. ~y Db {y ]y ^y /y (y _y :y <y [y }y Y< ]  f  f  g  A  |y #y ~e ,m %r %r %r %r %r %r %r %r %r hl ik ik ik ik ik ik ik ik ik ik ik ik ik ik ik ik ik ik ik ^x ^x ^x ^x ^x ^x ^x ^x ^x ^x xw :t %r hl ik ik ik ik ik ik ik ik ik ik ik ik ik ik ik ik ik ik ik ik ik ik hl %r 9w @r %r %r %r %r %r %r %r @r bs %r %r %r 9t 1y $y 2y q. ]  ]  w@ R$ q. 3y 4y 5y ox 6y 7y 8y B_ >y jw W_ 9y L< ^  {- {- f  0y                                                                                                 ",
"                                                                                                      ay Q  {- {- {- l  by cy dy ey fy gy (y _y hy <y iy jy Z< A> f  f  g  d  |y ky ly 2j %r %r %r %r %r %r %r %r %r hl ik ik ik ik ik ik ik ik ik ik ik ik ik ik ik ik ik ik ik ^x ^x ^x ^x ^x ^x ^x ^x ^x ^x ^x ^x ^x ^x ^x ^x xw %r %r hl ik ik ik ik ik ik ik ik ik ik ik ik ik ik ik ik hl %r %r %r %r %r %r %r %r %r %r 9w @r %r %r %r %r my ny oy q. c  _  p  L< q. py qy 5y 5y ry sy ty uy >y Ux f6 9y L< 3  {- {- f  vy                                                                                                 ",
"                                                                                                      wy Q  3  3  {- 8  by xy yy zy Ay By Cy Dy Ey Fy [y Gy Y< H  f  f  f  {- Hy ky ly js %r %r %r %r %r %r %r %r %r hl ik ik ik ik ik ik ik ik ik ik ik ik ik ik ik ik ^x ^x ^x ^x ^x ^x ^x ^x ^x ^x ^x ^x ^x ^x ^x ^x ^x xw :t :t :t :t :t :t xw gl gl ik ik ik ik ik ik ik ik ik ik ik ik hl %r %r %r %r %r %r %r %r %r %r %r %r %r <t Dr %r my $y Iy q. 3  3  k  t> W< Jy Ky Ly My Ny Oy Py 3x Qy Ry Sy Ty >% e  f  f  g  Uy                                                                                                 ",
"                                                                                                      Vy Q  f  f  {- 6  Wy Lc Xy Yy Zy By `y  z .z <y +z @z X< H  p  R$ k  {- #z ky $z Mr %r %r %r %r %r %r %r %r %r hl ik ik hl %r hl :t :t :t xw ^x ^x ^x ^x ^x ^x ^x ^x ^x ^x ^x ^x ^x ^x ^x ^x ^x ^x ^x ^x ^x ^x ^x ^x xw xw xw :t :t :t :t xw ^x ik ik ik ik ik ik ik ik ik ik ik ik ik ik hl %r %r %r %r %r %r %r %r %r %r %r %r <t Dr %r %z ny &z Q  /  /  ^$ /  W< *z =z -z ;z >z ,z 'z 3x sx )z m6 ux !$ 4  k  {- 3  !z                                                                                                 ",
"                                                                                                      ~z Q  3  ^  {- 8  Wy A! {z ]z ^z By /z (z _z :z <z [z Y< K< 3  ^  d  d  }z ky ly js %r %r %r %r %r %r %r %r %r hl ik ik hl %r :t :t :t :t xw ^x ^x ^x ^x ^x ^x ^x ^x ^x ^x ^x ^x ^x ^x ^x ^x ^x ^x ^x ^x ^x ^x ^x ^x xw xw ^x xw :t :t :t :t :t xw ik ik ik ik ik ik ik ik ik ik ik ik ik hl %r %r %r %r %r %r %r %r %r %r %r %r <t Dr %r %z Kx &z Q  _  x7 ^$ &0 W< *z |z 1z 2z 3z 4z 5z 'w 6z xm 7z ~/ 6. k  {- {- {- 8z                                                                                                 ",
"                                                                                                      x; Q  ^  {- {- 8  Wy 66 9z 0z az bz cz dz _z ez fz [z Z< K< 3  w@ k  w@ gz hz $z js %r %r %r %r %r %r %r %r %r hl ik ik ik ik :t :t :t :t xw ^x ^x ^x ^x ^x ^x ^x ^x ^x ^x ^x ^x ^x ^x ^x ^x ^x ^x ^x ^x ^x ^x ^x ^x ^x ^x ^x ^x ^x xw :t :t :t xw ik ik ik ik ^x ik ^x ik ik ik ik ik ik ik hl %r %r %r %r %r %r %r %r %r %r %r %r %r %r Cr Zw iz Q  6. 8  x7 jz X< kz lz mz Hw 3z nz oz xm pz av qz rz 8  5  sz 8o {- D8                                                                                                 ",
"                                                                                                      M; Q  3  3  f  6  Wy tz ]z uz az bz vz wz xz :z <z yz He s> 3  f  3  w@ zz Az ly Mr %r %r %r %r %r %r %r %r %r hl ik ik ik ik xw :t :t :t xw ^x ^x ^x ^x ^x ^x ^x ^x ^x ^x ^x ^x ^x ^x ^x ^x ^x ^x ^x ^x ^x ^x ^x ^x ^x ^x ^x ^x ^x ^x ^x xw Bz xw ik ik ik ik ik ik ik ik ik ik ik ik ik ik ik hl %r %r %r %r %r %r %r %r %r %r %r %r %r Cr Cz Dz 2  H< l  p  t> X< Ez Fz *w Gz qy Hz oz up Iz av o6 Jz 6$ _  k  v7 v7 I^                                                                                                 ",
"                                                                                                      Kz Q  3  g  4  4  Lz S; Mz Nz Oz Pz /z wz Qz Rz Sz Tz  [ M< e  j  f  ^  Uz Vz ~e Cr %r %r %r %r %r %r %r %r %r hl ik ik ik ik xw :t :t :t xw ^x pl ^x ^x ^x ^x ^x ^x ^x ^x ^x ^x ^x ^x ^x ^x ^x pl pl ^x ^x ^x ^x ^x ^x xw xw pl qk qk pl xw :t xw ^x ^x ^x ik ik ik ik hl hl ik ik ik ik ik ik hl %r %r %r %r %r %r %r %r bs bs bs uv 9t @r Wz Xz q. 6$ e  x7 &0 X< Yz Zz `z  A .A +A @A up Iz #A '+ $A !$ L< f  v7 R$ I^                                                                                                 ",
"                                                                                                      M; Q  f  f  w@ z; ~/ '4 %A Nz Lw &A *A =A _z -A ;A >A -j ,A R$ w@ ]  ^  'A )A ~e %r %r %r bs bs uv hl %r @r @r %r ik ik ik ik xw :t :t :t :t xw ^x ^x ^x ^x ^x ^x ^x ^x ^x ^x ^x ^x ^x ^x ^x ^x ^x ^x ^x ^x ^x ^x ^x ^x ^x ^x ^x ^x ^x ^x :t Bz :t :t xw ^x ik ik ik ik ik ik ik ik ik ik ik ik ik ik ik ik ik ik ik ik ik %r hl fj gl gl <t 2d !A Q  K- x7 v7 8o W< ~A {A ]A ^A /A (A _A :A <A [A }A lu l  k  {- ^  f  m7                                                                                                 ",
"                                                                                                      |A Q  f  {- w@ 3  ~/ tz %A 1A Lw 2A *A 3A _z 4A ;A 5A 6A 7A w@ ^$ ^  ^  8A 9A ~e Lr Lr 9w uv ik ik hl %r %r %r ik ik xw ^x xw :t :t :t :t xw ^x ^x ^x ^x ^x ^x ^x ^x ^x ^x ^x ^x ^x ^x ^x ^x ^x ^x ^x ^x ^x ^x ^x ^x ^x ^x ^x ^x xw xw ^x :t Bz :t :t xw ik ik ik ik ik ik ik ik ik ik ik ik ik ik ik ik ik ik ik ik ik fk uv ik pj hk hl %r 0A aA Q  20 R$ x7 7A W< bA cA dA ]A :x eA fA tp Iz #A gA hA 8  k  {- {- f  iA                                                                                                 ",
"                                                                                                      j- Q  3  |  3  e  jA 86 kA lA #A mA nA oA Qz pA qA rA *k K< 3  z> z> ^  sA tA >d @r 6l 9w ik hl %r %r %r hl ik ik ik xw :t :t :t :t :t xw ^x ^x ^x ^x ^x ^x ^x ^x ^x ^x ^x ^x ^x ^x ^x ^x ^x ^x ^x ^x ^x ^x ^x ^x ^x ^x ^x ^x ^x ^x ^x ^x xw :t :t :t xw ik ik ik ik ik ik ik ik ik ik ik ik ik ik ik ik ik ik ik ik ik uv :t 6w uA %r hl hl Cz vA q. z; p  R$ &0 W< wA xA yA zA AA BA fA tp Iz CA DA O: L< f  f  f  f  EA                                                                                                 ",
"                                                                                                      E< Q  |  |  c  o  k^ k6 FA &x av GA HA IA 4A JA 5y KA 6A C  p  !$ l  ]  LA MA 1k 1j /v NA >u >u <t %r %r hl ik ik ik ik :t :t :t :t :t xw ^x pl pl ^x ^x ^x ^x ^x ^x ^x ^x ^x ^x ^x ^x ^x ^x ^x ^x ^x ^x ^x ^x ^x ^x ^x ^x ^x ^x ^x ^x ^x xw :t :t OA :t xw ik ik ik ik ik ik ik ik ik ik ik ik ik ik ik ik ik ik ik ik ik PA hl :t uv Nq Br ne QA 2+ L< L< 6. Jc W< RA SA TA TA UA VA WA tp XA YA ZA O: e  f  f  f  f  `A                                                                                                 ",
"                                                                                                       B Q  |  |  |  j  .B +B Ry XA #A @B /z #B -A $B %B &B *k C  _  l  p  A( *B =B -B 3k 5l #c $r Wq 6w %r %r %r hl ik ik hl %r :t :t :t :t xw ^x pl pl ^x ^x ^x ^x ^x ^x ^x ^x ^x ^x ^x ^x ^x ^x ^x ^x ^x ^x ^x ^x ^x ^x ^x ^x ^x ^x ^x ^x ^x ^x xw :t :t :t :t :t xw ik ik ik ik ik ik ik ik ik ik ik ik ik ik ik ik ik ik fj ej uv xw ik ik %z ;B >B 6& /  _  x/ ,B X< 'B SA )B !B ~B {B ]B ^B /B *x DA (B 3  ^  /  3  f  _B                                                                                                 ",
"                                                                                                      1* Q  |  Q  Q  |  :B ,y <B XA [B }B |B 1B 2B 3B 4B 5B #l 6B /9 _  &0 ,A 7B 8B #f 3k 3k 2j ,m @r hl hl %r %r %r hl ik ik ik :t :t :t :t xw ^x ^x ^x ^x ^x ^x ^x ^x ^x ^x ^x ^x ^x ^x ^x ^x ^x ^x ^x ^x ^x ^x ^x ^x ^x ^x ^x ^x ^x pl pl xw xw xw :t :t :t :t :t :t ik ik ik ik ik ik ik ik ik ik ik ik ik ik ik ik ik ik hl %r 6w Zb Cw fk gs ;B 9B jq ,A 0B _  i  X< aB cA bB !B cB dB eB Ux Oz Ux Tl 3: R$ ^  /  ^  ^  fB                                                                                                 ",
"                                                                                                      gB Q  Q  Q  Q  1  9y hB iB XA sp jB kB AA lB mB nB oB Kl pB qB s> J  L% rB sB tB uB uB vB wB xB bs hl %r %r %r hl ik ik ik xw :t :t :t :t xw ^x ^x ^x ^x ^x ^x ^x ^x ^x ^x ^x ^x ^x ^x ^x ^x ^x ^x ^x ^x ^x ^x ^x ^x ^x ^x ^x ^x pl pl xw xw xw :t :t :t :t :t :t xw ik ik ik ik ik ik ik ik ik ik ik ik ik ik ik ik ik zw Cr yB ix zB AB BB CB DB W< M% 10 EB FB X< GB HB IB JB KB LB MB *x Ux NB OB PB g  ]  3  _  k  :@                                                                                                 ",
"                                                                                                      QB RB 5& SB TB UB VB WB XB YB ZB ty `B  C .C +C @C #C $C %C &C *C =C -C ;C >C ,C 'C )C !C ~C {C ]C %r %r %r hl ik ik ik ik ^x ik :t :t :t :t xw ^x ^x ^x ^x ^x ^x ^x ^x ^x ^x ^x ^x ^x ^x ^x ^x ^x ^x ^x ^x ^x ^x ^x ^x ^x ^x ^x pl pl xw xw xw :t :t :t :t :t :t xw ik ik ik ik ik ik ik ik ik ik ik ik ik ik ik ik ik @r ^C /C (C _C :C <C [C }C |C 1C 2C 2C 3C 4C 5C 6C 7C 8C 9C 0C aC bC Sy Sy cC dC eC fC gC J- hC &                                                                                                  ",
"                                                                                                                        iC jC :h kC #6 lC mC nC oC pC qC rC sC tC uC vC wC xC yC zC AC BC CC DC EC FC GC hl %r %r %r ik ik ik ik ik ik :t :t :t :t :t ^x qk pl ^x ^x ^x ^x ^x ^x ^x ^x ^x ^x ^x ^x ^x ^x ^x ^x ^x ^x ^x ^x ^x ^x ^x ^x ^x ^x ^x ^x ^x ^x xw :t :t :t :t :t xw ik ik ik ik ik ik ik ik ik ik ik ik ik ik ik |j ~e HC IC JC JC JC KC LC MC NC OC PC QC RC SC TC UC VC WC XC YC g: o< o< 9> q% ZC                                                                                                                   ",
"                                                                                                                           `C l  e  e  6. z;  D .D +D @D #D $D %D &D *D =D -D ;D 6& ^  ^  L% Ju >D ,D 'D hl %r %r %r hl ik ik ik ik ik hl :t :t :t :t ^x qk pl ^x ^x ^x ^x ^x ^x ^x ^x ^x ^x ^x ^x ^x ^x ^x ^x ^x ^x ^x ^x ^x ^x ^x ^x ^x ^x ^x ^x ^x ^x xw :t :t :t :t :t xw ik ik ik ik ik ik ik ik ik ik ik ik ik ik Um {e )D !D Q  H  ]  ]  t> C  ~D {D ]D ^D /D (D _D :D <D [D }D |D ]  5  f  4  f  Q  1D                                                                                                                   ",
"                                                                                                                           2D e  R$ _  c  e  0% 3D 4D 5D 6D 7D 4y 8D 9D 0D aD bD A> f  5  {- ^  cD dD eD |j %r %r %r hl ik ik ik ik ik ik :t :t :t :t xw pl ^x ^x ^x ^x ^x ^x ^x ^x ^x ^x ^x ^x ^x ^x ^x ^x ^x ^x ^x ^x ^x ^x ^x ^x ^x ^x ^x ^x ^x ^x ^x xw :t :t :t :t :t ik ik ik ik ik ik ik ik ik ik ik ik ik ik ik Um {e )D fD Q  f  6  4  _  Jc ~D gD hD iD jD kD lD mD nD oD pD qD g  3  {- k  f  Q  rD                                                                                                                   ",
"                                                                                                                           sD e  d  3  6  g  9% tD uD vD wD xD yD zD AD BD CD DD }0 3  w@ {- 6& ED FD >d |j %r %r %r hl ik ik ik ik ik hl :t :t :t :t xw ^x ^x ^x ^x ^x ^x ^x ^x ^x ^x ^x ^x ^x ^x ^x ^x ^x ^x ^x ^x ^x ^x ^x ^x ^x ^x ^x ^x ^x ^x ^x ^x xw :t :t :t :t :t xw ik ik ik ik ik ik ik ik ik ik ik ik ik ik Um |j gc GD Q  5  f  3  _  C  HD ID JD KD KD LD MD ND OD PD QD xb x> g  5  f  f  Q  RD                                                                                                                   ",
"                                                                                                                           =] ]  x& d  f  g  SD iw uD TD wD UD VD WD XD fz YD ZD <0 5  {- {- q. `D  E wB |j %r %r %r %r %r %r hl ik ik ik ik xw :t :t xw ^x ^x ^x ^x ^x ^x ^x ^x ^x ^x ^x ^x ^x ^x ^x ^x ^x ^x ^x ^x ^x ^x ^x ^x ^x ^x ^x ^x ^x ^x ^x ^x xw :t :t :t :t :t ik ik ik ik ik ik ik ik ik ik ik ik ik Um Um Um {e }c .E Q  5  f  c  g  +E @E #E $E -z %E &E *E =E -E TD ;E >E g  g  g  o  |  Q  ,E                                                                                                                   ",
"                                                                                                                           =] |  j  3  f  e  9% 'E )E !E ~E UD %w {E ]E ^E /E ;D J% 3  f  5  ^  `D (E $z Um hl %r %r %r %r %r hl ik ik ik ik xw :t :t :t xw ^x ^x ^x ^x ^x ^x ^x ^x ^x ^x ^x ^x ^x ^x ^x ^x ^x ^x ^x ^x ^x ^x ^x ^x ^x ^x ^x ^x ^x ^x ^x xw :t :t :t :t :t ik ik ik ik ik ik ik ik ik ik ik ik ik Um Um Um {e }c _E Q  ]  f  f  3  :E <E [E }E |E 1E 2E 3E 4E 5E 6E 7E 8E x> g  c  |  |  Q  9E                                                                                                                   ",
"                                                                                                                           sD |  4  3  f  3  i: 'E uD 0E aE bE cE dE eE fE gE hE F  ^  m  {- ^  iE jE >d Um hl %r %r %r %r %r hl ik ik ik ik xw xw :t :t :t xw ^x ^x ^x ^x ^x ^x ^x ^x ^x ^x ^x ^x ^x ^x ^x ^x ^x ^x ^x ^x ^x ^x ^x ^x ^x ^x ^x ^x ^x ^x xw :t :t :t :t :t ik ik ik ik ik ik ik ik ik ik ik ik ik Um Um Um {e #g kE Q  ]  f  _  t> [0 lE mE JD 1E jD nE oE pE qE rE sE qD x> 3  d  3  f  Q  tE                                                                                                                   ",
"                                                                                                                           0< |  f  p  f  3  ~9 uE vE 0E wE xE yE zE AE BE CE hE F  ^  w@ ^  q. DE EE >d Um hl %r %r %r %r %r hl ik ik ik ik ik xw :t :t :t xw ^x ^x ^x ^x ^x ^x ^x ^x ^x ^x ^x ^x ^x ^x ^x ^x ^x ^x ^x ^x ^x ^x ^x ^x ^x ^x ^x ^x ^x ^x xw :t :t :t :t :t xw ik ik ik ik ik ik ik ik ik ik ik ik Um Um Um {e }c FE Q  ^  ]  _  t> G  GE HE IE JE KE LE ME NE OE PE QE qD y  3  {- f  k  Q  RE                                                                                                                   ",
"                                                                                                                           h5 |  ^  f  f  o  `d SE TE !E UE VE VD dE WE XE CD bD }0 c  ]  ^  ^  YE ZE eD |j %r %r @r 9w %r %r hl ik ik ik ik ik ^x ^x ik :t :t :t xw ^x ^x ^x ^x ^x ^x ^x ^x ^x ^x ^x ^x ^x ^x ^x ^x ^x ^x ^x ^x ^x ^x ^x ^x ^x xw :t xw ^x ^x xw :t :t ik ik ik ik ik ik ik ik ik ik ik ik ik ik Um Um Um {e 3d `E Q  ]  3  e  L< s>  F .F +F &w JE @F #F $F %F &F *F =F x> j  f  f  f  Q  -F                                                                                                                   ",
"                                                                                                                           f> |  ^  f  f  e  ;F >F TE !E UE ,F cE WD WE XE CD 'F }0 B> ]  ^  ^  )F !F wB |j %r %r @r 9w %r %r hl ik ik ik ik ik ik ik ik :t :t :t xw ^x ^x ^x ^x ^x ^x ^x ^x ^x ^x ^x ^x ^x ^x ^x ^x ^x ^x ^x ^x ^x ^x ^x ^x ^x xw :t :t :t xw ^x ^x ^x ^x xw ik ik ik ik ik ik ik ik ik ik ik ik Um Um Um {e )c ~F Q  3  g  g  g  {F ]F ^F JD 1E KE &E /F (F %F &F _F :F x> j  f  f  {- Q  <F                                                                                                                   ",
"                                                                                                                           e> |  |  f  f  e  er >F TE [F }F ,F VD |F 1F 2F CD 3F }0 B> ]  ^  ^  )F 4F $z |j %r %r @r 9w %r %r hl ik ik ik ik ik ik ik ik :t :t :t xw ^x ^x ^x ^x ^x ^x ^x ^x ^x ^x ^x ^x ^x ^x ^x ^x ^x ^x ^x ^x ^x ^x ^x ^x ^x xw :t :t :t :t Bz :t :t xw ik ik ik ik ik ik ik ik ik ik ik ik ik Um Um Um {e )c 5F Q  ]  3  3  e  s> ]F 6F /D 1E KE &E 7F 8F %F 9F _F =F x> j  f  f  {- Q  0F                                                                                                                   ",
"                                                                                                                           d> |  |  5  {- 3  aF bF cF !E dF ,F eF |F fF gF hF iF J% 3  ]  ^  ^  jF kF $z |j %r %r %r %r hl hl hl ik ik ik ik ik ^x ^x ik :t :t :t xw ^x ^x ^x ^x ^x ^x ^x ^x ^x ^x ^x ^x ^x ^x ^x ^x ^x ^x ^x ^x ^x ^x ^x ^x ^x xw :t :t :t :t :t :t :t :t ik ik ik ik ik ik ik ik ik ik ik ik ik Um Um Um {e 3d lF Q  ]  e  3  L< M< ]F 6F mF KE nF oF pF qF %F rF OE =F x> |  5  f  {- Q  sF                                                                                                                   ",
"                                                                                                                           b> |  {- {- {- 3  tF uF vF vE dF wF xF |F fF yF zF ;D K% ^  5  {- d  AF BF >d |j %r %r %r %r hl ik ik ik ik ik ik ik ik ^x xw :t :t :t xw ^x ^x ^x ^x ^x ^x ^x ^x ^x ^x ^x ^x ^x ^x ^x ^x ^x ^x ^x ^x ^x ^x ^x ^x ^x xw :t :t :t :t :t CF Bz :t :t ik ik ik ik ik ik ik ik ik ik ik ik Um Um Um {e )c DF Q  3  g  g  6$ M< ]F EF FF GF HF IF JF qF KF PE LF =F y  |  f  k  {- Q  MF                                                                                                                   ",
"                                                                                                                           z< |  {- ^  k  3  lu NF OF !E }F PF xF ]E QF yF RF SF K% ^  {- {- {- TF BF >d |j %r %r %r %r hl ik ik ik ik ik ik ik ik ^x xw :t :t :t xw ^x ^x ^x ^x ^x ^x ^x ^x ^x ^x ^x ^x ^x ^x ^x ^x ^x ^x ^x ^x ^x ^x ^x ^x ^x xw :t :t :t :t :t :t :t :t :t hl ik ik ik ik ik ik ik ik ik ik ik Um Um Um {e )c UF Q  3  g  g  l  s> VF EF WF jD HF IF XF YF ZF `F nD :F y  |  5  k  {- Q   G                                                                                                                   ",
"                                                                                                                           .G |  j  3  3  e  lu +G @G [F }F #G &E $G %G yF &G SF L% {- k  5  {- *G BF >d |j %r %r %r %r hl ik ik ik ik ik ik ik ik ^x xw :t :t :t xw ^x ^x ^x ^x ^x ^x ^x ^x ^x ^x ^x ^x ^x ^x ^x ^x ^x ^x ^x ^x ^x ^x ^x ^x ^x xw :t xw ^x xw Bz =G :t xw ik ik ik ik ik ik ik ik ik ik ik ik ik ik Um Um {e -G ;G Q  ]  3  3  c  {F >G ,G 'G )G !G ~G {G YF ]G ^G nD :F y  |  {- {- {- Q  /G                                                                                                                   ",
"                                                                                                                           o> |  o  o  3  e  B# (G _G :G UE <G kD [G }G yF |G 3F K% l- {- ]  ^$ 1G 2G wB {e %r %r %r %r hl ik ik ik ik ik ik ik ik ^x xw :t :t :t xw ^x ^x ^x ^x ^x ^x ^x ^x ^x ^x ^x ^x ^x ^x ^x ^x ^x ^x ^x ^x ^x ^x ^x ^x ^x xw :t :t :t :t :t xw ^x ^x ^x ik ik ik ik ik ik ik ik ik ik ik ik ik Um Um {e )c 3G Q  b  o  g  x> {F >G 4G 5G ax !G 6G 7G 8G ]G ^G 9G 0G y  |  {- {- {- Q  aG                                                                                                                   ",
"                                                                                                                           d^ |  |  f  f  3  Lz bG cG dG eG fG nE [G gG hG iG iF K% {- {- {- ^$ jG kG $z hl %r %r %r hl ik ik gl gl ik ik ik hl :t :t xw ^x ^x ^x ^x ^x ^x ^x ^x ^x ^x ^x ^x ^x ^x ^x ^x ^x ^x ^x ^x ^x ^x ^x ^x ^x ^x ^x ^x xw :t :t :t :t :t :t :t :t xw ik ik ik ik ik ik ik ik ik ik ik ik ik ik Um Um {e lG mG Q  c  7  g  !$ M< nG oG pG qG qG rG sG tG ]G oD _F uG y  |  ^  ]  Q  Q  vG                                                                                                                   ",
"                                                                                                                           Kt |  Q  {- {- ]  :B wG cG vE xG yG zG AG BG CG DG EG J% {- {- {- ^$ FG EE >d hl %r %r %r hl ik ik ik ik ik ik ik hl :t :t ^x ^x ^x ^x ^x ^x ^x ^x ^x ^x ^x ^x ^x ^x ^x ^x ^x ^x ^x ^x ^x ^x ^x ^x ^x ^x ^x ^x ^x xw :t :t :t :t :t :t :t :t xw ik ik ik ik ik ik ik ik ik ik ik ik ik ik Um Um {e lG mG Q  b  6  e  4  s> nG GG pG HG qG IG JG KG %F `F _F >E y  |  ^  ]  Q  Q  vG                                                                                                                   ",
"                                                                                                                           A{ |  2  f  {- ]  :B LG MG vE NG OG zG [G PG yF hF DD 30 ^  ^  {- ^  QG EE RG hl %r %r %r hl ik ik ik ik ik ik ik ik :t :t ^x ^x ^x ^x ^x ^x ^x ^x ^x ^x ^x ^x ^x ^x ^x ^x ^x ^x ^x ^x ^x ^x ^x ^x ^x ^x ^x ^x ^x ^x xw :t :t :t :t :t :t :t :t ik ik ik ik ik ik ik ik ik ik ik ik ik ik ik Um {e #f SG Q  |  4  e  f  K< TG UG pG VG WG XG YG ZG `G `F  H T  g  ]  ]  ^  Q  Q  .H                                                                                                                   ",
"                                                                                                                           E> |  |  5  {- ]  :B LG +H !E @H #H zG $H }G %H hF &H 30 J+ ^  {- ^  *H EE RG hl %r %r %r hl ik ik ik hl %r hl ik ik ^x ^x ^x ^x ^x ^x ^x ^x ^x ^x ^x ^x ^x ^x ^x ^x ^x ^x ^x ^x ^x ^x ^x ^x ^x ^x ^x ^x ^x ^x ^x ^x ^x ^x xw :t :t Bz Bz :t :t hl ik ik ik ik ik ik ik ik ik ik ik ik ik ik Um {e #f =H Q  |  c  c  f  K< lE -H pG VG WG XG ;H >H _F ,H 7E jf l  ^  ^  ^  Q  Q  .H                                                                                                                   ",
"                                                                                                                           K^ |  ^  {- {- ]  :B 'H )H !H ~H {H ]H $H }G ^H /H (H 30 ^  {- {- ^$ _H :H >d hl %r %r %r hl ik ik ik hl %r hl ik ik ^x ^x ^x ^x ^x ^x ^x ^x ^x ^x ^x ^x ^x ^x ^x ^x ^x ^x ^x ^x ^x ^x ^x ^x ^x ^x ^x ^x ^x ^x ^x ^x ^x ^x xw :t :t :t :t :t :t hl ik ik ik ik ik ik ik ik ik ik ik ik ik ik Um {e #f =H Q  ]  g  y  6  s> <H [H }H HG WG |H 1H 2H *F 3H ;E U  y  1  {- ]  k  Q  vG                                                                                                                   ",
"                                                                                                                           4H |  f  f  {- 3  5H 6H +H !H ~H {H 7H 8H 9H 0H aH bH 30 ^  {- {- ^$ cH dH ~e hl %r %r hl ik ik ik ik ik ik ik ik ik :t xw ^x ^x ^x ^x ^x ^x ^x ^x ^x ^x ^x ^x ^x ^x ^x ^x ^x ^x ^x ^x ^x ^x ^x ^x ^x ^x ^x ^x ^x ^x ^x ^x xw :t :t :t :t :t hl ik ik ik ik ik ik ik ik ik ik ik ik ik ik ik Um {e #f =H Q  3  x> l  6  s> eH GG fH gH WG |H 1H 2H *F hH ;E iH y  j  k  ]  f  Q  vG                                                                                                                   ",
"                                                                                                                           J^ |  |  f  f  3  9y 6H +H TD jH {H kH 8H lH mH aH nH 30 ^  {- {- ^$ oH pH ~e hl %r %r hl ik ik ik ik ik ik ik ik ik :t xw ^x ^x ^x ^x ^x ^x ^x ^x ^x ^x ^x ^x ^x ^x ^x ^x ^x ^x ^x ^x ^x ^x ^x ^x ^x ^x ^x ^x ^x ^x ^x ^x ^x xw :t :t %r hl ik ^x ik ik ik ik ik ik ik ik ik ik ik ik ik ik ik {e #f =H Q  ]  g  e  4  C  qH rH sH tH uH IG vH wH ;E hH xH yH q% j  f  3  f  Q  vG                                                                                                                   ",
"                                                                                                                           zH |  |  f  {- 3  5H 6H +H TD @H {H AH BH CH DH EH FH 30 ^  ^  {- G  cH GH HH hl %r %r hl ik ik ik gl gl ik ik ik hl :t :t xw ^x ^x ^x ^x ^x ^x ^x ^x ^x ^x ^x ^x ^x ^x ^x ^x ^x ^x ^x ^x ^x ^x ^x ^x ^x ^x ^x ^x ^x ^x ^x ^x ik xw :t %r hl ik ik ik ik ik ik ik ik ik ik ik ik ik ik ik ik ik |j #f IH Q  z; c  4  m  10 JH KH LH MH NH OH PH QH RH hH xH w; q% j  f  ]  5  Q  vG                                                                                                                   ",
"                                                                                                                           5& |  f  f  {- 2  5H SH TH UH VH #H WH XH YH ZH `H  I F  ^  6& {- 6& .I +I ~e %r @r Lr %r ik (m gl ik ik ik xw %r :t :t xw ^x ^x ^x ^x ^x ^x ^x ^x ^x ^x ^x ^x ^x ^x ^x ^x ^x ^x ^x ^x ^x ^x ^x ^x ^x ^x ^x ^x ^x ^x ^x ^x ^x ik ^x ^x ^x ik ik ik ik ik ik ik ik ik ik ik ik ik ik ik ik ik ik |j @I #I Q  3  f  4  p  [0 $I %I &I *I =I -I dB ;I >I ,I 'I )I q% 3  ^$ x& ^  Q  9~                                                                                                                   ",
"                                                                                                                           !I |  4  f  {- 3  %$ ~I TH UH {I ]I cB XH ^I /I (I _I X< ^  ]  5  ^$ :I <I 5l hl %r %r %r hl ik ik ik ik ik xw :t :t :t xw ^x ^x ^x ^x ^x ^x ^x ^x ^x ^x ^x ^x ^x ^x ^x ^x ^x ^x ^x ^x ^x ^x ^x ^x ^x ^x ^x ^x ^x ^x ^x ^x ^x ^x ik ik ik ik ik ik ik ik ik ik ik ik ik ik ik ik ik ik ik ik ik |j #f [I Q  3  e  3  k  [0 }I |I 1I 2I 3I 4I 5I 6I >I 7I 'I )I q% b  ]  ^  ^  Q  8I                                                                                                                   ",
"                                                                                                                           5& |  j  5  {- e  m< 9I 0I aI xG bI cI dI eI fI gI hI iI 3  ]  ]  ^$ jI <I 3k gl ik ik hl %r hl ik ik ik ik hl :t :t :t xw ^x ^x ^x ^x ^x ^x ^x ^x ^x ^x ^x ^x ^x ^x ^x ^x ^x ^x ^x ^x ^x ^x ^x ^x ^x ^x ^x ^x ^x ^x ^x ^x ik ik ik ik ik ik ik ik ik ik ik ik ik ik ik ik hl hl ik gl (m gl hl {e -G [I Q  b  e  3  f  K< kI lI mI nI *I oI pI qI rI 7I sI tI q% b  |  2  |  Q  uI                                                                                                                   ",
"                                                                                                                           vI Q  2  ^  {- 3  9y wI xI yI zI AI BI CI DI fI EI FI iI ]  5  5  ^$ .I GI 6l gl gl ik ik ik ik ik ik ik ik ik :t :t :t xw ik ^x ^x ^x ^x ^x ^x ^x ^x ^x ^x ^x ^x ^x ^x ^x ^x ^x ^x ^x ^x ^x ^x ^x ^x ^x ^x ^x ^x ^x ^x ik ik ik ik ik ik ik ik ik ik ik ik ik ik ik ik ik ik ik ik ik hl ik ik Um )d HI Q  3  g  o  4  C  II JI KI LI *I MI NI OI >I PI QI RI x> 3  |  d  ]  Q  SI                                                                                                                   ",
"                                                                                                                           TI Q  6& 6& jq 3  %$ Dt UI VI WI XI YI XH DI /I ZI `I J% ^  {- k  jq  J .J vs +J hl %r hl gl gl ik ik ik ik hl %r :t :t xw ^x ^x ^x ^x ^x ^x ^x ^x ^x ^x ^x ^x ^x ^x ^x ^x ^x ^x ^x ^x ^x ^x ^x ^x ^x ^x ^x ^x ^x ^x ^x ik ik ik ik ik ik ik ik ik ik ik ik ik ik ik ik ik gl gl ik hl %r %r hl +J @f @J Q  ]  4  4  m  K< #J $J %J &J *J =J -J ;J >J oq ,J 'J y  3  ^  ^$ 3  Q  )J                                                                                                                   ",
"                                                                                                                           !J Q  ^  d  k  3  %$ ~J {J {J ]J ^J YI XH /J (J _J :J J% ^  l- {- jq <J [J 3k |j %r %r hl gl (m gl ik ik ik hl %r :t :t xw ^x ^x ^x ^x ^x ^x ^x ^x ^x ^x ^x ^x ^x ^x ^x ^x ^x ^x ^x ^x ^x ^x ^x ^x ^x ^x ^x ^x ^x ^x ^x ik ik ik ik ik ik ik ik ik ik ik ik ik ik ik ik ik ik ik ik ik ik ik ik hl +c }J Q  3  l  4  s% K< |J 1J 2J 3J 4J =J 5J 6J >J 7J 8J 9J y  b  ^  ^  |  Q  0J                                                                                                                   ",
"                                                                                                                           RB Q  |  |  5  j  :B ~J aJ bJ cJ dJ Nx eJ fJ gJ hJ iJ F  ^  ^  k  &0 jJ kJ lJ |j {e {e hl ik ik ik ik ik ^x xw %r %r :t :t ik ik ^x ^x ^x ^x ^x ^x ^x ^x ^x ^x ^x ^x ^x ^x ^x ^x ^x ^x ^x ^x ^x ^x ^x ^x ^x ^x ^x ^x ik ik ik ik ik ik ik ik ik ik ik ik ik ik ik ik ik ik ik ik ik ik ik ik ik |j #f }J Q  L< g  e  8  z( mJ nJ oJ pJ qJ rJ sJ tJ >J uJ QE 7; y  j  |  2  Q  Q  vJ                                                                                                                   ",
"                                                                                                                           U% Q  q. Q  d  j  %$ wJ xJ yJ zJ AJ BJ Gz BH CJ DJ EJ J% ^  ]  3  A> FJ GJ HJ 6l 6l js Lr @r Bz ik ik ik xw xw hl hl hl hl ik ik ik ik ik ^x ^x ^x ^x ^x ^x ^x ^x ^x ^x ^x ^x ^x ^x ^x ^x ^x ^x ^x ^x ^x ^x ^x ^x ^x ik ik ik ik ik ik ik ik ik ik ik ik ik ik ik ik ik ik gl gl ik @r js js Cr %r @I }J Q  t> z> z> _  10 IJ JJ KJ LJ MJ NJ OJ PJ QJ uJ RJ SJ y  |  |  2  ^  Q  F$                                                                                                                   ",
"                                                                                                                           TJ 1  A  2  ^  |  UJ VJ WJ WJ XJ YJ ZJ `J  K .K +K @K 40 Ju 6& F  I% #K $K %K td &K *K =K eD Kv :t hl %r %r %r :t ^x ik ik ik ik ik ik ^x ^x ^x ^x ^x ^x ^x ^x ^x ^x ^x ^x ^x ^x ^x ^x ^x ^x ^x ^x ^x ^x ^x ^x ^x ik ik ik ik ik ik ik ik ik ik ik ik ik ik ik Um Um Um Um ej bt Sm +c -K -K ;K >K ,K 'K Q  H  E  D  M% 40 )K !K ~K {K ]K ^K /K (K `G KF _K :K o  ]  ^  ^  2  Q  <K                                                                                                                   ",
"                                                                                                                           P: 80 [K }K 5< C( g% |K 1K 2K 3K 4K 5K 6K 7K 8K 9K 0K aK bK cK dK eK fK gK hK iK jK kK lK mK 'D ik Wq %r %r %r hl ik ^x ik ik ik ik ik ik ^x ^x ^x ^x ^x ^x ^x ^x ^x ^x ^x ^x ^x ^x ^x ^x ^x ^x ^x ^x ^x ^x ^x ik ik ik ik ik ik ik ik ik ik ik ik ik ik ik ik Um Um Um Um Um |j nK oK pK qK rK sK tK uK vK wK xK yK zK AK BK CK DK EK FK GK HK IK JK {l KK LK MK NK >- OK E^ #  s.                                                                                                                   ",
"                                                                                                                                             PK 2  y  o  j  Q  Q  QK RK SK TK UK VK WK XK YK ZK `K Q  Q  Q  Q  Q  Q   L uB Um hl %r %r %r hl ik ^x ik ik ik ik ik ik ^x ^x ^x ^x ^x ^x ^x ^x ^x ^x ^x ^x ^x ^x ^x ^x ^x ^x ^x ^x ^x ^x ^x ik ik ik ik ik ik ik ik ik ik ik ik ik ik ik ik Um Um Um Um hk {e .L +L Q  Q  Q  Q  Q  Q  @L #L $L %L &L *L =L -L ;L ;L >L ,L Q  j  o  j  o  'L                                                                                                                                        ",
"                                                                                                                                             )L Q  2  |  |  2  6  !L ~L {L ]L ^L /L (L _L :L <L [L q. x& x& Q  Q  Q  }L -G %r %r %r %r %r hl ik ik ik ik ik ik ik ^x ^x ^x ^x ^x ^x ^x ^x ^x ^x ^x ^x ^x ^x ^x ^x ^x ^x ^x ^x ^x ^x ik ik ik ik ik ik ik ik ik ik ik ik ik ik ik ik ik ik Um Um Um Um Bj }o |L 1L q. Q  2  ^  q. Q  2L 3L 4L 5L 6L 7L 8L 9L 0L aL 9o bL f  f  3  ]  j  cL                                                                                                                                        ",
"                                                                                                                                             0F Q  Q  2  2  |  q% o+ dL eL fL gL hL iL jL kL lL mL 2+ q. q. Q  Q  Q  nL |d Mr @r %r %r hl ik ik ik ik ik ik ik ik ik ik ik ^x ^x ^x ^x ^x ^x ^x ^x ^x ^x ^x ^x ^x ^x ^x ^x ^x ^x ^x ^x ^x ik ik ik ik ik ik ik ik ik ik ik ik ik ik ik ik Um Um Um Um Um Cj oL pL Q  Q  2  q. A  Q  qL rL 5L sL tL uL vL wL xL yL zL AL y  j  ^  ^  |  BL                                                                                                                                        ",
"                                                                                                                                             0F Q  q. A  ^  3  q% CL DL EL FL GL HL IL IL JL KL LL 2+ q. q. Q  Q  Q  ML 0A Sm %r %r %r hl ik ik ik ik ik ik ik ik ik ik ik ^x ^x ^x ^x ^x ^x ^x ^x ^x ^x ^x ^x ^x ^x ^x ^x ^x ^x ^x ^x ik ik ik ik ik ik ik ik ik ik ik ik ik ik ik ik ik Um Um Um Um 9t Dk NL OL q. x& x& Q  1  Q  PL QL 5L `m Or RL SL TL UL VL WL XL j  3  w@ x& 2  YL                                                                                                                                        ",
"                                                                                                                                             0F Q  |  |  {- f  7  B9 KF ZL `L  M .M +M +M @M #M $M 2+ Q  q. Q  q. Q  %M *K js %r %r %r hl ik ik ik ik ik ik ik ik ik ik ik ik ik ik ^x ^x ^x ^x ^x ^x ^x ^x ^x ^x ^x ^x ^x ^x ^x ^x ik ik ik ik ik ik ik ik ik ik ik ik ik ik ik ik ik ik Um Um Um Um bt 2j &M *M ^  2  Q  Q  q. Q  =M -M ;M tL >M ,M 'M )M !M ~M {M ]M j  ]  {- x& x& ^M                                                                                                                                        ",
"                                                                                                                                             [K Q  |  |  ^$ 3  >% R6 /M pD (M _M :M <M [M }M |M 1M W< 2  |  2  A  Q  2M 2d js %r %r hl ik ik ik ik ik ik ik ik ik ik ik ik ik ik ik ik ^x ^x ^x ^x ^x ^x gl gl gl gl gl gl ik ik ik ik ik ik ik ik ik ik ik ik ik ik ik ik ik ik ik ik hl Um Um Um Um gk 3M &M 4M ^  |  j  5  ^  Q  5M 6M 7M 8M 9M 0M aM bM cM dM eM fM o  3  5  d  2  gM                                                                                                                                        ",
"                                                                                                                                             0F Q  |  c  j  o  z  R6 hM iM jM kM lM mM nM oM pM qM B  3  j  o  |  Q  rM {c hx 9w %r %r hl ik ik ik hl hl ik ik ik ik ik ik ik ik ik ik ik ^x ^x pl qk qk (m (m (m (m (m gl ik ik ik ik ik ik ik ik ik ik ik ik ik ik ik ik ik ik ik ik |j fg <o Bj +J sM tM uM vM ]  g  6  c  1  2+ wM xM yM zM AM BM CM DM EM FM GM HM 6  g  3  |  o  IM                                                                                                                                        ",
"                                                                                                                                             JM Q  |  3  j  o  y  R6 KM LM MM NM OM PM f[ QM RM SM y  j  |  |  2  Q  TM 1d 2j 9w %r %r hl ik ik ik hl hl ik ik ik ik ik ik ik ik ik ik ik ^x pl qk qk qk (m (m (m (m (m (m gl ik ik ik ik ik ik ik ik ik ik ik ik ik ik ik ik ik ik ik |j |j fg fg Um UM +f VM WM 1  o  4  6  c  o  XM YM )- ZM `M  N .N K{ +N @N #N $N g  i^ 3  |  o  %N                                                                                                                                        ",
"                                                                                                                                             &N Q  ^  ]  {- 3  c  *N =N MM -N ;N >N ,N um 'N )N !N 4  d  ^  ^  ^  Q  ~N |d rs %r %r %r %r hl ik ik hl hl ik ik ik ik ik ik ik ik ik ik ik ik gl (m (m gl ik gl (m (m (m (m (m gl ik ik ik ik ik ik ik ik ik ik ik ik ik ik ik gl gl fk Tm |j |j |j Um UM {N ]N ^N ]  e  f  f  4  !$ /N (N _N :N <N <N [N }N |N 1N 2N $N o  c  3  ^  |  IM                                                                                                                                        ",
"                                                                                                                                             3N Q  ^  ^  ^$ 3  !$ 4N 5N 6N [N 7N 8N 9N 0N hn aN bN 4  ^$ ^  ]  ^  Q  ~N cN rs {e %r %r %r hl ik ik ik ik ik ik ik ik ik ik ik ik ik ik ik ik gl (m (m pl gl (m (m (m (m (m gl gl ik ik ik ik ik ik ik ik ik ik ik ik ik ik ik ik hl gk Tm gk Um Um Um dN {N ]N eN A  3  f  d  b  g  fN gN hN iN [N {] jN kN lN mN nN oN o  b  1  ]  ]  gM                                                                                                                                        ",
"                                                                                                                                             pN Q  Q  ^  {- f  7  T# qN rN [N sN tN =s uN .( vN H9 o  2  j  c  3  Q  wN xN 2j dc |j %r %r hl ik ik ik ik ik ik ik ik ik ik ik ik ik ik ik gl (m (m (m (m (m (m (m (m (m gl ik ik ik ik ik ik ik ik ik ik ik ik ik ik ik ik ik hl %r rs rs 9t |j |j ^n Ej yN zN 4M 1  o  j  |  |  y  AN BN CN [N DN EN DN DN kN lN nN oN g  j  2  ^  2  IM                                                                                                                                        ",
"                                                                                                                                             FN Q  2  5  {- f  7  P6 EL GN [N HN tN nq in uN IN JN o  A  |  o  |  Q  TM 2d ,m {e |j %r %r hl ik ik ik ik ik ik ik ik ik ik ik ik ik ik ik gl (m (m (m (m (m (m (m (m (m gl ik ik ik ik ik ik ik ik ik ik ik ik ik ik ik ik ik %r rs Tm Tm Um Um Um Ej !d El uM KN 2  j  d  ]  j  z  LN MN }N DN NN DN ON ON PN QN RN SN g  4  2  Q  2  %N                                                                                                                                        ",
"                                                                                                                                             H^ Q  |  |  f  |  q% TN UN VN ON WN -s XN nq YN ZN `N |  ^  ^  ]  ^  Q  3G |d rs |j |j {e {e %r hl ik ik ik ik ik ik ik ik ik ik ik ik ik ik gl (m (m (m (m gl (m (m (m (m gl gl ik ik ik ik ik ik ik ik ik ik ik ik ik ik ik Um 9t rs Tm bt Um Um |j Ej  O .O +O @O ^  3  k  ^  5  4  #O $O DN DN [N [N ON DN EN lN %O &O o  j  ^  Q  2  %N                                                                                                                                        ",
"                                                                                                                                             *O Q  |  |  k  m  7  TN 5N =O DN -O ;O >O ,N ,O 'O )O |  q. ^  ^  ^  Q  !O 3d 9t |j Um {e {e Dr hl ik ik ik ik ik ik ik hk ik ik ik ik ik hl ik (m (m (m gl ik gl @n (m (m (m (m ik ik ik ik ik ik ik ik ik ik ik ik ik hk hk Um 9t 9t rs {e |j |j {e 1j 4k ~O {O ^N ^  j  d  {- 5  6  ]O ^O [{ DN [{ /O DN NN NN EN (O _O |  |  ^  6& 2  IM                                                                                                                                        ",
"                                                                                                                                             :O Q  2  ^  {- {- 6  P6 <O [O [N HN -s }O 8N qp |O 1O c  2  d  A> ^  Q  2O 3O Tm dN +J Tm fg rd ej gk $r dj fk ej ik hk Wq ik fk fj fj ik hl ik 4t (m 4t fk gl @n #n #n pj Pq gl hl $r $r uv fk 4t ik ik ik ik gl gl &r cm cm +J 4O bt 9t {e fg |j Dj Cj El ~O 5O 6O 1  j  k  {- w@ 6  r9 7O +N VN 8O [{ DN DN DN EN 9O 0O |  2  d  6& ^  gM                                                                                                                                        ",
"                                                                                                                                             aO Q  3  ]  ]  |  7  X6 <O bO [N HN cO dO tN eO fO |6 g  |  |  J+ A  Q  gO me Tm |j Um bt Um &r hO 9t fg +J dj ej ej ik gl gl fk gl ik gl gl (m (m pj gl yw fl _m (m @n gl Wq Wq $r hl hl %r uv fk ik ik hl hl ik gk Um Um ej hO hO Um Um |j {e {e 7l Dj iO ~O 5O jO 1  j  f  f  6  7  u9 7O kO VN 8O [O DN DN [{ |N (O lO j  j  ]  ^  3  mO                                                                                                                                        ",
"                                                                                                                                             nO Q  |  |  3  j  7  X6 oO pO [O ;N -O qO tN eO 5] rO y  |  5  |  |  Q  gO me Tm Dj Tm rs 9t 'm +J bt Um bt bt Um ik $r Wq ik $r ik ik uv ik gl pj cj pj (m (m gl gl (m ik hk gl hk Wq $r Dr $r ik ik ej $r %r 9t 9t rs 9t bt &r &r Um |j |j {e Rj Rj Cj iO sO tO uO ]  g  4  4  6  7  s9 7O vO K{ [O wO xO yO DN kN zO lO y  g  j  |  j  mO                                                                                                                                        ",
"                                                                                                                                             AO Q  2  |  ]  |  y  X6 BO pO -N CO cO ;O DO 7r EO FO o  5  ^  ^  ^  Q  2O 1d Dj Cj GO 9t +J 'm cm Um hO hO dN +J ik hk Wq ik 6w Oq hk fj pj pj pj (m pj (m @n pj pj gl hl 6w hk hk Oq ww hk hk ik +n +J Dr hl 9t ,m rs Jx my &r ej |j Um Um Um |j {e HO IO sO JO KO ^  c  f  m  4  6  LO 7O MO VN VN NO OO ON DN EN 9O PO j  j  ]  |  |  QO                                                                                                                                        ",
"                                                                                                                                             RO Q  Q  Q  ^  A  y  SO TO >J MM Os cO ;O DO UO VO WO j  ^  ^$ ^$ ^$ Q  XO Mf El Dj  O ^n 'm YO :f 3l ZO .f }j -d zw 6w Oq ik gl hk 8t -d Ae dg @k @k `O  P fl pj pj 'e fj ik ik pj Ae Hd zf zf }j +o Pn Um rs bt 9t rs ks rs YO Of .P zf +P @P Ae +J #P IO $P %P &P ^  ]  {- {- {- 8  *P 7O MO VN =O VN [O [O [O =P zO PO |  ^  ^  ^  ^  i%                                                                                                                                        ",
"                                                                                                                                             RO Q  Q  Q  ^  2  4  -P 'E 8r bO ;P cO >P DO UO ,P 'P o  ]  d  l- x& Q  )P ;f iO Dj Ej dN !P ~P {P ]P ^P /P jd (P cm %r ww 6w ik gl _P :P <P $f [P }P ]P |P 1P sk gl rk $r ik gl 2P 3P 4P 5P ^P 6P 7P 8P Ji |j 9t |j @r {e cj 9P 0P aP bP cP dP eP fP gP hP iP jP kP ^  f  {- ^  w@ 0> lP mP MO nP +N =O VN [O [O =P (O oP |  ^  ^  Q  2  h%                                                                                                                                        ",
"                                                                                                                                             pP Q  2  2  ]  |  y  -P eo K_ K_ qP 8r rP sP tP uP vP y  e  f  5  ^  Q  wP xP iO yP zP AP BP CP DP EP FP GP HP IP -d @r rs {e 9t JP KP LP MP NP OP PP QP RP SP .P ej ik 6w ik fl TP UP VP WP WP XP YP ZP `P $r rs ,m ,m Um ^m  Q YP .Q 8g +Q @Q #Q $Q %Q iP &Q *Q =Q 3  6  f  e  l  =+ `6 -Q MO MO ;Q >Q VN [O ,Q 'Q zO )Q |  ]  2  2  |  !Q                                                                                                                                        ",
"                                                                                                                                             5< Q  2  2  1  j  y  i7 ~Q y5 {Q ,s ]Q ^Q /Q (Q _Q rO 6  4  4  f  5  Q  :Q Xf <Q [Q }Q |Q 1Q 2Q 8u =g 3Q 4Q 5Q 6Q 8i 3j 9t |j Tm 7Q 8Q 9Q kg 0Q aQ Gr bQ cQ }| -d Tm dj fj ik  P dQ eQ 'o Uk Uk Vq 9g fQ gQ zP 4k Ek Ek dN Xq hQ iQ jQ kQ lQ mQ -q Fv Ek nQ oQ pQ qQ e  7  6  e  6  =+ Y7 rQ ;Q ;Q ;Q =O [O [O 8O kO sQ tQ 3  |  2  |  |  uQ                                                                                                                                        ",
"                                                                                                                                             L  Q  Q  Q  2  3  y  f7 '. ,s {Q vQ wQ xQ xQ xQ yQ rO y  |  5  |  d  Q  zQ AQ BQ CQ DQ EQ FQ GQ Yr HQ ue Jd xc IQ @k Ej bt Bj Um 'm JQ KQ LQ MQ NQ OQ Tb PQ QQ .f +J &r dj dj RQ SQ TQ UQ Sq Tq et 5e VQ WQ zP dm .O .O  O XQ 9( iQ YQ Pm ZQ `Q  R .R %Q +R @R #R $R ]  o  3  5  ^$ 8  g7 %R &R MO ;Q *R pO VN =R -R ;R >R ]  ^  6& 2  ]  E>                                                                                                                                        ",
"                                                                                                                                             L  Q  Q  2  |  j  q% $8 ,R 'R s_ )R !R ~R {R xQ _Q vP b  Q  ^  ]  d  Q  ]R ^R /R (R 3M 3e _R :R <R [R [R HQ *g hQ +P }R dN ^n dN YO |R 1R lk nk nk NQ 2R 3R 4R Tj pj +J hO 7Q 5R 6R 7R Ij zl :n 8R 9R 0R aR Ej 4k Xk .O Dj @k bR cR dR eR ZQ 0d fR gR GO +R iP hR iR ^  3  ]  ^$ ^$ p  jR kR *R nP lR >Q mR nR MO oR pR qR 2  2  Q  ^  Q  E>                                                                                                                                        ",
"                                                                                                                                             rR Q  Q  ^  Q  j  q% sR tR uR vR ZA wR xR yR (Q zR AR X< Y< Y< Y< X< Q  BR CR DR ER FR GR HR IR JR KR LR HQ 5u 9( XQ hO MR  O dN YO NR OR lk Hk Hk Gf PR 3R QR RQ @n sM sM RR SR TR UR ]u Tk Uq 8R VR WR XR UM El YR Cj Dj Ki bR mj dR ZR %f 'o `R  S .S +S @S #S $S W< W< }0 }0 I% C  %S &S *S =S -S ;S >S 9O ,S 'S )S  ) 1  2  2  2  2  !S                                                                                                                                        ",
"                                                                                                                                             ~S ,  ,  ~  {S ]S ^S B7 G6 /S $N (S D{ kf _S :S <S [S }S |S 1S 2S 3S 4S 5S .u 6S 7S 8S 9S 0S aS bS cS ld dS eS fS XQ 'm 7Q 7Q +J YO gS hS iS jS nk Ff kS QP lS @k RR JP RR :f mS nS oS ul ms et pS kg qS WQ rS Dj qg qg !d Vi sS tS 3m uS vS wS xS yS zS AS BS CS DS ES FS GS HS IS JS KS LS MS NS OS PS QS RS `N SS TS US VS 'k zm WS XS YS                                                                                                                                        ",
"                                                                                                                                                               ZS Q  j  p  6. 7  @) `S  T .T +T @T #T $T %T &T *T =T q. A  2+ q. H  F  -T ;T >T ,T 'T )T !T ~T {T Xq Xq ]T ]T ^T .s /T ei (T _T :T <T [T }T |T ^T yi Xq yi oi 1T 2T %v 3T 4T 5T 6T 7T 8T mS Tj mS @k zf 6i 9T 0T aT bT cT dT eT E  q. q. q. X< fT gT hT iT jT kT lT mT nT oT pT {l B7 f  c  y  y  !$ qT                                                                                                                                                          ",
"                                                                                                                                                                  2  5  4  6  6  V< rT sT tT uT vT wT xT yT zT AT BT W< A  q. q. 2  q. CT DT to ET FT GT HT {f IT JT _p fS KT LT MT NT OT PT QT RT ST TT Ko UT KT LT VT WT XT YT ZT `T  U .U `T +U K} @U #U $U @U @U @U %U &U *U 7m Cf =U -U ;U 3  A  A  ^  W< >U ,U 'U )U )U !U ~U {U ]U ^U /U (U =+ A  B  3  c  l  _U                                                                                                                                                          ",
"                                                                                                                                                                  4  k  f  f  4  V< :U <U t# [U }U |U 1U 2U 3U 4U 5U 2+ 2  A  ]  ]  Q  6U 7U 8U 9U 0U $g |o aU bU cU dU eU fU gU hU iU dc Sj jU dc {e 7i #U kU lU mU nU oU pU qU rU Fj +J ^n Um .P sU tU ^o uU Qk Qk vU wU xU yU sd dd zU AU BU ^  ]  ]  3  E  CU DU EU FU GU HU IU JU KU vQ LU 7; ;. 5  ^  ^  f  5  MU                                                                                                                                                          ",
"                                                                                                                                                                  j  4  4  4  6  V9 NU OU PU QU RU SU TU UU VU WU XU W< 1  c  e  d  Q  YU ZU `U  V .V 'g +V @V #V $V %V &V *V =V -V 6q Vr Zk HJ Qg Fl <o ;V >V ,V _r kc 'V )V !V Fk qg Ok 3M dm yP Vv Yn `j Mj Sq :n `j si ~V {V tc ]V ^V AU /V A  ]  ]  3  }0 (V _V :V <V [V }V |V 1V 2V 3V 4V 7; q% f  {- {- f  f  5V                                                                                                                                                          ",
"                                                                                                                                                                  o  6  6  6  7  >$ 6V 7V 2< 8V 9V 0V aV bV cV dV eV W< 3  y  l  ]  ^  fV gV hV iV jV kV +V lV mV nV &V oV pV qV rV Tp sV cd jm vd tV uV vV >V wV wV xV yV 7g zV AV iO Vr 3M El BV CV DV EV Sk Jk 0k lk Oi FV GV HV dd IV JV KV ]  3  j  b  E  LV MV NV OV PV QV RV SV TV UV VV WV j^ 7  g  3  c  j  XV                                                                                                                                                          ",
"                                                                                                                                                                  |  4  6  4  6  >$ YV 26 ,4 ZV `V  W .W +W @W #W $W q. f  c$ 6  b  ^  %W &W *W  V jV =W id -W ;W >W ,W 'W )W !W ~W {W ]W |e |e sV ^W 3e /W ps (W wV wV _W >r :W {W Dj Vr tV Uf <W is Ri !n ll 0k kl gm fi Oh [W }W |W 1W JV 2W w@ t> z> z; J+ 3W 4W 5W 6W lI 7W 8W 9W 0W aW bW cW B7 6  4  5  e  j  dW                                                                                                                                                          ",
"                                                                                                                                                                  Q  f  p  f  j  ;$ :U eW 46 fW NE gW hW iW jW kW lW B> 3  m  ^  B  ^  mW nW oW =W  V 'g Zg pW qW rW rW sW tW EP uW .n ]f Gd ee vW ]W wW xW yW zW wV AW BW ;r :W {W !d sg tV Uf <W .r CW !n DW DW {m lj EW ai qe jV FW GW HW IW ^$ ^$ ^  jq ^$ JW KW LW MW NW OW PW QW RW SW TW UW z  4  {- {- ]  |  VW                                                                                                                                                          ",
"                                                                                                                                                                  Q  f  p  f  f  V9 WW XW YW ZW `W  X .X .X +X @X #X x> 3  k  R$ ]  2  $X %X Gp &X *X =X -X ;X >X ,X 'X )X !X ~X {X .n sg |e ]X Uf ^X /X b! (X ts Gr :d aQ Uk _X .n !d :X YR Xk 3e Kr di <X tl [X }X |X 1X 2X `g 3X 4X 5X 6X 7X G  ^$ sz sz k  8X *< B6 9X p6 M: 0X S5 aX l: 8. bX 7  f  {- {- ^  5  cX                                                                                                                                                          ",
"                                                                                                                                                               dX Q  f  f  f  4  >$ eX d_ fX 4: K: gX hX iX jX kX D9 z  f  f  e  e  ]  lX mX nX oX Eg 6n 0i pX qX rX sX tX uX vX wX )r xX /X /X Tj SR yX G= zX =v AX 7c xg 6T @g $j zf zf zf mS ]T BX CX DX 5L EX FX Wm GX HX Ru 4d |Q IX JX KX A> p  5  ]  f  c_ LX 5+ Rt >6 m= R. ): aX MX NX bX 0> k  l- l- ^  d  OX                                                                                                                                                          ",
"                                                                                                                                                               PX Q  4  4  4  6  @) QX k6 )4 ^; R. [A RX gX gX SX g9 H$ !$ g  l  e  A> TX UX VX WX XX YX ZX `X  Y .Y +Y @Y #Y $Y %Y &Y *Y Jo VT Io n/ =Y -Y ;Y >Y ,Y 'Y jk )Y !Y ~Y {Y ]Y -p ^Y /Y eh (Y _Y :Y Bl ~d Mk ^P <Y 7p [Y }Y Lh |Y 1Y 2Y !$ 6  c  l  3Y 4Y 5Y MX P= Q5 %* q+ 6Y MX 0X 7Y =+ f  {- l- ^  |  H7                                                                                                                                                          ",
"                                                                                                                                                               8Y Q  6  6  6  7  >$ 9Y 0Y ;6 Q@ -: M5 av aY k_ bY g9 7  7  g  g  l  y> cY dY eY fY gY hY iY jY nX ye kY lY 0U vW mY nY oY pY qY rY sY tY uY EQ vY }Q wY xY yY zY AY EP BY CY DY EY LP {W 3M |e be FY GY Fk HY IY JY KY pU LY MY +E 6  l  l  l  c_ NY Rt MX %* ): %* q+ 6Y aX d: OY =+ f  5  {- d  |  PY                                                                                                                                                          ",
"                                                                                                                                                               QY Q  6  4  4  !$ F% >4 0Y ;6 s# M# 6+ l: fy RY s_ W# ;. l  !$ 6. 8  ^( SY TY UY VY WY XY YY ZY `Y  Z qc qc qc .Z 8i wl Kj +Z OQ Gf Rf @Z #Z $Z %Z }d &Z *Z =Z 7q -Z ;Z >Z >Z ,Z mc 'Z }j )Z sd !Z ~Z {Z Ji ]Z ^Z /Z %h 8c (Z _Z }0 4  p  k  k  3Y NY 2* P= m# ,: D& :Z w* &* d: <Z 0> k  {- {- x& ^  PY                                                                                                                                                          ",
"                                                                                                                                                               8Y Q  3  5  5  e  o< [Z +B )4 +6 $@ }Z m# P5 %* NX |Z N= 8  8  8  9  z( 1Z 2Z AG 3Z 4Z 5Z 6Z 7Z `Y 8Z 9Z qc jV 0Z Ng aZ Tq bZ YQ 6e cZ dZ eZ fZ FY be be gZ DQ hZ iZ ^Z ge jZ ld 0c 'Z $n kZ xP .Z lZ mZ Ji nZ 'V %d oZ pZ qZ rZ 30 w@ ^$ v7 x7 s$ sZ ]/ P5 ,: -: R. :Z 3* MX NX <Z =+ k  l- l- ^  ^  PY                                                                                                                                                          ",
"                                                                                                                                                               tZ Q  e  f  f  e  ;$ 7Y k6 k, +6 I# 9: 9: 1@ m# 96 uZ -$ p  l> 7$ 6. s> vZ wZ xZ yZ zZ 5Z AZ BZ `Y CZ DZ 8Z iV EZ FZ wl bl 0m es YQ lm GZ 7P HZ IZ gZ gZ JZ KZ gQ LZ ac MZ Ze -m bQ NZ OZ PZ QZ .Z RZ mZ _q [e SZ TZ UZ VZ WZ XZ J% w@ x7 x7 p  yp YZ !: E/ q+ N+ S5 C5 ZZ D& 0X bX H$ 3  k  k  3  ^  :%                                                                                                                                                          ",
"                                                                                                                                                               `Z Q  g  6  6  x> F%  ` ZW )4 S; .` 9: ^; 1@ |@ F: uZ ,$ L< L< 6$ 6. s> +` @` #` $` %` &` *` :| `Y =` CZ =` |W *X -` ;` >` 1t 1t ,` '` )` !` ~` {` ]` ^` ^` ~` gQ /` >r Xe Xe 6e &i (` mS mZ 4X _` :` mZ Ji <` Tb TZ [` 2R }` |` :E 6  4  f  o  $: 1` /# l: %* 2* 2` C5 ,: R. 3` 4` z  j  |  |  |  2  :%                                                                                                                                                          ",
"                                                                                                                                                               5` Q  y  7  6  x> F% 6` i6 7` '4 0Y +6 s# (; L# v6 ;> >% l  l  6$ 6$ ^( 8` 9` 0` %V *V a` b` c` d` e` f` g` h` i` j` k` Wm l` m` n` o` p` q` r` s` t` u` v` w` /n x` y` z` ul )o A` B` rS :` lZ &X 0Z C` Oq D` E` F` G` H` I` J` I  e  f  3  c  #6 K` m: R. !: J: r6 G: F5 F5 G5 L` z  3  ]  5  ]  2  Xd                                                                                                                                                          ",
"                                                                                                                                                               M` Q  g  6  e  l  h, N` K` O` P` Q` f6 j, R` S` T` ]O =$ l  p  p  R$ I  U` V` W` X` Y` Z` ``   .. .+ .'b @ .# .$ .% .& .* .= .- .; .> ., .' .) .! .~ .{ .] .^ ./ .( ._ .: .< .[ .} .| .1 .2 .3 .4 .4 .5 .6 .7 .8 .9 .0 .a .b .c .E  R$ m  R$ 8  d .e .f .gA g .g .g .DA h .~: ~: i .d@ 3  ^  {- ^  ^  J7                                                                                                                                                          ",
"                                                                                                                                                               j .Q  g  8  e  l  )$ q{ L^ E$ 8_ 8_ 27 ;8 k .l .m .PO !$ 6  4  8  3  H  n .o .p .q .r .s .t .u .v .w .w .x .y .z .A .B .C .D .E .F .G .H .I .J .7S K .L .L .M .N .O .P .Q .R .S .T .U .V .W .X .Y .Z .M .` . .....+..@..#..$..%..A> e  8  9  !$ >0 &..*..*..Ot =..oa :7 -..;..;..>..!$ j  ]  d  ]  ^  ,..                                                                                                                                                         ",
"                                                                                                                                                               '..Q  x> 6  7  x> >% >% ;$ S9 -$ m> )..=$ 0> x  =$ 6. 7$ 6  4  8  f  3  c( :E iI <0 ^0 iI iI H  ^  3  t> t> R$ t> /  H  C  H  H  2+ Ju C  C  /  ^$ A> /  ^  ]  A> H  D  I  I  C  [0 ^  /  p  e  ]  ^  d  ^  s> +E :E }0 E  F  ^  1  z> g  x> x> g  e  6  c$ 8  6  x> 7  l  l  !$ !$ g  j  j  j  3  2  ,..                                                                                                                                                         ",
"                                                                                                                                                               X4 Q  7  7  6  !$ 6. 6. 6. 6. 8  p  b$ 8  L< 6$ !$ 8  e  4  4  e  e  3  e  3  ]  _  3  3  z; ]  ]  3  3  3  f  3  3  w@ 3  3  3  5  ]  ]  ]  k  k  ]  ]  ]  3  3  5  ]  5  f  4  3  3  3  4  4  5  m  m  f  e  3  ]  ]  z; w@ ]  z; i^ b  4  6  f  f  f  5  5  3  c  3  3  ]  3  e  e  |  j  f  5  Q  !..                                                                                                                                                         ",
"                                                                                                                                                               ~..Q  c$ 6. p  8  6. 6. 8  7$ l  8  6. 8  L< 6$ l  4  f  f  3  z> 3  3  3  3  3  ]  ]  ]  3  3  3  3  3  3  3  3  3  3  3  3  3  3  3  5  {- k  5  ]  ]  3  3  ]  ^  5  5  f  f  4  8  p  f  f  f  f  f  f  f  f  5  5  ]  ]  ]  ]  ]  ^$ ]  f  f  4  4  f  f  e  c  |  |  |  f  5  5  d  5  {- {- {- {..                                                                                                                                                         ",
"                                                                                                                                                               ]..Q  ]  p  p  9  6. 6. 8  6. !$ !$ 6. 6. L< L< l  6  f  R$ R$ e  3  3  3  3  3  ]  ]  3  f  3  3  3  3  B> B> B> 5  f  5  f  5  5  5  5  5  f  k  5  5  5  5  5  {- 5  5  5  f  f  m  f  f  f  f  f  f  f  f  5  5  f  5  k  k  ^$ w@ /  t> 3  3  c  g  e  e  e  e  b  1  5  5  {- {- ]  ]  x& ^$ w@ j5                                                                                                                                                          ",
"                                                                                                                                                               '  Q  e  t> p  8  8  9  !$ l  L< 6$ !$ 8  z> 3  3  e  R$ t> t> t> R$ R$ R$ R$ t> t> t> R$ R$ R$ R$ t> A> A> A> A> H  H  H  H  ^  ^  ^  ^  ]  ]  {- {- x& x& x& ^  ^  ^  G  w@ w@ w@ ]  ]  ]  ]  ]  ^$ ^  ]  A> ^  ^  ]  ^  A> z; z; z; z; 3  3  3  3  3  ]  ]  ]  ]  ]  ^  d  d  ^  ^  ]  1  A  ^  A  ^..                                                                                                                                                         ",
"                                                                                                                                       !- /..                  (..|  -$ =$ m> 10 _..:..<..[..][ ][ <..:..}..|..|..|..|..:..:..|..1..1..1..1..1..|..2..2..3..3..3..3..3..4..2..}..}..}..5..:..:..40 40 40 6..7..N% O% 8..O% O% 1..|..|..4..4..4..|..|..|..5..5..|..|..|..:..5..:..|..|..|..}..~[ 9..0..3..a..a..a..b..c..d..e..f..g..h..h..i..i..j..k..l..m..n..o..p..q..r..s..t..^..;! @: F^ @@                                                                                                                                  ",
"                                                                                                                                       D( 3  c/ u..)k f< v..w..x..y..z..A..B..C..D..E..E..F..G..H..I..J..K..K..L..M..N..O..P..Q..R..S..T..U..L..K..V..W..X..Y..Z..`..`..`.. +..+.++.@+.#+.$+.%+.&+.*+.=+.=+.=+.-+.;+.;+.-+.>+.%+.,+.,+.'+.'+.'+.'+.'+.'+.'+.'+.'+.,+.,+.,+.,+.)+.'+.'+.!+.!+.~+.Z..{+.]+.^+./+.(+.(+._+.:+.<+.[+.}+.|+.1+.1+.1+.2+.3+.4+.5+.6+.7+.8+.9+.0+.W< q. Q  Q  Q  Q  a+.                                                                                                                                 ",
"                                                                                                                                       b+.2  |  3  3  3  3  N7 c+.d+.(h e+.f+.g+.h+.i+.N~ j+.k+.l+.k+.N~ m+.m! m! 9! A} 0! A} m! n+.A} A} A} A} o+.o+.I} o+.p+.e- q+.q+.q+.q+.q+.QQ QQ QQ }| r+.[| [| [| }| }| }| s+.s+.r+.r+.t+.u+.u+.u+.r+.r+.r+.r+.u+.Y1 Y1 Y1 Y1 e- Y1 v+.w+.w+.v+.w+.x+.p+.A} 0! A} A} A} A} S1 A} o+.I} p+.0! y+.y+.8! 8! 8! z+.J' A' D' (! A+.B+.C+.W< 2  Q  Q  Q  ^  $                                                                                                                                   ",
"                                                                                                                                       D+.2  |  3  z> g  l  E+.F+.G+.H+.I+.J+.:~ d! o) K+.L+.c) l' '1 M+.l) h) N+.O+.o) p1 i) =- `* `* e) F= F= F= F= e) e) e) e) P+.P+.P+.n* j) P+.Q+.Q+.(* R+.d1 S+.S+.T+.T+.R+.d1 d1 d1 d1 d1 d1 d1 d1 R+.R+.R+.<* (* R+.U+.U+.(* (* (* :* :* :* :* (1 (1 V+.V+.V+._* W+.W+.j) m* `* j) Y) k) X+.k) Z) l) Z) b) Y+.Z+.`+.Z+. @.j' .@.+@.2+ |  2  Q  Q  Q  @@.                                                                                                                                 ",
"                                                                                                                                       #@.2  f  3  f  6  =+ E+.$@.3] H+.%@.&@.(~ *@.`+.Z+.Y+.m) Y) '1 ,1 Y+.i) 0) 0) 9) 9) 8) 0) a) F= F= F= e) F= F= F= e) P+.P+.=@.P+.V+.V+.V+.Q+.Q+.Q+.Q+.-@.-@.-@.-@.U+.U+.d1 d1 d1 /* /* /* /* /* /* /* /* /* /* ;@.U+.U+.U+.Q+.Q+.Q+.Q+.Q+.V+.V+._* _* _* _* _* V+.V+.:* :* n* `* m* m| k) >@.j) `* b) a) ,@.8| '@.'@.)@.@1 !@.~@.{@.q. 2  Q  Q  Q  2  j5                                                                                                                                  ",
"                                                                                                                                       ]@.2  |  f  f  6  6  ^@./@.(@._@.:@.<@.[@.}@.E1 |@.1@.2@.g{ 3@.4@.B' A' A' A' z' _] _] _] _] L& L& H' H' H' _] _] _] H' Z* 5@.5@.N| N| i* i* 6@.6@.6@.7@.7@.i* i* f* O| 8@.8@.8@.f* f* d* P| d* d* d* d* d* d* 01 6@.6@.6@.6@.9@.5@.5@.N| N| N| O| N| N| N| N| 0@.5@.a@.O' O' L' N' N' L' K' K' K' D' /! b@.c@.d@.e@.f@.g@.h@.T' i@.2+ 2  2  Q  Q  |  Xd                                                                                                                                  ",
"                                                                                                                                       ]@.Q  |  f  f  6  6  ho j@.k@.l@.m@.n@.o@.p@.q@.r@.s@.t@.u@.v@.w@.x@.y@.y@.y@.z@.z@.A@.B@.u@.u@.u@.C@.D@.E@.A@.A@.F@.F@.G@.H@.H@.H@.H@.I@.J@.J@.K@.K@.L@.L@.L@.M@.N@.O@.P@.P@.K@.Q@.Q@.o' R@.S@.T@.U@.V@.V@.W@.W@.X@.Y@.Y@.Z@.Z@.`@. #. #.`@.`@.Y@..#.`@.Y@.Y@..#..#.Z@.`@.+#.@#.##.$#.%#.&#.*#.=#.-#.;#.>#.,#.'#.)#.!#.~#.{#.]#.^#.q. |  |  Q  Q  |  /#.                                                                                                                                 ",
"                                                                                                                                       #@.2  |  f  f  6  6  O: (#._#.:#.<#.[#.}#.|#.1#.2#.3#.4#.5#.6#.7#.5#.5#.5#.5#.6#.5#.8#.9#.0#.a#.a#.a#.8#.b#.b#.b#.c#.c#.c#.d#.e#.e#.f#.g#.g#.h#.i#.j#.k#.k#.k#.k#.l#.l#.*B j#.m#.n#.h#.o#.p#.p#.p#.p#.q#.r#.s#.t#.s#.s#.s#.s#.s#.u#.v#.u#.v#.u#.u#.u#.u#.u#.u#.u#.w#.w#.x#.y#.z#.A#.B#.C#.C#.D#.E#.F#.G#.H#.I#.J#.J#.K#.L#.G#.M#.N#.q. ^  ]  Q  Q  2  !/                                                                                                                                  ",
"                                                                                                                                       #@.2  |  f  f  4  6  O: O#.l@.P#.Q#.R#.S#.T#.U#.V#.W#.X#.Y#.X#.Z#.`#.7@  $. $..$..$.+$.@$.#$.#$.#$.@$.$$.@$.@$.@$.$$.$$.$$.@$.#; #; %$.+$.&$.&$.&$.*$.=$.=$.*$.*$.=$.=$.*$.=$.-$.-$.-$.;$.>$.>$.>$.>$.>$.>$.>$.>$.>$.>$.>$.>$.>$.>$.>$.>$.>$.>$.>$.,$.,$.,$.,$.,$.'$.)$.!$.!$.~$.~$.~$.{$.]$.^$.^$./$.($._$._$./$./$.:$.<$.[$.}$.|$.]  ^  ^  Q  Q  2  1$.                                                                                                                                 ",
"                                                                                                                                       u$ Q  |  f  3  f  e  2$.3$.IN 4$.5$.6$.7$.8$.9$.0$.a$.b$.b$..; .; c$.c$.d$.d$.e$.f$.f$.g$.g$.h$.h$.h$.h$.h$.h$.g$.i$.g$.h$.h$.h$.g$.j$.g$.g$.k$.f$.f$.l$.f$.m$.f$.f$.f$.f$.e$.k$.h$.g$.g$.n$.n$.n$.n$.n$.n$.n$.n$.o$.g$.o$.n$.o$.o$.o$.n$.n$.n$.n$.p$.g$.g$.g$.m@ m@ q$.e$.c$.c$.d$.r$.r$.s$.s$.s$.t$.t$.7$.u$.v$.t$.t$.w$.x$.y$.z$.6  2  2  Q  Q  2  VS                                                                                                                                  ",
"                                                                                                                                       A$.Q  |  |  3  f  z> N7 B$.C$.5$.D$.7$.E$.8$.F$.G$..; H$.H$.c$.c$.I$.c$.d$.c$.e$.q$.f$.g$.J$.J$.g$.g$.g$.g$.g$.g$.J$.J$.g$.h$.h$.g$.g$.g$.g$.h$.l$.f$.f$.f$.f$.f$.f$.f$.f$.f$.g$.k$.g$.o$.:_ :_ :_ :_ :_ :_ :_ :_ n$.h$.n$.n$.n$.n$.n$.n$.n$.n$.n$.n$.n$.K$.h$.h$.L$.k$.M$.e$.c$.d$.r$.I$.N$.N$.s$.O$.P$.P$.P$.Q$.Q$.R$.S$.F$.y$.T$.o  |  |  Q  Q  2  VS                                                                                                                                  ",
"                                                                                                                                       U$.2  |  |  |  5  |  V$.W$.X$.y$.y$.Y$.Z$.`$. %. %..%..%.+%.m$.m$.m$.@%.#%.$%.#%.%%.&%.*%.=%.-%.-%.-%.-%.-%.-%.-%.-%.-%.=%.=%.=%.=%.-%.;%.)$.>%.~@ ~@ ~@ Z#.X#.Z#.,%.,%.,%.,%.*%.'%.*%.'%.'%.=%.=%.*%.*%.*%.*%.*%.)%.)%.!%.,%.~%.~%.~%.~%.,%.,%.,%.,%.,%.,%.,%.Z#.Z#.Z#.{%.{%.]%.^%./%.(%._%.U#.U#.U#.:%.U#.<%.[%.}%.|%.1%.Z$.2%.3%.3  2  2  Q  Q  2  4%.                                                                                                                                 ",
"                                                                                                                                       5%.2  |  2  |  5  2  a$ 6%.7%.8%.9%.0%.a%.b%.c%.a%.m .m .a%.#7 d%.K> e%.e%.f%.g%.g%.h%.i%.j%.k%.k%.k%.k%.l%.l%.l%.0%.k%.k%.m%.m%.n%.o%.p%.q%.r%.r%.s%.qR t%.t%.t%.u%.u%.u%.f0 f0 f0 v%.v%.v%.u%.u%.w%.x%.x%.x%.x%.y%.PO z%.y%.z%.z%.z%.z%.y%.y%.y%.y%.y%.x%.A%.B%.B%.B%.B%.u%.C%.D%.E%.E%.E%.E%.E%.E%.E%.F%.E%.G%.v%.H%.=..I%.J%.K%.f  A  q. A  Q  2  !/                                                                                                                                  ",
"                                                                                                                                       b+.2  |  2  |  |  2  b  g  x> 7  7  7  7  7  !$ 6. 6. !$ q% =+ x> x> x> 7  7  7  7  7  g  g  g  g  g  g  g  g  g  7  7  7  7  7  7  7  6  4  4  4  4  4  4  4  4  6  7  6  6  6  7  7  6  6  6  6  6  6  6  6  e  e  e  e  e  e  e  e  e  e  e  e  e  e  e  e  e  l  e  e  l  l  e  l  !$ e  l  !$ !$ 8  8$ 8  8  e  4  6  l  o  j  |  q. 1  ^  Q  2  L%.                                                                                                                                 ",
"                                                                                                                                       D( 2  |  |  |  j  j  |  ]  j  4  6  6  6  8  8  8$ p  e  6  6  e  e  4  4  4  4  4  4  4  4  4  4  4  f  f  f  4  6  6  6  6  4  4  4  4  f  f  f  f  f  f  f  f  4  4  f  5  f  4  4  e  4  4  4  4  4  4  e  e  l  l  l  l  l  l  l  l  l  l  l  e  e  4  4  4  e  4  e  f  e  4  4  e  3  4  6  e  p  x7 S$ p  f  f  4  4  o  j  |  2  |  |  2  |  vy                                                                                                                                  ",
"                                                                                                                                       zH 2  |  |  |  j  o  |  2  2  3  e  g  4  p  8  p  p  e  6  6  e  c  c  4  4  4  4  c  4  6  6  6  4  f  f  f  4  6  6  6  6  4  4  4  4  f  f  f  f  f  f  f  f  4  4  4  f  4  6  4  4  g  g  g  g  g  g  6  g  g  g  g  6  6  6  6  6  x> 7  x> 7  x> x> x> g  g  g  g  g  g  g  g  6  f  8  !$ 6$ 8  p  e  8  4  f  e  3  ]  2  2  |  |  |  |  |  M%.                                                                                                                                 ",
"                                                                                                                                       2$ 2  2  2  2  2  j  |  ]  ]  e  e  g  l  f  6$ !$ 4  l  6  4  4  e  e  e  4  e  4  e  e  g  g  e  f  f  f  5  5  e  e  e  e  e  e  e  e  3  3  3  3  3  3  3  5  f  4  4  4  e  e  3  f  e  e  e  e  e  e  e  e  i^ i^ c  e  e  e  e  e  c  e  l  l  g  g  g  e  e  e  e  c  e  e  e  6  4  l  6$ g  4  p  l  9  l  3  3  ]  ^  ^  2  2  2  2  2  |  -4                                                                                                                                  ",
"                                                                                                                                       1$ 2  2  5  2  ]  3  c  4  4  4  l  6  6  z> l  6$ g  !$ 6$ l  l  e  8  l  8  8  8  l  L< 6$ 6$ L< L< L< 9  _  _  8  l  4  4  e  e  e  e  e  e  e  e  e  e  e  e  c  c  3  3  e  g  e  e  e  e  e  e  e  e  e  c  i^ i^ c  e  L< 9  L< 8  8  8  l  l  e  l  l  l  8  8  8  8  8  8  9  6. 8  l  6$ g  e  p  L< c  l  l  e  d  ^  ^$ d  ]  ]  ]  2  |  1%                                                                                                                                  ",
"                                                                                                                                       N%.O%.]@.P%.Q%.R%.Q%.S%.6% T%.U%.f  4  l  8  6  !$ H$ ,$ H$ >% ,$ H$ ;$ N= ;$ ;$ )$ )$ C7 -$ -$ -$ -$ -$ =$ =$ -$ ;$ H$ d@ d@ H$ H$ >% >% >% >% >% >% >% >% >% H$ H$ H$ =$ =$ =$ H$ H$ >% >% >% >% >% >% >% >% H$ H$ H$ H$ >% H$ 9> >% >% -$ -$ -$ -$ -$ -$ -$ -$ ;$ ;$ ;$ -$ V9 o< V9 V< ;$ ;4 H< e  e  p  e  e  6  V%.W%.X%.Y%.Z%.`%.YL  &..&.+&.@&.w                                                                                                                                   ",
"                                                                                                                                                                     #&.Q  3  j  !$ 6  7  $&.%&.U6 )> U# t9 %&.%&.%&.&&.*&.*&.*&.&&.&&.&&.t9 t9 t9 t9 =&.*&.*&.*&.*&.*&.*&.=&.=&.t9 t9 t9 t9 t9 t9 t9 T6 T6 T6 T6 U6 T6 T6 T6 T6 r9 r9 r9 r9 r9 r9 r9 r9 r9 S6 r9 {> {> v9 {> ,> C9 ,> y9 y9 y9 y9 y9 y9 -&.-&.-&.y9 y9 ,> -&.;&.>&.-+ ,&.7  l  8  R$ w@ 5  '&.)&.                                                                                                                                                               ",
"                                                                                                                                                                     !&.Q  3  f  4  4  =$ ~&.<U f/ f/ {&.%9 %9 Db %9 %9 ,0 %9 ,0 $9 $9 $9 $9 Cb %9 %9 %9 %9 %9 %9 %9 %9 %9 %9 ,0 ,0 %9 %9 %9 %9 %9 %9 ,0 ,0 ,0 %9 %9 Cb Jb ]&.Y: X: f/ ^&.^&.B4 B4 D/ /&.(&.D/ D/ D/ D/ {/ {/ B4 B4 B4 >9 ,0 ,0 B4 J8 J8 J8 J8 J8 J8 J8 X: J8 J8 B4 t# @7 7  l  4  R$ ^$ w@ _&.                                                                                                                                                                  ",
"                                                                                                                                                                     )0 Q  |  f  f  4  7  ~&.<U 60 60 :&.z$ z$ z$ z$ z$ z$ z$ z$ J$ J$ Ib J$ Ib J$ Ib z$ z$ z$ z$ z$ z$ z$ z$ J$ _9 Ib Ib J$ Ib Ib J$ Ib z$ z$ z$ z$ 1g <&.@e @e 'h cy Oc <&.#e [&.K8 98 K8 ]&.$9 $9 $9 $9 &9 &9 &9 Jb W$ Jb W$ Jb Jb Ib C4 C4 @e 1g <&.1g 1g 1g cy t# ar q% 6  4  3  k  5  NK                                                                                                                                                                   ",
"                                                                                                                                                                     }&.Q  |  |  f  3  7  |&.{/ cy Oc 1&.z$ z$ z$ z$ z$ z$ ra ra ra ra *% ra *% ra *% W$ J$ Ib Ib Ib Ib Ib Ib Ib _9 _9 _9 _9 _9 _9 _9 _9 Ib Ib z$ z$ z$ 2&.z$ Re +e :&.Re 3&._9 .9 L8 L8 T8 R8 &% y$ &9 Jb Ib z$ z$ z$ z$ J$ z$ z$ z$ z$ J$ 3&.J$ Re Re Re Re Oc ~5 {/ 4&.x> g  4  4  k  ]  B+                                                                                                                                                                   ",
"                                                                                                                                                                     `( Q  |  |  |  3  y  ~&.OU cy Oc Re z$ z$ z$ z$ z$ z$ ra ra ra ra ra *% ra *% ra ra &% H8 98 98 98 98 98 W$ y$ y$ W$ y$ y$ W$ W$ 5&._9 _9 J$ J$ J$ J$ J$ 6&.~0 7&.7&.3&._9 =% H8 &% |9 &% U8 H8 H8 H8 H8 W$ J$ J$ J$ J$ z$ z$ z$ z$ z$ Re z$ 6&.{0 {0 8&.:&. 9 9&.@7 x> g  4  4  {- ]  0&.                                                                                                                                                                  ",
"                                                                                                                                                                     a&.Q  |  f  f  3  !$ !h b&.Oc Re Re z$ z$ z$ z$ ra ra ra ra *% *% *% y$ *% y$ ra &% &% &% &% &% H8 H8 &% &% G8 G8 y$ y$ ra ra ra ra *% y$ *% W$ J$ J$ Ib J$ 3&.z$ z$ 5&.y$ ]9 =% y$ ra H8 H8 &% ]9 &% U8 H8 H8 H8 H8 .9 J$ z$ z$ W$ W$ W$ W$ W$ &9 &9 &9 z$ Jb  < #7 x> e  5  5  {- ]  B+                                                                                                                                                                   ",
"                                                                                                                                                                     c&.Q  3  f  m  5  7  ]i yb f/ d&.%9 ,0 ,0 ,0 z8 z8 z8 z8 z8 z8 z8 z8 z8 z8 z8 z8 R8 R8 R8 R8 R8 R8 R8 R8 R8 M8 M8 M8 x$ e&.x$ e&.39 39 B$ z8 R8 R8 z8 z8 98 ]&.S8 e9 e9 x$ B$ R8 R8 x$ x$ x$ U8 S8 z8 B$ x$ x$ x$ x$ x$ z8 z8 z8 B$ x$ x$ x$ x$ x$  (  ( >9  ( f&.g&.q% b  {- ]  {- 5  h&.                                                                                                                                                                  ",
"                                                                                                                                                                     i&.Q  |  f  5  d  g  j&.M6 T# T# T# V6 k&.Y6 !8 )8 )8 )8 )8 X7 X7 X7 X7 X7 X7 X7 X7 X7 X7 X7 Y6 Y6 !8 X7 Y6 Y6 Y6 l&.V6 V6 V6 V6 =0 E9 =0 R6 v9 v9 D9 D9 C9 W# W# T6 T# T# t9 %&.t9 T6 t9 t9 T6 T6 D9 U6 D9 D9 D9 D9 v9 v9 v9 v9 S6 v9 v9 v9 x9 x9 x9 0G x9 x9 m&.n&.6  j  f  c  5  5  _&.                                                                                                                                                                  ",
"                                                                                                                                                                     o&.Q  |  f  Q  d  e  6  =+ =+ =+ N= -$ -$ =$ =$ =$ =$ =$ =$ =$ =$ =$ =$ =$ =$ =$ =$ =+ =$ =+ =$ =$ =$ =$ =+ H$ H$ H$ d@ d@ j^ j^ j^ H$ B7 d@ d@ H$ H$ j^ p&.'$ d@ =+ y7 >% >% >% y7 y7 z  >% -$ H$ N= A; -$ -$ -$ -$ N= N= A; A; A; -$ -$ -$ H$ H$ >% >% =+ =+ >% o  j  |  |  o  j  5  _&.                                                                                                                                                                  ",
"                                                                                                                                                                     hC Q  2  3  |  3  c  y  l  6  6. 6. 8  8  6. 6. 6. 6. 6. 6. 8  6. 8  6. 6. 6. 6. !$ l  !$ l  l  l  !$ !$ l  6  6  g  l  6  g  6  6  6  6  6  6  6  6  6  6  7  6  6  6  6  6  6  l  g  g  l  6$ 6. 8  8  6. 6. 6. 6. 8  8  8  8  8  8  8  e  l  x> x> y  j  j  b  |  2  Q  2  2  5  d  q&.                                                                                                                                                                  ",
"                                                                                                                                                                     j= Q  ^  ^  j  j  j  b  e  4  4  f  S$ b$ 6. 6. 6$ 6. 6. L< b$ 8  8  6. 6. 6. 6. !$ e  L< g  g  g  g  g  g  6  6  6  6  6  6  6  6  6  6  6  6  6  6  6  6  g  g  6  6  6  6  6  6  g  g  l  6. 6$ 6. 8  =$ =$ =$ 6. 8  8  8  8  p  e  e  f  4  x> 7  y  j  |  |  2  2  2  Q  Q  d  d  q&.                                                                                                                                                                  ",
"                                                                                                                                                                     5& Q  ^  2  |  |  |  |  3  f  f  f  p  8  6. 6. 6. 6. 6. 6$ 8  6. 8  6. 6. 8  8  L< L< L< l  g  g  g  g  y  6  6  7  7  7  6  6  6  6  6  6  6  6  6  6  6  6  6  6  6  6  6  6  6  6  g  6  !$ !$ l  !$ 6. 6. 6. 6. p  9  p  e  p  l  e  R$ e  g  6  f  j  j  j  |  |  |  2  2  A  q. a+.                                                                                                                                                                  ",
"                                                                                                                                                                     r&.Q  Q  2  |  |  |  |  |  3  3  f  4  6  6  6. 6. 6. 6. 6. 6. 6. 6. 6. 6. 8  8  l  L< L< l  g  g  g  x> y  6  6  4  4  4  6  6  6  6  6  6  6  6  6  6  6  6  6  6  6  g  g  g  l  6  !$ 7  6  7  g  g  !$ 6. 6. 8  3  3  3  3  3  l  L< ]  t> g  e  ]  |  j  |  2  2  2  2  2  Q  q. C/                                                                                                                                                                   ",
"                                                                                                                                                                     !I c> s&.t&.1> b> t&.b> b> b> t&.e> u&.6  6  6  6  6. 6. =$ =$ =$ =$ =$ =$ 6. 6. =$ !$ >% >% =$ >% !$ >% =+ !$ y  4  4  4  y  y  6  6  6  6  6  6  6  6  6  x> q% q% x> x> x> y  g  !$ !$ !$ !$ >% H< H< =$ =$ 6. !$ e  e  e  c  c  g  l  3  8  g  j  2  Q  Q  Q  Q  Q  Q  Q  Q  Q  Q  u%                                                                                                                                                                   ",
"                                                                                                                                                                                                         I7 Q  6  6  4  6  6. :h v&.w&.w&.v&.q$ r$ r$ D{ x&.y&.D{ z&.oP A&.B&.C&.D&.E&.E&.E&.l%.D&.D&.F&.G&.G&.G&.H&.I&.I&.I&.l%.J&.K&.L&.M&.N&.O&.P&.Q&.R&.|$.S&.T&.U&.V&.W&.X&.TS FO O&.Y&.O&.Z&.`&.]$ g  6  l  g  l   *..*.+*.@*.#*.}&.vJ OK $*.)L %*.&*.**.                                                                                                                                                                  ",
"                                                                                                                                                                                                         =*.Q  e  p  4  6. =+ ;7 0] s8 0] 0] d8 s8 s8 d8 C$  ( U] .< -*.;*.>*.]4 ,*.'*.)*.!*.~*.{*.&%.]*.^*.^*.^*.^*.^*.^*.^*./*.(*.(*.(*._*.U} :*.<*.[*.}*.|*.1*.2*.3*.4*.5*.@$.~@ }%.:%.6*.:%.7*.8*.9*.e  f  4  e  b  0*.                                                                                                                                                                                                      ",
"                                                                                                                                                                                                         a*.Q  3  3  p  7  =+ b*.L8 L8 L8 L8 =% c*.c*.d*.e*.f*.d*.g*.h*.T! -{ n~ p^ i*.+{ *) b' H4  - .- j*.j*.j*.j*.j*.j*.j*.`= N4 N4  -  - z| &1 &1 @- k*.l*.m*.n*.o*.p*.q*.r*.s*.t*.R#.u*.v*.w*.x*.y*.4  m  e  w@ R$ l%                                                                                                                                                                                                       ",
"                                                                                                                                                                                                         z*.Q  3  f  6  6  =+ A*.e8 =% T8 H8 c*..% .% B*.C*.D*.D*.E*.F*.G*.G*.G*.-{ n~ &) *) *) H4 H4  -  -  -  -  -  -  -  - `= N4 N4 `=  - y- z| *5 H*.I*.J*.K*.L*.M*.N*.O*.P*.Q*.zR R*.S*.u*.T#.T*.3Y o  f  4  f  4  K^                                                                                                                                                                                                       ",
"                                                                                                                                                                                                         QB Q  3  f  4  6  7  U*.R8 =% |9 &% c*..% .% .% B*.V*.W*.X*.j; Y*.Z*.`*.-{ p^ &) *) *) *) H4 p( 9- 9-  -  -  -  -  -  - `= `=  - y- y- y- y- _*. =..=.+=.!1 !1 c! @=.#=.$=.%=.&=.*=.==.<$.-=.;=.6  4  4  f  3  >=.                                                                                                                                                                                                      ",
"                                                                                                                                                                                                         ,=.Q  j  o  6  6  7  U*.T8 .% 99 '=..% .% .% )=.!=.~=.{=. 5 Y; ]=.^=.`*.-{ p^ p^ &) *) *) H4  -  -  -  -  -  -  -  -  -  -  -  -  -  - y- y- H*./=.(=._=.:=.<=.(! [=.}=.|=.1=.2=.2=.3=.4=.5=.la 6  o  o  e  j  6=.                                                                                                                                                                                                      ",
"                                                                                                                                                                                                         .) Q  j  o  6  7  6  _% d8 =% G8 G8 7=.8=.8=.V*.!=.!=.#e {=.Y; 9=.0=.a=.b=.p^ p^ +{ b' d' [4 .- .- .- .- .- .- .- .- .- .- .- .- .- .- .- c=.)*.d=.e=.f=.g=.h=.i=.j=.k=.l=.m=.n=.o=.[$.]$.p=.q=.6  o  o  j  |  A{                                                                                                                                                                                                       ",
"                                                                                                                                                                                                         .) Q  3  4  4  6  7  o%.r=.t8 r8 e9 c8 d8 d8 e8 e8 `: *9 *9 Y: s=.-%.t=.u=.v=.w=.64 s} n4 ]4 <*.<*.r3 r3 ,*.U} ,*.,*.x=.x=.x=.x=.x=.r3 r3 r3 y=.z=.A=.B=.C=.D=.|Y E=.F=.G=.H=.I=.J=.K=.L=.M=.N=.6  e  f  f  |  O=.                                                                                                                                                                                                      ",
"                                                                                                                                                                                                         P=.Q  3  4  4  6  7  mu Q=.R=.S=.T=.T=.U=.r$ V=.W=.W=.m$ X=.o$ ;7 Y=.Z=.`=.g%.`=.n%. -.n%.n%.m%.o{ .-.9%.g&.b%.+-.@-.#-.$-.$-.$-.%-.&-.*-.Ht L6 =-.--.;-.>-.>-.,-.'-.)-.!-.~-.{-.&..]-.^-./-._$ y  4  p  f  f  (-.                                                                                                                                                                                                      ",
"                                                                                                                                                                                                         _-.Q  3  6  6  6  6  6  6  8  6  6. x  =$ =$ 8  8  6. >% =+ -$ -$ 6. 6. 6. 6. 6. 7  7  6. 6. 8  7$ 8  L< L< 7$ 7$ 7$ 7$ 7$ 7$ 7$ L< L< L< L< 6$ 6$ 6$ /9 N< t> N< :-.W/ 9  9  9  p  9  8  l  g  6  4  f  f  |  t<                                                                                                                                                                                                       ",
"                                                                                                                                                                                                         .) Q  e  6  6  6  7  6  l  l> R$ 8  6$ =$ 6. 9  8  =$ =$ 6. 6. 6. 6. 8  8  6. 6. 6  4  4  4  e  6  8  8  8  8  8  8  8  8  8  8  8  8  8  8  8  x  x/ x/ H< 6$ 6$ x  7$ 8  p  9  e  e  6. f  c  6  o  o  j  b  <-.                                                                                                                                                                                                      ",
"                                                                                                                                                                                                         [-.Q  f  4  4  4  6  6  f  p  p  8  l  7  !$ g  6  7  7  0> 6. 8  p  e  l  !$ l  g  g  c  c  c  g  g  l  l  6$ 7$ 6$ 6$ 6$ 9  9  9  9  9  9  9  6$ 6$ 9  9  9  p  p  p  7$ 6$ 6$ l  6. f  f  3  e  3  j  j  b  e>                                                                                                                                                                                                       ",
"                                                                                                                                                                                                         R% Q  f  3  f  f  4  6  c$ 4  f  6  6  6  6  g  g  g  !$ 6. 6. l  l  l  6  g  g  g  g  g  g  g  g  g  g  g  g  6$ 6$ L< L< 7$ 8  9  _  _  _  8  6$ 6$ 6$ 9  L< 8  9  8  6$ L< e  8  p  ^$ d  ]  ]  ]  ^  ^  2  T5                                                                                                                                                                                                       ",
"                                                                                                                                                                                                         }-.Q  3  3  f  3  l  l  8  p  8  6  6  7  7  6  6  l  g  !$ =$ !$ 7  6  l  g  g  g  c  e  e  l  l  g  g  g  l  6. 6$ L< L< 8  8  9  L< L< p  8  6$ 6$ 6$ 6$ 6$ 6. 6$ 9  8  p  _  e  3  3  3  ^  2  ^  ^  ^  ^  }6                                                                                                                                                                                                       ",
"                                                                                                                                                                                                         <% |-.+  .*.y; 1-.e$ [$ .*..*.2-.t< e  l  6  y  !$ l  !$ H$ ,$ ,$ >% H$ ,$ ,$ H$ >% >% >% !$ !$ x> x> x> !$ 7  7  >% >% >% 6. 6. =$ >% =$ 6. =$ =$ H< H< =$ 1: 9  8  p  x7 R$ 9  3-.4-.5-.QO 6-.7-.8-.U%.9-.E> 7> 0-.                                                                                                                                                                                                   ",
"                                                                                                                                                                                                                                          a-.Q  o  o  o  g  y7 b-.N^ c-.c-.c-.c-.d-.c-.T7 T7 e-.e-.~8 ~8 ~8 ,8 ,8 %8 %8 %8 %8 %8 %8 %8 %8 %8 %8 %8 %8 37 57 L^ #7 0%.f-.L< L< p  R$ 8  |  g-.                                                                                                                                                                                                                                    ",
"                                                                                                                                                                                                                                          h-.Q  |  |  |  b  q% 4&.b&.xy i-.j-. 9 'h  9 ~5 )h )h k-.l-.~i [g Q^ Q^ Q^ v; v; Q^ )h A# A# A# m-.m-.m-.m-.Kc n-.o-.p-.}< q-.!$ l  l  p  e  Q  i=                                                                                                                                                                                                                                     ",
"                                                                                                                                                                                                                                          }-.Q  |  |  ]  1  q% .7 r-.s-.t-.@e #e #e @e @e @e #e #e C4 @e !j D4 D4 D4 D4 D4 D4 C4 Uc u-.v-.w-.w-.w-.x-.E4 v; {6 m-.O# (S 6  s% p  3  2  Q  y-.                                                                                                                                                                                                                                    ",
"                                                                                                                                                                                                                                          I^ Q  |  |  |  o  q% 47 d&.t-.t-.D4 @e j-.<&.<&.@e @e j-.<&.@e @e @e @e @e #e #e @e @e @e z-.z-. 5 A-.V~ G; B-.F; A! V; O# C{ p  m  ^$ ^  ]  Q  L=                                                                                                                                                                                                                                     ",
"                                                                                                                                                                                                                                          1$.Q  |  |  j  o  q% 47 d&.C-.D4 @e @e @e j-.j-.@e @e @e j-.@e @e @e @e @e @e @e @e i-.$) x-.D! D! s-.Y5 V~ D-.t; r; q; E-.i: c  3  w@ d  ]  Q  L=                                                                                                                                                                                                                                     ",
"                                                                                                                                                                                                                                          <% Q  |  |  |  j  q% 17 `4 C-.@e @e @e @e @e @e @e @e @e @e @e @e @e @e D! @e D! D! {5 E4 E4 E4  5 t-.m5 -6 E; )] J; q; F-.i: g  3  w@ 5  |  Q  L=                                                                                                                                                                                                                                     ",
"                                                                                                                                                                                                                                          G-.Q  |  |  |  j  q% 47 ^&.C-.D4 rf D4 @e @e @e @e @e @e @e @e @e D! D! D! D! D! D! {5 E4 E4 E4 D! H; F; F; E; H-.I-.b; o-.PB g  ]  {- ]  |  Q  J-.                                                                                                                                                                                                                                    ",
"                                                                                                                                                                                                                                          #% Q  |  |  |  f  q% L^ ^&.C-.@e D4 @e @e @e @e @e @e @e @e @e D! D! D! D! D! D! D! {5 {5 Q^ a9 <6 m-.'6 '6 K-.b; L-.fX {i PB g  k  {- 5  ]  Q  M-.                                                                                                                                                                                                                                    ",
"                                                                                                                                                                                                                                          =x Q  |  |  f  4  q% Q7 ^&.C-.@e @e @e @e @e @e @e @e @e D! D! D! D! D! D! D! D! D! E4 Q^ N-.O-.P-.Q-.R-.S-.T-.ZW U-.m, YZ V-.o  k  {- ]  2  Q  E<                                                                                                                                                                                                                                     ",
"                                                                                                                                                                                                                                          P: Q  |  |  e  6  q% .8 d&.W-.@e @e @e @e @e @e @e @e @e D! D! D! D! D! D! D! D! D! {5 Vd X-.Y-.Z-.`-. ;..;.+;.@;.y6 #;.YZ $;.o  5  k  ]  2  Q  J-.                                                                                                                                                                                                                                    ",
"                                                                                                                                                                                                                                          %;.Q  |  |  e  6  q% .8 d&.s-.@e E4 @e @e @e @e @e @e @e @e D! D! D! D! D! D! D! D! D! Xs &;.*;.=;.-;.;;.>;.,;.';.);.!;.~;.V-.c  |  5  5  2  Q  L=                                                                                                                                                                                                                                     ",
"                                                                                                                                                                                                                                          {;.Q  |  |  3  4  x> +7 `4 s-.D4 A-.D4 @e @e @e @e @e @e @e @e D! D! D! D! D! D! D! D! {5 ];.^;./;.(;._;.:;.<;.X-.[;.n6 };.|;.o  o  w@ 5  2  Q  1;.                                                                                                                                                                                                                                    ",
"                                                                                                                                                                                                                                          ;( Q  |  |  |  4  q% +7 d&.2;.]5 3;.D4 @e .9 K8 .9 K8 K8 K8 .9 _9 .9 .9 _9 _9 .9 .9 Kb  9 4;.5;.6;.7;.8;.9;.0;.a;.DA '+ b;.|;.j  f  ]  ^  Q  Q  c;.                                                                                                                                                                                                                                    ",
"                                                                                                                                                                                                                                          F( Q  |  |  |  4  7  $8 d;.m5 3;.3;.A-.e;.{4 f;.f;.f;.f;.f;.g;.f;.h;.h;.f;.i;.i;.j;.k;.l;.m;.n;.o;.p;.q;.r;.s;.t;.u;.v;.w;.x;.j  5  w@ ^  Q  Q   B                                                                                                                                                                                                                                     ",
"                                                                                                                                                                                                                                          F( Q  |  |  |  4  7  Z7 Xs y;.C! tq ]6 z;.@; b5 b5 @; @; T+ T+ T+ T+ T+ A;.H$.H$.A;.F$.B;.l{ C;.D;.E;.F;.F;.G;.H;.I;.J;.K;.L;.o  |  ^  ^  Q  Q   B                                                                                                                                                                                                                                     ",
"                                                                                                                                                                                                                                          M;.Q  |  |  |  4  =+ +8 Je sq tq tq #) N;.;@ A;.T+ @; @; A;.A;.O;.P;.Q;.R;.S;.S;.T;.U;.V;.P$.W;.X;.(%.Y;._%.Z;.I5 `;. >..>.Ue y  o  |  Q  Q  Q   B                                                                                                                                                                                                                                     ",
"                                                                                                                                                                                                                                          M;.Q  j  c  c  4  =+ +8 +>.sq tq tq ]6 @>.)@ 75 )@ #>.#>..; H$.H$.T;.T;.H$.I$.z] $>.%>.&>.s$.*>.=>.->.;>.;>.>>.I5 `;.,>.K;.l$ y  o  ]  ^  Q  Q  B<                                                                                                                                                                                                                                     ",
"                                                                                                                                                                                                                                          M;.Q  j  o  e  4  =+ '>.+>.sq tq tq #) )>.85 .; .; .; b$.!>.V;.~>.{>.G$.H$.]>.Q$.Q$.Q$.F$.z] N$.^>.^>.^>.^>./>.(>._>.I;.K;.P# o  3  ^  ^  Q  Q  1;.                                                                                                                                                                                                                                    ",
"                                                                                                                                                                                                                                          a+.Q  o  o  j  8  =+ .8 :>.<{ tq <>.J{ >6 l_ o_ p5 p_ p_ A_ r_ r_ p5 [>.z] F$.Q$.Q$.S$.}>.|>.Z$.=! 1>.2>.3>.O] ,>._>.4>.5>.P# o  ]  ]  ^  Q  Q  L=                                                                                                                                                                                                                                     ",
"                                                                                                                                                                                                                                          B+ Q  o  o  j  j  z  +8 :>.6>.7>.7>.J{ 7>.T@ R; J# J# 1@ 1@ J# b# G_ G$.G$.F$.Q$.Q$.8>.9>.0>.a>.b>.c>.d>.e>.f>.g>._>.h>.i>.#6 j  j  ^  ^  Q  Q  J-.                                                                                                                                                                                                                                    ",
"                                                                                                                                                                                                                                          j>.Q  |  |  |  f  ;. k>.l>.<{ tq m>.n>.J{ T@ T@ g@ g@ c# f@ c# a# r5 O;.S;.F$.Q$.Q$.N$.o>.p>.q>.r>.s>.t>.u>.v>.w>.x>.`;.y>.#6 y  j  d  ^  Q  Q  $2                                                                                                                                                                                                                                     ",
"                                                                                                                                                                                                                                          `( Q  |  3  3  8  ;. Y6 z>.J{ U@ J{ A>.A>.U@ R; a# L-.c# |@ [@ )4 B>.C>.D>.E>.9>.F>.>k G>.H>.I>.J>.K>.L>.M>.N>.O>.P>.Q>.R>.3Y y  b  d  d  Q  Q  '..                                                                                                                                                                                                                                    ",
"                                                                                                                                                                                                                                          S>.Q  |  |  1  3  6  T>.U>.Kc Kc Kc Ie V>.{6 Kc W>.:g :g :g W>.YZ X>.Y>.z+ 0>.Z>.}$.`>. ,..,.+,.@,.#,.$,.%,.&,.*,.=,.-,.;,.>,.l  |  5  d  Q  Q  '..                                                                                                                                                                                                                                    ",
"                                                                                                                                                                                                                                          ,,.Q  |  |  |  3  g  ',.),.!,.v&.v&.v&.v&.v&.~,.{,.{,.],.^,.^,.$N /,.(,.+&._,.:,.<,.[,.},.|,.1,.2,.3,.4,.5,.6,.7,.8,.&-.9,.0,.x> 3  5  d  Q  Q  a,.                                                                                                                                                                                                                                    ",
"                                                                                                                                                                                                                                          v# Q  |  |  j  6  l  g  x> 7  =$ =$ >% =$ 0> b$ b$ 0> 7  x> g  6  f  f  4  4  6  !$ 6. 8  G  G  20 Ju F  H  A  e  7  7  6  6  y  b  w@ ^  Q  Q  E<                                                                                                                                                                                                                                     ",
"                                                                                                                                                                                                                                          @  Q  |  |  f  f  f  4  6  4  p  p  e  4  p  yn yn s% f  f  6  6  8  R$ x7 R$ p  l  8  p  _  p  R$ 5  5  5  5  R$ e  p  p  4  f  f  k  ^  Q  Q  '..                                                                                                                                                                                                                                    ",
"                                                                                                                                                                                                                                          b@ Q  |  3  ]  ]  3  4  6  R$ w@ f  f  6  4  R$ v7 k  5  f  4  6. 6  6  8$ t$ b$ yn p  p  p  p  f  f  f  4  f  5  e  e  p  3  f  f  k  ^$ ^  Q  q7                                                                                                                                                                                                                                     ",
"                                                                                                                                                                                                                                          X9 Q  |  3  ]  5  6  4  e  3  p  c$ 4  3  3  f  f  f  f  4  o  f  f  4  s% s% p  p  p  p  R$ v7 R$ 3  f  6  c  6  g  e  p  f  c  4  5  ^$ ^  Q  s7                                                                                                                                                                                                                                     ",
"                                                                                                                                                                                                                                          X9 Q  |  |  3  4  y  g  l  g  l  4  p  p  4  f  5  d  ]  3  ^  {- ^  ]  w@ m  p  _  p  p  p  ]  w@ t> z> 3  3  4  e  3  3  e  c  g  f  {- x& Q  b,.                                                                                                                                                                                                                                    ",
"                                                                                                                                                                                                                                          K+ Q  |  |  3  l  x> j^ G% O; ;$ d@ =+ >% y  7  !$ l  x> 6$ b  3  l  !$ x> !$ 6$ x  m> l  B  Y< Y< Y< X< Y< Ju f  8  f  b  l  g  x> 4  f  |  Q  b,.                                                                                                                                                                                                                                    ",
"                                                                                                                                                                                                                                          @  Q  |  |  3  4  7  c,.d,.e,.d,.f,.g,.h,.X>.)S i,.i,.<S j,.k,.l,.m,.n,.m,.l,.l,.o,.p,.q,.r,.s,.t,.u,.v,.w,.x,.y,.z,.A,.B,.C,.c  4  f  f  f  |  D,.                                                                                                                                                                                                                                    ",
"                                                                                                                                                                                                                                          v# Q  |  |  3  4  =+ E,.Je k5 +>.F,.&9 G,.H,.a' c' K4 <4 *2 I,.I,.d| J,.I,.p3 p3 I,.K,.u} L,.M,.N,.O,.P,.Q,.R,.S,.1%.T,.U,.V,.c  3  5  5  ]  c  %=                                                                                                                                                                                                                                     ",
"                                                                                                                                                                                                                                          4. Q  |  f  4  c  q% =&.l>.=6 W5 s-.@e Q#.*) =) ^_ [4 u- '_ &1 q3 -5 q3 v- 9- &1 +- 21 x1 W,.X,.Y,.Z,.`,. '..'.+'.}%.Y$.@'.#'.g  o  k  k  ]  _  $'.                                                                                                                                                                                                                                    ",
"                                                                                                                                                                                                                                          ,,.Q  f  f  e  p  7  :8 %'.C! ]6 $) &'.*'.*) =) =) )_ '_ 9- 9- q3 q3 ='.-5 9- 9- o2 d| u} -'.;'.>'.,'.''.)'.!'.~'.W;.^>.{'.#'.4  f  k  k  ^  ]'.                                                                                                                                                                                                                                       ",
"                                                                                                                                                                                                                                          S>.Q  f  f  f  p  0> SO :>.sq V~ s-.A-.IN *) =) =) H4 '_ '_ 9- H4 u- '_ '_ '_ '_ c| 21 ^'./'.('.@/ _'.:'.<'.['.}'.W;.|'.1'.oN f  d  {- {- ]  2'.                                                                                                                                                                                                                                       ",
"                                                                                                                                                                                                                                          l# Q  f  f  p  4  7  Y7 3'.sq V~ m5 2;._#.*) =) 2{ G) )_ ]_ 4'.]_ p( '_ '_ '_ '_ c| d| 5'.6'.7'.y^ 8'.9'.0'.a'.b'.k{ ({ c'.d'.4  j  4  f  c  e'.                                                                                                                                                                                                                                       ",
"                                                                                                                                                                                                                                          f'.2  6  6  6. 6$ =+ g'.X5 h'.i'.n5 D4 j'.*) *) *) G) '_ '_ '_ '_ '_ '_ '_ '_ '_ 9- +- k'.l'.m'.n'.o'.p'.q'.r'.7*.({ s'.t'.u'.g  4  4  k  4  v'.                                                                                                                                                                                                                                       ",
"                                                                                                                                                         t* w'.~..x'.t* t* t* t* y'.z'.y'.y'.%= z'.A'.B'.C'.D'.E'.~..F'.U5 $% G'.H'.I'.J'.K'.o  7  6  8  L< 7  g'.L'.sq tq 3;.D4 j'.*) *) *) G) '_ '_ '_ '_ '_ '_ '_ '_ '_ 9- z| M'.x=.N'.O'.P'.Q'.R'.S'.;>.;>.T'.U'.V'.g  g  p  p  {$ ]$ W'.X'.%*.Y'.T$ [% Z'.`'.a-.J7 /#./#. ).<% <% <% <%  ). )./#.J7 :% #% A4 Y4 4% .).H^ +).                                                                                                                                                ",
"                                                                                                                                                         @).Q  Q  Q  Q  Q  Q  Q  Q  Q  Q  Q  Q  Q  Q  Q  Q  Q  Q  Q  Q  Q  Q  Q  Q  Q  Q  4  p  6  e  3  z; !$ =8 %'.#).tq n5 Se j'.G) G) G) G) '_ '_ '_ '_ '_ '_ '_ '_ '_ 9- u-  - y- =5 :_ $).%).%).&).]>.*).=).Z$.V'.e  3  R$ S$ 6. 6. 6. 6  6  o  j  j  |  |  |  |  |  2  2  2  2  2  2  2  2  2  Q  Q  2  |  2  2  2  Q  -).                                                                                                                                                ",
"                                                                                                                                                         b@ 3  4  7  6. 6. 6. 6. 6  6  4  6  p  6  f  f  m  f  f  p  4  6  6  6  8  p  p  p  p  f  w@ w@ t> 6. Z7 Ud ;).tq >).A-.I+.G) G) G) G) '_ '_ '_ '_ '_ '_ '_ '_ '_ 9- z| &1 y|  3 *5 =5 h$.m@ ,).]>.').)).y) u'.e  {- ^$ /  R$ 8  =$ {$ 8  8  8  p  p  (  p  4  4  f  f  f  f  f  f  4  f  f  f  f  4  6  p  p  (  Q  y&                                                                                                                                                 ",
"                                                                                                                                                         !).p  4  6  6. 6  6  l  6  6  6  6  4  4  f  3  3  f  f  3  3  3  3  4  6  8  p  8  6  6  4  8  !$ !$ *8 Je #).tq ~).Mc {).G) G) G) G) G) '_ '_ '_ '_ '_ '_ '_ 9- 9- u- 2( ]).^)./).z= ()._).F@ k{ :).<).'; >..c  3  p  p  4  6. 6. 8  R$ R$ p  p  3  f  f  3  f  3  f  f  f  f  f  f  f  f  f  f  4  6  f  w@ R$ Q  [).                                                                                                                                                ",
"                                                                                                                                                         }).j  6  6  6  6  6  6. 6  6  6  6  4  4  f  j  2  |  |  f  4  6  6  6  6. 4  p  6. 6  6  6  6. l  y  |).+>.1).<{ ~).xy 2).G) G) G) G) G) G) '_ '_ '_ '_ '_ '_ '_ '_ u- 3)..H 4).5).6).7).8).9).0).k{ D>.}[ a).c  p  p  8  6. 4  p  p  p  p  p  _  3  3  f  3  f  f  f  3  3  3  f  f  f  f  f  f  4  6  4  f  R$ Q  b).                                                                                                                                                ",
"                                                                                                                                                         c).l  l  6  6  6  6  !$ 6  4  f  f  f  5  5  5  ]  3  3  f  f  f  p  p  3  _  t> p  4  4  f  p  e  6. O7 +>.1).1).1).W5 d).G) G) G) G) G) G) G) '_ '_ '_ '_ '_ 9- 9- z| h4 e).f).g).h).i).F2 j).k).`$.l).m).n).6  w@ m  p  p  p  R$ t> 9  L< _  _  z; 3  3  3  3  3  3  3  3  3  3  3  3  3  3  f  f  f  f  p  f  Q  YS                                                                                                                                                 ",
"                                                                                                                                                         o).7  6. 7  >% L< I  p).p).p).iI iI iI Y< 30 30 Y< iI iI }0 W< }0 I% I% D  D  H  R$ m  f  k  v7 R$ 6. O7 q).1).r).s).W5 >>.G) G) G) G) G) *) -) '_ '_ '_ '_ '_ '_ 9- &1 t).u).v).E' w).x).k! y).z).`$.A).B).C).7  p  A( t> t> _  C  <0 <0 ^0 iI |0 |0 Z< Z< Z< Z< Y< Y< Y< Y< Y< Y< 40 Y< |0 }0 I% I% }0 }0 I% D  Q  WS                                                                                                                                                 ",
"                                                                                                                                       80 D).b+.E).J^ 4H F).G).H).S6 I).J).K).L).M).N).O).P).Q).R).S).S).T).U).V).W).X).Y).Z).`). !..!.+!.@!.e  3  _  R$ e  H< Z7 +>.r).r).1).#!.$!.G) G) G) G) G) G) G) '_ '_ '_ '_ '_ '_ '_ 2( %!.&!.h2 +1 n) /) aP *!.=!.-!.W;.T,.a).z> R$ v7 w@ t> A> ;!.>!.,!.'!.)!.!!.~!.{!.{!.]!.^!./!./!./!./!.(!./!._!./!.:!.:!.<!.[!.}!.}!.|!.1!.2!.3!.4!.4!.5!.4!.k- I7                                                                                                                               ",
"                                                                                                                                       6!.|  |  |  3  o  7!.8!.pD 9!.0!.a!.b!.c!.d!.e!.f!.g!.h!.i!.j!.k!.k!.l!.m!.m!.k!.n!.o!.i!.p!.q!.r!.s!.L< 4  p  R$ 3  !$ +8 :>.r).r).t!.#!.4@ G) G) G) G) G) G) G) G) '_ '_ '_ '_ '_ '_ &1 u!.v!.w!.w).n) /) aP x!.y!.-!.F>.z!.a).R$ 3  x7 w@ ]  W< A!.B!.C!.D!.E!.F!.G!.H!.H!.H!.H!.I!.J!.K!.K!.K!.L!.L!.M!.N!.O!.P!.Q!.R!.S!.T!.U!.V!.Q  A  ^  2  ^  j  Z'.                                                                                                                              ",
"                                                                                                                                       u% 3  3  3  3  l  >7 W!.X!.UN Y!.Z!.`!. ~..~..~.+~.@~.#~.$~.%~.&~.*~.=~.-~.-~.-~.-~.&~.;~.>~.,~.'~.)~.D< p  k  x7 R$ 7  +8 !~.~~.sq ~).[g 4@ G) G) G) G) G) G) G) G) '_ '_ '_ '_ '_ 9- &1 u!.{~.]~.x).n) /) vV ^~./~.1%.W;.z!.(~._  ]  K- ^$ A> Y< _~.:~.<~.[~.}~.}~.|~.1~.1~.2~.2~.3~.3~.4~.5~.5~.6~.7~.8~.9~.0~.a~.b~.b~.c~.d~.e~.f~.2+ q. ^  Q  Q  j  VW                                                                                                                               ",
"                                                                                                                                       C/ 3  3  3  f  l  Nt TO g~.hX h~.i~.j~.+~.k~.l~.m~.n~.o~.p~.q~.r~.q~.s~.t~.t~.t~.t~.s~.&~.u~.v~.w~.x~.s> t> ^$ {- R$ =+ k>.!~.y~.m>.<{ [g 4@ G) G) G) G) G) G) G) '_ '_ '_ '_ '_ '_ 9- +- z~.A~.]~.B~.8| C~.D~.E~.#*.1%.W;.c'.(~.3  ]  x7 v7 w@ Y< F~.G~.H~.I~.J~.K~.L~.M~.M~.N~.O~.P~.Q~.Q~.Q~.R~.R~.S~.T~.U~.V~.W~.c~.X~.Y~.Z~.`~. {.q. A  Q  Q  Q  j  1%                                                                                                                               ",
"                                                                                                                                       .{.|  3  3  f  f  +{.'s kn @{.#{.${.%{.&{.*{.={.-{.;{.>{.,{.'{.'{.){.){.){.!{.!{.!{.~{.{{.]{.^{./{.({.s> /  k  v7 p  =+ )8 !~.1)._{.:{.[g 4@ G) G) G) G) G) G) G) '_ '_ '_ '_ '_ 9- 9- &1 <{.[{.}{.x).|{.1{.2{.3{.V[ 1%.Z$.2[ 4{._  R$ m  3  c( X< 5{.6{.7{.8{.9{.0{.a{.a{.b{.c{.d{.c{.e{.f{.f{.g{.0~.d~.h{.i{.j{.k{.l{.m{.n{.o{.p{.q{.Q  Q  Q  Q  Q  j  1%                                                                                                                               ",
"                                                                                                                                       C/ |  3  3  3  3  G> r{.jw s{.t{.u{.v{.w{.x{.y{.z{.A{.A{.B{.B{.C{.D{.E{.F{.F{.E{.G{.H{.H{.I{.J{.K{.L{.z; 3  m  S$ p  =+ k>.!~.~~.sq M{.#!.2).G) G) G) G) G) G) G) '_ '_ '_ '_ '_ 9- 9- +- N{.O{.}{.B~.|{.n) 2{.E~./~.1>.Z$.P{.Q{.L< p  l  9  _  2+ R{.S{.T{.U{.V{.W{.X{.X{.X{.Y{.Z{.`{. ]..]. ].`{.+].@].@].#].$].%].&].*].*].=].-].;].Q  Q  Q  Q  Q  j  R#                                                                                                                               ",
"                                                                                                                                       u% |  |  3  3  c  >].,].'].)].C_ !].~].{].]].^]./].(]._].:].<].[].HK <].}].<].<].}].|].|].1].2].3].4].g  l  6. 8  8  ;. Z6 _g s).5].m>.y;.6].G) G) G) G) G) G) G) '_ '_ '_ '_ '_ 9- 9- +- 7].8].9].B~.|{.,@.0].E~.#*.1%.Z$.2[ Q{.e  8  !$ !$ 4  l  a].b].c].d].e].f].g].g].h].h].g].f].f].i].i].j].k].e].f].l].m].n].o].p].q].9W r].s].2Y |  |  |  Q  j  4%                                                                                                                               ",
"                                                                                                                                       6' 3  |  3  3  g  t].u].v].w].x].9. w: y].z].1` A].{i {i 2< B].O# O# 4Y PU PU @6 @6 @6 Bb Bb c9 [Z C].!$ l  8  p  8  =$ e7 46 D].5].E].;).F].G) G) G) G) G) G) G) '_ '_ '_ '_ '_ 9- 9- &1 G].H].c2 x).|{.,@.I].E~./~.-!.Y;.J].Q{.c  8  8  l> R$ ;. K].Xs .> m-.a9 r-.'6 W: a9 '6 a9 W: W: W: O# )w )w 16 b&.^&.`4 '6 W: ^&.b9 Cb B$ 29 %> b  |  |  Q  j  L].                                                                                                                              ",
"                                                                                                                                       M].|  |  |  3  e  N].O].RY P].Q].R].w* k: R@ R@ f@ B@ T^ B@ o; C; o; #) #) #) I; G; G; S].T].U].N8 aF !$ 8  6. 8  p  =$ X6 z>.6>.V].V].#) W].G) G) ;) {_ G) G) G) '_ '_ '_ '_ '_ 9- 9- &1 X].Y].Z].`].8|  ^..^.E~.+^.,; W;.c'.@^.e  p  R$ v7 R$ -$ #^.J{ h/ J{ I{ C; `5 `5 `5 V] V] V] `5 G; G; ]6 I; ]6 #) C! V] `5 x-.@e Se $^.{0 d,.d@ |  2  x& x& |  %^.                                                                                                                              ",
"                                                                                                                                       &^.Q  Q  2  ^  5  *^.=^.-^.P].;^.>^.Bu >+ q# R@ R@ T^ T^ T^ T^ T^ U@ h@ J{ A>.]6 `5 G; `5 V] $) ,^.O: 8  p  p  p  8  =$ k&.'^.5].V].V].#) _#.G) G) G) G) G) G) G) '_ '_ '_ '_ '_ 9- 9- +- X].)^.!^.B1 8|  ^.~^.E~.{^.,; W;.c'.]^.p  p  t> ,A R$ -$ -> U@ 7>.~] ~] ~] ,! B! V] V] `5 `5 V] V] V] V] V] V] tq tq C! C! m5 X5 ^^.^^.%9 P. =+ |  q. Q  Q  |  cv                                                                                                                               ",
"                                                                                                                                       /^.Q  Q  Q  Q  |  (^._^.r{.:^._: 3` H: H: <^.!4 v6 j: j, [^.[^.[^.k6 46 46 36 Ys <g <g <g }^.}^.|^.1^.=$ 6. 6. 6$ 6. H$ k&.2^.5].V].V].#) _#.Z^ G) 0' G) G) G) G) '_ '_ '_ '_ '_ 9- 9- +- 3^.)^.4^.B1 8|  ^.~^.*!.5^.3>.W;.2[ 6^.p  p  3  R$ L< >% G9 36 k6 YW 7^.<g <g <g <g <g <g <g Ke Ke Ke Ke Ke Ke Ke Ys ~i .> Ie d;.8^.^&.t# jf =+ |  Q  2  q. 1  9^.                                                                                                                              ",
"                                                                                                                                       0^.a^..G D> y< d^ b^.sR c^.8%.#7 d^.mn ym e^.]i f^.=..=..Ot Ot ^7 /7 /7 )7 {7 ~7 ~7 c0 {7 {7 )7 g^.g: !$ l  p  9  7$ >% k&.h^.5].V].V].#) _#.Z^ L( L( G) G) ;) {_ '_ '_ '_ '_ '_ 9- 9- +- 3^.i^.4^.B1 8|  ^.~^.j^.k^.l^.m^.c'.la p  p  8  l  !$ =$ n^.*^.o^.o^.G> !7 !7 !7 !7 !7 !7 !7 ~7 p^.p^.p^.^7 Ot /7 Ot ,7 ,7 _7 Nt '0 )7 d0 q^.r^.s^.t^.u^.v^.8> _&.                                                                                                                              ",
"                                                                                                                                                         w^.j  b  o  7  6  x> 7  7  7  7  7  7  !$ H< !$ 7  =$ 7  x> x> =+ =+ y7 y7 =+ 7  l  9  L< p  p  p  =$ k&.h^.x^.-_ V].A>._@.Z^ Z^ &) L( G) G) G) '_ '_ '_ '_ '_ 9- 9- +- y^.)^.4^.B1 8|  ^.~^.z^.k^.,; m^.c'.la 8  p  4  p  p  9  l  !$ !$ !$ 7  7  7  7  7  7  7  7  6. 6. 6. 6. !$ !$ !$ !$ s% t$ !$ l  l  6. =$ A^.B^.C^.D^.   E^.                                                                                                                                    ",
"                                                                                                                                                         i&.Q  Q  j  c  k  5  4  6  6  4  f  f  f  p  p  6  6  6  g  6  6  c$ 6  6  6  6  6  8  7$ _  p  p  !$ V6 h^.]^ -_ -_ A>.aN Z^ Z^ Z^ Z^ G) G) G) '_ '_ '_ '_ '_ 9- 9- +- y^.F^.G^.H^.8|  ^.~^.*!.k^.l^.m^._$.6^.8  p  8  p  p  R$ e  6. 4  3  3  f  f  4  f  f  f  f  f  f  f  f  f  f  f  3  k  p  3  3  3  p  8  I^.                                                                                                                                                   ",
"                                                                                                                                                         x@ Q  2  |  |  f  p  p  f  f  f  f  f  f  f  f  f  f  f  3  e  6  6  6  c  f  4  c  e  l  4  4  e  >% X7 J^.(6 a: -_ U@ Q#.Z^ Z^ Z^ Z^ G) G) G) '_ '_ '_ '_ '_ 9- 9- u- K^.F^.L^.B1 8|  ^.~^.*!.NK M^.+%.N^.Q{.8  p  p  z> /  {- R$ 8  4  3  3  3  3  3  c  g  g  g  4  f  f  f  f  f  f  f  k  R$ 3  3  3  3  e  O^.                                                                                                                                                   ",
"                                                                                                                                                         b@ Q  3  3  j  0> 6. g  f  6  6  6  6  6  6  6  f  f  f  f  e  6  6  6  6  4  4  c  e  e  4  6  l  z  E,.:6 (6 a: $# U@ 5$.<) Z^ Z^ Z^ G) G) G) '_ '_ '_ '_ '_ '_ '_ |( K^.)^.L^.`].8|  ^.P^.*!.Q^.)%.*! R^.S^.8  p  p  _  3  3  3  l  6  l  l  6  6  o  6  f  f  f  f  f  f  3  f  3  f  3  k  5  k  {- k  ^  3  z{                                                                                                                                                    ",
"                                                                                                                                                         T^.Q  ^  ]  f  f  p  p  f  f  f  f  f  f  4  p  3  3  3  3  g  g  g  e  5  f  e  4  f  p  w@ f  e  >% X7 :6 U^.V^.A@ a; W^.&) E) |{ X^.n( Y^.;) G) '_ '_ '_ '_ '_ '_ |( Z^.`^.!^. /.8| p1 ]! ./.+/.R~ @/.R^.S^.c$ p  R$ p  f  p  f  3  3  3  p  4  f  f  f  5  {- ^$ 5  f  f  f  3  3  p  p  R$ w@ R$ 3  3  p  p  #/.                                                                                                                                                   ",
"                                                                                                                                                         $/.Q  /  w@ p  _  (  (  (  %/.<  <  <  <  <  <  <  }  <  <  &/.&/.*/.<  b/ {  W/ 6$ g  L< 3  e  6  =$ k&.=/.-/.;/.a: R; >/.n~ %{ ]] Z^ Z^ 0' G) G) '_ '_ '_ '_ '_ '_ |( h4 ,/.'/.)/.m) m' !/.~/.Q^.{/.]/.^/.//.s% v7 w@ /  R$ l  g  7$ }  }  }  (  (  }  }  }  }  y/ <  (/.&/.(/.h  _/._/._/.v% :/.</.</.n  x% }  f>                                                                                                                                                    ",
"                                                                                                                                                         z% [/.}/.M  A< z4 |/.1/.2/.C% 3/.YS h-.D8 w  Xd y@ 4/.5/.6/.                     7/.j  g  g  y  l  H$ t9 A: p+ 8/.M+ 9: Q$.9{ U! 4{ .{ Z^  { M( G) '_ '_ '_ '_ '_ '_ )_ 9/.j] 0/./! m' l) !/.a/.b/.c/.d/.e/.f/.4  {- {- l- {- j  f= g/.h/.i/.X4 z4 j/.k/.l/.m/.n/.U5 o/.p/.q/.r/.s/.t/.u/.v/.w/.x/.y/.z/.,l A/.B/.C/.                                                                                                                                                   ",
"                                                                                                                                                                                                                                          D/.2  g  g  y  l  >% E/.r+ k: >+ 2* U-.I$.,{ %{ &{ @{ V! I/ ;) G) '_ '_ '_ '_ '_ G) %5 F/.G/.H/.I/.A1 J/.K/.L/.M/.N/.O/.w) P/.e  3  w@ ^  ]  Q  Q/.                                                                                                                                                                                                                                    ",
"                                                                                                                                                                                                                                          R/.Q  j  3  3  m  7  t9 S/.6+ T/.96 U/.V/.W/.X/.Y/.Z/.`/. (..(.+(.+(.U4 @(.#(.U4 +(.q, $(.%(.&(.*(.=(.-(.;(.>(.,(.'(.)(.!(.~(.e  w@ {- {- {- Q  2/.                                                                                                                                                                                                                                    ",
"                                                                                                                                                                                                                                          R/.Q  |  3  3  ]  l  {(.R6 T6 T6 t9 V6 ](.^(.^(./(.((._(.:(.((.((.((.<(.<(.[(.}(.|(.a& 1(.2(.3(.4(.5(.6(.7(.8(.9(.0(.a(.QU b(.6  f  k  f  f  Q  C'.                                                                                                                                                                                                                                    ",
"                                                                                                                                                                                                                                          vJ Q  |  b  j  e  l  !$ -$ H$ H$ '$ -$ -$ 9> 9> V9 ;$ 9> 9> V9 -$ 9> -$ -$ N= N= N= -$ !$ t> M% _..<0 (0 EB C  e  4  8  l  c  l  e  k  {- {- Q  c(.                                                                                                                                                                                                                                    ",
"                                                                                                                                                                                                                                          vJ Q  o  g  o  o  7  !$ 6$ 6$ 6. !$ !$ 6$ 7$ x  x  6. 8  6. 6. 8  8  8  8  e  p  8  !$ 6  f  R$ 6  e  _  p  (  p  f  9  e  e  4  4  5  6& {- Q  d(.                                                                                                                                                                                                                                    ",
"                                                                                                                                                                                                                                          vJ Q  |  3  f  4  y  x> x> 6. 6. p  _  9  6. t$ 6. 6. H< H< 6$ 6$ 6$ !$ !$ g  g  g  l  6  4  p  6. p  x7 ro yn s% e  p  _  j  j  e  5  {- 5  Q  #*                                                                                                                                                                                                                                     ",
"                                                                                                                                                                                                                                          H^ Q  Q  ]  f  s% l  6  6  8  b$ 6. 6. 6$ =$ =$ =$ %> C7 H< H< =$ 7  7  7  7  7  7  7  !$ 8  8  8  yn p  8  8  p  e  3  3  3  1  1  k  {- 5  Q  gB                                                                                                                                                                                                                                     ",
"                                                                                                                                                                                                                                          e(.Q  x& k  f  p  e  6  6  8  8  7$ 6$ 6$ 6$ 1: a$ H< H< 6$ 7$ 6. 6. 6. 6. 6. !$ 6  l  l  _  _  L< 6$ 6$ 8  6. 6. !$ l  6  6  o  j  k  {- ]  Q  f(.                                                                                                                                                                                                                                    ",
"                                                                                                                                                                                                                                          G^ Q  x& k  4  y  g  >% O; A; )$ )$ H$ N= ;$ V9 9> 9> 9> <$ {$ x  x  x  7$ 7$ !$ !$ x  6. /  E  }0 I  I  G  w@ 6. x  6$ e  j  |  ]  ^  ^  ]  Q  g(.                                                                                                                                                                                                                                    ",
"                                                                                                                                                                                                                                          C/ Q  2  |  j  o  j^ w8 h(.;> >> ,> '> i(.j(.k(.l(.m(.n(.o(.p(.q(.q(.q(.r(.s(.s(.s(.t(.u(.v(.w(.x(.y(.z(.A(.B(.C(.D(.E(.F(.:/.|  ^  ^  ^  2  Q  %6                                                                                                                                                                                                                                     ",
"                                                                                                                                                                                                                                          C/ Q  2  |  |  3  y7 t9 TW G(.H(.q6 a6 ({ I(.J(.1! v=.K(.%2 .(.L(.M(.N(.Z/.Z/.O(.P(.Q(.R(.S(.T(.U(.V(.W(.X(.Y(.u& Z(.`(. _.!-.o  A  ^  ^  2  Q  f(.                                                                                                                                                                                                                                    ",
"                                                                                                                                                                                                                                          B+ Q  Q  ]  5  R$ q% &&.._.+_.@_.2* J# V;..{ .{ .{ H,.<) Z^ Z^ j1 Z^ Z^ Z^ N( .{ .{ #_.$_.%_.&_.*_.Y+.1@.=_.-_.;_.>_.,_.'_.j&.b  B  ^  ^  2  Q  )_.                                                                                                                                                                                                                                    ",
"                                                                                                                                                                                                                                          E^ Q  d  5  5  3  =+ !_.~_.B& aX q+ a# %>.{_.]_.^_.Y^ Z^  {  { Z^ Z^ Z^ Z^ H,..{ .{ /_.(_.__.i& :_.h) <_.[_.}_.|_.O/.1_.2_.j&.b  |  ^  ^  2  Q  3_.                                                                                                                                                                                                                                    ",
"                                                                                                                                                                                                                                          )0 Q  |  |  f  4  =+ T7 4_.+_.A& >6 1@ 5_.4{ Z^ Z^ Z^ Z^ Z^ Z^ &) Z^ <) V! V! @{ @{ H,.B] 6_.7_.8_.i| 9_.0_.a_.b_.c_.c_.d_.e_.3  2  Q  Q  Q  Q  f_.                                                                                                                                                                                                                                    ",
"                                                                                                                                                                                                                                          $  Q  |  |  ]  f  =+ M^ 4_.aX P= >+ Q@ 5_.4{ Z^ Z^ Z^ Z^ Z^  { E) &) &) &) n~ n~ n~ n~ g_.h_.i_.j_.k_.l_.m_.n_.o_.]).]).p_.q_.j  Q  Q  Q  Q  Q  f_.                                                                                                                                                                                                                                    ",
"                                                                                                                                                                                                                                          8I Q  |  3  ]  f  =+ r_.s_.t_.k= >+ Q@ 5_.4{ Z^ Z^ Z^ Z^ Z^  { X~ E) &) U! ${ b{ 5{ 5{ u_.v_.w_.x_.y_.z_.A_.B_.C_.]).]).D_.E_.|  Q  Q  Q  Q  Q  3_.                                                                                                                                                                                                                                    ",
"                                                                                                                                                                                                                                          8I Q  |  3  ]  f  7  *8 F_.8/.k= >+ Q@ 5_.4{ Z^ Z^ Z^ Z^ Z^ Z^ Z^ Z^  { ]] 5{ 5{ 8{ H/ .{ G_.H_.I_.J_.k~ K_.v= I,.I,.L_.M_.N_.|  Q  ^  Q  Q  Q  )_.                                                                                                                                                                                                                                    ",
"                                                                                                                                                                                                                                          8I Q  |  |  f  f  y  .8 L+ 8/.p+ M+ 1@ 5_.4{ .{ .{ Z^ Z^ Z^ Z^ Z^ Z^ Z^ U! 5{ 5{ 5{ ]] E) O_.P_.p^ I4 }4 K4 J4 v1 I,.L_.M_.Q_.|  ]  ]  Q  Q  Q  )_.                                                                                                                                                                                                                                    ",
"                                                                                                                                                                                                                                          8I Q  |  |  3  f  y  .8 R_.S_.T_.*@ 1@ 5_.4{ .{ .{ Z^ Z^ Z^ Z^ Z^ Z^ Z^ ]] 5{ 5{ 5{ %{ E) #{ #{ #{ +{ 0' c' c' |( d| p3 D_.U_.|  1  2  Q  Q  Q  g(.                                                                                                                                                                                                                                    ",
"                                                                                                                                                                                                                                          V_.Q  |  3  3  f  6  .8 =/.W_.a: 0# Q@ 5_.4{ .{ .{ .{ Z^ Z^ Z^ Z^ Z^  { ]] b{ Y] b{ %{ n~ V! X_.Y_.w=.Z_.`_.`_.o2 d| p3  :..:.1  1  ^  Q  Q  Q  g(.                                                                                                                                                                                                                                    ",
"                                                                                                                                                                                                                                          V_.Q  |  3  R$ {- 4  Q7 +:.W_.M- n# g@ 5_.4{ .{ .{ .{ Z^ Z^ Z^ Z^  { |{ ]] 5{ 5{ 5{ ;{ o~ @:.#:.$:.%:.&:.*:.=:.-:.;:.]).W+ >:.1  A  ^  ^  Q  Q  )_.                                                                                                                                                                                                                                    ",
"                                                                                                                                                                                                                                          T$ Q  |  f  5  d  6  ,:.+:.,6 q+ M+ Q@ 8$..{ .{ .{ .{ Z^ Z^ Z^ Z^ Z^ Z^ Z^ .{ .{ U! i*.':.):.!:.~:.{:.]:.^:./:.(:._:.::.<:.U_.b  Q  Q  Q  2  Q  [:.                                                                                                                                                                                                                                    ",
"                                                                                                                                                                                                                                          G< Q  |  3  5  d  6  Q7 +:.}:.8/.p+ |@ %>..{ .{ .{ .{ Z^ Z^ Z^ Z^ Z^ Z^ Z^ Z^ Z^ <) <) |:.1:.2:.hs A' B' -(.3:.4:.1_.5:.6:.G6 j  2  Q  Q  2  Q  )_.                                                                                                                                                                                                                                    ",
"                                                                                                                                                                                                                                          [% Q  |  3  k  5  6  ,:.7:.}:.8/.8/.*@ %>..{ .{ .{ .{ Z^ Z^ Z^ Z^ Z^ Z^ Z^ Z^ Z^ <) +{ e4 8:.M*.9:.`+.0:.a:.b:.@= c:.d:.e:.f:.j  Q  Q  Q  2  Q  g(.                                                                                                                                                                                                                                    ",
"                                                                                                                                                                                                                                          2% Q  |  3  k  d  6  ,:.7:.}:.p+ p+ *@ %>..{ .{ .{ .{ Z^ Z^ Z^ Z^ Z^ Z^ Z^ Z^ Z^ L( +{ g:.h:.i:.j:.<=.,1 k:.l:.I= d:._:.`{ f:.2  Q  ^  Q  2  Q  f(.                                                                                                                                                                                                                                    ",
"                                                                                                                                                                                                                                          1% Q  |  3  5  5  7  {8 m:.n:.p+ M+ &@ %>..{ .{ .{ .{ .{ Z^ Z^ Z^ Z^ Z^ Z^ Z^ Z^ Z^ o:.p:.q:.i:.X) 0) m) aP r:.s:.t:.u:.v:.w:.1  2  ]  Q  2  Q  f(.                                                                                                                                                                                                                                    ",
"                                                                                                                                                                                                                                          A4 Q  |  3  5  5  7  {8 m:.S_.p+ M+ &@ %>..{ .{ .{ .{ .{ Z^ Z^ Z^ Z^ Z^ Z^ Z^ Z^ Z^ +{ x:.y:.j& j:.a) m) z:.A:.B:.C:.t:.D:.E:.c  e  ]  Q  2  Q  %6                                                                                                                                                                                                                                     ",
"                                                                                                                                                                                                                                          F:.Q  |  3  5  5  6  +8 m:.G:.8/.p+ -: %>..{ .{ .{ .{ .{ Z^ Z^ Z^ Z^ Z^ Z^ Z^ Z^ Z^ &) H:.I:.J:.X) i) Y+.K:.L:.M:.w= N:.O:.E:.o  b  ]  Q  2  Q  f(.                                                                                                                                                                                                                                    ",
"                                                                                                                                                                                                                                          J7 Q  |  3  5  5  6  +8 =/.P:.8/.8/.*@ 8$..{ .{ .{ .{ .{ Z^ Z^ Z^ Z^ Z^ Z^ Z^ Z^ Z^ +{ x:.Q:.J:.i| Z+.g| R:.S:.-( T:.U:.v:.V:.o  |  ^  Q  2  2  g(.                                                                                                                                                                                                                                    ",
"                                                                                                                                                                                                                                          G-.Q  j  3  f  f  6   7 =/.P:.W:.p+ &@ 8$.H,.@{ .{ .{ Z^ Z^ Z^ Z^ Z^ Z^ Z^ Z^ Z^ Z^ +{ p:.X:.i& j| Y:.8| P^.Z:.`:. <.U:..<.V:.|  A  ^  ^  2  2  v$                                                                                                                                                                                                                                     ",
"                                                                                                                                                                                                                                          +<.Q  |  3  f  f  6   7 R_.P:.W:.p+ &@ 7$.H,.@{ .{ .{ Z^ Z^ Z^ Z^ Z^ Z^ Z^ Z^ Z^ Z^ V! @<.#<.i& $<.%<.9) &<.Z:.*<.=<._:..<.w:.|  ^  ^  ^  2  2  3_.                                                                                                                                                                                                                                    ",
"                                                                                                                                                                                                                                           ).Q  j  3  5  d  6   7 C: T_.8/.p+ 1@ 6$.H,.@{ .{ .{ Z^ Z^ Z^ Z^ Z^ Z^ Z^ Z^ Z^ Z^ V! @<.-<.j& )1 %<.9) &<.Z:.*<.z= O/..<.w:.|  ^  ^  ^  2  2  )_.                                                                                                                                                                                                                                    ",
"                                                                                                                                                                                                                                          ,% Q  |  3  5  d  6  +8 =/./6 p+ M+ 1@ ;<.H,.@{ .{ .{ Z^ Z^ Z^ Z^ Z^ Z^ Z^ Z^ Z^ Z^ V! @<.><.i& X) 6) 9) I].,<.>- '<.)<.`{ w:.|  ^  ^  /  2  2  gB                                                                                                                                                                                                                                     ",
"                                                                                                                                                                                                                                          !<.Q  |  3  5  d  6  +8 ~<.%@ p+ M+ J# {<.H,.@{ .{ .{ Z^ Z^ Z^ Z^ Z^ Z^ Z^ Z^ Z^ Z^ I/ ]<.^<./<.X) 8) 9) &<.(<.>- _<.:<.'_.f:.5  Q  ^  ^  |  Q  <<.                                                                                                                                                                                                                                    ",
"                                                                                                                                                                                                                                          :% Q  j  3  5  d  6  +8 ~<.(6 p+ M+ J# {<.H,.@{ .{ .{ Z^ Z^ Z^ Z^ Z^ Z^ Z^ Z^ Z^ Z^ [<.}<.|<.1<.m) 8) 9) &<.A:.2<.=<.:<.'_.f:.3  ^  ^  ^  2  2  3<.                                                                                                                                                                                                                                    ",
"                                                                                                                                                                                                                                          0y Q  |  3  k  d  y  =8 4<.}Z M+ M+ 1@ {<.H,.@{ .{ .{ Z^ Z^ Z^ Z^ Z^ Z^ Z^ Z^ Z^ Z^ [<.5<.6<.7<.m) 8) 0) aP 8<.2<.9<.0<.'_.f:.|  ^  ^  ^  2  2  a<.                                                                                                                                                                                                                                    ",
"                                                                                                                                                                                                                                          J7 Q  j  3  {- d  y  =8 ~<.e@ M+ M+ J# ;<.H,.@{ .{ .{ Z^ Z^ Z^ Z^ Z^ Z^ Z^ Z^ Z^ Z^ I/ 5<.6<.b<.m) 8) 9) aP f- >- 9<.:<.c<.f:.j  {- ^$ ^  2  2  d<.                                                                                                                                                                                                                                    ",
"                                                                                                                                                                                                                                          ,% Q  |  ]  {- 5  y  =8 ~<./6 p+ M+ J# e<.H,.@{ .{ .{ Z^ Z^ Z^ Z^ Z^ Z^ Z^ Z^ Z^ Z^ Z^ x:.f<.g<.m) h<.i<.j<.k<.l<.9<.:<.'_.f:.j  5  {- ^$ ]  |  m<.                                                                                                                                                                                                                                    ",
"                                                                                                                                                                                                                                          ,% Q  |  3  5  5  q% =8 ~<.(6 p+ M+ J# e<.H,.@{ .{ .{ .{ Z^ Z^ Z^ Z^ Z^ Z^ Z^ Z^ Z^ V! @<.f<.g<.m) n<.i<.z:.o<.p<.C_.0<..<.f:.f  w@ ^$ ^  |  |  A'.                                                                                                                                                                                                                                    ",
"                                                                                                                                                                                                                                          vy Q  |  3  5  5  q% =8 ~<.(6 A@ M+ J# aN H,.H,..{ .{ .{ .{ Z^ Z^ Z^ Z^ Z^ Z^ Z^ Z^ V! @<.f<.q<.m) 7) i<.z:.r<.p<.}*.U:.C;.w:.j  5  {- ^$ ]  |  t*                                                                                                                                                                                                                                     ",
"                                                                                                                                                                                                                                          fB Q  |  3  5  5  q% *8 ~<.(6 A@ *@ J# _#.r' H,..{ .{ .{ .{ Z^ Z^ Z^ Z^ Z^ Z^ Z^ Z^ I/ s<.t<.q<.m) h<.,@.z:.u<.M:.C:.N:..<.w:.j  |  k  ^  |  |  v<.                                                                                                                                                                                                                                    ",
"                                                                                                                                                                                                                                          fB Q  |  3  5  5  q%  7 ~<.(6 A@ M+ J# 6].r' r' .{ .{ .{ .{ Z^ Z^ Z^ Z^ Z^ Z^ Z^ Z^ I/ w<.t<.x<.m) h<.i<.z:.u<.M:.w= 3( y<.f:.f  {- {- ^$ 2  2  i=                                                                                                                                                                                                                                     ",
"                                                                                                                                                                                                                                          J7 Q  |  3  5  5  q%  7 ~<.(6 A@ [@ J# 6]..{ @{ .{ .{ .{ .{ Z^ Z^ Z^ Z^ Z^ Z^ Z^ Z^ I/ w<.f<.x<.m) h<.n) k! r<.M:./4 z<.d_.w:.f  ^  {- d  2  2  B<                                                                                                                                                                                                                                     ",
"                                                                                                                                                                                                                                          a-.Q  |  3  k  5  q%  7 ~<.(6 A@ [@ J# 2)..{ @{ .{ .{ .{ .{ Z^ Z^ Z^ Z^ Z^ Z^ Z^ Z^ I/ w<.f<.J:.X) |{.n) k! r<.A<.B<.V4 p_.V:.f  ^  l- x& 2  2  B<                                                                                                                                                                                                                                     ",
"                                                                                                                                                                                                                                          :% Q  |  ]  {- 5  q%  7 ~<.(6 A@ [@ Q@ 2).H,.@{ .{ .{ .{ .{ Z^ Z^ Z^ Z^ Z^ Z^ Z^ Z^ Z^ R} C<.i& X) 8| m) k! r<.D<.`| E<.p_.V:.j  f  d  d  2  2  B<                                                                                                                                                                                                                                     ",
"                                                                                                                                                                                                                                          :% Q  |  ]  ^  5  q%  7 ~<.(6 A@ A@ Q@ $!.<) @{ @{ .{ .{ .{ .{ Z^ Z^ Z^ Z^ Z^ Z^ Z^ Z^ R} F<.i& /) |{./) k! G<.H<.84 p4 I<.J<.j  f  k  d  2  |  K<.                                                                                                                                                                                                                                    ",
"                                                                                                                                                                                                                                          a-.Q  |  ]  ^  5  y   7 ~<.e@ A@ A@ Q@ $!.<) @{ @{ .{ .{ .{ Z^ Z^ Z^ Z^ Z^ Z^ Z^ Z^ Z^ R} F<.i& L<.8| /) k! M<.N<.84 p4 O<.J<.|  5  k  d  2  |  P<.                                                                                                                                                                                                                                    ",
"                                                                                                                                                                                                                                          ,% Q  |  ]  ^  d  y   7 Q<..` [@ [@ 0: $!.<) @{ @{ .{ .{ Z^ Z^ Z^ Z^ Z^ Z^ Z^ Z^ Z^ L( R} R<.j& L<.o) m' k! M<.S<.84 `| L, C,.j  d  {- d  2  2  T<.                                                                                                                                                                                                                                    ",
"                                                                                                                                                                                                                                          /#.Q  |  ]  ^  d  6   7 Q<.## [@ [@ J# $!.<) @{ @{ .{ Z^ Z^ Z^ Z^ Z^ Z^ Z^ G) Z^ G) 0' w<.R<.i:.9:.h| w).K/.M<.U<.94 `| V<.W<.j  f  k  ^  2  2  X<.                                                                                                                                                                                                                                    ",
"                                                                                                                                                                                                                                          Uy Q  |  ]  ^  d  6   7 Q<.w# [@ [@ J# $!.Z^ V! H,..{ Z^ Z^ Z^ Z^ Z^ Z^ Z^ G) G) G) c' Y<.Z<.i:.`<.Y+.l' a=  [..[.84 k4 V<.V:.b  3  w@ ^  ]  2  $2                                                                                                                                                                                                                                     ",
"                                                                                                                                                                                                                                          Uy Q  |  ]  d  d  6   7 Q<.z@ [@ [@ 1@ $!.Z^ V! H,.Z^ Z^ Z^ Z^ Z^ Z^ Z^ Z^ G) G) G) a' Y<.Z<.i:.9:.Y+.l' a=  [.N<.84 k4 5~ V:.j  ^  d  ^  ]  2  +[.                                                                                                                                                                                                                                    ",
"                                                                                                                                                                                                                                          Uy Q  |  2  x& 5  7   7 @[.(6 A@ A@ |@ $!.Z^ V! @{ .{ Z^ Z^ Z^ Z^ Z^ Z^ Z^ G) G) G) a' Y<.Z<.j& 9:.,1 l' #[.$[.N<.84 %[.5~ V:.j  2  d  d  |  2  q7                                                                                                                                                                                                                                     ",
"                                                                                                                                                                                                                                          Uy Q  2  2  d  5  6   7 Q<.&[.%@ A@ |@ $!.Z^ V! H,.Z^ Z^ Z^ Z^ Z^ Z^ Z^ G) G) G) G) c' Y<.Z<.*[.+1 )1 +1 =[. [..[.84 %[.5~ V:.j  2  ^  ^  2  2  '..                                                                                                                                                                                                                                    ",
"                                                                                                                                                                                                                                           ).Q  Q  ^  ^  d  q%  7 Q<.&[.&[.e@ 1@ $!.Z^ V! Z^ Z^ Z^ Z^ Z^ Z^ Z^ Z^ G) G) G) G) c' w<.-[.*[.+1 l) +1 k_.;[..[.v4 %[.5~ W<.|  A  ^  ^  2  2  E<                                                                                                                                                                                                                                     ",
"                                                                                                                                                                                                                                          +<.Q  2  ]  f  f  q% +8 4<.&[.}Z M+ J# $!.Z^ V! Z^ Z^ Z^ Z^ Z^ Z^ Z^ Z^ G) G) G) G) c' %!.>[.*[.+1 l) +1 #[.,[.'[.o4 p4 )[.J<.|  A  ^  ^  2  2  J-.                                                                                                                                                                                                                                    ",
"                                                                                                                                                                                                                                          /#.Q  |  j  j  j  7  I8 4<.&[.N+ M+ G# $!.Z^ V! Z^ Z^ Z^ Z^ Z^ Z^ Z^ Z^ G) G) G) G) c' 5<.>[.![./1 c) l' h! ~[.{[.04 p4 I<.W<.|  ^  ^  ^  2  Q  L=                                                                                                                                                                                                                                     ",
"                                                                                                                                                                                                                                          J7 Q  |  |  5  f  q% {8 ][.}Z M+ N+ e_ $!.Z^ V! Z^ Z^ Z^ Z^ Z^ Z^ Z^ Z^ G) G) G) G) c' 5<.>[.^[.9:.g| Y) g! /[.([.04 `| I<.W<.|  ^  ^  ^  2  Q  1;.                                                                                                                                                                                                                                    ",
"                                                                                                                                                                                                                                          :% Q  Q  ^  ^  k  6  0_ ][.}Z M+ N+ e_ 4@ <) <) .{ Z^ Z^ Z^ Z^ Z^ Z^ Z^ G) G) G) G) c' w<._[.^[.J/.b) l) k! :[.&*.04 C:.I<.W<.2  ^  ^  ^  2  2  <[.                                                                                                                                                                                                                                    ",
"                                                                                                                                                                                                                                          -4 Q  2  ^  ^  d  6  .7 Q<.F_./6 N+ e_ 2).<) H,..{ Z^ Z^ Z^ Z^ Z^ Z^ G) G) G) G) G) )_ [[.#w =(.A1 }[.|[.f! 1[.2[.3[.C:.4[.W<.2  {- ^  ^  2  2   B                                                                                                                                                                                                                                     ",
"                                                                                                                                                                                                                                          j5 Q  |  ]  ]  5  7   7 Q<.5+ 5Y N+ &@ F].<) r' .{ Z^ Z^ Z^ Z^ Z^ G) G) G) '_ '_ '_ c| o_._[.=(.J/.Z) m' 5[.6[.7[.h4 v= /{ 8[.5  l- ^  ^  2  2  %=                                                                                                                                                                                                                                     ",
"                                                                                                                                                                                                                                          9[.Q  |  5  5  f  7   7 Q<.5+ 0[.&= &@ a[.<) r' .{ Z^ Z^ Z^ Z^ G) G) G) G) '_ '_ '_ c| b[.>[.^[.y' c[.d[.z:.3{.e[.w= y= /{ f[.5  {- ^$ ^  2  2  t*                                                                                                                                                                                                                                     ",
"                                                                                                                                                                                                                                          %  Q  ^  {- l- {- c$ 0_ ,y F_.Q. 06 D5 g[.Z^ .{ U! &) Z^ Z^ Z^ G) G) '_ '_ '_ '_ '_ 2( h[.i[.-(.j[.k[.d[.l[.m[.}#.z= '<.n[.o[.^  {- {- ^  ^  Q  A'.                                                                                                                                                                                                                                    ",
"                                                                                                                                                                                                                                          2% Q  d  k  {- k  7  0_ C6 p[.q[.5+ E: W]..{ 4{ U! E)  {  { Z^ G) G) '_ '_ '_ '_ 9- 2( r[.Z<.*[.w).s[.d[.&<.t[.}#.t).y= u[.v[.2  5  k  {- ^  Q  B'.                                                                                                                                                                                                                                    ",
"                                                                                                                                                                                                                                          4% Q  |  |  5  f  =+ 0_ C6 F_.N+ M+ (; _#.%( 4{ ]] ]]  {  { Z^ G) ;) ]_ ]_ c| q3 q3 J,.w[.x[.*[.w).p1 d[./W y[.z[.A[.C_.B[.C[.|  f  k  {- x& Q  d<.                                                                                                                                                                                                                                    ",
"                                                                                                                                                                                                                                          [% Q  2  5  5  4  =+ D[.bC u: Q; Q; U-.{)..{ .{ Y^ Z^ Z^ Z^ G) c' %5 l1 v1 R4 R4 R4 E[.F[.G[.*[.r1 Z) d[.aP H[.z[.%1 y= I[.J[.j  f  k  {- x& Q  a<.                                                                                                                                                                                                                                    ",
"                                                                                                                                                                                                                                          .).Q  x& {- {- f  >% SO K[.L[.u: A: e6 2)..{ {_.N( Z^ 0' 0' 0' G) '_ '_ '_ 9- &1 S} S4 M[.G[.o& N[.m' m' ]! O[.P[.Q[.R[.S[.T[.j  3  k  {- ^$ Q  3<.                                                                                                                                                                                                                                    ",
"                                                                                                                                                                                                                                          V_.Q  2  d  k  e  y7 U[.V[.B6 W[.t: f6 {).r' H,.{_.H,.Z^ +{ ;) c' ]_ c| q3 E[.X[.X[.Y[.Z[.`[. }.P^.(! .}.Y* +}.@}.#}._<.$}.N=.|  5  k  {- ^$ Q  <<.                                                                                                                                                                                                                                    ",
"                                                                                                                                                                                                                                          8I Q  j  |  j  c  y7 %}.&}.*}.,< V: ;< =}.1%.R^.=! 2>.-!.7*.,; 1%.1>.-}.;}.>}.,}.'}.L] )}.!}.~}.{}.]}.^}./}.(}._}.y+ :}.<}.[}.|  ]  k  {- ^$ Q  #*                                                                                                                                                                                                                                     ",
"                                                                                                                                                                                                                                          %;.Q  j  j  j  l  g  %> S< f% }}.S< S< |}.G6 >,.q_.q_.1}.2}._O 3}.4}.5}.6}.7}.v[.W<.C,.8}.9}.0}.a}.b}.c}.d}.e}.t&.f}.g}.g}.]$ c  f  d  {- {- Q  h}.                                                                                                                                                                                                                                    ",
"                                                                                                                                                                                                                                          [K Q  2  ]  5  m  o  c  l  6  6. !$ 6  !$ 9  9  6. 7$ 7$ 7$ 6. 8  8  8  8  8  b$ 8  8  <$ R$ jq G  A( A( A( t> p  p  l  l  6  4  f  k  i}.{- 2  )_.                                                                                                                                                                                                                                    ",
"                                                                                                                                                                                                                                          $  Q  Q  ^  {- 5  e  f  4  e  p  l  6  s% p  8  b$ s% (  s% 8  8  8  8  8  s% s% p  p  8  p  w@ w@ R$ p  _  _  p  8  6$ l  3  f  f  k  {- {- Q  )_.                                                                                                                                                                                                                                    ",
"                                                                                                                                                                                                                                          %;.Q  Q  ]  {- f  c  e  6  l  p  f  4  p  p  8  8  3  3  3  4  6  6  l  l  4  f  3  3  R$ R$ p  _  v7 x7 8  R$ t> 8  l  e  3  f  f  5  {- {- Q  )_.                                                                                                                                                                                                                                    ",
"                                                                                                                                                                                                                                          [K Q  2  f  5  e  x> e  4  4  l  e  4  e  3  3  f  5  ]  ]  f  4  4  c  e  f  3  z; 3  w@ ^$ w@ t> x7 x7 p  x7 t> p  3  3  3  4  3  5  {- {- Q  j}.                                                                                                                                                                                                                                    ",
"                                                                                                                                                                                                                                          80 Q  2  2  5  l  x> x> y  g  x> !$ !$ !$ e  e  e  9  _  _  _  9  L< L< p  9  9  9  9  p  G  L% J  jz jz d( A( l> e  e  e  z> o  e  k  {- {- Q  C%                                                                                                                                                                                                                                     ",
"                                                                                                                                                                                                                                          {;.Q  Q  d  {- 3  !$ k}.l}.%% m}.n}.+7 o}.p}.q}.q}.r}.AR s}.Q&.t}.u}.v}.v}.w}.O> x}.8,.y}.z}.A}.B}.C}.D}.E}.F}.G}.bL f-.H}.1: l  f  k  {- {- Q  I}.                                                                                                                                                                                                                                    ",
"                                                                                                                                                                                                                                          2: Q  2  ]  {- w@ >% J}.bW K}.L}.M}.u6 S} N}.#_.#_..(.u_.t, O}.}4 Z_.q^ P}.Q}.Q}.R}.S}.T}.U}.V}.W}.X}.Y}.Z}.`}. |.v:.c<..|.+|.e  3  5  {- {- Q  @|.                                                                                                                                                                                                                                    ",
"                                                                                                                                                                                                                                          5< Q  2  3  5  k  7  #|.._.:Z +_.q+ c# >@ P{ &{ n~ U! Z^ V! +{ +{ I/ I/ V! [<.$|.#_.t, %|.&|.*|.q) =|.-|.;|.>|.,|.'|.u:.d_.s{ e  5  {- {- k  2  )|.                                                                                                                                                                                                                                    ",
"                                                                                                                                                                                                                                          C< Q  2  |  5  k  =+ X7 0[.aX &* P5 !|.~|.O{ &{ n~ n~ Z^ Z^ Z^ Z^ Z^ Z^ Z^ Z^ Z^ .{ s' J~ {|.]|.^|./|.(|._|.:|.<|.[|.U:.}|.||.b  k  l- ^$ ]  2  <<.                                                                                                                                                                                                                                    ",
"                                                                                                                                                                                                                                          C< Q  2  |  5  5  q% I8 F_.t_.p# x# 7:  ; 4{ .{ r' n~ Z^ Z^ Z^ Z^ Z^ Z^ Z^ Z^ Z^ Z^ <) S{ 1|.6( 2|.3|.4|.5|.6|.7|.8|.9|.0|.a|.j  k  l- ^  ]  2  $'.                                                                                                                                                                                                                                    ",
"                                                                                                                                                                                                                                          {;.Q  2  3  w@ 5  =+ *8 5+ b|.n# o# c# G$.P{ .{ U! n~ Z^ Z^ Z^ Z^ Z^ Z^ Z^ Z^ Z^ Z^ <) c|.d|.e|.f|.g|.h|.i|.j|.k|.8|.l|.0|.m|.j  k  {- ^  ]  2  a<.                                                                                                                                                                                                                                    ",
"                                                                                                                                                                                                                                          n|.Q  2  3  w@ 5  =+ O7 5+ b|.n# ]; a# $>.4{ .{ U! U! Z^ Z^ Z^ Z^ Z^ Z^ Z^ Z^ Z^ Z^ <) o|.p|.q|.r|.s|.t|.u|.v|.w|.8|.x|.y|.e_.j  5  {- ^  ]  2  d<.                                                                                                                                                                                                                                    ",
"                                                                                                                                                                                                                                          $*.Q  2  3  ]  3  q% |).F_.8/.n# ]; ^; x$..{ .{ .{ U! Z^ Z^ Z^ Z^ Z^ Z^ Z^ Z^ Z^ Z^ Z^ N( t' z|.A|.%|.B|.C|.D|.E|.E<.F|.)(.e_.j  5  {- ^  ]  2  B'.                                                                                                                                                                                                                                    ",
"                                                                                                                                                                                                                                          G|.Q  2  3  w@ k  q% |).R_.8/.q# H|.^; %>..{ .{ .{ U! Z^ Z^ Z^ Z^ Z^ Z^ Z^ Z^ Z^ Z^ Z^ #_.[<.I/ I/ `^ [<.+(.I|.q, J|.K|.)(.7}.|  5  l- ^  ]  2  A'.                                                                                                                                                                                                                                    ",
"                                                                                                                                                                                                                                          H^ Q  2  3  ]  k  6  n}.~<.p+ q# x# J# %>..{ .{ .{ U! Z^ Z^ Z^ Z^ Z^ Z^ Z^ Z^ Z^ Z^ I/ N( H,.s' s' N( N( L(.P}.3).t} L|.M|.j&.^  5  {- ^  ]  |  d<.                                                                                                                                                                                                                                    ",
"                                                                                                                                                                                                                                          M;.Q  2  ]  w@ 5  6  n}.~<.%@ n# o# J# %>..{ .{ .{ .{ Z^ Z^ Z^ Z^ Z^ Z^ Z^ Z^ Z^ Z^ Z^ Z^ Z_.N|.N|.O|.P|.Q|.94 R|.*2 S|.T|.U|.^  d  l- ^  ]  2  $'.                                                                                                                                                                                                                                    ",
"                                                                                                                                                                                                                                          M;.Q  x& {- {- d  6  n}.=/.T_.8/.n# |@ %>..{ Z^ .{ .{ Z^ Z^ Z^ Z^ Z^ Z^ Z^ G) G) I/ Z^ .(.V|.W|.X|.Y|.R3 Z|.`|.94 3).`_.M|.||.j  d  l- x& 2  2  w'.                                                                                                                                                                                                                                    ",
"                                                                                                                                                                                                                                          H^ Q  x& {- {- d  y  |).=/. 1.b|.k: |@ %>..{ .{ .{ .{ Z^ Z^ Z^ Z^ Z^ Z^ Z^ G) G) G) ;) j/ .1.+1.@1.#1.$1.%1.&1.*1.E<.k4 I, U|.j  {- {- x& 2  2  gB                                                                                                                                                                                                                                     ",
"                                                                                                                                                                                                                                          ;( Q  x& {- {- d  6  m}.R_. 1.p+ >+ m# F$..{ .{ .{ .{ Z^ Z^ Z^ Z^ Z^ Z^ Z^ G) Z^ G) %5 =1.-1.;1.>1.(! ,1.'1.)1.!1.%[.t4 I<.~1.4  k  {- ^$ ]  |  %6                                                                                                                                                                                                                                     ",
"                                                                                                                                                                                                                                          ;( Q  x& {- {- 5  q% m}.C: Rt >+ >+ ': F$..{ .{ .{ .{ Z^ Z^ Z^ Z^ Z^ Z^ Z^ G) G) G) 0' @<.y1 g<.j:.Y+.J/.Y* {1.]1.I|.14 5~ ^1.j  d  l- ^$ ]  2  #*                                                                                                                                                                                                                                     ",
"                                                                                                                                                                                                                                          ;( Q  x& {- {- d  y  |)./1.(1.k: P= m# F$..{ .{ .{ .{ .{ Z^ Z^ Z^ Z^ Z^ Z^ G) G) G) 0' s<._1.j_.j:.g| o| :1.<1.[1.}1.q, |1.^1.d  {- l- ^  ]  |  <<.                                                                                                                                                                                                                                    ",
"                                                                                                                                                                                                                                          ;( Q  x& {- {- d  y  n}.L[.(1.q+ MX S5 F$..{ .{ .{ .{ .{ Z^ Z^ Z^ Z^ Z^ Z^ Z^ G) I/ +{ s<.11.21.31.,1 41.51.61.71.t' 81.91.01.2  l- l- ^  ]  2  a<.                                                                                                                                                                                                                                    ",
"                                                                                                                                                                                                                                          ;( Q  x& {- {- d  y  n}.L[.@_.aX MX %* F$..{ .{ .{ .{ .{ Z^ Z^ Z^ Z^ Z^ Z^ Z^ Z^ Z^ 0' a1.11.b1.c1.,1 d1.e1.f1.&N g1.h1.i1.01.j  x& l- x& 2  |  j1.                                                                                                                                                                                                                                    ",
"                                                                                                                                                                                                                                          H^ Q  x& {- {- d  y  |).L[.@_.MX %* R. x$..{ .{ .{ .{ .{ Z^ Z^ Z^ Z^ Z^ Z^ Z^ Z^ Z^ +{ k1.l1.m1./1 X) 9:.#[.n1.)L o1.p1.)[.q1.j  d  l- x& |  |  d<.                                                                                                                                                                                                                                    ",
"                                                                                                                                                                                                                                          H^ Q  x& {- {- d  y  |).z: @_.q+ >6 S5 %>..{ .{ .{ .{ .{ Z^ .{ Z^ Z^ Z^ Z^ Z^ Z^ Z^ V! W! l1.r1.w).X) +1 #[.s1.S<.t1.r4 5~ u1.|  d  l- ^  ]  |  v1.                                                                                                                                                                                                                                    ",
"                                                                                                                                                                                                                                          M;.Q  x& {- {- d  y  |)./1.(1.q+ >6 ]/ %>..{ .{ .{ .{ .{ Z^ .{ Z^ Z^ Z^ Z^ Z^ Z^ Z^ <) w1.x1.m1.L<.0:.B1 e1.y1.S<.t1.q4 5~ u1.|  d  l- ^  ]  |  A'.                                                                                                                                                                                                                                    ",
"                                                                                                                                                                                                                                          h&.Q  x& {- {- d  y  z1.C: r+ q+ >6 ': %>..{ .{ .{ .{ .{ Z^ .{ Z^ Z^ Z^ Z^ Z^ Z^ Z^ <) s^ A1.B1.X) g| B1 C1.D1.E1.t1.F1.I<.u1.|  d  l- ^  |  |  y'.                                                                                                                                                                                                                                    ",
"                                                                                                                                                                                                                                          0&.Q  x& {- {- d  y  z1./1.Rt q+ >6 ': %>..{ .{ .{ .{ .{ .{ Z^ Z^ Z^ Z^ Z^ Z^ Z^ Z^ V! w1.G1.B1.X) o) <_.r1.61.E1.q4 q4 H1.j&.|  d  l- ^  ]  |  I1.                                                                                                                                                                                                                                    ",
"                                                                                                                                                                                                                                          F$ Q  x& {- {- d  y  J1./1.S_.q+ >6 -: 8$..{ .{ .{ .{ Z^ .{ Z^ Z^ Z^ Z^ Z^ Z^ Z^ Z^ I/ K1.L1.m1.m) 8| M1.N1.O1.P1.q4 u:.u[.j&.]  {- l- ^  ]  |  i=                                                                                                                                                                                                                                     ",
"                                                                                                                                                                                                                                          F$ Q  x& {- {- d  y  J1./1.S_.q+ >6 -: 8$..{ .{ .{ '{ Z^ .{ .{ Z^ Z^ Z^ Z^ Z^ Z^ Z^ I/ K1.Q1.|~ n) i<.Q) r1.R1.S1.T1.u:.y<.u1.]  {- l- ^  ]  |  U1.                                                                                                                                                                                                                                    ",
"                                                                                                                                                                                                                                          h&.Q  x& {- {- d  y  J1./1.S_.q+ >6 &@ 8$..{ .{ .{ .{ Z^ .{ .{ Z^ Z^ Z^ Z^ Z^ Z^ Z^ s' g~ V1.W1.8| h<./) =[.X1.p<.T1.u:.y<.u1.]  {- l- ^  ]  |  1;.                                                                                                                                                                                                                                    ",
"                                                                                                                                                                                                                                          M;.Q  2  5  {- x& 6  Y1.Z1.S_.q+ >6 ': w$..{ .{ .{ .{ .{ .{ .{ Z^ Z^ Z^ Z^ Z^ Z^ Z^ H,.g~ `1.K:.|{.n<.n)  2..2.+2.@2.M|.j{ u1.]  d  {- ^  ]  |  #2.                                                                                                                                                                                                                                    ",
"                                                                                                                                                                                                                                          R/.Q  2  ]  ^  x& 6  `7 $2.(1.>6 >6 ': w$..{ .{ .{ .{ .{ .{ .{ Z^ Z^ Z^ Z^ Z^ Z^ .{ H,.e~ %2.&2.|{.*2.i<. 2.=2.+2._<.-2.u[.u1.3  {- {- d  2  |  ;2.                                                                                                                                                                                                                                    ",
"                                                                                                                                                                                                                                          n|.Q  2  ]  ^  d  y  m}.L+ (1.q+ @_.': %>..{ .{ .{ .{ .{ .{ .{ Z^ Z^ Z^ Z^ Z^ Z^ .{ @{ f~ >2.K:.|{.M) ,2.'2.)2.+2._<.)(.u[.u1.]  {- {- ^  ]  |  ;2.                                                                                                                                                                                                                                    ",
"                                                                                                                                                                                                                                          n|.Q  2  ]  ^  d  y  m}.L+ (1.8/.@_.-: %>..{ .{ .{ .{ .{ .{ .{ Z^ Z^ Z^ Z^ Z^ Z^ Z^ s' !2.~2.{2.'@.M) ]2.^2./2.(2./)._2.y<.u1.|  d  {- ^  ]  |  ;2.                                                                                                                                                                                                                                    ",
"                                                                                                                                                                                                                                          {;.Q  2  ]  ^  d  y  J1.:2.(1.p+ 2* D5 %>..{ .{ .{ .{ .{ Z^ Z^ Z^ Z^ Z^ Z^ Z^ Z^ Z^ V! <2.[2.}2.)@.|2.]2.^2.12.22./)._2.v:.32.|  ^  ^  ^  2  |  i=                                                                                                                                                                                                                                     ",
"                                                                                                                                                                                                                                          C< Q  2  ]  ^  d  y  ,:.:2.Rt M+ 2* L# %>..{ .{ .{ .{ .{ Z^ Z^ Z^ Z^ Z^ Z^ Z^ Z^ Z^ V! 42.~2.52.62.P) 72.Gn 82.22.N/.)<.C;.92.|  ^  ^  ^  2  |  B<                                                                                                                                                                                                                                     ",
"                                                                                                                                                                                                                                          C< Q  2  ]  ^  d  y  ,:.7:.T_.M+ m# (; %>..{ .{ .{ .{ .{ Z^ Z^ Z^ Z^ Z^ Z^ Z^ Z^ Z^ V! 42.02.a2.|2.b2.c2.Gn d2.22.0<.0<.D:.e2.|  ^  ^  ^  2  j  1;.                                                                                                                                                                                                                                    ",
"                                                                                                                                                                                                                                          80 Q  2  ]  ^  5  q% |).:6 T_.M+ *@ L# %>..{ .{ .{ .{ .{ Z^ Z^ Z^ Z^ Z^ Z^ G) G) G) I4 f2.02.g2.P) h2.i2.j2.k2.l2.^)._:.D:.m2.|  ^  ^  ^  2  j  L=                                                                                                                                                                                                                                     ",
"                                                                                                                                                                                                                                          [K Q  2  ]  ^  d  6  .8 ~<.}Z *@ &= ^; 8$..{ .{ .{ Z^ Z^ Z^ Z^ Z^ Z^ Z^ G) G) G) G) I4 f2.n2.S' o2.p2.q2.r2.s2.22.-:.3( t2.m2.j  ^  ^  ^  2  j  L=                                                                                                                                                                                                                                     ",
"                                                                                                                                                                                                                                          %;.Q  Q  ^  ^  d  6  .8 ~<.u2.*@ -: s# w$..{ .{ .{ Z^ Z^ Z^ Z^ Z^ G) G) G) G) G) G) I/ h~ v2.w2.x2.p2.72.y2.z2.A2.N:.B2.C2.01.j  5  ^$ ^  2  j  L=                                                                                                                                                                                                                                     ",
"                                                                                                                                                                                                                                          D2.Q  2  ]  ]  d  6  .8 ~<.u2.*@ -: R; E2..{ .{ .{ Z^ Z^ Z^ Z^ G) G) G) G) G) G) G) 0' F2.G2.H2.*2.b2.72.I2.J2.u} N:.::.t2.92.j  5  ^  ^  2  j  L=                                                                                                                                                                                                                                     ",
"                                                                                                                                                                                                                                          D2.Q  |  |  ]  d  6  .8 ~<.u2.*@ *@ a# %>..{ Z^ Z^ Z^ Z^ Z^ Z^ G) G) G) G) G) G) G) %5 K2.L2.M2.+1 N2.O2.P2.Q2.R2.S2.T2.t2.q1.j  5  ]  ^  2  j  L=                                                                                                                                                                                                                                     ",
"                                                                                                                                                                                                                                          $  Q  2  ]  w@ d  6  .8 D: 06 M+ M+ a# 8$.Z^ Z^ Z^ Z^ Z^ G) G) G) G) G) G) G) '_ '_ ]_ r} U2.V2.HR W2.X2.Y2.Z2.9<.K,.T2.t2.`2.|  d  ^  ^  2  j  J-.                                                                                                                                                                                                                                    ",
"                                                                                                                                                                                                                                          80 Q  Q  ^  ^  5  7  .8 D: 06 M+ M+ a# 8$.Z^ Z^ Z^ Z^ G) G) G) G) G) G) '_ '_ '_ '_ )_ *1  3..3.+3.@3.#3.$3.%3.&3.r( T2.t2.E_.|  x& ^  ^  5  j  M-.                                                                                                                                                                                                                                    ",
"                                                                                                                                                                                                                                          80 Q  Q  ]  w@ 5  7  .8 D: 06 M+ M+ a# %>..{ Z^ Z^ Z^ G) G) G) '_ '_ '_ '_ '_ '_ '_ p( [4 ]4 *3.C:.}*.t:.t:.*1 &1 J,.p3 =3.V:.2  d  ^  ^  5  j  @>                                                                                                                                                                                                                                     ",
"                                                                                                                                                                                                                                          PK Q  2  |  5  5  7  .8 =/./6 M+ M+ R; E2.Z^ Z^ Z^ G) G) G) G) '_ '_ '_ '_ '_ 9- 9- 9- 9- u- c| =3 Y2 y| +- .- +- 21 L_.=3.W<.|  ]  ^  ^  |  j  !-                                                                                                                                                                                                                                     ",
"                                                                                                                                                                                                                                          $  Q  2  ]  ]  f  7  .8 =/./6 M+ N+ J# E2.0' 0' G) G) G) '_ '_ '_ '_ 9- 9- 9- 9- 9- u- .- q( +- c| q3 &1 21 +- u- -3.<*.;3.V:.b  b  ]  {- d  j  J-.                                                                                                                                                                                                                                    ",
"                                                                                                                                                                                                                                          $  Q  Q  ^  ^  f  7  =8 D: /6 N+ /6 J# >3.G) 0' G) G) G) '_ '_ '_ 9- 9- 9- 9- 9- 9- 9- .- |( O}.O}.p3 ]4 ,3.A| '3.'3.r3 )3.]M c  b  ]  {- {- |  J-.                                                                                                                                                                                                                                    ",
"                                                                                                                                                                                                                                          %;.Q  2  ]  ]  5  7  +7 D: 06 06 /6 J# >3.0' a' G) G) '_ '_ '_ 9- 9- 9- 9- 9- 9- 9- q( &1 g4 !3.~3.{3.]3.^3.h[.d:.X[.[*./3.(3.e  3  w@ {- v7 |  L=                                                                                                                                                                                                                                     ",
"                                                                                                                                                                                                                                          %;.Q  |  j  3  f  ;. =8 D: 06 M+ M+ J# >3.G) G) G) '_ '_ '_ v- +- +- +- +- &1 @- &1 z| _3.:3.<3.[3.}3.|3.13.23.33.43.53./3.63.c  f  k  {- {- 2  B<                                                                                                                                                                                                                                     ",
"                                                                                                                                                                                                                                          [K Q  2  2  ]  k  0> %8 s: &= S5 2* 1@ >3.G) c' '_ '_ '_ '_ '_ 9- 9- 9- &1 z| `2 `2 `2 73.83.93.2h 03.a3.[2 b3.c3.53.d3.h- e3.4  f  5  ^  ^  Q  B<                                                                                                                                                                                                                                     ",
"                                                                                                                                                                                                                                          ;! Q  Q  Q  ^$ d  0> d7 x6 &= S5 S5 s# f3.c' a' G) G) '_ '_ '_ 9- 9- 9- 9- 9- `2 `2 `2 O'.g3.h3.i3.j3.k3.l3.m3.z+ R~ n3.o3.e3.4  k  ^  ^  Q  2  B<                                                                                                                                                                                                                                     ",
"                                                                                                                                                                                                                                          L  Q  2  |  ]  5  7  e7 p3.2` q3.C5 ^/ 7$.a' a' G) c' ]_ ]_ q3 9- 9- 9- `2 `2 `2 `2 '3.r3.R1. 2.1{.s3.t3.u3.v3.w3.'%.+$.j{ 63.f  ]  ]  ^  ^  Q  1;.                                                                                                                                                                                                                                    ",
"                                                                                                                                                                                                                                          o% Q  |  j  c  8  =+ Z6 x3.y3.8. z3.u6 A3.I4 o, %5 %5 B3.B3.Q4 +- +- +- &1 &1 @- 25 C3.R'.D3.E3.F3.>m G3.s1 H3.(:._2.I3.J3.K3.o  j  ]  Q  ^  Q  D,.                                                                                                                                                                                                                                    ",
"                                                                                                                                                                                                                                          9~ Q  2  d  k  p  7  L3.M3.N3.O3.P3.|< @'.#; h- 3>.3>.1>.1>.R^.Z#.,; ,; ,; -!.-!.R^.Q3.R3.S3.T3.U3.V3.W3.X3.Y3.Z3.`3. 4..4.+4.o  o  3  {- ^$ Q  =4                                                                                                                                                                                                                                     ",
"                                                                                                                                                                                                                                          V_.Q  x& {- l- e  !$ -$ g( .B @4.g( g( c_ ;=.#4.#4.$4.$4.%4.6^.e3.4{.(~.(~.4{.Q{.&4.+: *4.=4.-4.;4.>4.,4.'4.)4.<  !4.!4.*/.g  e  |  {- {- {- Q  i=                                                                                                                                                                                                                                     ",
"                                                                                                                                                                                                                                          F< Q  5  {- {- ]  6. l  H< =$ <$ =$ H< x  !$ 9  9  9  9  _  9  7$ !$ 7$ !$ 6. 6. 7  l  g  t> t> Jc t> :  L< 8  9  L< 8  l  g  c  |  k  {- {- Q   B                                                                                                                                                                                                                                     ",
"                                                                                                                                                                                                                                          D2.Q  |  f  k  f  6  l  x> 6$ 7$ 6. !$ 6. l  p  R$ _  p  R$ p  l  e  e  8  R$ m  S$ t> 9  p  x7 A( 9  7$ 8  6. 7$ 7$ !$ e  e  b  3  k  {- {- Q  p7                                                                                                                                                                                                                                     ",
"                                                                                                                                                                                                                                          %;.Q  |  f  f  4  6  6. l  L< t> 9  8  6. 8  p  p  p  p  f  m  k  5  p  R$ v7 {- k  f  6  c$ m  R$ L< 9  9  8  8$ 8  !$ z> 2  ]  |  k  {- {- Q  1/.                                                                                                                                                                                                                                    ",
"                                                                                                                                                                                                                                          80 Q  |  5  5  4  6  e  L< l  p  9  8  8  R$ x7 R$ p  p  p  3  w@ w@ p  p  R$ R$ 8  p  9  8$ 7$ 9  p  p  p  p  p  p  9  _  b  4  f  5  ^  {- Q  y'.                                                                                                                                                                                                                                    ",
"                                                                                                                                                                                                                                          {;.Q  d  {- {- f  !$ H< >% =$ ;. x  x  8  6. 8$ 6. 6. 6. 8  8  9  9  7$ 6. 8  6. =$ 7$ L< 7$ 6. 7$ 7$ 6. 8  L< L< l  4  l  l  4  f  {- ^  {- 2  y'.                                                                                                                                                                                                                                    ",
"                                                                                                                                                                                                                                          2: Q  ^  {- l- d  g  hA ~4.~4.~4.],.d% d0 d0 w%.>R {4.]4.^4.q-./4./4.>..4}._O 2}.q=./S `2.4{.(~./S /S (~.(~./S q1.^1.~1.(4._4.o  f  k  ^  {- 2  t*                                                                                                                                                                                                                                     ",
"                                                                                                                                                                                                                                          5< Q  |  d  ^$ d  7  :8 9X L: G: Y_ a6 :4.<4.[4.}4.{*.-%.$%.+%.]%.]%.]%.]%.|4.14.U#.24.N^.34.P{.P{.4[ 44.44.4[ 54.64.74.84.94.f  ]  ^  ^  ]  2  t*                                                                                                                                                                                                                                     ",
"                                                                                                                                                                                                                                          PK Q  |  |  ^  5  =+ 04.2` a4.D& A& !: p$.r' r' <) n~ p^ &) Z^ Z^ 0' 0' 0' G) '_ u- &1 25 =5 K$.K$.l$.6~ b4.6~ c4.d4.d:.{/.+{.e  ]  ^  ^  ]  2  e4.                                                                                                                                                                                                                                    ",
"                                                                                                                                                                                                                                          [K Q  2  |  ^  3  q% C9 f4.E/ l: >6 S5 D@ H,.#_.{_..{ U! Z^ Z^ G) G) G) G) G) '_ '_ q3 `2 j@ =5 n$.h$.$).g4.h4.i4.j4.T2.{/.>R e  ]  ^  ^  |  |  t*                                                                                                                                                                                                                                     ",
"                                                                                                                                                                                                                                          $  Q  2  |  ^  1  q% t9 6+ Q5 P= N+ -: H$.#_.k4.k4.Z^ Z^ Z^ G) G) G) G) G) '_ '_ '_ Y2 55 l4.v! :_ m4.n4.5:.i4.::.::.S4 n3.]4.j  k  d  ^  2  |  y'.                                                                                                                                                                                                                                    ",
"                                                                                                                                                                                                                                          $  Q  2  |  ^  d  6  o4.e_ P= o# P= b# z] p4.H,.H,.Z^ Z^ Z^ Z^ G) G) G) G) '_ '_ '_ '_ 2( _2.q4.r4.r4.s4.O( Q~ _:.d:.X[.J, 19 c  w@ d  ^  2  |  %=                                                                                                                                                                                                                                     ",
"                                                                                                                                                                                                                                          D2.Q  2  |  ^  d  y  o4.e_ >6 M+ >6 b# U;.<) V! <) Z^ V! Z^ Z^ G) G) G) G) G) '_ '_ '_ }*.t4.u4.;[.v4.w4.x4.y4.A[.3( p3 J= q^.3  k  ^  ^  2  |  A<                                                                                                                                                                                                                                     ",
"                                                                                                                                                                                                                                          V_.Q  Q  2  ^  d  6  k&.u2.m# M+ M+ 1@ U;.<) H,.H,.Z^ Z^ Z^ Z^ G) G) G) G) G) G) '_ c' *1.z4.A4.B4.C4.D4.E4.F4.e| '|.9|.)(.!-.j  k  ^$ ^  2  |   B                                                                                                                                                                                                                                     ",
"                                                                                                                                                                                                                                          G4.Q  Q  Q  ^  d  6  S7 w# o# o# M+ J# %>.<) .{ .{ .{ Z^ Z^ Z^ Z^ Z^ Z^ G) G) G) G) G) ]<.H4.I4.g=.J4.K4.L4.M4.N4.p4 V4 -2.O4.j  k  ^$ ^  2  |  v<.                                                                                                                                                                                                                                    ",
"                                                                                                                                                                                                                                          J< Q  Q  Q  ^  ]  y  k&.:6 p+ p+ M+ b# V;.H,.H,..{ .{ Z^ Z^ Z^ Z^ Z^ Z^ Z^ G) G) G) 0' %|.P4.Q4.J4.R4.S4.T4.U4.V4.v4 F1.33.~-.j  d  {- ^  2  2  I1.                                                                                                                                                                                                                                    ",
"                                                                                                                                                                                                                                          O< Q  Q  Q  Q  ]  y  k&.:6 Rt p+ >6 &@ V;.H,.H,..{ .{ .{ Z^ .{ Z^ Z^ Z^ Z^ Z^ Z^ Z^ V! W4.X4.Y4.Z4.R4.`4. 5..5.%*.v4 r4 )(.+|.|  d  {- d  2  2  +5.                                                                                                                                                                                                                                    ",
"                                                                                                                                                                                                                                          9[.Q  Q  Q  Q  ]  q% t9 =/.T_.p+ M+ &@ V;..{ @{ .{ .{ .{ Z^ .{ Z^ Z^ Z^ Z^ Z^ Z^ Z^ I4 e~ @5.#5.J4.8| `4.$5.%5.)0 s4 q4 &5.*5.|  {- {- d  2  |  %=                                                                                                                                                                                                                                     ",
"                                                                                                                                                                                                                                          4% Q  Q  Q  Q  ]  q% o4.:6 T_.p+ M+ &@ S;..{ .{ .{ .{ H,.<) .{ Z^ Z^ Z^ Z^ Z^ Z^ Z^ V! f~ r! =5.h| 8| $<.$5.>2.)0 s4 q4 I, ~1.f  {- {- d  2  |  %=                                                                                                                                                                                                                                     ",
"                                                                                                                                                                                                                                          G< Q  Q  Q  Q  ]  q% t9 L+ Rt p+ M+ &@ S;.r' p4..{ .{ H,.H,..{ Z^ Z^ Z^ Z^ Z^ Z^ Z^ V! 42.-5.|~ $<.8| $<.;5.>5.)0 s4 q4 I, ~1.|  {- l- ^$ d  j   B                                                                                                                                                                                                                                     ",
"                                                                                                                                                                                                                                          T$ Q  Q  Q  Q  ]  q% k&.L+ T_.p+ >6 &@ ]>.r' p4.r' .{ .{ @{ .{ .{ Z^ Z^ Z^ Z^ Z^ Z^ V! l~ ,5.;5.)1 8| m) '5.>5.)0 s4 s4 I, )5.|  {- l- ^  d  |  1;.                                                                                                                                                                                                                                    ",
"                                                                                                                                                                                                                                          F< Q  Q  Q  Q  ]  q% S7 L+ T_.q+ >6 -: ]>.,{ '{ p4..{ .{ @{ .{ .{ Z^ Z^ Z^ Z^ Z^ Z^ V! l~ ,5.'5.X) |{.m) !5.~5.)0 s4 s4 I, )5.|  {- l- ^  ^$ j  1;.                                                                                                                                                                                                                                    ",
"                                                                                                                                                                                                                                          8I Q  Q  Q  Q  ]  q% X7 L+ Rt q+ >6 -: ]>.,{ '{ p4..{ .{ @{ .{ .{ Z^ Z^ Z^ Z^ Z^ Z^ V! l~ ,5.a:.m) |{.m) r1.{5.%*.s4 s4 5~ )5.|  {- l- ^  d  |  B<                                                                                                                                                                                                                                     ",
"                                                                                                                                                                                                                                          8I Q  Q  Q  ^  3  y  X7 u2.8/.q+ >6 ': *).*{ *{ p4..{ .{ @{ .{ Z^ Z^ Z^ Z^ Z^ Z^ Z^ V! ]5.,[.&2.Y+.8| X) m1.{5.)0 s4 T1.^5.j&.j  d  l- x& d  j  B<                                                                                                                                                                                                                                     ",
"                                                                                                                                                                                                                                          P: Q  Q  Q  ^  ^  o  X7 A: 8/.t_.t_.2* *).*{ *{ p4..{ .{ @{ .{ Z^ Z^ Z^ Z^ Z^ Z^ Z^ V! ]5.,[.&2.Y+.8| <_.K/./5.(5._5.T:.H1.j&.j  d  l- x& 5  j  B<                                                                                                                                                                                                                                     ",
"                                                                                                                                                                                                                                          @@.Q  Q  Q  ^  ^  o  k>.L[.t_.t_.t_.,: *).*{ *{ p4..{ .{ @{ .{ Z^ Z^ Z^ Z^ Z^ Z^ Z^ V! j~ :5.K:.g| 9) /) k! <5.R/.[5.T:.w) j&.j  5  {- x& 5  j  B<                                                                                                                                                                                                                                     ",
"                                                                                                                                                                                                                                          [% Q  Q  Q  ^  d  o  k>.B: }5.t_.aX ,: H$.*{ *{ p4..{ .{ @{ .{ Z^ Z^ Z^ Z^ Z^ Z^ Z^ I/ l~ |5.{2.g| 0) b) k!  [.R/.[5.T:.w) j&.|  5  {- x& |  j  B<                                                                                                                                                                                                                                     ",
"                                                                                                                                                                                                                                          @@.Q  Q  ^  ^  x& o  15.25.t_.6Y C& P= H$.p4.*{ r' .{ .{ @{ .{ Z^ Z^ Z^ Z^ Z^ Z^ Z^ I/ h~ ~[.W1.g| 0) b) k! <5.G|.w|.@2.u[.u1.]  ]  {- ^  ]  j  B<                                                                                                                                                                                                                                     ",
"                                                                                                                                                                                                                                          G4.Q  Q  ^  ^  x& j  15.L+ t_.C& C& ): H$.p4.r' r' .{ .{ @{ .{ Z^ Z^ Z^ Z^ Z^ Z^ Z^ [<.35.45.l+.g| 0) d) h! <5.R/.[5.@2.u[.u1.3  ]  {- ^  ]  j  B<                                                                                                                                                                                                                                     ",
"                                                                                                                                                                                                                                          F< Q  Q  Q  d  5  o  k>.e_ &* aX MX ): H$..{ .{ .{ .{ .{ @{ .{ Z^ Z^ Z^ Z^ Z^ Z^ Z^ [<.]1.<~ 55.65.0) ,1 g! <5.75.[5.@2.y<.u1.j  5  l- ^  ]  j  B<                                                                                                                                                                                                                                     ",
"                                                                                                                                                                                                                                          $  Q  Q  Q  2  ]  y  I8 e_ &* aX aX %* H$..{ .{ .{ .{ .{ @{ .{ Z^ Z^ Z^ Z^ Z^ Z^ Z^ o, ]1.<~ 55.65.<=.'1 =5.M<.75.85.@2.y<.u1.j  k  l- ^  |  o  B<                                                                                                                                                                                                                                     ",
"                                                                                                                                                                                                                                          n|.Q  Q  Q  x& x& o  k>.6+ &* aX MX S5 S;.{_.k4.{_..{ .{ .{ 4{ |{ Z^ I/ Z^ Z^ Z^ Z^ `^ j~ ~5.95.,1 i) )1 =5./5.`:.'(.@2.05.`2.j  5  l- x& 2  o  B<                                                                                                                                                                                                                                     ",
"                                                                                                                                                                                                                                          )0 Q  Q  ^  6& 6& j  a5.b5.&* k= l: R. H$.{_./_.{_..{ .{ .{ .{  { Z^ I/ V! Z^ Z^ Z^ `^ j~ <5.95.,1 i) )1 B1.c5.;( d5.@2.`{ q_.j  {- l- x& 2  o  1;.                                                                                                                                                                                                                                    ",
"                                                                                                                                                                                                                                          R/.Q  Q  ^  ^  ^  o  a5.b5.t_.aX l: ,: H$..{ N( e5..{ .{ .{ .{ .{ Z^ Z^ Z^ Z^ Z^ V! `^ j~ %5.f5.,1 i) j| g5.c5.*O @2.0<.`{ f[.|  ^  {- d  |  o  L=                                                                                                                                                                                                                                     ",
"                                                                                                                                                                                                                                          )0 Q  Q  Q  ^  ^  y  k>.5Y 6Y t_.&* ,: S;.r' #_.k4..{ .{ .{ .{ .{ Z^ .{  {  { <) V! `^ j~ h5.=5.$<.i) '1 g5.i5.-( _<.u:.`{ q_.j  3  k  d  |  y  J-.                                                                                                                                                                                                                                    ",
"                                                                                                                                                                                                                                          j5.Q  Q  Q  Q  ^  6  g'.;+ 6Y C& B& ,: z] r' p4.k5..{ .{ .{ .{ .{ Z^ .{  {  { I/ V! l5.f~ m5.n5.j| i) '1 =5.o5.;( w|._<.j{ q_.f  5  {- x& |  o  M-.                                                                                                                                                                                                                                    ",
"                                                                                                                                                                                                                                          n|.Q  Q  Q  Q  ^  g  g'.;+ t_.p5.B& ,: S;.p4.p4.p4..{ .{ .{ .{ .{ H,.@{ <)  { I/ @{ @{ g~ U4.B1.:_.O+.'1 =5.[2.75.[5._<.j{ q5.5  {- l- x& |  o  j-                                                                                                                                                                                                                                     ",
"                                                                                                                                                                                                                                          {;.Q  Q  ^  ^  ]  o  +8 A: MX aX ZZ ): H$.'{ p4.p4..{ .{ .{ .{ .{ H,.@{ <) Z^ I/ <) H,.K1.r5.k_.9:.g| '1 =5.o5.75. <._<.j{ q5.d  {- l- x& 5  o  b,.                                                                                                                                                                                                                                    ",
"                                                                                                                                                                                                                                          C< Q  Q  ^  ^  ^$ j  Y7 A: MX k= ZZ /# R;.'{ p4.'{ '{ .{ .{ .{ .{ H,.@{ <) Z^ Z^ <) H,.s5.L1.1~ :_.Y+.j| =5.<5.*O '<.t5.j{ q5.5  ]  {- d  ]  y  b,.                                                                                                                                                                                                                                    ",
"                                                                                                                                                                                                                                          %;.Q  Q  ^  ^  d  o  k>.;+ aX aX A& /# +; u5.v5.'{ '{ .{ .{ .{ .{ @{ @{ Z^ Z^ Z^ Z^ I/ w5.x5.k_.:_.,1 :_.y5.z5.A5. <._<.j{ q_.e  |  {- x& 2  o  ~z                                                                                                                                                                                                                                     ",
"                                                                                                                                                                                                                                          8I Q  Q  ^  ^  d  y  k>.;+ &* aX A& b: +; u5.v5.'{ *{ .{ .{ .{ .{ @{ H,.Z^ Z^ Z^ Z^ V! H_.B5.B1.C5.'1 k| g5.>2.D5.w|._<.05.q_.3  d  l- x& 2  j  ~z                                                                                                                                                                                                                                     ",
"                                                                                                                                                                                                                                          G4.Q  Q  ^  ^  d  y  k>.;+ &* aX A& b: +; u5.v5.'{ *{ .{ .{ .{ .{ @{ H,.Z^ Z^ Z^ Z^ `^ B|.E5.B1.F5.G5.'1 =5.X4.(5.[5._<.H5.V:.^  d  l- ^  ]  j  ~z                                                                                                                                                                                                                                     ",
"                                                                                                                                                                                                                                          [% Q  Q  ^  ^  d  y  k>.;+ t_.aX A& b: +; u5.v5.'{ *{ .{ .{ .{ .{ @{ H,.Z^ Z^ Z^ Z^ `^ K2.E5.B1.F5.,1 I5.J5.>2.D5.w|._<.H5.W<.]  {- l- ^  ]  j  ~z                                                                                                                                                                                                                                     ",
"                                                                                                                                                                                                                                          O< Q  Q  ^  ^  d  y  k>.B: t_.aX MX b: +; K5.v5.'{ p4..{ .{ .{ .{ @{ @{ Z^ Z^ Z^ Z^ `^ K2.L5.B1.k| ,1 :_.M5.r<.A5.w|._<.j{ f[.3  5  {- ^  ]  j  ~z                                                                                                                                                                                                                                     ",
"                                                                                                                                                                                                                                          1% Q  Q  ^  ^  d  y  k>.25.N5.+_.l: R. +; u5.v5.'{ p4..{ .{ .{ .{ @{ @{ .{ Z^ Z^ Z^ I4 O5.P5.Q5.k| ,1 :_.#[.R5.A5.w|._<.j{ q_.c  f  {- ^  |  j  ~z                                                                                                                                                                                                                                     ",
"                                                                                                                                                                                                                                          j5 Q  Q  ^  ^  d  6  )8 B: S5.+_.l: R. +; u5.v5.'{ p4..{ .{ .{ .{ @{ @{ .{ Z^ Z^ Z^ V! T5.U5.Q5.k| ,1 :_.#[.V5.D5.w|.T:.j{ q_.3  f  {- ^  2  j  b,.                                                                                                                                                                                                                                    ",
"                                                                                                                                                                                                                                          D# Q  Q  ^  ^  d  6  !8 W5.S5.+_.l: R. +; u5.v5.'{ p4..{ .{ .{ @{ @{ @{ .{ Z^ Z^ Z^ s' h~ X5.Y5.F5.,1 d1.#[.V5.(5.[5._<.j{ f[.]  {- l- ^$ |  j  @>                                                                                                                                                                                                                                     ",
"                                                                                                                                                                                                                                          1% Q  Q  ^  ^  d  y  X7 25.~_.+_.l: S5 A;.*{ p4.'{ p4.{_..{ .{ @{ @{ .{ .{ Z^ Z^  { I/ l~ Z5.`5. 6.,1 Y) f! ~2.A5.w|.@2.w) q_.2  ^  ^  ^  |  j  E<                                                                                                                                                                                                                                     ",
"                                                                                                                                                                                                                                          Y4 Q  Q  ^  ^  d  y  X7 B: S5.+_.l: S5 H$.*{ p4.'{ p4.{_.@{ .{ @{ @{ .{ .{ Z^ Z^ Z^ V! T5..6.1~ :_.,1 l' K/.+6.u{ w|.@2.u[.q_.|  ^  ^  ^  |  j  J-.                                                                                                                                                                                                                                    ",
"                                                                                                                                                                                                                                          A4 Q  Q  ^  ^  5  q% S7 t. @6.aX %* S5 H$.*{ v5.u5.p4.{_.@{ .{ @{ @{ <) Z^ Z^ Z^ V! #6.]5..6.B1.:_.,1 9:.K/.>5.A5.w|.T1.u[.q_.|  ^  ^  ^  2  j  J-.                                                                                                                                                                                                                                    ",
"                                                                                                                                                                                                                                          `'.Q  Q  ^  ^  5  q% S7 $6.@6.aX %* !: H$.*{ v5.u5.p4.{_.@{ @{ .{ H,.V! Z^ Z^ Z^ V! G! i~ %5.m1.j| '1 /1 #[.>5.A5.[5.T1.w) q_.|  ^  ^  ^  2  j  J-.                                                                                                                                                                                                                                    ",
"                                                                                                                                                                                                                                          `'.Q  Q  ^  ^  5  q% S7 t. @6.+_.l: !: d$.*{ p4.k4.k4.{_.@{ @{ .{ H,.Z^ Z^ V! V! V! G! 31 M<.|~ )1 ,1 /1 M5.%6.A5.[5.T1.w) q_.|  ^  ^  ^  |  j  J-.                                                                                                                                                                                                                                    ",
"                                                                                                                                                                                                                                          -4 Q  Q  ^  ^  5  q% S7 t. @6.+_.l: !: d$.@{ {_.5| &6.{_.@{ @{ @{ .{ Z^ Z^ V! V! V! #6.i~ *6.|~ X) h) /1 M5.%6.A5.w|.T:.w) u1.]  ^  ^  ^  5  |  E<                                                                                                                                                                                                                                     ",
"                                                                                                                                                                                                                                          j5 Q  Q  ^  ^  d  y  Y6 t. @6.+_.l: ]/ *).=6.&6.&6.&6.{_.@{ @{ @{ <) Z^ Z^ V! V! V! #6.i~ {5.|~ X) h) /1 M5.%6.A5.w|.T:.w) j&.]  ^  ^  ^  5  |  E<                                                                                                                                                                                                                                     ",
"                                                                                                                                                                                                                                          Y4 Q  Q  ^  ^  d  y  Y6 t. S5.+_.l: S5 H$.=6.`/.&6.`/.&6.@{ r' @{ V! V! V! Z^ V! V! `^ i~ -6.h! c) h) /1 M5.%6.A5.w|.@2.w) ~1.3  ^  ^  ^  5  j  J-.                                                                                                                                                                                                                                    ",
"                                                                                                                                                                                                                                          1% Q  Q  Q  q. 1  q% k&.;6.>6.ZZ l: %* A;.v5.&6.#_.@{ @{ p^ .{ Z^ V! V! V! V! V! V! u, V} ,6.i! b) 9) l' y5. [.'6. <.@2.w) )5.j  ^  ^  Q  2  |  J-.                                                                                                                                                                                                                                    ",
"                                                                                                                                                                                                                                          1% Q  Q  Q  Q  ]  q% )6.$6.p5.p5.:Z ): =).k4.&6.#_.@{ @{ H,.Y^ Z^ Z^ V! V! V! V! V! t, N4./[.K:.b) 0) l) y5.!6.-( '(.@2.u[.)5.j  ^  ^  Q  2  |  ~6.                                                                                                                                                                                                                                    ",
"                                                                                                                                                                                                                                          1% Q  Q  Q  x& d  y  )6.4_.C& p5.:Z ): =).&6.&6.#_.@{ @{ H,.N( Z^ Z^ V! V! V! V! V! t, ru {6.k+.h) 0) l) #[.]6.^6.#}._<.j{ /6.j  ^  ^  ^  2  |  M-.                                                                                                                                                                                                                                    ",
"                                                                                                                                                                                                                                          1% Q  Q  Q  x& d  g  )6.4_.B& a4.a4.l: =).#_.=6.=6.@{ @{ N( [( Z^ Z^ V! V! V! V! V! t, (6./[._6.c) 0) Z) !5.R5.^6.#}.>_.y<.*5.o  ]  ^  ^  2  j  @>                                                                                                                                                                                                                                     ",
"                                                                                                                                                                                                                                          D# Q  Q  ^  ^  d  y  k&.0[.B& B& B& ): A;.#_.@{ @{ @{ @{ H,.[( Z^ Z^ V! V! V! V! V! u, i~ |5.i! a) 7) b) k! R5.3N #}.>_.y<.*5.o  ^  ^  ^  2  j  j-                                                                                                                                                                                                                                     ",
"                                                                                                                                                                                                                                          D# Q  Q  Q  ^  ^  y  E,.0[.a4.ZZ ZZ ): :6.@{ @{ @{ p^ @{ #_.[( Z^ Z^ V! V! V! V! V! u, i~ 45.i! a) <6.Z) k! u<.3N 33.>_.j{ [6.j  ^  ^  ^  2  j  @>                                                                                                                                                                                                                                     ",
"                                                                                                                                                                                                                                          D# Q  Q  Q  Q  ]  y  X7 5Y p5.ZZ ZZ P= :6.@{ @{ @{ p^ @{ #_.n( N( <) V! V! V! V! V! #6.i~ ;[.i! p1 n<.,@.j<.}6.^6.#}._<.w) +|.j  ^  ^  ^  2  j  M-.                                                                                                                                                                                                                                    ",
"                                                                                                                                                                                                                                          D# Q  Q  Q  Q  ]  q% X7 |6.>6.aX ZZ P= :6.@{ @{ @{ p^ @{ #_.$|.N( <) V! V! V! V! V! 16.j~ <5.h! ,@.*2.|{.K:.26.^6.#}.@2.^5.36.j  2  ^  ^  2  j  E<                                                                                                                                                                                                                                     ",
"                                                                                                                                                                                                                                          D# Q  Q  Q  ^  ]  q% P7 p[.t_.&* &* ,: d$.=6.&6.=6.@{ @{ #_.N( <) Z^ Z^ V! V! V! V! 16.J_.V5.l! a) h<.8| W1.46.3N '(.>_.I<.s%.3  5  l- ^  2  j  T<.                                                                                                                                                                                                                                    ",
"                                                                                                                                                                                                                                          #% Q  Q  ^  ^  ]  q% P7 p[.t_.&* &* ': d$.=6.&6.#_.@{ @{ #_.N( <) Z^ Z^ Z^ V! V! V! K(.35.56.a:.n) h<.n) ;5.66.C( '(.=<.L, 4' 3  {- l- x& 2  j  T<.                                                                                                                                                                                                                                    ",
"                                                                                                                                                                                                                                          `'.Q  Q  Q  Q  ]  q% P7 p[.t_.w* == -: d$.=6.&6.#_.@{ @{ H,.<) V! Z^ Z^ Z^ V! V! V! 76.86.P4.96.K+.8| >1 k! 06.vJ '(.R[.4[.4' ]  {- l- x& 2  j  1;.                                                                                                                                                                                                                                    ",
"                                                                                                                                                                                                                                          :% Q  Q  Q  ^  ]  q% P7 p[.a6.w* *= -: d$.=6.&6.#_.@{ @{ @{ H,.<) Z^ Z^ Z^ V! V! V! [<.b6.c6.f=.h| ,@.d6.e6.Q1.f6.[5.>_.w) n&.]  {- l- x& 2  j  B<                                                                                                                                                                                                                                     ",
"                                                                                                                                                                                                                                          -4 Q  Q  Q  ^  ]  q% P7 5+ t_.w* *= m# *).@{ @{ @{ @{ .{ @{ H,.<) Z^ Z^ Z^ V! V! V! [<.s5..5.96.h| 8| >1  2.n1.>- '(.g6.^5.J%.]  l- l- ^  ]  j  =4                                                                                                                                                                                                                                     ",
"                                                                                                                                                                                                                                          Y4 Q  Q  Q  ^  ]  q% P7 h6.t_.w* &* 2* *).@{ @{ @{ .{ .{ @{ @{ <) Z^ Z^ Z^ V! V! V! V! F2..5.96.h| 8| >1  2.P/ l<.#}.>_.H1.J%.3  {- l- ^  ]  j  z4                                                                                                                                                                                                                                     ",
"                                                                                                                                                                                                                                          2% Q  Q  Q  ^  ]  q% i6.p[.t_.&* &* m# *).@{ @{ @{ .{ .{ @{ @{ <) Z^ Z^ Z^ V! V! V! V! F2.G<.96.h| 8| n)  2.P/ l<.#}.>_.H1.j6.3  {- l- ^  ]  j  k6.                                                                                                                                                                                                                                    ",
"                                                                                                                                                                                                                                          2% Q  Q  Q  ^  2  q% i6.r+ t_.&* &* ,: H$.@{ @{ @{ .{ .{ @{ @{ <) Z^ Z^ Z^ V! V! V! V! l6.m6.n6.K+.|{.n)  2.n1.>- =<.>_.H1.j6.3  f  K- ^  ]  j  )5                                                                                                                                                                                                                                     ",
"                                                                                                                                                                                                                                          4% Q  Q  ]  ^  ^  y  &&.Q. aX MX k= ,: V;..{ @{ .{ .{ .{ .{ .{ Z^ Z^ Z^ Z^ G) G) G) a' ]5.r<.K:.K+.|{.n) '2.o6.p6.R[.>_.H1.~-.5  ]  {- x& ]  j  B'.                                                                                                                                                                                                                                    ",
"                                                                                                                                                                                                                                          4% Q  Q  Q  ^  ]  q% &&.2* aX aX MX P= V;..{ @{ .{ .{ .{ .{ .{ Z^ Z^ Z^ Z^ G) G) G) I4 ]5.V5.{2.K+.|{.n) '2.q6.l<.z= >_.H1.+|.d  ^  l- x& 5  j  B'.                                                                                                                                                                                                                                    ",
"                                                                                                                                                                                                                                          r6.Q  2  Q  2  3  q% &&.S5 C& +_.+_.MX S;..{ H,..{ .{ .{ .{ .{ Z^ Z^ Z^ Z^ G) G) G) I4 I_.<5.&2.o) |{.n) '2.s6.p<.'<.g6.w) t6.d  {- l- ^  ]  j  A'.                                                                                                                                                                                                                                    ",
"                                                                                                                                                                                                                                          8I Q  Q  Q  2  f  q% &&.S5 C& p5.u6.A& H$.r' H,..{ .{ .{ .{ .{ Z^ Z^ Z^ G) G) G) G) a' ]5.z5.n6.v6.|{.n) '2.w6.=( t5.u:.^5.t6.d  {- l- ^  ]  j  %=                                                                                                                                                                                                                                     ",
"                                                                                                                                                                                                                                          o% Q  Q  ]  ]  d  6  V6 f4.a4.p5.u6.MX H$..{ r' .{ .{ .{ .{ Z^ Z^ Z^ Z^ G) G) G) G) %5 ]5.m6.n6.v6.8| n) '5.V5.x6.C:.t5.I3.(4.5  {- l- ^  |  j  i=                                                                                                                                                                                                                                     ",
"                                                                                                                                                                                                                                          D2.Q  Q  ]  ]  ]  7  V6 f4.a4.a4.y6.A& R;.r' @{ .{ .{ .{ .{ Z^ Z^ Z^ Z^ G) G) G) G) %5 h~ M<.96.0:.o) m) '5.z5.'6.'<.'<.z6.(4.5  {- l- ^  |  j  1;.                                                                                                                                                                                                                                    ",
"                                                                                                                                                                                                                                          8I Q  Q  Q  Q  |  7  l&.C5 A6.a4.F/ ): +; r' @{ .{ .{ .{ .{ Z^ Z^ Z^ Z^ G) G) G) G) %5 !1.i5.f5.B6.K+.X) |~ [2.([.u4 w= z6.*5.f  k  {- ^  |  j  D,.                                                                                                                                                                                                                                    ",
"                                                                                                                                                                                                                                          j$ Q  2  Q  2  e  =+ C6.RW D6.a4.9& ): +; p4.r' .{ .{ .{ .{ Z^ Z^ Z^ Z^ G) G) G) G) %5 !1.i5.f5.B6.K+.X) g5.>5.{[.u4 u4 I3.s{ f  5  {- ^  |  j  J-.                                                                                                                                                                                                                                    ",
"                                                                                                                                                                                                                                          .).Q  Q  ^  ]  3  q% t9 8. a4.D6.E6.f4.L$.'{ .{ p4..{ .{ .{ .{ .{ Z^ Z^ Z^ G) G) G) %5 K_.F6.G6. 6.J4.L<.#[.H6.I6.`| t4 L, *5.4  5  ^  ^  2  j  J-.                                                                                                                                                                                                                                    ",
"                                                                                                                                                                                                                                          4% Q  ]  ^  ^  ]  q% U# 8& RY J6.-^.9. k@ P{ '{ *{ p4..{ 4{ 4{ .{ Z^ Z^ Z^ G) G) G) %5 K6.L6.m1.:_.'1 :_.m1.M6.I6.N6.h4 $}.O6.4  f  ]  ^  2  j  M-.                                                                                                                                                                                                                                    ",
"                                                                                                                                                                                                                                          2% Q  |  |  |  c  d@ W# P6.Q6.R6.S6.T6.&# P{ '{ *{ *{ p4..{ .{ .{ Z^ Z^ Z^ G) G) G) J4 i~ U6.1~ d1.'1 J/.M2.V6.W6.X6.Y6.r[.O6.3  f  ]  ^  2  j  j-                                                                                                                                                                                                                                     ",
"                                                                                                                                                                                                                                          O< Q  j  3  j  7  O; Z6.`6.J6.D_ D_  7.`2 .7.'{ '{ '{ '{ r' H,.H,.Z^ Z^ I/ G) G) G) O}.+7.@7.d& #7.`<.$7.b<.%7.I6.&7.w= k|.*7.c  f  ]  ^  2  j  =7.                                                                                                                                                                                                                                    ",
"                                                                                                                                                                                                                                          2% Q  |  3  3  4  7  |6 -7._S r{.;7.>7.p3 ,7.P(.P(.P(.'7.I(./_.L(..(..(.)7.+(.@(.@(.q, K6.!7.~7.{7.]7.L~ ^7./7.E1.(7.x| _7.*7.e  5  x& ^  2  o  ~z                                                                                                                                                                                                                                     ",
"                                                                                                                                                                                                                                          2% Q  5  k  k  k  !$ s{ :7.<7.[7.V6 P6 }7.|7.|7.17.|7.|7.27.27.27.27.g# g# g# }7.37.47.57.67.77.87.97.07.a7.b7.c7.d7.e7.f7.b(.e  f  ]  ^  2  o  ~z                                                                                                                                                                                                                                     ",
"                                                                                                                                                                                                                                          1% Q  5  k  {- /  l  x> y7 N= ;. >% >% =+ =$ =$ =$ =$ -$ -$ -$ -$ -$ ;. -$ -$ >% >% H$ !$ A> D  I% I% M% I  Jc l  6. 6. g  D< e  3  ]  ^  ]  g  ~z                                                                                                                                                                                                                                     ",
"                                                                                                                                                                                                                                          1% Q  |  f  {- w@ l  g  l  8  6. 8  9  6. 6. p  p  p  8  8  8  8  8  p  p  p  e  4  p  3  f  e  e  3  p  4  m  l> R$ R$ z> g  e  {- ^  ^  ]  g  ~z                                                                                                                                                                                                                                     ",
"                                                                                                                                                                                                                                          2% Q  2  ]  w@ p  6  6  6  e  e  l  l  6. 8  R$ k  4  6  6. 6. c$ 6  6  6  g  g  o  y  6  6  6  4  f  f  f  m  p  p  9  e  e  4  f  k  {- 5  o  ~z                                                                                                                                                                                                                                     ",
"                                                                                                                                                                                                                                          O< Q  ^  ^  ^  d  3  6  l  g  g  g  l  l  8  e  f  4  !$ 6. 6. 6  6  l  l  g  g  g  g  g  g  4  f  f  f  f  f  m  p  8  4  4  e  3  w@ {- m  j  ~z                                                                                                                                                                                                                                     ",
"                                                                                                                                                                                                                                          O< Q  ^  ^  ]  f  4  !$ 6$ L< !$ !$ x> !$ 6$ !$ g  g  g  D< l  8  4  e  e  e  e  3  f  4  4  e  e  e  e  e  e  e  3  3  f  3  3  3  k  {- ]  j  =7.                                                                                                                                                                                                                                    ",
"                                                                                                                                                                                                                                          2% Q  Q  ^  ]  6  7  >$ g7.h7.by by h7.C].c_ N7 i7.i7.i7.T< f% f% }}.P< j7.P< P< UJ UJ U< U< U< h, o< o< V9 ;$ ,$ H$ H$ >% x> g  g  f  {- 5  o  b,.                                                                                                                                                                                                                                    ",
"                                                                                                                                                                                                                                          4% Q  Q  Q  2  4  j^ k7.{s ,0 A$ io {s l7.2[ 1'.m7.n7.n7.o7.p7.q7.r7.r7.r7.s7.t7.s7.u7.v7.w7.x7.y7.z7.A7.B7.C7.D7.E7.F7.G7.~-.g  7  4  ^  ]  j  b,.                                                                                                                                                                                                                                    ",
"                                                                                                                                                                                                                                          4% Q  Q  Q  x& f  p&.50 ;+ M-  1.T_.H7.|>.@{ {_.N( I/ I/ I/ a' b' b' b' )_ )_ [4 u- .- .- c=.=5 I7.I7.I7.I7.J7.g4.K$.K7.J, [> g  e  ]  ^  2  j  b,.                                                                                                                                                                                                                                    ",
"                                                                                                                                                                                                                                          4% Q  ^  ^  ^  e  y7 %&.6+ >+ == 8/.[@ L7..{ 4{ 4{ Z^ Z^ Z^ Z^ L( L( G) G) G) G) '_ p( 8- (- (- Z= Z= *5 M7.K$.K$.K$.g$.}4.N7.3  R$ ^$ ^  2  o  b,.                                                                                                                                                                                                                                    ",
"                                                                                                                                                                                                                                          J< Q  Q  2  A  B> y7 l&.&@ O7.P7.n# c# Q7.&) 7{ U! V! Z^ Z^  { X~ X~ 2{ F) F) F) G4 G4 (_ __ (- *5 j@ j@ c5 :_ K$.:_ h$.M^.Mt o  3  d  ^  |  j  b,.                                                                                                                                                                                                                                    ",
"                                                                                                                                                                                                                                          =x Q  2  2  Q  |  q% V7 -: P7.p# p# g@ %>..{ U! Z^ Z^ Z^ Z^ Z^ Z^ Z^ G) G) G) G) '_ H4 q( 2( R7.[4.o= {/.c/.o= L$.c5 S7.M^.q{ g  j  d  d  2  j  T7.                                                                                                                                                                                                                                    ",
"                                                                                                                                                                                                                                          4% Q  2  2  Q  |  q% U7.z@ P7.p# p# g@ %>.Z^ Z^ Z^ Z^ Z^ Z^ Z^ Z^ Z^ G) G) G) G) '_ p( d| V7.$:.W7.X7.Y7.Z7.l6.'%.J7.43.2>.`7.c  5  v7 x& 2  j   8.                                                                                                                                                                                                                                    ",
"                                                                                                                                                                                                                                          4% Q  2  |  ^  ]  q% U7.u2.p# p# 8/.|@ %>.Z^ Z^ Z^ Z^ Z^ Z^ Z^ Z^ Z^ Z^ G) G) G) G) ]_  <..8.+8.@8.#8.$8.%8.&8.*8.6~ 1_.2_.{-.f  {- K- ^  ]  j  1;.                                                                                                                                                                                                                                    ",
"                                                                                                                                                                                                                                          4% Q  2  ]  ^  ]  q% U7.u2.M- p# 8/.|@ x$.Z^ Z^ Z^ Z^ Z^ Z^ Z^ Z^ Z^ Z^ G) G) G) G) ;) =8.-8.;8.>8.,8.'8.)8.!8.~8.5:.c4.{8.`7.4  {- l- ^  ]  j  B<                                                                                                                                                                                                                                     ",
"                                                                                                                                                                                                                                          [% Q  2  2  Q  ]  q% g'.u2.M- p# 8/.*@ %>.H,.H,..{ .{ .{ Z^ Z^ Z^ Z^ Z^ Z^ G) G) G) 0' ]8.^8./8.(8._8.:8.<8.[8.F[.5:.c4.{8.}8.j  ]  l- ^$ 2  o  D,.                                                                                                                                                                                                                                    ",
"                                                                                                                                                                                                                                          4% Q  2  2  Q  ]  q% g'.$@ 8/.p# 8/.o# 8$.H,.r' .{ .{ .{ Z^ Z^ Z^ Z^ Z^ Z^ Z^ G) G) Z^ m~ |8.!5.`4._8.:8.18.28.38.0<.5:.,- f0 3  ]  l- x& 2  j  E<                                                                                                                                                                                                                                     ",
"                                                                                                                                                                                                                                          2% Q  2  ]  ^  ]  q% k>.$@ 8/.p# 8/.o# %>.H,.r' .{ .{ Z^ Z^ Z^ Z^ Z^ Z^ Z^ Z^ Z^ Z^ N( 48.58.!5.K+.'@.d6.68.78.l2.^).O/.G- 88.|  d  l- x& 2  j  E<                                                                                                                                                                                                                                     ",
"                                                                                                                                                                                                                                          1% Q  2  ]  ^  ]  q% a5.R_.a6.k: k: m# x$.H,.@{ r' .{ Z^ Z^ Z^ Z^ Z^ Z^ Z^ Z^ Z^ Z^ Z^ 98.08.D4.K+.)@.Z) N1.a8.b8.t:.-:.c8.r%.j  5  {- ^  |  j  d8.                                                                                                                                                                                                                                    ",
"                                                                                                                                                                                                                                          Y4 Q  Q  ^  ^  d  y  a5.e8. 1.k: MX m# 8$.{_.@{ @{ H,.[( Z^ Z^  {  { Z^ Z^ Z^ Z^ Z^ <) f8.<1.G6.h| g8.n)  2.h8.i8.F1.'|.91.j8.c  d  ^  ^  2  o  J-.                                                                                                                                                                                                                                    ",
"                                                                                                                                                                                                                                          D# Q  Q  Q  d  5  q% k8.l8. 1.k: MX m# 8$.{_.@{ @{ H,.[( Z^ Z^ Z^ Z^ Z^ Z^ Z^ Z^ Z^ <) f8.<1.G6.h| 8| n)  2.m8.u& r4 '|.y|.j8.j  ^  ^  ^  2  o  J-.                                                                                                                                                                                                                                    ",
"                                                                                                                                                                                                                                          Y4 Q  Q  Q  x& 5  q% k8.l8.a6.q+ k= >+ 8$.{_.@{ @{ H,.[( Z^ Z^ Z^  {  { Z^ Z^ <) .{ H,.f8.x1.G6.h| 8| n) '2.n8.o8.k4 V4 y|.p8.j  2  ^  ^  2  o  J-.                                                                                                                                                                                                                                    ",
"                                                                                                                                                                                                                                          2% Q  Q  Q  x& 5  q% U7.5+ q8.k: k= m# 8$.{_.@{ @{ H,.[( Z^ Z^ Z^ Z^ Z^ Z^ Z^ Z^ .{ <) f8.r8.G6.h| g8.m)  2.s8.t8.`| u8.y|.v8.j  2  ^  ^  2  o  J-.                                                                                                                                                                                                                                    ",
"                                                                                                                                                                                                                                          w8.Q  Q  ^  d  5  q% E,.5Y t_.q+ k= 2* 7$.#_.@{ @{ H,.[( Z^ Z^ Z^ Z^ Z^ Z^ Z^ Z^ Z^ I/ s^ x8.G6.y8.g8./) e6.z8.V} `| V4 y|.v8.|  ^  ^  ^  2  g  A8.                                                                                                                                                                                                                                    ",
"                                                                                                                                                                                                                                          G4.Q  Q  ^  ^  d  y  E,.5Y N5.MX MX %* 8$.N( @{ @{ H,.[( Z^ Z^  {  { Z^ Z^ Z^ Z^ Z^ V! w1.B8. 5.y8.8| /) C8.s8.V} p4 V4 y|.v8.|  ^  ^  ^  2  g  @>                                                                                                                                                                                                                                     ",
"                                                                                                                                                                                                                                          P: Q  Q  Q  x& 5  q% E,.|6.p5.aX aX %* 8$.$|.@{ @{ H,.[( Z^ Z^ Z^ Z^ Z^ Z^ Z^ Z^ Z^ I/ }<.G1.f5.h| g8.m) K/.O1.V} q4 V4 y|.v8.|  d  ^  ^  2  g  @>                                                                                                                                                                                                                                     ",
"                                                                                                                                                                                                                                          F< Q  Q  ^  d  5  q% i6.|6.t_.aX k= MX E$.N( @{ @{ H,.N( Z^ Z^ Z^ Z^ Z^ Z^ Z^ Z^ Z^ I/ D8.L1.f5.h| 8| m)  2.s8.V} q4 '|.y|.v8.|  d  {- ^  2  g  @>                                                                                                                                                                                                                                     ",
"                                                                                                                                                                                                                                          D2.Q  2  |  ^  d  >% S7 5Y N5.aX %* S5 E$.N( o~ o~ H,.N( Z^ N( Z^ Z^ Z^ Z^ Z^ Z^ Z^ I/ K2.r5.f5.h| '@.n) '5.E8.F8.}*.N:.&5.G8.j  d  {- d  ]  g  @>                                                                                                                                                                                                                                     ",
"                                                                                                                                                                                                                                          D2.Q  2  |  ^  w@ =$ k&.5Y }5.MX %* ]/ Q$.N( @{ @{ H,.[( Z^ Z^ Z^ Z^ Z^ Z^ Z^ Z^ Z^ I/ s5.H8.I8.h| '@.o) '5.J8.F8.}*.t:.}|.O4.j  d  {- ^  ]  o  M-.                                                                                                                                                                                                                                    ",
"                                                                                                                                                                                                                                          $  Q  2  |  ^  d  7  X7 F_.a6.k: P= ': %>.<) #_.#_.H,.N( Z^ Z^ Z^ Z^ Z^ Z^ Z^ Z^ Z^ V! l~ H8.n6.K+.Z+.Y+.'5.J8.F8.}*.0<.^5.{-.j  d  {- ^  ]  o  E<                                                                                                                                                                                                                                     ",
"                                                                                                                                                                                                                                          C< Q  2  |  ^  d  7  K8.e8. 1.k: >+ ': %>.<) #_.#_.<) Z^ Z^ Z^ Z^ Z^ Z^ Z^ Z^ Z^ Z^ V! ]5.06.I8.K+.Z+.h| !5.J8.A2.}*.t:.}|.O4.j  d  {- ^  ]  j  J-.                                                                                                                                                                                                                                    ",
"                                                                                                                                                                                                                                          n|.Q  2  |  ^  d  q% K8.e8. 1.>+ >+ ': %>.Z^ #_.Z^ L( Z^ Z^ Z^ Z^ Z^ Z^ Z^ Z^ Z^ Z^ V! ]5.06.n6.K+.Z+.K+.;5.L8.z=.C_.t:.5~ ~-.j  k  {- d  ]  |  J-.                                                                                                                                                                                                                                    ",
"                                                                                                                                                                                                                                          R/.Q  2  |  ^  d  q% K8.e8. 1.>+ >+ ': %>.Z^ H,.H,.Z^ Z^ Z^ Z^ Z^ Z^ Z^ Z^ Z^ Z^ Z^ V! l~ .5.n6.K+.'@.`+.#5.M8.z=.C_.0<.5~ ~-.j  k  {- d  ]  2  E<                                                                                                                                                                                                                                     ",
"                                                                                                                                                                                                                                          H^ Q  2  |  ^  d  y  K8.e8. 1.>+ >+ ': %>.[( Z^ .{ .{ U! &) Z^ Z^ Z^ Z^ Z^ Z^ Z^ Z^ V! T5.h5.n6.K+.N8.`+.K:.O8.,(.C_.N/.I<.~-.j  k  {- d  ]  |  ~6.                                                                                                                                                                                                                                    ",
"                                                                                                                                                                                                                                          h&.Q  2  2  ^  d  y  U7.F_. 1.k: %* ': x$.N( Z^ '{ .{ U! <) Z^ Z^ Z^ Z^ Z^ Z^ Z^ Z^ V! K1.c6.n6.Z4.P8.K+.96.e= ,(.C_.N/.5~ ~-.j  5  {- d  ]  2  J-.                                                                                                                                                                                                                                    ",
"                                                                                                                                                                                                                                          F$ Q  6& Q  x& d  y  U7.F_.(1.q+ >6 S5 V;.r' @{ .{ .{ .{ .{ Z^ Z^ Z^ Z^ Z^ Z^ Z^ Z^ <) T5..5.n6.g8.Q8.K+.'5.R8.S1.'<.N/.}|.j6.o  2  {- 5  |  2  J-.                                                                                                                                                                                                                                    ",
"                                                                                                                                                                                                                                          F$ Q  6& Q  x& d  y  U7.e8.}5.@_.>6 ,: V;.r' @{ .{ .{ .{ .{ Z^ Z^ Z^ Z^ Z^ Z^ Z^ Z^ H,.K1.c6.n6.g8.Q8.g8.96.e= S1.'<.N/.I, S8.o  2  ^$ ^  ]  j  L=                                                                                                                                                                                                                                     ",
"                                                                                                                                                                                                                                          F$ Q  6& Q  x& d  y  U7.T8.}5.@_.%* S5 V;.r' @{ .{ .{ .{ .{ Z^ Z^ Z^ Z^ Z^ Z^ Z^ Z^ H,.T5.G<.96.Z4.62.R4.96.U8.S1.'<.N/.I, /,.|  ^  {- ^  ]  j  U1.                                                                                                                                                                                                                                    ",
"                                                                                                                                                                                                                                          #  Q  Q  Q  x& d  y  K8.F_.}5.q+ %* ,: V;.r' @{ .{ .{ .{ .{ Z^ Z^ Z^ Z^ Z^ Z^ Z^ Z^ s' l~ 56.V8.Z4.W8.R4.X8.U8.I=  <.@2.5~ n&.|  ^  ^$ ]  3  |  B<                                                                                                                                                                                                                                     ",
"                                                                                                                                                                                                                                          .{.Q  Q  ^  ^  d  y  X7 25.}5.q+ Q5 ,: F$.r' @{ .{ .{ .{ Z^ Z^ Z^ Z^ Z^ Z^ Z^ Z^ Z^ V! l~ Y8.Z8.`8.Q8.`8. 9.M8.I= T:.@2.5~ j6.5  x& {- ]  3  |  U1.                                                                                                                                                                                                                                    ",
"                                                                                                                                                                                                                                          F$ Q  Q  ^  ^  d  y  :8 ;+ t_.q+ Q5 ,: F$.r' @{ .{ .{ .{ Z^ Z^ Z^ Z^ Z^ Z^ Z^ Z^ Z^ V! l~ .9.Z8.+9.Q8.`8.I8.U8.I= T:.@2.5~ @9.|  x& {- ^  2  j  1;.                                                                                                                                                                                                                                    ",
"                                                                                                                                                                                                                                          h&.Q  Q  Q  Q  ^  y  X7 ;+ t_.q+ Q5 O5 F$.r' @{ .{ .{ Z^ Z^ Z^ Z^ Z^ Z^ Z^ Z^ Z^ Z^ I/ T5.#9.Z8.$9.%9.$9.&9.*9.f6.[5.@2.5~ ~-.|  x& {- d  2  |  D,.                                                                                                                                                                                                                                    ",
"                                                                                                                                                                                                                                          vJ Q  Q  ^  ^  d  y  W7 ;+ (1.q+ P= O5 x$..{ H,..{ .{ Z^ Z^ Z^ Z^ Z^ Z^ Z^ Z^ Z^ Z^ [<.s5.`1.n6.$9.=9.$9.vV *9.f6.-9.d5.5~ ~-.j  d  ^$ ]  |  |  ~6.                                                                                                                                                                                                                                    ",
"                                                                                                                                                                                                                                          {;.Q  Q  Q  ^  d  y  K8.L+ r+ >6 %* ': 8$.H,.@{ .{ .{ .{ Z^ Z^ Z^ Z^ Z^ Z^ Z^ Z^ Z^ `^ l~ V1.X8.+9.Q8.P8.2{.;9.vJ T:.@2.I<.~-.j  2  ^  ^  2  j  >9.                                                                                                                                                                                                                                    ",
"                                                                                                                                                                                                                                          %;.Q  Q  Q  ^  d  y  U7.F_. 1.k: P= &@ 8$.H,.@{ .{ .{ .{ Z^ Z^ Z^ Z^ Z^ Z^ Z^ Z^ Z^ `^ j~ V1.X8.+9.Q8.P8.2{.;9.vJ T:.@2.H1.~-.j  2  ^  ^  2  o  ,9.                                                                                                                                                                                                                                    ",
"                                                                                                                                                                                                                                          F< Q  Q  Q  ^  d  y  U7.e8. 1.p+ >+ *@ w$.H,.@{ .{ .{ .{ Z^ Z^ Z^ Z^ Z^ Z^ Z^ Z^ Z^ s' ]5.'9.#5.+9.62.P8.2{.)9.vJ T:.@2.H1.~-.j  2  ^  Q  2  o  !9.                                                                                                                                                                                                                                    ",
"                                                                                                                                                                                                                                          G4.Q  Q  Q  ^$ d  y  I8 $@  1.8/.p# m# E2.<) H,..{ .{ Z^ Z^ Z^ Z^ Z^ Z^ Z^ Z^ G) Z^ `^ F2.V1.#5._8.W8.)@.hs 46.vJ T:.@2.H1.*5.j  2  ^  Q  2  o  ~9.                                                                                                                                                                                                                                    ",
"                                                                                                                                                                                                                                          @@.Q  Q  ^  ^  d  y  I8 $@ T_.8/.n# m# E2.<) H,.Z^ Z^ Z^ Z^ Z^ Z^ Z^ Z^ Z^ G) G) Z^ `^ j~ V1.{2.g8.%<.)@.hs 46.*O  <.@2.H1.*5.j  ^  ^  Q  2  o  {9.                                                                                                                                                                                                                                    ",
"                                                                                                                                                                                                                                          @@.Q  Q  ^  ^  d  y  I8 $@ T_.p+ o# -: E2.H,.@{ .{ Z^ Z^ Z^ Z^ Z^ Z^ Z^ Z^ Z^ G) Z^ `^ l~ V1.{2.g8.%<.)@.2{.46.R/._<.@2.H1.*5.j  ^  ^  Q  2  g  ]9.                                                                                                                                                                                                                                    ",
"                                                                                                                                                                                                                                          w8.Q  Q  ^  ^  d  y  I8 :6 T_.p+ o# &@ E2.<) H,..{ Z^ Z^ Z^ Z^ Z^ Z^ Z^ Z^ G) G) Z^ V! T5.V1.{2.g8.Q8.p) ^9./9.vJ _<.@2.H1.*5.j  ^  ^  Q  2  1: T7.                                                                                                                                                                                                                                    ",
"                                                                                                                                                                                                                                          @@.Q  Q  ^  d  d  y  k>.:6 /6 M+ m# &@ E2.<) <) Z^ Z^ Z^ Z^ Z^ Z^ Z^ Z^ Z^ G) G) Z^ V! s5.V1.96.K+.)@.8| m+.(9.;(  <.@2.H1.*5.j  ^  ^  ^  2  g: _9.                                                                                                                                                                                                                                    ",
"                                                                                                                                                                                                                                          G4.Q  Q  Q  x& d  y  U7.$@ T_.p+ m# ': E2.Z^ <) .{ Z^ <) <) Z^ Z^ Z^ Z^ Z^ G) G) Z^ V! K2.P5.f5.h| g8.n) &<.v2.:9.#}.>_.w) [6.3  {- ^  ^  2  _$ <9.                                                                                                                                                                                                                                    ",
"                                                                                                                                                                                                                                          w8.Q  Q  Q  x& d  y  U7.$@ T_.p+ m# ]; E2.Z^ <) .{ N( <) <) Z^ Z^ Z^ Z^ Z^ G) Z^ Z^ V! K2.G1.f5.h| g8.,@.I].[9.:9.#}.>_.w) [6.]  {- ^  ^  2  _$ <9.                                                                                                                                                                                                                                    ",
"                                                                                                                                                                                                                                          J< Q  Q  ^  ^  d  y  U7.$@  1.p+ M+ b# E2.Z^ .{ .{ N( N( Z^ Z^ Z^ Z^ Z^ Z^ G) G) Z^ I/ K2.E5.f5.h| g8.,@.&<.L:.}9.#}.>_.w) [6.]  {- ^  ^  2  _$ <9.                                                                                                                                                                                                                                    ",
"                                                                                                                                                                                                                                          2% Q  Q  ^  ^  d  y  U7.R_. 1.p+ 0# b# E2.N( .{ .{ N( N( Z^ Z^ Z^ Z^ Z^ Z^ G) G) G) a' |9.x1.G6.h| O+.m) 19.29.^6.'<.>_.w) [6.|  {- ^  ^  2  _$ 39.                                                                                                                                                                                                                                    ",
"                                                                                                                                                                                                                                          1% Q  Q  ^  ^  d  y  U7.R_. 1.p+ M+ b# 7$.e5.Z^ Z^ N( [( Z^ Z^ Z^ Z^ Z^ Z^ G) G) G) c' |9.49.f5.h| `+.X) '2.59.^6.9<._2.y<.[6.|  {- ^  ^  2  69.T7.                                                                                                                                                                                                                                    ",
"                                                                                                                                                                                                                                          1% Q  Q  ^  ^  d  y  U7.R_. 1.p+ M+ b# f3.N( Z^ Z^ N( [( Z^ Z^ Z^ Z^ Z^ Z^ G) G) G) ;) 79.49.f5.y8.K+.X)  2.k<.89.9<.K, j{ [6.|  {- ^  ^  2  69.T7.                                                                                                                                                                                                                                    ",
"                                                                                                                                                                                                                                          1% Q  Q  ^  ^  d  y  U7.R_. 1.p+ M+ b# >3.[( Z^ Z^ N( [( Z^ Z^ Z^ Z^ Z^ Z^ G) G) G) ;) 99.09.f5.h| K+.X) '5.a9.M:.y=.#= y<.[6.|  {- ^  ^  2  69.T7.                                                                                                                                                                                                                                    ",
"                                                                                                                                                                                                                                          O< Q  Q  ^  ^  d  y  k>.R_. 1.p+ M+ &@ >3.N( Z^ Z^ N( N( Z^ Z^ Z^ Z^  { Z^ G) G) G) G) 5<.49.f5.h| K+.X) ;5.r<.b9.#$.c8.`{ c9.2  d  ^  ^  2  69.L=                                                                                                                                                                                                                                     ",
"                                                                                                                                                                                                                                          D7 Q  Q  Q  ^  d  7  k>.R_.a6.p+ M+ &= d9.V! [<.[( Z^ V! V! Z^ Z^  { |{  { G) G) Z^ G) *1.e9.f9.h| `+.$<.96..9.g9._).K, H5./6.2  d  ^  ^  2  Y( =4                                                                                                                                                                                                                                     ",
"                                                                                                                                                                                                                                          D# Q  Q  2  ]  f  q% U7.R_. 1.p+ m# &@ d9.V! [<.[( Z^ V! V! Z^ Z^  {  { Z^ G) 0' I/ I/ h9.49.i9.J4.Z+.h| I8.j9.k9.l9.J, `{ U|.|  {- ^  ^  2  69.p7                                                                                                                                                                                                                                     ",
"                                                                                                                                                                                                                                          :% Q  2  |  3  f  q% E,.e8. 1.>+ m# &@ d9.V! [<.[( Z^ V! V! Z^ Z^ Z^ Z^ Z^ G) 0' V! I/ 79.49.m9.`4.R4.`4.n9.o6.p6.l9.J, o9.p9.|  {- ^$ ^  2  q9.E'.                                                                                                                                                                                                                                    ",
"                                                                                                                                                                                                                                          a-.Q  2  ]  ^  5  q% E,.F_. 1.M- m# &@ 6$.V! [<.[( Z^ V! V! Z^ V! V! V! I/ G) G) I/ V! 79.r9.i9.`8.P8.`4.I8.s9.p6.%$.t9.u9.p9.|  d  ^$ ^  2  v% gB                                                                                                                                                                                                                                     ",
"                                                                                                                                                                                                                                          vy Q  Q  ^  ^  d  6  X7 L+  1.p+ m# -: ^=.V! [<.[( Z^ V! V! <) `^ V! V! G) G) G) G) a' |*.v9.C4.`8.Q8.+9.V8.w9.k9.%$.n3.6:.U|.|  ^  /  ^  ]  v% #*                                                                                                                                                                                                                                     ",
"                                                                                                                                                                                                                                          G-.Q  Q  ^  d  d  7  X7 L+  1.p+ m# -: ^=.V! [<.[( Z^ V! V! I/ `^ V! Z^ G) G) G) G) 0' C|.x9.X8.`8.Q8.$9.y9.z9.k9.%$.n3.6:.)Q b  2  ^  ^  2  Y( v<.                                                                                                                                                                                                                                    ",
"                                                                                                                                                                                                                                          Uy Q  2  |  d  5  =+ E,.F_. 1.p+ m# -: ^=.V! [<.[( Z^ V! V! Z^ 0' G) Z^ G) G) G) G) c' A9.B9.X8.`8.C9.$9.y9.D9.E9.%$..* 2>.w%.b  1  ]  ^  2  l  a,.                                                                                                                                                                                                                                    ",
"                                                                                                                                                                                                                                          +<.Q  Q  2  d  5  q% E,.L[.T_.p+ >+ &@ W^.I/ I/ Z^ Z^ <) V! I/ G) G) G) G) G) G) G) c' A9.B9.F9.+9.62.$9.G9.E8.F- c/..* 2>.qR c  |  ^  ^  2  c  H9.                                                                                                                                                                                                                                    ",
"                                                                                                                                                                                                                                          +<.Q  Q  Q  ^  f  q% X7 25.S_.a6.M+ b# W^.I/ V! Z^ Z^ H,.V! I/ G) G) G) G) G) G) G) c' |9.I9.Z8.P8.J9.s3.K9.+= L9.{/.R~ 2>.88.3  ^  ^  ^  2  l  =7.                                                                                                                                                                                                                                    ",
"                                                                                                                                                                                                                                          +<.Q  Q  Q  ^  5  q% X7 25.S_.(1.M+ &@ W^.I/ V! &) Z^ Z^ V! I/ G) G) G) G) G) '_ G) |( M9.I9.F9.$9.J9.N9.K9.61.s( d3.6~ 3>.p%.b  d  ^  ^  2  l  ~z                                                                                                                                                                                                                                     ",
"                                                                                                                                                                                                                                          Uy Q  Q  Q  ^  5  q% X7 L[.S_.(1.M+ &@ W^.I/ V! &) Z^ G) V! I/ G) G) G) G) '_ '_ G) u- O9.I9.F9.P9.J9.Q9.R9.D9. * '%.6~ 3>.o%.j  5  ^  ^  2  !$ ~z                                                                                                                                                                                                                                     ",
"                                                                                                                                                                                                                                          vy Q  Q  Q  d  5  q% X7 L+ S_.T_.>6 &@ W^.0' 0' L( G) G) G) G) G) G) G) G) '_ '_ '_ |( S9.T9.F9.U9.V9.J9.W9.X9.Y9.t9.Z9.,; o%.j  5  ]  ^  2  6$ `9.                                                                                                                                                                                                                                    ",
"                                                                                                                                                                                                                                          :% Q  Q  Q  x& 5  q% E,.R_.S_.T_.M+ &@ W^.G) G) 0' G) G) G) G) G) G) G) G) '_ '_ '_ |( K_. 0.R9..0.V9.J9.+0.@0.#0.t9.$0.1>.B&.3  w@ ^$ ^  ]  6$ M;                                                                                                                                                                                                                                     ",
"                                                                                                                                                                                                                                          `'.Q  Q  Q  x& 5  q% E,.R_.S_.T_.>6 &@ W^.G) G) *) G) G) G) G) '_ '_ '_ '_ '_ '_ '_ |( %0.s9.&0..0.V9.*0.+0.=0. * t9.$0.1>.B&.j  k  ^  ^  ]  g: M;                                                                                                                                                                                                                                     ",
"                                                                                                                                                                                                                                          A4 Q  Q  Q  x& 5  q% E,.L+ S_.Rt >6 &@ W^.G) }( L( G) G) G) '_ '_ '_ '_ '_ 9- 9- 9- c| -0.;0.+0..0.>0.,0.'0.)0. * t9.$0.1>.C&.j  5  ^  ^  2  x  M;                                                                                                                                                                                                                                     ",
"                                                                                                                                                                                                                                          D# Q  Q  Q  d  f  q% E,.R_.r+ N+ 2* -: >3.)_ )_ 0' G) '_ '_ '_ '_ '_ '_ '_ 9- 9- 9- c| !0.z9.~0..0.{0.]0.^0./0.s( n3.$0.1>.C&.j  5  ]  ^  2  l  ~z                                                                                                                                                                                                                                     ",
"                                                                                                                                                                                                                                          A4 Q  2  ^  ]  f  =+ S7 R_.N+ M+ m# m# [>.G) )_ G) G) )_ '_ '_ ,_ x- p( v- v- v- v- u- 7|.s9.(0..0._0.:0.Qu <0.[0.R~ }0.|0.N7.j  ]  ]  ^  2  g  =7.                                                                                                                                                                                                                                    ",
"                                                                                                                                                                                                                                          `'.Q  |  ]  3  f  7  o4.C: b5.2* >+ >+ 10.k1 ,_ -) '_ '_ '_ '_ x- 8- 8- 8- 8- 8- 8- u- 20.U8.Z8.30.40.50.60.70.80.$0.Z9.|0.Ht j  5  ]  ^  2  o  =7.                                                                                                                                                                                                                                    ",
"                                                                                                                                                                                                                                          `'.Q  |  |  ]  5  7  k&.u: f4.C5 q+ n# 90.#5 }( -) '_ '_ c| 9- 9- 9- 9- 9- `2 `2 `2 '3.00.a0.b0.c0.'8.d0.e0.f0.g0.C>.A).1>.i%.o  2  ^  ^  2  o  =7.                                                                                                                                                                                                                                    ",
"                                                                                                                                                                                                                                          #% Q  |  ]  ]  f  q% %&.z: C5 A& A& P= h0.!_ ,_ i0.i0.'_ 9- 9- 9- 9- `2 `2 `2 `2 `2 z| y=.j0.k0.l0.m0.n0.o0.p0.q0.%%.m^.6:.Ht o  2  ^  ^  2  o  =7.                                                                                                                                                                                                                                    ",
"                                                                                                                                                                                                                                          -4 Q  Q  ^  ^  f  =+ C9 M}.v. +_.D& D5 F$.'_ c| '_ ]_ 9- q3 q3 `2 `2 `2 j@ `2 j@ `2 *5 n$.N{.r0.e[.7[.7[.&*.s0..%.t0.u0.v0.w0.j  2  ^  ^  2  o  ~z                                                                                                                                                                                                                                     ",
"                                                                                                                                                                                                                                          A4 Q  Q  6& d  s% ;. ~6 z3./# /# E_ <^.P$.c' |( |( u- 9- 9- 9- 25 `2 z| 25 =5 K$.m4.K$.K$.h$.%%.@%.x0.y0.,%.z0.A0.V/.V/.M^.o{ e  d  ^  ^  2  g  =7.                                                                                                                                                                                                                                    ",
"                                                                                                                                                                                                                                          A4 Q  |  2  2  s% >% y9 B0.C0.C0.C0.v;.^>.p, n4 D0.J,.=3 J,.r( ;:.;:.R7.R7.R7.:*.<4.E0.'%.}4.*%.,%.#%.F0.*%.t9.)%.G0.!%.o>.N7.o  3  ^  ^  2  l  @>                                                                                                                                                                                                                                     ",
"                                                                                                                                                                                                                                          -4 Q  2  5  d  k  l  n).[7 7_ 7_ ;..,7 M> H0.H0.H0.I0.J0.K0.K0.FO L0.L0.M0.1O 1O L0.FO N0.N0.O0.O0.O0.P0.FO Q0.M&.M&.R0.c^ S0.g  4  w@ ^$ 2  6$ M-.                                                                                                                                                                                                                                    ",
"                                                                                                                                                                                                                                          -4 Q  Q  ^  {- 5  e  x> y7 !$ c$ m> 8  8  9  9  9  9  p  8  7$ :  :  Y( :  Y( :  7$ 7$ 6. 7$ 7$ 6. 0> 6. !$ 6. 8  8  !$ l  c  c  f  {- {- 5  6$ M-.                                                                                                                                                                                                                                    ",
"                                                                                                                                                                                                                                          -4 Q  Q  ^  k  f  f  g  g  4  R$ R$ R$ 3  p  8  8  p  R$ R$ R$ R$ t> t> l> t> t> t> _  8  9  9  p  p  p  p  p  _  p  p  R$ e  e  4  k  {- d  6$ M-.                                                                                                                                                                                                                                    ",
"                                                                                                                                                                                                                                          -4 Q  Q  ^  {- 3  f  c  g  e  ]  ]  p  3  e  e  l  4  f  4  f  p  p  p  p  p  p  p  p  p  p  p  p  p  p  p  x7 R$ p  x7 R$ e  g  4  k  {- ]  Y( M-.                                                                                                                                                                                                                                    ",
"                                                                                                                                                                                                                                          D# Q  Q  d  {- 5  f  c  c  3  ]  ]  R$ 3  3  ]  z; z; 3  3  3  t> ]  t> t> _  _  _  R$ R$ l> t> t> t> R$ R$ x7 8  8  R$ R$ 3  c  e  l- {- w@ @_ J-.                                                                                                                                                                                                                                    ",
"                                                                                                                                                                                                                                          2% Q  Q  x& {- m  6  x> 7  8  p  x7 b$ :  8  _  _  3  z; t> l> l> _  (  l> }  }  }  l> 0B /( i  i  l> l> x7 p  p  8  8  9  i^ c  3  ^$ {- R$ @_ B<                                                                                                                                                                                                                                     ",
"                                                                                                                                                                                                                                          [% Q  Q  ^  {- s% !$ d@ @) F% R9 T0.h, >0 V9 V9 ;$ o< U< U0.T0.U0.U0.V9 g< V< V< >0 9> 9> V0.V0.W9 <$ <$ ]$ =$ 6. m> <$ 9> l  L< b  ^$ {- w@ Y( 1;.                                                                                                                                                                                                                                    ",
"                                                                                                                                                                                                                                          4% Q  Q  ^  ^$ 3  !$ W0.`9 ,^.X0.Y0.6` Z0.`0.VH  a.VH .a..a.+a.@a.+a.#a.$a.$a.%a.}(.|(.&a.*a.=a.-a.-a.;a.>a.i(.,a.'a.o(.q(.63.3  ]  l- {- 5  6$ j-                                                                                                                                                                                                                                     ",
"                                                                                                                                                                                                                                          1% Q  2  d  d  3  z  )a.!a.J6.~a.q3.8. 15 $|.$|./_.N( #_.o, a' a' |( r, o2 J,.J,.r( R7.U} K7.m$.m$.f$.%%.y0.{a.!%.M^..$.]a.q^.j  ^  ^$ {- ]  g  H9.                                                                                                                                                                                                                                    ",
"                                                                                                                                                                                                                                          `'.Q  |  2  Q  5  q% -+ q3.F/ ^a.+_.b: )@  { Z^ Z^ Z^ Z^ a' a' c' )_ )_ u- +- +- @- I7./a.S7.S7.{*.-%.F0.*%.!%.+%.@%.(a._a.]4.3  ^  {- ^  ]  o  b,.                                                                                                                                                                                                                                    ",
"                                                                                                                                                                                                                                          J7 Q  2  |  d  ]  =+ :a.C5 F/ a4.+_.R. D@  { Z^ Z^ Z^ G) G) a' G) '_ '_ '_ u- &1 @- I7.;:.<a.r* [a.}a.|a.1a./{ 2a.V/.]%._a.0O f  k  {- d  2  o  b,.                                                                                                                                                                                                                                    ",
"                                                                                                                                                                                                                                          /#.Q  2  ]  ^  d  x> 3a.@_.B& ZZ >6 ]/ R;.M( G) G) G) G) G) c' G) '_ '_ '_ 9- 9- &1 @- #$.4a.5a.6a.7a.8a.9a.0a.'- R~ -# aa.U|.o  j  5  d  2  o  b,.                                                                                                                                                                                                                                    ",
"                                                                                                                                                                                                                                          +<.Q  2  ]  ^  ]  l  ba.>6 aX ZZ >6 ]/ x$.G) G) G) G) G) G) G) c' c' )_ c' '_ '_ '_ A| ca.da.ea.Cl O,.fa.P2 ga.ha..* -# ia.||.c  4  k  d  2  o  H9.                                                                                                                                                                                                                                    ",
"                                                                                                                                                                                                                                          ja.Q  2  |  ^  d  x> ba.>6 aX ZZ >6 ]/ %>.G) G) G) G) G) G) G) 0' 0' a' |( |( c| u- A| ka.la.sS ma.na.oa.pa.qa.ha.R~ -# ;}.G8.f  5  {- ^  2  g  r7                                                                                                                                                                                                                                     ",
"                                                                                                                                                                                                                                          1$.Q  Q  2  ^  5  q% #|.N+ &* aX q+ ': 8$.G) G) G) G) M( M( G) G) G) G) c' a' a' |( L4 i~ ra.sa.ta.ua.va.wa.xa.ya.6~ w! aa.>R f  {- {- ^$ ]  g  ~z                                                                                                                                                                                                                                     ",
"                                                                                                                                                                                                                                          1$.Q  Q  Q  ^  5  q% za.M# k= &* q+ &@ E2.G) G) G) M( !_ M( G) G) G) G) G) G) c' )_ K4 h~ Aa.Ba.Ca.Da.8( Ea.Fa.L, Ga.t9.Ha.Ia.j  f  {- ^  ]  o  =7.                                                                                                                                                                                                                                    ",
"                                                                                                                                                                                                                                          D8 Q  Q  ^  ^  ]  q% o4.e_ k: t_.q+ -: E2.G) G) G) G) G) G) G) a' a' G) G) G) G) G) %5 f2.X5.Ja.Ka.rl La.Ma.Na.Oa.R~ t9.0).PO o  f  d  ^  ]  o  H9.                                                                                                                                                                                                                                    ",
"                                                                                                                                                                                                                                          Pa.Q  Q  ^  ^  ]  y  E,.L+ q+ q+ >6 ': E2.0' a' G) G) a' a' G) G) G) G) G) G) G) G) ;) Qa.Ra.Sa.Ta.Ua.t[.j).Va.J= @/.n3.Wa.lO j  |  d  ^$ ]  o  Xa.                                                                                                                                                                                                                                    ",
"                                                                                                                                                                                                                                          Pa.Q  Q  Q  ^  ]  y  X7 L+ Rt q+ >6 ': >3.0' a' G) G) a' a' G) G) G) G) G) G) G) Z^ ;) U4 5*.Ya.Za.x6.S1.`a.c8.]/.@/.E0.0).0O j  A  {- d  ]  j  @>                                                                                                                                                                                                                                     ",
"                                                                                                                                                                                                                                          Pa.Q  Q  Q  ^  ]  q% U7.u2.p+ q+ >6 -:  b.0' a' G) G) a' c' ;) G) G) G) G) G) G) G) ;) j1 '_ d| :4 T2.Q4 '3.J7.v! <4..b.,; /4.j  ]  {- ^  ]  j  '..                                                                                                                                                                                                                                    ",
"                                                                                                                                                                                                                                          Pa.Q  Q  Q  Q  ]  q% I8 u2.p+ q+ >6 ': ;<.0' I/ ;) G) a' %5 {_ G) G) G) G) G) G) G) G) }( )_ c| v1 &1 &1 S} S} I7.+b.S7.7*.>..j  b  k  ^  |  j  $2                                                                                                                                                                                                                                     ",
"                                                                                                                                                                                                                                          I^ Q  Q  Q  Q  ]  q% I8 L+ p+ q+ >6 -: Q#.G) %5 >5 G) a' %5 {_ G) G) G) G) G) G) a' 0' *) @b.#b./4 i4 /4 }*.c_.n4.<4.$b.R^.%b.j  2  d  d  2  j  J-.                                                                                                                                                                                                                                    ",
"                                                                                                                                                                                                                                          Pa.Q  Q  Q  Q  ]  q% I8 L+ p+ q+ >6 ': Q#.;) I/ ;) ;) a' c' {_ G) G) G) G) a' a' a' &b.74 *b.=b.-b.;b.>b.,b.(6.{/.n4.'b.[%.)b.j  Q  d  ^  2  j  T<.                                                                                                                                                                                                                                    ",
"                                                                                                                                                                                                                                          h-.Q  Q  Q  Q  ]  q% I8 L+ p+ q+ >6 ': !b.;) I/ {_ ;) a' c' {_ G) G) G) a' a' a' a' a' =8.~b.{b.]b.^b./b.(b._b.)3.:b.$b.($.4{.|  5  {- ^  |  |  i=                                                                                                                                                                                                                                     ",
"                                                                                                                                                                                                                                          }-.Q  Q  Q  d  d  y  *8 u2.p+ a6.>6 ': _@.;) ;) {_ ;) ;) ;) ;) G) G) G) a' a' a' a' K4 M9.<b.[b.}b.|b.O,.1b.2b./{ 'b.*! }[ (~.f  |  k  ^$ |  |  v<.                                                                                                                                                                                                                                    ",
"                                                                                                                                                                                                                                          3b.Q  Q  Q  ^  d  y  *8 u2.p+ a6.>6 ': _@.;) ;) {_ ;) >5 ;) ;) a' G) G) a' a' a' a' D0.4b.5b.6b.7b.8b.9b.0b.ab.bb.6~ Z9.cb.C).o  |  {- ^$ |  2  y'.                                                                                                                                                                                                                                    ",
"                                                                                                                                                                                                                                          3b.Q  Q  Q  ^  5  q% *8 z@ M+ Rt >6 m# _@.>5 %5 {_ ;) >5 ;) ;) G) G) G) G) a' a' a' s} db.eb.fb.gb.hb.ib.jb.kb.bb.Z9.Z9.cb.lb.3  5  l- {- 5  |  B'.                                                                                                                                                                                                                                    ",
"                                                                                                                                                                                                                                          3b.Q  Q  Q  ^  d  q% *8 w# /6 s_.>6 m# _@.;) %5 ;) ;) >5 ;) {_ G) G) G) G) G) a' a' O}.N4.mb.nb.gb.hb.ib.jb.ob.Z[.$0.Z9.cb.`2.]  {- l- {- 5  |  d<.                                                                                                                                                                                                                                    ",
"                                                                                                                                                                                                                                          3b.Q  Q  Q  d  d  6  *8 R_./6 Rt M+ ]/ _@.[<.;) ;) I/ ;) ;) {_ G) G) G) G) c' a' a' L4 V} pb.qb.rb.na.ib.sb.ab.tb.Z9.Z9.cb.E_.]  l- l- {- 5  |  ub.                                                                                                                                                                                                                                    ",
"                                                                                                                                                                                                                                          }-.Q  Q  Q  Q  ^  6  =8 =/.T_.p+ M+ -: I+.%5 I/ [<.I/ ;) I/ ;) G) G) G) G) c' a' a' K4 V} vb.qb.gb._0.wb.xb.yb.zb.+* $0.cb.`2.f  {- l- {- 5  |  B'.                                                                                                                                                                                                                                    ",
"                                                                                                                                                                                                                                          }-.Q  Q  Q  x& d  y  =8 ~<.S_.Rt N+ ': {).%5 I4 [<.I/ ;) I/ ;) G) G) G) a' a' a' a' L4 31 vb.6b.Ab._0.Bb.xb.Cb.Db.w! Eb.Fb.`2.f  5  l- {- w@ |  B'.                                                                                                                                                                                                                                    ",
"                                                                                                                                                                                                                                          Gb.Q  Q  ^  ^  d  y  g'.4<.06 p+ N+ &@ {).%5 I/ [<.I/ %5 I4 ;) a' G) G) a' a' |( a' s} 31 Hb.Ib.Jb.Kb.+9.Lb.Mb.Nb.Ob.M^.Fb.q_.j  f  {- {- w@ |  v1.                                                                                                                                                                                                                                    ",
"                                                                                                                                                                                                                                          Pb.Q  Q  ^  ^  d  y  +8 4<.e_ -: m# -: F].Qb.I4 V! I/ ;) ;) ;) G) G) G) a' J4 a' a' r, +7.vb.Rb.Sb.V9.Tb.Lb.Ub.Vb.Ob.M^.Wb.1}.f  5  {- {- ]  j  t*                                                                                                                                                                                                                                     ",
"                                                                                                                                                                                                                                          8z Q  Q  ^  ^  d  y  +8 Q<.06 -: -: -: 6].;) [<.V! I/ ;) %5 {_ G) a' G) a' a' a' G) r, +7.Xb.Yb.Jb.Zb.Tb.Lb.`b.Vb.Ob.Eb. c.1}.f  5  k  ^  |  j  t*                                                                                                                                                                                                                                     ",
"                                                                                                                                                                                                                                          8z Q  Q  ^  ^  d  y  +8 J^./6 M+ p+ m# W].;) o, V! I/ ;) %5 {_ G) a' G) a' a' a' G) r, +7..c.Rb.Ab.Zb.Bb.T4.+c.O( {8.Eb. c.K3.f  5  k  ^  |  j  y'.                                                                                                                                                                                                                                    ",
"                                                                                                                                                                                                                                          8z Q  Q  ^  ^  5  q% +8 J^./6 p+ p+ m# 6].;) [<.V! I/ ;) %5 {_ G) a' a' a' a' a' a' @c.+7.#c.Rb.$c.Zb.s3.T4.+c.Vb.Ob.l^. c.1}.f  k  {- ^  |  j  %c.                                                                                                                                                                                                                                    ",
"                                                                                                                                                                                                                                          1$.Q  Q  ^  ^  k  q% +8 ~<.T_.p+ p+ -: W].G) V! V! I/ ;) %5 {_ G) a' a' a' a' a' )_ L4 &c.*c.Ib.$c.=9.s3.=c.-c.Vb.#= M^.k] u1.j  k  {- ^$ |  j  v<.                                                                                                                                                                                                                                    ",
"                                                                                                                                                                                                                                          1$.Q  Q  ^  ^  m  q% k>.~<.T_.p+ M+ &@ W].G) V! V! I/ >5 %5 {_ G) G) a' a' a' c' |( v1 ;c.>c.6b.62.P) ,c.h3.'c.O( )c.w! k] C[.j  5  k  ^  2  j   B                                                                                                                                                                                                                                     ",
"                                                                                                                                                                                                                                          1$.Q  Q  Q  ^  5  q% {8 =/.T_.p+ M+ &@ W].0' V! V! [<.>5 ;) {_ G) G) a' a' a' c' |( v1 i8.>c.(0.62.P) 72.h3.!c.O( w! w! c<.7}.|  5  k  d  2  j  i=                                                                                                                                                                                                                                     ",
"                                                                                                                                                                                                                                          ja.Q  Q  Q  ^  f  y7 +8 =/. 1.8/.p+ -: W].0' V! V! [<.>5 I/ {_ M( G) a' a' c' )_ |( v1 i8.~c.(0.62.P) 72.h|.{c.O( Ob.w! Z>.)5.j  5  {- d  2  j  v<.                                                                                                                                                                                                                                    ",
"                                                                                                                                                                                                                                           ).Q  Q  ^  ^  5  q% +8 R_.T_.8/.p+ m# _#.0' V! V! V! I/ c' G) G) G) G) a' c' )_ |( L4 ;c.>c.(0.62.]c.72.h3.J2.^c.>%.w! /c.q-.o  |  k  {- 2  |  %=                                                                                                                                                                                                                                     ",
"                                                                                                                                                                                                                                          ,% Q  Q  ^  ^  d  y  +8 =/.T_.p+ p+ m# _#.0' V! V! V! 0' 0' G) G) G) G) G) c' '_ |( *2 F8.>c.6b.(c.P) Q8.h|.J2.^c.Ob.w! '; q^.j  |  {- {- Q  |  _c.                                                                                                                                                                                                                                    ",
"                                                                                                                                                                                                                                          J7 Q  Q  ^  ^  d  y  +8 =/.T_.p+ p+ -: _#.0' V! V! I/ Z^ 0' G) G) G) G) G) c' '_ |( *2 :c.<c.Ib.(c.[c.62.u( }c.^c.Ob.M^.'; q^.j  d  {- {- d  |  _c.                                                                                                                                                                                                                                    ",
"                                                                                                                                                                                                                                          a-.Q  Q  ^  ^  ^  y  +8 =/.T_.p+ M+ &@ _#.0' V! I/ I/ I/ I/ G) G) G) G) G) c' '_ |( :4 |c.1c.Rb.2c.3c.2c.4c.}c.O( Ob.M^.'; q^.j  d  {- {- d  |  y'.                                                                                                                                                                                                                                    ",
"                                                                                                                                                                                                                                          `'.Q  Q  ^  ^  |  q% +8 C: Rt p+ >6 &@ _#.0' V! Z^ Z^ I/ I/ Z^ G) G) G) c' )_ '_ |( *2 :c.5c.6b.6c.7c.8c.u( {c.Vb.9c.l^.'; q^.j  d  {- {- d  |  %=                                                                                                                                                                                                                                     ",
"                                                                                                                                                                                                                                          `'.Q  Q  Q  ^  ]  7   7 C: s_.2* 2* &@ IN I/ V! Z^ Z^ Z^ V! Z^ G) G) G) c' )_ '_ |( *2 A2.0c.6b.J9.ac.C9.bc.{c.Vb.9c.,; '; {(.j  d  {- {- d  |  y'.                                                                                                                                                                                                                                    ",
"                                                                                                                                                                                                                                          -4 Q  Q  Q  ^  ]  q% +8 =/.s_.2* S5 &@ IN I/ V! Z^ Z^ Z^ V! Z^ G) G) G) c' )_ '_ |( *2 A2.cc.(0.dc.ac.8c.ec.{c.fc.3>.1%.;}.r{ j  5  {- {- d  2  t*                                                                                                                                                                                                                                     ",
"                                                                                                                                                                                                                                          Y4 Q  Q  Q  ^  |  q% +8 C: s_.2* 2* &@ IN I/ <)  { Z^ Z^ V! I/ G) G) G) c' )_ '_ |( *2 A2.gc.(0.hc.ic.C9.bc.J2.fc.3>.,; ;}.qR o  5  {- {- d  2  B'.                                                                                                                                                                                                                                    ",
"                                                                                                                                                                                                                                          2% Q  Q  ^  ^  ]  q% U7.25.r+ >6 2* &@ IN I/ <)  { Z^ Z^ V! I/ 0' G) G) c' )_ '_ |( =3 A2.jc.6b.6c.kc.lc.ec.s2.fc.2>.,; aa.`7.o  5  l- {- ^  2  d<.                                                                                                                                                                                                                                    ",
"                                                                                                                                                                                                                                          [% Q  Q  Q  ^  5  q% k>./1.r+ q+ >6 &@ _#.0' V! Z^ Z^ Z^ V! Z^ I/ G) a' c' )_ '_ |( =3 mc.jc.nc.6c.oc.pc.qc.rc.fc.2>.,; o>.`7.j  d  {- ^  ]  |  sc.                                                                                                                                                                                                                                    ",
"                                                                                                                                                                                                                                          .).Q  Q  Q  d  f  y7 k>./1.b5.>6 >6 &@ _#.0' V! Z^ Z^ Z^ V! Z^ I/ G) a' c' )_ '_ |( =3 mc.tc.nc.uc.oc.pc.^c vc.wc.3>.xc.o>.s%.j  d  {- ]  3  |  $'.                                                                                                                                                                                                                                    ",
"                                                                                                                                                                                                                                          8I Q  Q  Q  5  j  y7 k>./1.b5.>6 >6 -: _#.0' V! Z^ Z^ Z^ V! Z^ I/ G) a' c' )_ '_ |( *2 yc.tc.nc.uc.ac.pc.zc.Ac.wc.=! xc.o>.s%.j  d  {- ^  ]  2  F'.                                                                                                                                                                                                                                    ",
"                                                                                                                                                                                                                                          o% Q  Q  ^  ^  j  q% U7.B: Q. q+ A& -: IN I/ V! Z^ Z^ Z^ V! Z^ 0' G) a' G) '_ '_ |( *1 z=.Bc.Cc.uc.ac.Dc.Ec.Fc.Gc.2>.R^. c.`7.j  5  {- ^$ d  2  F'.                                                                                                                                                                                                                                    ",
"                                                                                                                                                                                                                                          [K Q  Q  ^  ^  k  q% E,.25.(1.q+ A& -: e<.I/ V! Z^ Z^ Z^ V! V! 0' G) a' c' '_ |( |( J,.yc.Hc.Cc.=9.ic.hc.Mq Ic.Gc.-!.^$.Wb.Jc.3  w@ l- {- ^  Q  F'.                                                                                                                                                                                                                                    ",
"                                                                                                                                                                                                                                          [K Q  Q  Q  x& 5  q% k>.W5.~_.q+ A& ]/ e<.I/ V! Z^ Z^ Z^ V! V! 0' G) a' c' '_ r, r, J,.:c.Hc.Kc.J9.7c.8c.+0.Lc.Gc.Y#.]$.Wb.Jc.|  d  {- {- R$ 2  )|.                                                                                                                                                                                                                                    ",
"                                                                                                                                                                                                                                          [K Q  Q  Q  2  4  q% k>.9X 2` A& A& ]/ Q#.I/ V! Z^ Z^ Z^ V! V! 0' G) a' G) '_ r, |( I,.:c.Mc.Kc.U9.Nc.2c.~0.Oc.Pc.Z$.Y#.k] Jc.2  5  k  {- 5  2  f(.                                                                                                                                                                                                                                    ",
"                                                                                                                                                                                                                                          [K Q  2  ]  d  f  q% Qc.9X A& A& A& m: Rc.V! V! Z^ Y^ [( [<.V! 0' G) a' )_ H4 |( |( o2 Sc.Tc.Uc.62.[c.62.~0.Vc.S,.E>.Z$._a.q{ j  d  {- {- d  2  3_.                                                                                                                                                                                                                                    ",
"                                                                                                                                                                                                                                          o% Q  2  3  w@ m  =+ X6 p3.v. SW SW m: d9.@{ @{ H,.Z^ N( V! `^ 0' G) a' )_ '_ )_ |( =3 F8.Wc.Xc.W8.[c.62.~0.Yc.S,.xc.xc.Zc.`c.o  5  {- {- d  Q   d.                                                                                                                                                                                                                                    ",
"                                                                                                                                                                                                                                          rR Q  2  |  5  4  =+ W6 r6 9. 9. SW C@ O$.r' @{ @{ .{ Z^ `^ `^ 0' G) a' c' '_ '_ |( <4 A<..d.+d.$c.=9.Q8.@d.R8.#d.Z#.Y#.,; `c.j  j  k  {- x& Q  3/.                                                                                                                                                                                                                                    ",
"                                                                                                                                                                                                                                          8I Q  2  |  |  c  y7 T# TW E_ E_ $d.m: P$.@{ @{ @{ #_.%d.16.&d.%5 G) a' )_ ]_ ]_ |( *2 ,(.*d.=d.R4.-d.)@.&9.j9.Pc.`#.W#.7@ p%.j  j  5  {- x& Q  ;d.                                                                                                                                                                                                                                    ",
"                                                                                                                                                                                                                                          80 Q  2  |  ^  ]  !$ >d.,d.8. ,].u].'d.A3.@{ s' @{ H,.%d.%5 &d.J4 c' J4 K4 v1 %5 K4 *2 ,(.)d.!d.~d.{d.]d.^d./d.(d._d.:d.z6.<d.j  3  k  {- x& Q  ,=.                                                                                                                                                                                                                                    ",
"                                                                                                                                                                                                                                          $*.Q  2  |  ^  3  7  *N [d.}d.w. w. w;.|d.t} z<.t} u8.u8.-:.^).q= 1d.2d.q= O/.O/.O/.c/.3d.4d.5d.6d.7d.8d.9d.0d.ad.bd.cd.T[ dd.e  _  5  {- x& Q  v$                                                                                                                                                                                                                                     ",
"                                                                                                                                                                                                                                          j5.Q  2  |  3  f  6  ed.fd.gd.@^.hd.]^.a).oP ]4.)Q (^.S8.S8.A&.A&.f0 `c.`c.A&.f0 w%.)Q id.jd.kd.ld.md.nd.od.pd.qd.+|.O6.rd._$ o  l  w@ {- d  Q  sd.                                                                                                                                                                                                                                    ",
"                                                                                                                                                                                                                                          td.Q  2  |  3  3  8  !$ H< !$ =$ !$ !$ 6. l  8  6. 8  9  9  8  8  e  e  8  8  7$ 6$ !$ 6. e  z> A> M< z> 3  3  p  e  l  g  e  g  g  c  {- ^  Q  -).                                                                                                                                                                                                                                    ",
"                                                                                                                                                                                                                                          ;( Q  d  5  5  f  6  !$ H< 6$ 6. !$ !$ 6. 6. 8  8  6  6  6  4  4  4  4  l  6  6  l  l  0> 7  7  8  8  8  8  6  8  t> 3  3  e  g  y  f  5  {- Q  ,=.                                                                                                                                                                                                                                    ",
"                                                                                                                                                                                                                                          vJ Q  x& k  f  4  6  !$ H< 6$ 6. 6. 6. 6. 6. 6. !$ 7  y7 x> !$ 7  7  7  7  7  7  >% l  6  6  6  l  !$ 8  s% m  3  e  6  l  6  g  6  4  ]  {- Q  =*.                                                                                                                                                                                                                                    ",
"                                                                                                                                                                                                                                          td.Q  x& {- d  ]  e  !$ H< 6$ 6. 6. !$ 6. 8  8  !$ !$ y7 x> g  6  g  g  g  !$ !$ g  g  e  e  p  l  !$ 7$ p  p  9  l  l  e  6  g  g  4  ]  {- Q  =*.                                                                                                                                                                                                                                    ",
"                                                                                                                                                                                                                                          G|.Q  Q  ^  ]  z> g  >% ud.a$ -$ >% H< H< >% >% >% 6. H< H< 6. =$ H< H< =$ =$ x  H< !$ p  A> D  y> vd.N< t> t> 8  !$ L< 3  4  6  3  f  ]  {- Q  ,=.                                                                                                                                                                                                                                    ",
"                                                                                                                                                                                                                                          j5.Q  Q  2  |  e  y7 )l wd.xd.yd.zd.6_  8 Ad.R0.Bd.Cd.g&.9%.D&.D&.E&.Dd.Ed.F&.Ht Fd.[,.Gd.Hd.Id.Jd.Kd.Ld.Md.Nd.Od.Pd.dd.Qd.x  e  w@ 5  ]  {- Q  D%                                                                                                                                                                                                                                     ",
"                                                                                                                                                                                                                                          n|.Q  Q  2  |  b  H$ k>.Rd.w: s: X_ F# :@.R7.U} E0.53.6~ 6~ 2a.}4.}4.}4.}4.E0.'%.'%..* Sd.Td.Ud.Vd.Wd.Xd.Yd.Zd.H^ `d. e..e.*7.L< w@ k  ]  {- Q  +e.                                                                                                                                                                                                                                    ",
"                                                                                                                                                                                                                                          n|.Q  Q  2  |  j  z  U7.@e.%* P= >+ 1@ D$.H4 u- u- '_ v- Y2 9- u- 9- u- '_ u- p( u- +- R2.#e.L~ .}.$e.%e.&e.Z5.`:.-2.|1.*e.u1.g  e  f  ]  {- Q  G$                                                                                                                                                                                                                                     ",
"                                                                                                                                                                                                                                          j5.Q  Q  Q  2  4  =+ r_.6+ >+ k= q8.*@ =e.G) )_ c| |( '_ '_ '_ '_ 9- 9- '_ 9- 9- q3 +- k*.-e.;e.X) `+.L+.f=.>e.,e.'e.|1.)e.Q{.y  6  4  ]  {- Q  !e.                                                                                                                                                                                                                                    ",
"                                                                                                                                                                                                                                          )0 Q  2  2  2  5  y  &8 &@ >+ m# a6.A@ w] !_ ,_ '_ '_ '_ '_ '_ '_ 9- 9- 9- 9- 9- 9- +- ~e.{e.:1.$<.]e.L+.f=.z9.g- ^e.;3./e.q_.j  f  f  ^  ]  2  -).                                                                                                                                                                                                                                    ",
"                                                                                                                                                                                                                                          G|.Q  2  Q  2  ]  y  -8 M# >+ m# p+ S@ w] (e.,_ '_ '_ '_ 9- 9- 9- 9- 9- 9- 9- 9- 9- +- _e.:e.<e.[e.}e.J4.C4.B9.g- O<.;3.|e.q_.|  5  ]  ^  ]  2  -).                                                                                                                                                                                                                                    ",
"                                                                                                                                                                                                                                          td.Q  2  Q  Q  ^  y  -8 M# n# 0# Rt S@ 1e.k1 ,_ '_ '_ '_ 9- 9- 9- 9- '_ 9- 9- 9- 9- +- ~e.:e.<e.2e.3e.Z4.C4.4e.FN _).;3.Y>.63.|  5  ]  ^  ]  2  -).                                                                                                                                                                                                                                    ",
"                                                                                                                                                                                                                                          ;( Q  2  Q  Q  ^  y  @% M# n# 0# %@ ^^ 5e.,_ '_ '_ '_ '_ '_ '_ '_ 9- '_ '_ 9- 9- 9- +- ~e.6e.<e.]e.N8.Z4. 9.4e.>- I3.;3.Y>.V:.|  5  ]  ^  |  2  -).                                                                                                                                                                                                                                    ",
"                                                                                                                                                                                                                                          vJ Q  2  Q  x& d  y  z1..` 0# M+ A@ g@ 5e.,_ '_ '_ '_ '_ '_ '_ '_ '_ '_ '_ 9- 9- 9- +- 00.7e.f5._8.W8._8.Z8.8e.g- V<.)3.Fb.63.2  d  ^  ^  2  2  3_.                                                                                                                                                                                                                                    ",
"                                                                                                                                                                                                                                          vJ Q  2  2  d  d  y  m}.:6 %@ M+ A@ ;6 9e.,_ G) G) '_ '_ '_ '_ '_ '_ '_ '_ 9- 9- 9- +- 5'.['.G6.R4.0e.P9.ae.-'.RE )3.be.ce.63.^  {- ^  ^  2  |  g(.                                                                                                                                                                                                                                    ",
"                                                                                                                                                                                                                                          R/.Q  2  Q  d  d  y  m}.:6 (6 M+ M+ g@ de.G) G) G) G) '_ '_ '_ '_ '_ '_ '_ 9- 9- 9- +- ee.['.I8.Q8.Nc.$9.fe.-'.RE W+ W+ ce.63.^  {- ^  ^  2  2  gB                                                                                                                                                                                                                                     ",
"                                                                                                                                                                                                                                          j5.Q  2  Q  Q  ^  y  m}.:6 A@ M+ %@ Q@ W].G) G) G) G) G) '_ '_ '_ '_ '_ '_ '_ 9- 9- +- ge.he.n6.)@.ie.Q8.je.ke.le.me.W+ ce.63.]  {- ^  ^  ]  2  ne.                                                                                                                                                                                                                                    ",
"                                                                                                                                                                                                                                          n|.Q  Q  Q  Q  ^  o  J1.+:.W_.p+ %@ g@ W].G) G) G) G) G) '_ '_ '_ '_ '_ '_ 9- 9- 9- z| ge.oe.I8.pe.qe.62.~0.re.t/.be.be.ce.f[.|  5  k  ^  2  Q  se.                                                                                                                                                                                                                                    ",
"                                                                                                                                                                                                                                          {;.Q  Q  Q  Q  ^  y  J1.+:.W_.M- [@ a# W].G) G) G) G) G) G) '_ '_ '_ '_ '_ '_ '_ '_ +- ~2 :e.I8.pe.{) 62.i=.re.te.W+ 2_.ce.1}.j  2  d  d  2  Q  <<.                                                                                                                                                                                                                                    ",
"                                                                                                                                                                                                                                          C< Q  Q  Q  Q  ^  y  ,:.=/.}:.T_.[@ a# 6].G) G) G) G) G) G) G) '_ '_ '_ '_ '_ '_ '_ u- k*.ue.$5.pe.ve.(c.i=.we.te.W+ Z>.ce.1}.j  2  d  d  2  Q  $'.                                                                                                                                                                                                                                    ",
"                                                                                                                                                                                                                                          PK Q  Q  Q  Q  ^  y  ,:.=/.}:.T_.[@ a# xe.G) G) G) G) G) G) G) '_ '_ '_ '_ '_ '_ '_ |( u!.ye.m9.pe.qe.ze.~0.Lc.Ae.W+ Be.Ce.q_.j  ^  {- d  2  2  a<.                                                                                                                                                                                                                                    ",
"                                                                                                                                                                                                                                          [K Q  Q  Q  Q  ^  6  ,:.J^.W_.(6 [@ a# 6].G) G) G) G) G) G) G) '_ '_ '_ '_ '_ '_ '_ |( u!.De.G6.%<.qe.pe.~0.Lc.ad.o3.Wa.ce.q_.j  d  {- d  ]  2  B'.                                                                                                                                                                                                                                    ",
"                                                                                                                                                                                                                                          %;.Q  Q  Q  Q  ^  6  ,:.+:.-/.A@ [@ a# W].G) G) G) G) G) G) G) '_ '_ '_ '_ '_ '_ '_ |( u!.De.G6.%<.ie.%<.je.Lc.Ee./3.Wa.Fe.u1.j  w@ {- ^  2  2  A'.                                                                                                                                                                                                                                    ",
"                                                                                                                                                                                                                                          D2.Q  Q  Q  Q  ^  6  ,:.J^.(6 A@ [@ a# W].G) G) G) G) G) G) G) '_ '_ '_ '_ '_ '_ '_ c| k*.{|.$5.%<.ie.N8.Z8.W,.t/./3.o3.Fe.u1.j  w@ {- ^$ 2  2  e4.                                                                                                                                                                                                                                    ",
"                                                                                                                                                                                                                                          8I Q  Q  Q  Q  ^  6  .8 J^.-/.A@ [@ a# W].G) G) G) G) G) G) G) '_ '_ '_ '_ '_ '_ '_ c| k*.Ge.$5.He.ie.R4.Z8.Ie.t/.h- ~@ Fe.1}.|  5  k  ^  2  2  Je.                                                                                                                                                                                                                                    ",
"                                                                                                                                                                                                                                          9~ Q  Q  Q  Q  ]  y  g'.N# A@ A@ 0# a# _#.c' G) G) G) G) G) '_ '_ '_ '_ '_ 9- 9- 9- u- u!.Ke.y9.-d.Le.P8.V8.Me.Ne._d.H- Fb.32.j  |  ]  ^  2  2  B'.                                                                                                                                                                                                                                    ",
"                                                                                                                                                                                                                                          P: Q  Q  2  ]  3  q% U7..` A@ a: |@ a# _#.c' a' G) G) G) G) '_ '_ '_ '_ '_ 9- 9- 9- u- u!.Oe.y9.Q8.P) 72.@d.Me.Ee.Pe.M^.Wb.92.j  |  ]  ^  2  2  d<.                                                                                                                                                                                                                                    ",
"                                                                                                                                                                                                                                          G4.Q  |  |  |  b  y7 U7.I# a: a: A@ 1@ _#.c' a' G) G) G) G) '_ '_ '_ '_ 9- 9- 9- 9- u- 00.Qe.Re.Q8.P) ,c.Se.Me.3d.9c.l^.Te.92.j  |  ]  ^  2  2  a<.                                                                                                                                                                                                                                    ",
"                                                                                                                                                                                                                                          P: Q  |  |  2  1  y7 V7 ## A@ M- |@ 1@ _#.c' a' G) G) G) G) '_ '_ '_ 9- 9- 9- 9- 9- c| 00.Qe.ae.62.[c.C9.i=.Me.(d.9c.3>.Ue.92.|  Q  ^  Q  2  |  $'.                                                                                                                                                                                                                                    ",
"                                                                                                                                                                                                                                          8I Q  Q  Q  Q  ]  q% W7 .` A@ 0# |@ J# _#.c' a' G) G) '_ '_ '_ '_ 9- 9- 9- 9- `2 9- c| Ve.We.K9.62.[c.=9.Xe.Ye.Ze.2>.1%.`e.E_.|  Q  Q  ^  2  2  F'.                                                                                                                                                                                                                                    ",
"                                                                                                                                                                                                                                          o% Q  Q  Q  Q  ]  q% X7 N# A@ A@ |@ 1@ _#.c' a' G) G) '_ '_ '_ '_ 9- 9- 9- 9- `2 `2 &1 Ve.We.K9.62.[c.=9.Xe. f.te.H- -!.,}.E_.|  Q  ^  ^  |  2  F'.                                                                                                                                                                                                                                    ",
"                                                                                                                                                                                                                                          $  Q  Q  Q  Q  |  q% E,.:6 A@ A@ |@ c# _#.c' a' G) G) '_ '_ '_ '_ 9- 9- 9- `2 `2 `2 F4 `a.We.K9.dc.7c.=9.Xe. f.Ze.0).1>..f.E_.j  |  2  Q  2  Q  )|.                                                                                                                                                                                                                                    ",
"                                                                                                                                                                                                                                          80 Q  |  |  |  j  q% E,.z@ M- a: 0# c# _#.c' a' G) G) '_ '_ '_ '_ 9- 9- 9- `2 `2 `2 '3.`a.We.K9.8c.uc.62.Xe.+f.@f.Zc.-}.Ue.lb.j  |  ^  Q  |  2  )_.                                                                                                                                                                                                                                    ",
"                                                                                                                                                                                                                                          2: Q  Q  Q  Q  j  q% E,.#f.a: [@ M+ b# W].c' )_ '_ '_ '_ '_ '_ 9- 9- 9- 9- `2 `2 `2 F4 $f.%f.je.8c.kc.&f.~0.we.*f.=! B).=f.-f.o  j  ^  ^  2  2  v$                                                                                                                                                                                                                                     ",
"                                                                                                                                                                                                                                          {;.Q  2  2  2  3  q% E,.$@ -/.[@ M+ b# W].c' c' '_ '_ '_ '_ '_ 9- 9- 9- `2 `2 `2 `2 55 ;f.>f.,f.2c.>0.:0.'f.we.Ae.)f.)f.=f.!f.b  |  2  ^  2  2  ,=.                                                                                                                                                                                                                                    ",
"                                                                                                                                                                                                                                          {;.Q  |  |  |  1  q% S7 $@ M- n# o# 1@ 6].)_ )_ '_ '_ '_ '_ '_ 9- 9- 9- `2 `2 `2 `2 25 ~f.{f.fe.Zb.uc.na.(0.we.ad.]f.xc..f.92.b  2  d  x& 2  2  ^f.                                                                                                                                                                                                                                    ",
"                                                                                                                                                                                                                                          {;.Q  |  |  2  1  q% U# u2.M- n# n# f@ 6].)_ )_ '_ '_ '_ '_ '_ 9- 9- 9- `2 `2 `2 `2 25 ~f./f.ae.Zb.ic.V9.Mq we.Ae.3>.6:.84.q1.e  2  {- ^  |  Q  YS                                                                                                                                                                                                                                     ",
"                                                                                                                                                                                                                                          $*.Q  Q  Q  Q  ]  q% &&.*@ }@ n# n# c# 6].'_ c| '_ '_ '_ |( '_ 9- 9- 9- `2 `2 `2 j@ =5 q4.(f.je.,0._f.2c.(0.Me.ad.~@ 0).Fe.:f.f  d  ^$ ^  |  2  <f.                                                                                                                                                                                                                                    ",
"                                                                                                                                                                                                                                          $*.Q  Q  Q  Q  ]  q% &&.*@ p# n# n# f@ _#.)_ )_ '_ '_ |( |( c| 9- 9- 9- `2 `2 j@ j@ m4.q4.[f.y9.Bb.$9.q) Z8.B9.wc.M^.Y#.}f.:f.4  5  ^$ ^  |  2  [).                                                                                                                                                                                                                                    ",
"                                                                                                                                                                                                                                          C< Q  Q  Q  x& k  q% &&.-: p# p+ m# c# W].c| )_ '_ '_ |( |( c| '_ '_ 9- 9- `2 j@ j@ L$.q4.|f.1f.W9.2f.Re.4^.-1.3f.$0.4f.5f.6f.j  3  ]  ^  |  Q  <f.                                                                                                                                                                                                                                    ",
"                                                                                                                                                                                                                                          %;.Q  |  |  5  k  q% za.-: 7f.p+ m# ]; xR T+ T+ T+ :6.:6.:6.A;.A;.A;.S;.F$.Q$.8$.7$.8f.I=.4).9f.0f.af.bf.cf.df.ef.ff.gf.r7.lO b  b  R$ ^  ]  2  hf.                                                                                                                                                                                                                                    ",
"                                                                                                                                                                                                                                          F< Q  Q  2  |  ]  q% )> -: P7.n# M+ -: ,: ': ': ): ): ): ): R. R. R. S5 S5 S5 S5 ': -: v6 if.jf.kf.lf.mf.nf.of.pf.J5 qf.rf.]4.o  f  {- ^$ k  Q  )/                                                                                                                                                                                                                                     ",
"                                                                                                                                                                                                                                          G4.Q  Q  Q  2  3  q% T6 &@ x# o# o# ]; b# b# ]; ': ': ': ': ,: P= P= P= P= P= P= o# R@ Q= o# 9: H# Q; F: T/.!: d: N5 w_  >.lO j  m  {- ^$ ]  Q  sf.                                                                                                                                                                                                                                    ",
"                                                                                                                                                                                                                                          [% Q  |  |  |  3  z  U6 &@ tf.uf.H|.uf.o# o# o# ,: ,: P= P= P= P= P= P= P= P= P= o# o# n# n# 0# |@ o# ,: k= ,: ): D& :: v;.!,.c  3  f  k  5  Q  ^i                                                                                                                                                                                                                                     ",
"                                                                                                                                                                                                                                          J< Q  Q  2  |  f  =+ U6 &= o# ]; ]; H|.o# o# o# o# o# o# ,: P= ,: ,: S5 2* ,: ,: m# ]; m# M+ *@ *@ 0# ]; ;: Q= l: ): :: vf.wf.l  o  o  5  5  2  xf.                                                                                                                                                                                                                                    ",
"                                                                                                                                                                                                                                          =x Q  2  2  |  3  !$ O6 [;.s: u6 y6 v6 v6 v6 v6 v6 t6 t6 t6 t6 u6 x: x: x: x: x: u6 a6 z6 z6 z6 z6 q: v6 :; D5 D5 m: H: o6 v&.!$ g  6  4  3  2  )/                                                                                                                                                                                                                                     ",
"                                                                                                                                                                                                                        ,                 [8 2  |  ]  e  6  g  q1.yf.%7 %7 )% %7 #_ #_ #_ 67 67 67 67 67 47 47 47 47 47 47 47 57 57 47 47 >8 %8 &8  7 I8 zf.V7 ,8 Af.c_ 7  6  4  p  f  |  Bf.Cf.>  Df.sf.Gb.^f.                                                                                                                                                                                                                  ",
"                                                                                                                                                                                                                        r. }  {  b/ Ef.u.._  |  |  ]  3  f  f  !$ 7  7  z  >% !$ =$ =$ =$ =$ =$ =$ =$ =$ =$ =$ =$ =$ =$ =$ =$ =$ =$ ;. 0> ;. ;. =$ =$ H$ H$ H$ ;. ;. 6. x> 6  3  3  3  3  3  |  |  3  |  |  Ff.                                                                                                                                                                                                                  ",
"                                                                                                                                                                                                                        n% |  |  |  |  3  o  c  3  3  e  g  o  y  l  8  6  e  f  f  p  f  f  f  f  f  4  p  p  p  p  p  p  p  s% c$ 8  p  p  p  p  l  l  l  p  p  p  _  l  6  f  f  f  f  3  3  3  3  3  |  $>                                                                                                                                                                                                                   ",
"                                                                                                                                                                                                                        G^ |  Q  2  |  |  |  |  3  4  4  3  6  7  g  4  f  f  6  6  6  6  4  f  f  f  4  6  6  6  4  f  f  f  f  3  e  g  l  l  l  l  3  3  3  e  g  e  c  g  4  m  k  {- d  1  c  f  j  2  Gf.                                                                                                                                                                                                                  ",
"                                                                                                                                                                                                                        Hf.5  d  |  |  |  |  |  f  6  6  8  6. 6  4  c$ c$ 6  6  6  6  6  6  6  6  6  6  6  6  6  6  6  6  6  3  3  3  3  f  e  e  f  3  c  g  e  3  3  c  c  4  6  f  f  |  |  ]  3  e  Q  D).                                                                                                                                                                                                                  ",
"                                                                                                                                                                                                                        Hf.j  d  2  2  |  |  2  5  f  f  p  !$ g  4  f  6  6  c  3  3  3  3  3  3  3  e  c  3  3  3  e  e  3  3  ]  3  3  3  ]  3  R$ 3  3  l  z> 3  3  3  3  c  e  ]  5  4  4  5  3  b  Q  5&                                                                                                                                                                                                                   ",
"                                                                                                                                                                                                                        .{.o  o  o  y  q% y  o  g  x> !$ 7  e  A> A> D  C  A> A> H  H  H  H  H  H  H  A> A> H  H  H  A> A> K< K< [0 [0 [0 D  H  G  [0 [0 G  D  I  D  H  D  I% A> A> H  H  ]  6  6  g  e  2  4!.                                                                                                                                                                                                                  ",
"                                                                                                                                                                                                   If.Ff.TI !J Jf.h% Kf.a, Lf.Mf.e^.yf.V% Nf.Of.Pf.M6 Qf.Rf.Sf.Tf.Uf.Uf.Vf.Vf.Vf.Wf.Wf.Xf.Wf.Wf.Wf.Yf.Zf.`f. g. g..g..g..g.+g.@g.@g.#g.#g..g..g.$g.%g.%g.%g.&g.*g.=g.-g.-g.;g.;g.>g.,g.'g.)g.!g.+|.S8.^-.<d.~g.{g.b> k> ]g.^g./g.UB                                                                                                                                                                                              ",
"                                                                                                                                                                                                      2  2  Q  Q  2  j  x%.(g.C0._g.C0.$O :g.<g.<g.[g.<g.}g.|g.1g.2g.3g.4g.5g.6g.7g.7g.7g.8g.8g.8g.9g.0g.ag.bg.cg.cg.cg.cg.cg.dg.eg.dg.dg.fg.bg.gg.hg.ig.jg.jg.kg.ag.lg.mg.mg.ng.og.pg.qg.rg.sg.tg.ug.4[ .f.vg.6  c  3  3  ]  Q  D+.                                                                                                                                                                                             ",
"                                                                                                                                                                                                      lC 2  2  2  2  j  wg.a6 ,: xg.R. yg.zg.Ag.Ag.zg.l@.p7.Bg.Cg.J/./) m) X) j:.$<.$<.$<.$<.$<.h| K+.h| j:.j:.j:.j| j| j| )1 :_.I5.'1 '1 k| :_.:_.d1.d1.Dg./1 :_.$<.g8.R4.+9.s3.C9.Eg.Fg.Gg.8[ Hg.Ig.Jg.Kg.Lg.7  e  3  ^  ^  Q  Mg.                                                                                                                                                                                             ",
"                                                                                                                                                                                                      Ng.1  2  2  2  j  c0 9: ,: ,: P= Og.Pg.<( ao Qg.5e.Rg.Sg.}{.`* !) Tg.He.Ug.Ug.Y:.Y:.He.Y:.%<.He.Y:.'@.%<.%<.%<.%<.Y:.Vg.Vg.Vg.8) 8) Wg.9| 9| i) :=.i) <=.Y:.Vg.Xg.Yg.Nc.7c./|.Zg.`g. h..h.+h.@h.%@.Ig.#h.7  6  f  5  |  Q  $h.                                                                                                                                                                                             ",
"                                                                                                                                                                                                      Ng.|  |  |  3  g  c0 7` b# b# &@ [O <( <( %h.&h.Ag.1=.*h._2 /1 <=.O+.g| g| O+.O+.O+.g| ,1 g| ,1 y8.h| h| g| ,1 ,1 ,1 g| g| O+.a) b) c) d) =h.b) F= e) b) Y+.<=.h<.pe.]c.3|.-h.;h.>h.,h.'h.)h.(h (@.!h.~h.y7 y  o  o  1  Q  {h.                                                                                                                                                                                             ",
"                                                                                                                                                                                                      Ng.|  |  |  3  y  ]h.^h.^; J# &@ [O .( .( {R /h.(h.&=.I3 H2 m1._h.{2.:h._6.W1.W1.W1.95.f5.g5.m1.m1.m1.m1.y5.g5.!5.i! i! _6.k+.<h.<h.<h.[h.g! }h._6.g! l! _6._6.|h.*_.6c.1h.1h.2h.>h.3h.'h.4h.|# 5h.6h.7h.>% g  o  y  j  Q  8h.                                                                                                                                                                                             ",
"                                                                                                                                                                                                      9h.|  |  1  b  o  0h.}^.q; p; s# C@ u_ ah.tN uN (Q uP bh.ch.dh.|} 0} 0} bf.eh.fh.gh.hh.ih.[@.<b.z_.jh.jh.kh.kh.lh.mh.nh.oh.ph.qh.rh.af.a} 0} bf.sh.th.9} 7} uh.vh.wh.q) 2h.xh./|.yh.zh.Ah.Bh.Ch.,k Dh.Eh.>% 6  4  4  j  2  Fh.                                                                                                                                                                                             ",
"                                                                                                                                                                                                      Gh.|  |  1  b  o  0h.m-.E; F; F; F; H; s# Hh.}# }# Ih.Jh.Kh.Lh.Mh.Nh.Oh.z).Ph.Ph.Ph.Ph.Ph.Qh.Rh.Rh.Rh.Rh.Rh.Sh.Th.Uh.Vh.Wh.5^.*f.Gc.Ze.Ze.Ze.Xh.Yh.wc.Zh.}&.`h. i..i.+i.@i.#i.$i.%i.&i.*i.=i.-i.xR ;i.>i.y7 6  4  4  f  2  ,i.                                                                                                                                                                                             ",
"                                                                                                                                                                                                      'i.|  |  |  |  y  0h.Kc {5 F; F; F; H; s# Hh.tN }# )i.!i.~i.A3.{i.->.->.->.;>.;>.;>.;>.]i.]i.]i.^i./i.(i._i.]i.&).&).t0.m$.z0.f$.q$.e$.s'.s'.s'.&).s'.A0.z0.F0.Q^.:i.<i.2h.[i.}i.|i.1i.2i.3i.4i.5i.5] 6i.y7 e  f  4  o  2  7i.                                                                                                                                                                                             ",
"                                                                                                                                                                                                      'i.|  |  |  |  y  0h.b&.[g F; F; F; H; s# HN tN 8i.eO 9i.0i.0$.ai.bi.bi.{>.b$.b$.Q;.Q;.Q;..; c$.ci.di.ci.c$..; Q;.Q;.'@ #>.#>.'@ ei.q$.fi.75 +; +; A;.+; c$.&).gi.hi.ii./|.ji.#i.|i.ki.li.3i.mi.ni.oi.pi.y7 e  3  4  o  |  qi.                                                                                                                                                                                             ",
"                                                                                                                                                                                                      'i.|  f  f  3  g  ]7 b&.{5 x-.D! H; H; s# ri.si.ti.7r ui.vi.&>.wi.b$.Z- Z- b$.b$.b$.b$.Q;.Q;..; xi.yi.Q;.b$.Q;.Q;.zi.Ai.~|.D@ Q;.D@ '@ '@ ~|.~|.O;.D@ yi.Bi.&).Ci.Di.]m q2.Ei.,0.Fi.Gi.Hi.Ii.h;.f;.Ji.Ki.y7 4  f  4  g  |  7/.                                                                                                                                                                                             ",
"                                                                                                                                                                                                      'i.|  f  f  p  7  ]7 a9 E4 x-.D! H; H; a; Li.Mi.Ni.hX [O Oi.Pi.,N uN .( 9e.Qi.Qi.Qi.Ri.Si.Ti.Ti.Ti.Si.Ui.Ti.Ui.Ui.Ui.Vi.Wi.Xi. b.Yi.=e.=e.Zi.Zi.5$.D$.`i.`i.d9. j..j.+j.@j.#j.$j.%j.&j.f'.a^ i;.k;.*j.o}.y7 e  k  4  c  |  =j.                                                                                                                                                                                             ",
"                                                                                                                                                                                                      lC 5  4  4  e  x> -j.;j.>j.,j.Y; H; o; C; C; C; C; a; r; p; p; A>.#) r; r; b; b; b; b; b; b; b; a; r; b; j; 'j.)j.!j.!j.~j.a; a; a; a; b; a; s# b; L-.{j.z# s# ]j.^j./j.(j._j.:j.<j.[j.}j.qf.|j.1j.2j.V% >% e  f  f  k  2  g%                                                                                                                                                                                              ",
"                                                                                                                                                                                                      )[ e  6  6  e  7  0h.a9 D! Y; E; F; F; A>.#) r; a; r; q; r; r; p; p; r; p; p; p; p; p; p; p; p; p; r; a; o; o; o; o; o; h@ h@ h@ h@ p; p; p; p; T; q; q; r; r; T; 3j.4j.5j.6j.7j.8j.9j.:; L# &@ Y_ vR }7 H< e  4  p  f  |  b+.                                                                                                                                                                                             ",
"                                                                                                                                                                                                      n  e  6  6  g  =+ )7 <6 E; `5 C! V~ F; F; F; H; #) r; o; o; o; o; q; p; p; r; p; r; p; r; p; r; q; q; r; o; o; h@ h@ p; r; o; o; o; o; A>.I; F; A! F; D; Y; H; G; `5 `5 p; T; b; )4 a# H|.b# L# ~4 vR 0j.I< p  {- m  m  2  g%                                                                                                                                                                                              ",
"                                                                                                                                                                                                      L< g  4  4  g  =+ ^7 '6 U; E; F; Y; D! v-.U; U; E; F; q; F; G; `5 I; I; I; F; F; F; F; F; F; F; F; r; F; o; r; o; o; H; F; F; F; F; F; F; F; F; A! A! F; I; I; V~ C! ~).I; p; aj.^; f@ f@ a# K# &@ bj._7 g  3  {- s% 4  |  N;                                                                                                                                                                                              ",
"                                                                                                                                                                                                   b,.Q  f  f  3  e  =+ e0 {6 Q^ )h )h )h )h k-..> )h Q^ -6 -6 $) $) D! H; E; K; K; K; K; K; K; K; K; [g *6 W; W; E; U; E; E; E; E; Q^ Q^ Q^ )h Q^ Q^ Q^ Q^ {5 v; Q^ Q^ Q^ D! H; F; T; p; S; s# cj.dj.d6 m6 <7 !$ 4  s% 8  6  |  M;.                                                                                                                                                                                             ",
"                                                                                                                                                                                                   M` Q  6  f  f  l  =+ ej.!% ~% X0.X0.X0.fj.fj.k8 X0.r=.gj.k8 hj.hj.k8 g8 g8 l8 |^.|^.|^.|^.|^.|^.|^.|^.|^.ij.ij.jj.f&.kj.lj.B8 B8 f9 f9 B8 l8 l8 X0.l8 g8 g8 X0.r=.ij.mj.nj.0] +< +< +< +< +< W% &< &< V: 5_ 7  c$ c$ 6. 7  j  %;.                                                                                                                                                                                             ",
"                                                                                                                                                                              oj.pj.qj.y& 3/.,=.rj.sj.2  7  6. c$ 6  =+ ,$ tj.@) @) @) F% A; R9 o< o< o< R9 A; N= A; A; A; A; N= ;. ;. ;. ;. ;. ;. ;. N= d@ N= A; ;$ ;$ ;$ >$ @) h, >$ @) @) >$ >$ >$ 3| @) >$ 9> V9 >$ V9 R9 h, h, V9 V9 o< o< g( o< 9> V9 =$ l  4  p  p  4  4  2-.-).uj.vj.wj.f( xj.b).J-.                                                                                                                                                                     ",
"                                                                                                                                                                              yj.Q  3  |  j  3  f  6  g  6  6. c$ 4  l  !$ 6$ l  g  g  g  l  4  e  e  l  6  e  3  l  l  e  4  4  f  3  f  f  f  3  3  3  j  3  e  4  4  6  4  6  6  6  6  4  l  c  g  l  6  6  4  3  5  f  4  6  6  4  f  e  !$ g  g  w@ w@ 3  e  p  9  p  f  6  6  l  6. 7$ 6. 6. 6. Q  a<.                                                                                                                                                                     ",
"                                                                                                                                                                              6' Q  |  o  o  o  6  4  4  6  6  6  6  6  c$ 6  6  4  6  6  6  6  6  6  6  6  6  6  g  e  g  g  c  o  o  o  o  o  l  c  c  j  4  g  g  g  y  y  g  g  g  g  g  g  y  y  o  f  j  j  o  o  g  y  y  y  6  y  g  x> x> x> g  4  4  4  p  p  8  g  g  y  4  6  l  6$ 6$ !$ Q  B'.                                                                                                                                                                     ",
"                                                                                                                                                                              ;( Q  |  |  |  f  6  6  6  6  6  7  7  7  7  7  7  7  7  7  7  7  7  7  7  7  x> 7  g  g  x> x> g  g  g  g  g  g  g  g  g  g  g  x> x> x> x> x> !$ 6  6  6  6  6  6  6  6  6  6  7  6  6  7  7  7  7  7  7  7  x> x> 7  q% x> 6  g  g  6. !$ x> g  6  f  f  p  L< !$ 7  Q  A'.                                                                                                                                                                     ",
"                                                                                                                                                                              {;.Q  |  1  f  4  6  6  6  6  6  6  6  6  6  6  6  6  6  6  6  6  6  6  6  6  6  4  g  4  g  6  g  4  4  4  4  e  l  o  3  3  c  g  g  c  c  o  4  6  6  6  6  6  g  g  e  3  3  c  c  c  c  y  g  g  6  g  6  g  6  6  g  6  6  6  6  8  6  g  g  x> 4  6  4  6  =$ 6  Q  Je.                                                                                                                                                                     ",
"                                                                                                                                                                              [K Q  o  g  6  l  3  e  g  6  7  6  g  x> x> x> x> x> g  g  g  g  g  e  e  6  6  6  g  6  g  4  e  4  4  4  e  4  e  4  3  5  3  4  e  4  e  e  e  e  e  e  e  e  e  e  e  p  4  6  6  6  6  6  e  3  4  e  4  e  e  c  l  8  8  8  8  8  8  e  c  6$ g  x> l  f  8  6  Q  1*                                                                                                                                                                      ",
"                                                                                                                                                                              %;.Q  o  g  y  6  l  6. >$ @) G( @) Nw Nw Nw Nw zj.zj.Nw Nw Nw @) @) 3| >$ Nw >$ A; O; ;$ ,$ ,$ ;$ A; A; ;$ ;$ ;$ o< ;$ >$ @) >$ @) @) @) @) @) @) h, h, h, h, h, h, h, @) 3| 3| @) 3| 3| Aj.Aj.R< R< h, @) h, >$ g( g( R< g( g( tj.@) h, h, >$ @) >$ %> x> 6  7  7  7  Q  $'.                                                                                                                                                                     ",
"                                                                                                                                                                              8I Q  o  3  6  l  >% )7 ]# Bj.:> Cj.Z# Cj.Cj.Cj.Cj.Cj.Cj.Cj.Cj.-> @$ @$ @$ @$ -> Dj.Dj.Ej.Fj.Dj.Fj.Ej.Ej.Fj.+$ +$ +$ :{ +$ Gj.@$ @$ @$ -> -> -> Fj.Fj.Fj.Fj.@$ @$ @$ @$ Hj.Hj.Hj.Hj.Fj.+$ @$ Ij.Ij.Ij.#$ #$ Jj.Kj.Lj.Mj.Vc Vc Nj.]w 2g Oj.Pj.Qj.Y0.Rj.(S =$ 7  7  7  x> Q  se.                                                                                                                                                                     ",
"                                                                                                                                                                              G4.Q  o  s% 4  !$ >% 67 /&.-% -% +9 +9 +9 +9 +9 +9 +9 +9 +9 +9 +9 +9 -% -% -% -% P$ Sj.Sj.Sj.Sj.Sj.Sj.Sj.Sj.Sj.Sj.L8 P$ Tj.c*.Tj.Uj.Vj.Vj.Wj.Wj.Vj.Xj.Xj.Xj.+9 +9 +9 +9 Sj.Yj.Zj.Zj.`j. k. k. k. k. k.Vj.-% Sj..k.+k.@k. >  > #k.Le Le #k.X; W; W; O# $k.-$ !$ 6. 6. l  Q  )_.                                                                                                                                                                     ",
"                                                                                                                                                                              @@.Q  6  8  8  l  =+ %% 98 Yj.Yj.Yj.%k.&k.*k.=k.-k.%k.%k.%k.%k.%k.%k.%k.Yj.Yj.Yj.Yj..% Yj.Yj.%k..% .% .% .% Yj..% Yj..% %k.;k.Tj.`j.`j.`j.+9 +9 Zj.%k.%k.%k.%k.%k.%k.%k.%k.-k.%k.-k.%k.>k.%k.%k.Zj.`j.+9 L8 O$ fX U; U; E; Y; `; >j.,k.'k.'k.U; )k.!k.~,.%> 6$ !$ 6. e  Q  v$                                                                                                                                                                      ",
"                                                                                                                                                                              G4.Q  g  g  !$ 6  >% ~k.H8 Tj.Tj.{k.]k.^k.&k.*k.&k./k.(k.Zj.Zj.Zj.Zj.Zj.Zj.%k.%k.%k.%k.{k.{k.Yj.%k.Zj.Zj.Zj.Zj.Zj.Zj.Zj.Zj.`j.`j.`j. k. k. k. k._k._k.:k.:k.{k.{k.{k.+9 `j.`j.`j.Xj.Zj.Wj._k./k.:k.`j.Sj.{k.K8 <k.`; E; E4 E4 E4 E4 E4 Q^ E; E; [k.!k.$&.%> I< 7  7  l  Q  =*.                                                                                                                                                                     ",
"                                                                                                                                                                              G< Q  g  g  6. 6  q% [7 g8 D$ }k./% /% P8 P8 P8 |k.1k.2k.2k.2k.2k.2k.2k.3k.4k.]% 5k.5k.}k.g8 ]% Q8 6k.6k.6k.6k.D$ D$ D$ D$ /% /% /% i8 7k.7k.7k.8k.8k.8k.9k.0k.Q8 D$ D$ D$ D$ ak.ak.6k.bk.i8 6k.6k.6k.h( D$ ck.dk.Me @6 ek.d9 d9 t# t# t# {/ W: fk.gk.$N a$ H< 7  z  7  Q  A/.                                                                                                                                                                     ",
"                                                                                                                                                                              @@.Q  c  c  p  l  g  V$.~7 wg.wg.hk.]h.]h.hk.ik.jk.jk.kk.lk.kk.lk.yd.mk.mk.p^.6_ kk.yd.mk.p^.6_ nk.nk.lk.lk.ok.ok.pk.pk.pk.pk.A*.A*.A*.A*.A*.A*.A*.qk.qk.&_ rk.sk.tk.tk.~k.*7 uk.vk.J> _% _% wk.A*.wk.<7 xk.yk.xk.zk.Ak.zk.zk.zk.zk./7 zd.zd.^7 zk.Bk.Ck.>% g  6$ 6$ x> Q  Dk.                                                                                                                                                                     ",
"                                                                                                                                                                              [% Q  3  3  p  6  6$ 6$ >% %> >% y7 >% >% >% >% >% >% y7 q% >% >% >% >% !$ 7  y7 y7 =+ =+ 7  x> q% 7  7  7  7  7  7  7  7  7  7  7  7  7  7  7  7  7  7  =+ d@ d@ N= -$ -$ =$ =$ =$ =$ =$ =$ -$ -$ -$ =$ =$ ;. =$ 6. =$ =$ -$ -$ -$ =$ =$ =$ >% =$ H$ C7 H< g  6$ 6$ l  Q  Dk.                                                                                                                                                                     ",
"                                                                                                                                                                              [% Q  3  g  6. 7  6$ 6$ 6$ 8  6. 6. 8  6. 6. 6. 6. =$ 6. 7  6. 6. =$ 6  6. 6$ 6$ 6$ 6. !$ g  g  g  6  6  6  6  6  6  6  6  6  6  4  4  4  4  4  4  6  6  6  6  o  7  6. 8  l  L< l  l  !$ 6. 7$ 7$ 6. 6. 6$ 6. t$ 6. 6$ 6$ 6. 6. 6. 6. 6. 6. 6$ 6. =$ H< 6$ 6. p  p  p  Q  Dk.                                                                                                                                                                     ",
"                                                                                                                                                                              4% Q  3  f  p  6  6$ 6$ 6$ 8  6. 6. 6. 6. 6. p  8  6. 6. 6. 6. 6. 6. 6. 6. 6. 6$ 6. 6. 6. 6$ g  g  6  6  6  6  6  6  6  y  o  o  o  o  g  g  c  3  4  6  6  6  6  6  4  f  l  e  e  p  p  8  9  9  6. 6. 6. 6. =$ 6. 6$ 6$ 6$ 6$ 6. 8  p  p  yn b$ 6. 6. 8  p  p  p  p  Q  ,=.                                                                                                                                                                     ",
"                                                                                                                                                                              O< Q  e  4  p  e  9  6. H< 6$ 6. p  p  8  6. 6. 6$ 6. 6. 6. 6. 6. 6. 6. 6. 6. 6$ 6. 6. 8  e  g  g  g  g  6  6  6  6  g  c  3  |  |  |  |  |  |  |  j  4  6  6  6  6  6  6  g  g  g  g  !$ 6. x  H< H< 6$ 6. 6. 6. 6$ 6. 6. 6. 6. 6. 6. 6. 8  8  6. 6$ 6$ !$ 8  8  6. g  Q  3/.                                                                                                                                                                     ",
"                                                                                                                                                                              9[.Q  g  6  6. g  !$ =$ a$ =$ =$ =$ ;. 0> 6. 6. 6. 6. 6. 6. =$ !$ 6. 6. !$ 6$ 6. ;. 6. 6. 6$ !$ 7  6  6  6  6  6  6  6  l  e  e  e  e  e  c  c  c  c  c  g  g  g  e  e  6$ 6$ H< 6$ H< =$ 6. =$ =$ H< H< =$ =$ 6. 6. 6$ 7$ =$ 6. 6. =$ =$ =$ =$ 6. 6$ Ek.H< 6. 6. 6  6  Q  [).                                                                                                                                                                     ",
"                                                                                                                                                                              D7 Q  c  6  !$ 7  !$ 3| u# 9y 9y 9y 9y 9y 9y %$ %$ %$ Fk.Fk.9y 5H ;$ =$ ;. 6. =$ 6. 7$ Gk.q=.Hk.6^.U: x;.Ik.Ik.f: f: f: ,[ T< Ue Ue i7.i7.i7.i7.Ue T< ,[ ,[ c_ Ik.Ik.Ik.Jk.]8 AL x;.L;.V< !$ !$ 6$ H< H< C7 5H Kk.Lk.Kk.Mk.f: Nk.Ok.#4.$4.$: $: $: N7 ud.j^ 6  p  p  3  Q  Pk.                                                                                                                                                                     ",
"                                                                                                                                                                              O< Q  3  f  e  6  H$ Qk.YV Rk.Sk.Vc Sk.B; Sk.Vc Tk.Uk.C) Vk.hj.Wk.Xk.!$ 8  6. 6. 6. ,$ Yk.Zk.(a.X#.`k.[%.24._$.m=. l. l.m=.5f.T*.J=..l.-=.-=.-=.J=.5[ J=.+l.@l.@l.6[ #l.$l.%l.K] $l.%l.&l.=$ l  L< I< I< *l.=l.`>.7[ K] K] Rg.U,.K] J=.-l.;l.A].{i |: Lf.y7 !$ 6. 6. p  Q  >l.                                                                                                                                                                     ",
"                                                                                                                                                                              4% Q  3  f  m  4  =+ ,l.Eb ]&.]&.`: e8 :9 `: `: :9 g*.'l.)l.!l.O# _% >% l  6. 6. =$ Nw ~l.b=.<) b' &b.|( [4 [4 1( 1( {l.+- o2 +- ]l.@- @- M'.M'.@- J7.J7.:b.:b.:b.A0.f$.s'.s'. %.u0.]%.[; =$ p  9  x  l  ^l.Zk.'3.I7.J7.n4.m4.$).S7.I7./l.w6 v6 ^/ W[.mn y7 l  p  p  f  Q  ,l                                                                                                                                                                      ",
"                                                                                                                                                                              G4.Q  o  4  p  p  0> ~k.B4 @e C4 Kb Kb Kb Kb Kb Kb Kb  9  > Q^ (l._l.y7 =$ =$ !$ !$ >$ s7.={ #{ &) &) *) *) H4 H4 '_ '_ '_ q3 9- 9- 9- 9- 9-  - 9- `2 `2 j@ k@ l@ b5 @; +; +; :l.A0.{a.o(.H< z> 9  l  l  <l.1d.`2 @- J7.d5 j@ j@ =5 25 6].&@ &@ 6+ B6 [l.y7 o  4  4  f  Q  f(                                                                                                                                                                      ",
"                                                                                                                                                                              P: Q  |  3  3  6  7  I> Cb @e @e @e @e @e @e C4 C4 !j W-.i-.Lc b&.:7 =+ =$ =$ g  x> >$ }l.p^ |l.1l.*) *) *) *) H4 H4 H4 p( 9- 9- q( q(  - 9-  - z| =5 *5 &# 5@ 2l.)@ '@ 3l.A;.4l.|>.k{ 7h.%> g  c  g  6  j%.E0.`2 25 J7.5l.&# k@ j@ `2 6l.&@ &@ F: D: U*.j^ g  l  6  6  Q  ,l                                                                                                                                                                      ",
"                                                                                                                                                                              8I Q  |  ^  ]  6  =+ 7l.Cb C4 @e @e @e @e C4 Kb Kb E4 Mc $) $) '6 zd.>% 6. 6. l  !$ '$ 8l.p^ 9l.0l.al.al.$( =) ^_ H4 H4 H4 u- u- u- 9- 9- 9- 9- 9- @- z| d5 bl.b5 ,).,).A;.A;.=).]>.X;.37.;. 4  e  c  6  *-.d3.F4 @- m4.j@ k@ k@ j@ `2 -i.E: &@ -: q: pk.Wd g  x> !$ 7  Q  xj.                                                                                                                                                                     ",
"                                                                                                                                                                              $  Q  j  f  f  6  q% cl.1g @e @e @e @e @e @e C4 C4 E4 D! D! $) Kc :7 >% l  6. 0> 7  '$ 8l.r' Z~ 0l.*) *) *) *) ^_ G4 G4 6- H4 H4 p( '_ q3 P4 P4 Y2  3 *5 J7.53.v& .* w! $0.dl.]>.R$.U'.6i.7  4  R$ 5  f  &-.)<.E[.E[.I7.j@ k@ j@ j@ j@ {4 &@ *@ &@ y6 pk.j^ g  c  l  6  Q  xj.                                                                                                                                                                     ",
"                                                                                                                                                                              ;! Q  |  f  f  4  x> [l.cy Tc @e @e @e C4 _9 _9 _9 .e E4 E4 D! a9 el.7  p  8  6. 0> ;$ 8l.r' X~ )! *) *) *) *) *) ^_ H4 H4 fl.fl.7- H4 H4 9- 9- 9- +- ,*.l~ gl.hl.il.jl.kl.ll.9>.ml.nl.ol.7  4  w@ 3  f  pl.ql.T4 @- d5 d5 =5 j@ j@ l@ rl.&= *@ &@ s: sl.j^ y  3  3  3  Q  hf.                                                                                                                                                                     ",
"                                                                                                                                                                              ~3.Q  |  3  f  4  x> [l.f/ <&.Kb C4 Kb e;.9e.P#.5e.x_ F; F; U; A# el.7  6. 6. 8  l  ;$ tl.p4.E) E) E) F) =) *) =) F) ,_ H4 H4 H4 H4 H4 H4 H4 H4  - 21 [[.ul.vl.wl.wl.xl.yl.zl.64.Al.Bl.Ki.y7 g  c  g  4  T>.d4.F4 2( S4 S4 C3./a.:_ j@ Cl._6 06 -: v: U*.j^ 6  4  f  c  Q  >l.                                                                                                                                                                     ",
"                                                                                                                                                                              @: Q  |  3  f  4  x> >l 60 <&.C4 @e C4 ]h Dl.M4 2l.F_ F; D!  > Me El.7  6. 6. 8  e  ;$ 8l.@{ E) E) E) F) =) *) =) F) =) )_ '_ '_ '_ '_ '_ '_ '_ '_ L4 J_.Fl.7<.Gl.Xc.X8.Hl.Il.Ce.}] Kg.Jl.z7 7  l  f  f  Kl.d4.E[.Ll.}|.zb.O( Ml.Nl.Ol.Pl.,6 M+ m# z: Ql.j^ 6  4  f  c  Q  ,l                                                                                                                                                                      ",
"                                                                                                                                                                              F^ Q  |  3  f  4  y7 >l 60 W-.@e D! Kb qf.65 |5 )@ -= D! E4 Kb Bb 0h.6. 6. 6. 8  4  ;$ Rl.H,.U! E) &) &) *) *) *) *) *) *) G) G) G) G) '_ '_ ]_ '_ D0.Sl.Tl.n6.i| Ul.Vl.Wl.Xl.Yl.@] Zl.`l.x> 6  p  {- 5   m..m.E[.z= +m.@m.61.#m.$m.%m.&m.N# M+ M+ B: Ql.j^ 6  4  f  c  Q  *m.                                                                                                                                                                     ",
"                                                                                                                                                                              e(.Q  |  3  f  4  y7 =m.60 W-.D! @e  > -m.65 ;m.q$.:;  >  > Le >m.hk.=$ 6. 6. 8  4  ;$ Rl.=6.%{ X~ E) &) &) *) *) *) *) *) *) *) *) *) -) '_ '_ -) @c.Sl.,m.55.$<.J4.'m.)m.!m.~m.{m.n7.]m.l  3  3  5  R$ ^m.ql.S4 /m.(m.&_.D~.H2.h|._m.:m.f6 0# p+ ;+ Ql.j^ 6  4  f  c  Q  <m.                                                                                                                                                                     ",
"                                                                                                                                                                              Hf.Q  |  3  f  4  x> c,.60 C-.D! D!  > z5 85 ;m.c$.[m. >  > )l.}m.hk.!$ 6  6  6  4  ;$ Rl.p4.&{ X~ E) &) E) &) *) *) G) G) *) *) *) *) *) *) *) *) &b.Sl.]} _h.L+.K+.|m.1m.!m.2m.3m.6[ 4m.e  ]  R$ R$ L< 5m.6~ v! r* 6m.7m.{0.^|.ib.8m.9m.0m.M- p+ L+ Ql.j^ 6  4  f  o  Q  'k                                                                                                                                                                      ",
"                                                                                                                                                                              G^ Q  |  3  f  4  x> c,.d&.s-.D! D!  > am.65 y- q$.cM bm.dM cm.nN dm.7  l  6  6  4  ,$ em.p4.%{ `~ )! &) &) &) *) 0' G) G) G) G) G) G) *) *) *) *) J4 Sl.fm.j+.$<.J4.|m.gm.hm.im.jm.km.lm.l  f  f  5  y  Ad.Z9.h4.mm.p[ nm.om.om.pm.qm.rm.sm.k: M+ A: Ql.j^ 6  4  p  g  Q  'k                                                                                                                                                                      ",
"                                                                                                                                                                              tm.Q  |  3  f  4  x> k7.d;.s-.D! D!  > am.|5 ;m.;m.z| `2 z|  - s} um.!$ l  6  6  4  ,$ vm.p4.%{ E) &) &) &) &) &) &) &) L( G) G) G) G) G) G) G) G) @c.wm.xm.}2.$<.J4.|m.ym.zm.Am.jm.Bm.Cm.=+ e  e  6  q% Ad.$0.Ga.@= Dm.nm.Em.Fm.Gm.Hm.Im.Q` >+ *@ u: U*.y7 6  4  p  c  Q  Jm.                                                                                                                                                                     ",
"                                                                                                                                                                              Km.Q  |  3  f  f  q% J1.Lm.s-.D! D!  > Mm.|5 y- y- z| 9- u-  - s} Nm.y  6  6  8  4  ;$ Om.p4.%{ E) &) &) &) &) &) &) &) &) *) *) *) G) G) G) ;) ;) J4 wm.Pm.6t $<.]e.Qm.Rm.Sm.Tm.!h.Um.]m.=+ g  6  4  6  R0.2a.53.@= Vm.Wm.7c.Xm.Gm.6g.Ym.Zm.M+ *@ B6 sl.x> 4  f  f  o  Q  `m.                                                                                                                                                                     ",
"                                                                                                                                                                               n.Q  j  l  p  f  6  .8 %'.s-.D! D! E4 K5 |5 y- y- `2 9-  -  - L4 .n.7  6  8  p  8  ;$ +n.'{ 5{ E) &) &) &) &) &) &) &) &) &) *) *) G) G) G) G) G) &d.@n.#n.je.h| _8.$n.%n.&n.*n.=n.4| ]m.y7 6  4  5  4  R0.v& 53.p6.-n.Wm.kc.;n.&f.>n.,n.'n.p+ M+ /1.)n.x> 4  f  5  c  Q  B/                                                                                                                                                                      ",
"                                                                                                                                                                              !n.Q  |  c  6  6  7  Q7 Xs s-.D! D! E4 ~n.65 y- y- `2 q(  -  - L4 .n.7  6  6. 8  8  -$ y7.p4.n~ &) &) &) &) &) &) &) &) &) &) &) *) G) G) G) G) G) J4 wm.9} Z8.h| _8.Ul.%n.{n.]n.=n.o7.^n.y7 6  4  m  4  T>.f5 c_.p<./n.Wm.kc.(n.]2._n.:n.Q` k: %@ /1.<n.x> 6  4  f  c  Q  [n.                                                                                                                                                                     ",
"                                                                                                                                                                              }n.Q  2  |  f  f  7  ,:.%'.s-.D! D! D! ~n.65 ;m.z| `2 `2 y-  - L4 .n.7  6  8  8  8  -$ |n.*{ p^ p^ &) &) &) &) &) &) &) &) &) &) &) 0' G) G) G) G) J4 1n.2n.Z8.h| _8.Ul.%n.3n.]n.=n.4n.5n.x> 6  4  f  4  T>.|* S2.OK 6n.Wm.Nc.(n.7n.8n.9n.0m.7f.a: :2.0n.y7 6  4  4  g  Q  `m.                                                                                                                                                                     ",
"                                                                                                                                                                              an.Q  2  d  5  4  q% Z7 d;.s-.D! D! D! G5 |5 y- y- `2 `2 z| z| *2 .n.7  l  8  p  8  -$ |n.*{ p^ &) &) &) &) &) &) &) &) &) &) &) &) L( G) G) G) G) a' l~ bn.Z8.h| _8.Ul.cn.dn..e.(h en.`l.6  6  f  5  4  x}.s* S2.OK fn.~d.Nc.gn.hn.in.jn.0m.-/.A@ :2.kn.y7 4  f  4  o  Q  ^i                                                                                                                                                                      ",
"                                                                                                                                                                              ln.Q  2  3  4  6  7  Z7 Ie s-.D! D! D! e;.|5 y- y- `2 `2 `2 25 *2 .n.q% L< p  p  8  -$ mn.r' n~ &) &) &) &) &) &) &) &) &) &) &) &) L( G) '_ G) G) J4 T5.oh.X8.J4.R4.Ul.cn.nn.on.Dh.en.`l.!$ 4  5  ]  e  Kl.,_.B2.(5.pn.~d.kc.gn.hn.in.qn.0m.a: %@ /1.,l.x> 4  f  5  o  Q  rn.                                                                                                                                                                     ",
"                                                                                                                                                                              sn.Q  |  f  f  4  7  ,:.Xs s-.D! D! E4 e;.|5 y- y- `2 `2 `2 25 *2 tn.y  L< p  8  8  -$ mn.r' %{ E) &) &) &) &) &) &) &) &) &) &) &) L( G) G) G) G) a' T5.un.X8.J4.R4.Ul.vn.wn.xn.Dh.4h.`l.!$ f  k  5  c   m.,_.B2.@: yn.~d.Le.zn. ^.An.Bn.d_ 8/.M+ /1.Cn.x> e  f  k  c  Q  rn.                                                                                                                                                                     ",
"                                                                                                                                                                              Dn.Q  j  o  j  4  7  '>.L'.s-.D! D! E4 ~n.Z= y- y- `2 `2 `2 `2 *2 En.q% L< 8  6. 6. ;$ mn.r' %{ E) &) &) &) &) &) &) &) &) &) &) &) &) 0' G) G) G) a' e~ Fn.X8.J4.R4.Ul.Gn.Hn.In.yQ Jn.`l.l  f  {- 5  c  G).,_.d:.D5.Kn.~d.Le.^) 1{.Ln.Mn.W_ 8/.Rt L[.Nn.q% e  f  f  c  Q  Jm.                                                                                                                                                                     ",
"                                                                                                                                                                              On.Q  |  o  o  4  7  Z7 %'.s-.D! D! E4 ~n.U= y- y- `2 `2 `2 25 *2 Pn.y  6. 6. 8  6. >$ mn.r' %{ E) &) &) &) &) &) &) &) &) &) &) &) &) &) G) G) G) a' Qn.Rn.Sn.J4.R4.Ul.Tn.Un.Vn.Wn.4h.Xn.l  5  w@ 5  o  %S )<.B2.Yn.Zn.d@.ze.Xg.1{.`n. o..o.8/.>6 +o.@o.x> o  f  4  o  Q  [n.                                                                                                                                                                     ",
"                                                                                                                                                                              .*.Q  |  3  4  4  7  #o.$o.W5 D! x-.@e (>.|5 y- y- y- y- *5 =5 %o.&o.7  6. 8  R$ 6. '$ A7.p4.%{ E) &) &) &) &) &) &) &) &) &) &) &) M{ M{ 0' Z^ G) a' g~ *o.f9.=o.-o.`4.;o.>o.,o.'o.)o.`l.y  f  R$ |  j  !o._:.d:.~o.{o.>8.]o.Xg./) ^o./o.l6 8/.q+ H(.`7 x> f  5  f  j  Q  (o.                                                                                                                                                                     ",
"                                                                                                                                                                              +  Q  |  4  6  4  7  #o._o.Lc D! D! 'h O].k@ y- y- y- y- =5 =5 %o.Pn.7  6. 8  p  6. '$ :o.p4.%{ E) &) &) &) &) &) &) &) &) &) &) &) &) &) 0' G) G) a' g~ <o.f9.[o.-o.`4..@.}o.xn.|o.4h.`l.g  4  3  5  j  1o.U:.3( 2o.3o.4o.5o.Xg.<_.6o./o.7o.b|.q8.@e.8o.6  f  5  f  |  Q  ((                                                                                                                                                                      ",
"                                                                                                                                                                              gC Q  |  o  6  6  7  Z7 r-.Mc D! xy .> ,].k@ y- y- y- ;m.j@ j@ %o.ol.7  6. 8  p  6. '$ 9o.p4.%{ E) &) &) &) &) &) &) &) &) &) &) &) &) &) -) L( 0' a' g~ 0o.ao.bo.-o.`4.;o.co..e.|o.do.eo.y  j  k  d  j  fo.U:.F1.go.3o.4o.ho.M) <_.6o.io.t: b|.q8.H(.@8 7  f  4  4  |  Q  Pa.                                                                                                                                                                     ",
"                                                                                                                                                                              hC Q  |  j  4  4  7  $8 r-.{5 {5 Vd .> ,].=5 y- y- =5 j@ j@ j@ %o.ol.7  6. 8  8  6. ,$ jo.p4.%{ n~ &) &) &) &) &) &) &) &) M{ |l.&) &) &) *) L( L( a' g~ 0o.ko.bo.R4.`4.;o.lo.mo.|o.no.j# g  f  {- ^  j  s}.u:.T1.oo.po.4o.]o.M) <_.^o.qo.bj.b|.q8.H(.@8 7  4  4  4  f  Q  nf                                                                                                                                                                      ",
"                                                                                                                                                                              .  Q  |  e  4  4  7  a7 Kc {5 {5 Vd d&.ro.=5 y- *5 j@ j@ j@ j@ %o.ol.!$ 8  p  8  6. ,$ :o.p4.n~ n~ &) &) &) &) &) &) &) &) |l.|l.&) &) &) &) &) L( I/ g~ so.ko.bo.R4.`4.;o.to.mo.Dh.4h.uo.g  3  {- ^  b  s}.u:.T1.oo.vo.4o.(c.Xg.<_.^o.wo.bj.6Y t_.M}.@8 !$ 4  4  4  3  Q  +<.                                                                                                                                                                     ",
"                                                                                                                                                                              hC Q  2  3  4  4  7  0_ r-.F; -6 Vd .> xo.;m.y- =5 j@ j@ j@ m4.%o.yo.7  8  p  8  6. ,$ zo.p4.n~ n~ n~ &) &) &) &) &) &) M{ |l.M{ &) &) &) &) &) 0' I/ g~ so.ko.bo.R4.`4.Ao.Bo.Co.e+.do.uo.g  e  d  ^  b  s}.u:.T:.Do.Eo.4o.(c.Xg.<_.Fo.wo.bj.C& t_.;l {8 7  4  4  4  4  Q  Go.                                                                                                                                                                     ",
"                                                                                                                                                                              Ho.Q  |  e  6  4  7  Io.{6 F; F; {5  > am.;m.*5 j@ j@ j@ j@ m4.<4.ol.7  8  p  8  6. ,$ A7.p4.n~ n~ n~ &) &) &) &) &) &) &) &) &) Z^ Z^ Z^ Z^ Z^ L( I/ g~ so.ko.bo.R4.v6.Ao.Jo. ,.Ko.Bh.uo.y  g  2  Q  b  Lo.Mo.T:.Do.Eo.No.(c.|2.B~.Fo.Oo.t: 6Y t_.L}.Y7 7  4  c  4  4  Q  9#                                                                                                                                                                      ",
"                                                                                                                                                                              Po.Q  j  o  6  6  7  !8 V>.#!.F; F; `; Qo.;m.=5 j@ j@ j@ j@ K$.o= ol.!$ 8  8  8  6. ,$ :o.@{ n~ n~ n~ &) &) &) &) &) &) &) &) Z^ N( N( Z^ Z^ Z^ L( +{ g~ Ro.So.To.-o.`4.Q( Uo.Vo.Wo.Xo.`% o  c  2  Q  b  Yo.Mo.T:.Do.Zo.`o.$c.O) <_. p..p.u6 6Y >6.L}.k>.7  4  4  f  4  Q  +p.                                                                                                                                                                     ",
"                                                                                                                                                                              +  Q  c  f  4  4  7  !8 36 @p.F; E; U; #p.|5 ;m.`2 j@ ;m.n$.h$.U} $p.6. 6. 6. 6. 6. ,$ :o.p4.n~ #{ #{ n~ &) &) &) &) M{ M{ Z^ Z^ Z^ Z^ Z^ Z^ Z^ Z^ a' g~ P4.So.%p.$c.`4.&p.*p.=p.~l.em.eo.e  B  A  |  c  -p.@2.}*.oo.Zo.;p.>p.Q8.,p.'p.)p.!p.C& 6Y ~p.!8 x> 4  f  f  f  Q  [%                                                                                                                                                                      ",
"                                                                                                                                                                              +  Q  o  f  6  4  7  !8 36 76 A! E; U; {p.*5 =5 j@ j@ ;m.M7.b5 <4.]p.6. 6. 6. 6. 6. ,$ :o.p4.n~ n~ n~ n~ &) &) &) &) M{ &) Z^ Z^ Z^ Z^ Z^ Z^ Z^ Z^ I/ Qn.h5.X8.Z4.R4.`4.&p.^p./p.(p._p.eo.6  1  A  j  o  :p.F1.%[.<p.[p.`o.-o.Q8.,p.'p.}p.!p.|p.1p.2p.)8 >% 4  f  f  f  Q  @@.                                                                                                                                                                     ",
"                                                                                                                                                                              o&.Q  j  j  6  6  7  -P 36 76 tz p; T; t{. 3 `2 j@ j@ ;m.M7.b5 <4.6i.!$ 6. 6. 6. 6. ,$ :o.p4.n~ n~ n~ n~ <) Z^ Z^ &) &) Z^ Z^ Z^ Z^ Z^ Z^ Z^ Z^ L( 0' Qn.3p.4p.Z4.P8.`4.[b.5p.6p.(p._p.`% o  |  |  j  o  7p.u8.t1.8p.9p.0p.P8.62.C~.ap.bp.cp.+_.q8.M}.Y7 >% 4  4  4  4  Q  P:                                                                                                                                                                      ",
"                                                                                                                                                                              o&.2  c  f  6  6  7  X6 W_ 86 p; p; E; dp.*5 `2 j@ j@ ;m.M7.b5 <4.ep.6. 6. 6. 6. 6. ,$ :o.p4.n~ n~ n~ n~ <) Z^ Z^ &) Z^ Z^ Z^ Z^ Z^ Z^ Z^ Z^ Z^ L( 0' fp.gp.y9.`4.R4.B6.I4.hp.6p.ip.3i.jp.y  j  |  |  j  kp.F|.N|.lp.mp.np.-o.(c.B6.Q,.op.cp.+_.q+ H(.Y7 >% 4  6  4  4  Q  F<                                                                                                                                                                      ",
"                                                                                                                                                                              L9 2  g  4  6  6  =+ X6 W_ pp.s# )4 qp.rp.y- z| j@ j@ p$.M7.K$.<4.sp.7  6. 6. 6. 6. ,$ 9o.K5.={ n~ n~ n~ U! Z^ Z^ Z^ Z^ Z^ Z^ Z^ Z^ Z^ Z^ Z^ Z^ L( 0' fp.A1.i9.S4.R4.Z4.[b.tp.6p.up.A^ vp.y  j  Q  6& j  ]m.wp.S}.xp.Kn.yp.%p.Q8.,p.zp.Ap.Dt t_.>6 x3.d7 >% 4  6  4  f  Q  F<                                                                                                                                                                      ",
"                                                                                                                                                                              y; 2  g  6  6  6  =+ P6 W_ pp.s# s# T; Bp.__ z| `2 =5 ;m.n$.h$.o= 37.6. 6. 6. 6. 6. ,$ 9o.K5.={ n~ n~ n~ U! Z^ Z^ Z^ Z^ Z^ Z^ Z^ Z^ Z^ Z^ Z^ Z^ L( L( Cp.E5.i9.`4.P8.B6.Dp.Ep.Fp.Gp.Hp.Ip.y  j  2  |  !$ Jp.R}.M(.Kp.Lp.Mp.=o.v6.Np.Op.Pp.Dt N5.>6 Qp.a7 !$ 6  6  6. 4  Q  ^S                                                                                                                                                                      ",
"                                                                                                                                                                              K+ 2  g  6  6  6  =+ S6 m6 0Y +6 fX qp.-Q q( &1 F4 =5 ;m.h$.K7.1d.Rp.6. 6. 6. 6. 6. ,$ 9o.K5.={ 3{ 3{ n~ n~ n~ U! Z^ Z^ Z^ Z^ Z^ Z^ Z^ Z^ Z^ Z^ L( 2{ Sp.r8.$5.`4.R4.B6.&p.Tp.Fp.VO Up.Vp.o  |  |  j  x> jp.Wp.Xp.Yp.Zp.`p. q..}.&<..q.+q.@q.4_.-: Qp.d7 q% 6  6  6  6  Q  #q.                                                                                                                                                                     ",
"                                                                                                                                                                              $q.Q  y  6  6  4  =+ %q.&q.*q.!k.&< =q.-q.;q.`>.n7.&=.>q.,q.'q.)q.Jp.6. 8  6. 6. 6. -$ :o.K5.={ 3{ 3{ n~ n~ n~ U! Z^ &) &) Z^ Z^ Z^ Z^ Z^ Z^ Z^ I/ Z^ Sp.!q. 5.J4.R4.`4.~q.{q.=p.]q.=i.^q.y  |  |  e  x> /q.(q.D|.!&._q.:q.<q.[q.}q.|q.1q.2q.N: B].3q.g5 6$ 4  8  6. 6  Q  4q.                                                                                                                                                                     ",
"                                                                                                                                                      h1 5q.u7 =j.6q.#@.#@.#@.7q.j  6  6  8  l  !$ 8q.1^.3Y 3Y :h bL V$.f:.9q.V$.:h mu >[ ed.ed.>0 7  !$ !$ L< 9  -$ :o.K5.={ n~ #{ n~ n~ n~ U! &) &) &) Z^ Z^ Z^ Z^ Z^ Z^ Z^ <) V! m~ r8.0q.J4.aq.=o. 5.bq.=p.cq.'^ ^q.!$ 3  5  f  6  0,.rd.[6.dq.eq.-[ fq.gq.hq.iq.jq.S0.S< 8q.>[ a$ e  3  3  e  4  f  kq.S>.lq.&m.mq.x@ @  +2.                                                                                                                                                ",
"                                                                                                                                                      b,.Q  j  o  y  o  j  j  6  6  6  p  p  !$ 6$ x> !$ !$ !$ 6  !$ 7  6  7  7  0> 7  6  6  l  7  6  6  6  l  9  -$ 9o.K5.={ n~ n~ n~ n~ n~ n~ &) &) Z^ Z^ Z^ Z^ Z^ Z^ Z^ Z^ &) &) m~ r8.0q.J4._8.B6.G6.nq.=p./h A^ oq.7  4  5  5  e  e  l  6  =$ l  3  3  3  e  p  6. 8  6  l  8  8  e  4  4  4  4  3  e  7$ 6. 6. !$ !$ o  pq.                                                                                                                                                ",
"                                                                                                                                                      M-.Q  b  o  y  x> l  6. 6. 6  6  4  e  g  x> g  g  !$ l  l  l  6  6  6  6  7  6  y  y  g  6  l  l  6  c  e  =$ qq.*{ ={ n~ n~ n~ n~ n~ n~ n~ <) Z^ Z^ Z^ Z^ Z^ Z^ Z^ Z^ <) +{ m~ r8.0q.J4._8.B6.rq.Ge.sq./h 3i.$p.7  e  3  3  p  4  e  b  c  6  j  5  4  7  7  e  5  4  4  p  l  !$ 7  g  g  g  4  e  l  y  6. 6. 7$ o  tq.                                                                                                                                                ",
"                                                                                                                                                      D,.Q  j  j  g  6  6  6  6  4  6  6  g  !$ l  !$ !$ !$ =$ l  6  6  6  6  6  g  6  6  6  7  g  x> l  l  g  e  =+ qq.p4.={ &{ .{ n~ n~ n~ n~ n~ &) Z^ Z^ Z^ Z^ Z^ Z^ Z^ Z^ Z^ V! H:.uq.G6.=o._8.B6.vq.wq.sq.xq.^h ol.7  e  f  4  c$ c$ e  b  |  c  e  f  4  4  4  3  ]  l  e  e  l  x> 7  x> g  I< l  l  !$ o  4  6. !$ j  yq.                                                                                                                                                ",
"                                                                                                                                                      B< Q  |  o  o  c$ c$ !$ c  f  4  4  4  e  l  l  !$ 3  l  o  4  e  4  g  6  l  6. 0> 6  0> 7  !$ l  y  g  g  H$ qq.K5.7{ 9{ .{ n~ n~ n~ n~ U! Z^ Z^ Z^ Z^ Z^ Z^ Z^ Z^ Z^ Z^ [<.98.x8.G6.=o._8.B6.G6.zq.Aq.Bq.Q] ol.>% o  f  6  c$ l  g  c  3  f  e  e  6  4  p  e  b  6  6$ 6$ 6. 6$ !$ !$ x> g  e  8  7  6  f  c$ 7  j  Cq.                                                                                                                                                ",
"                                                                                                                                                       B Q  j  g  g  4  6  6  !$ x> !$ 8  !$ x  >% H< 6. 8  8  8  l  l  g  x> g  6  6  6  6  6  l  l  l  l  6$ g  -$ qq.K5.7{ 9{ .{ n~ n~ n~ n~ U! Z^ Z^ Z^ Z^ Z^ Z^ Z^ Z^ Z^ N( [<.s^ x8.G6.J4._8.h| G6.Dq.Eq.Ch.Q] 6i.=$ e  e  e  4  !$ H$ =+ 7  7  !$ =+ =+ =+ 7  =+ >% =$ =$ >% =$ -$ -$ -$ >% >% 0> 0> !$ 6  4  8  8  j  Fq.                                                                                                                                                ",
"                                                                                                                                                      %= Q  ^  z> !$ o  4  Gq.Hq.Iq.lk.mk.ik.jk.Hq.p$ ]h.>].c0 $k.Jq.f^.S# S# Kq.,&.+{.Ot Kq.Lq./S !$ l  l  6$ g  -$ qq.K5.={ 9{ .{ .{ n~ #{ n~ U! Z^ Z^ Z^ Z^ Z^ Z^ Z^ Z^ Z^ Z^ V! J~ E5.G6.h| g8.$<.|~ h8.=p.5] Mq.6i.0> 8  p  t> e  G6 Nq.{M Oq.Pq.Qq.Rq.Sq.Tq.Uq.Vq.yo.Wq.PS Xq.Yq.Yq.Zq.jf fN `q.!N >R 6. 8  8  p  R$ |   r.                                                                                                                                                ",
"                                                                                                                                                      Je.Q  ^  3  l  6  7  p^.l6 J# U-.4: '] .r..r.<g }^.{6 K-.'6 dk.+r.T} R7.R7.r( R7.R7.@r.54 #r.V9 6  6. !$ !$ -$ $r.%r.={ &{ .{ .{ n~ 3{ n~ U! Z^ Z^ Z^ Z^ Z^ Z^ Z^ Z^ Z^ Z^ <) fp.&r.G6.0:.o) $<.g5.70.sq.5] /h ep.0> p  R$ t> 7$ *r.<g.Z= c| Y/.X/.X/.=r.-r.-r.p, ;r.>r.,r.'r.)r.!r.~r.!i l;.{r.]r.^r.7  !$ 6. 6. p  j  5$                                                                                                                                                 ",
"                                                                                                                                                      y% Q  j  4  4  6  7  c0 4: c# z# a; U@ r; p; r; F; F; E; U; X; &>.b' [4 7- 7- H4 [4 7- /r.(r.N= 6. 6. 6. 6. -$ _r.%r.={ &{ .{ .{ .{ .{ #{ #{ Z^ Z^ Z^ Z^ Z^ Z^ Z^ Z^ Z^ Z^ I/ :r.&r.$5.n) 8| Y+.g5.70.=p.<r.O] [r.6. p  R$ /  :  }r.3=.|r. - V! @{ p^ o~ l5.T! &b.1r.,h 2r.B>.3r.-S $O 4r.5r.MN 6r.^r.x> 6  6  6  6  j  7r.                                                                                                                                                ",
"                                                                                                                                                      8r.Q  f  4  f  6  6  t].4: z# B@ U@ A>.p; h@ r; F; F; F; U; X; &>.b' H4 H4 H4 H4 [4 7- d' 9r.;. 6. 6. 6. 6. -$ i,.%r.={ r' .{ .{ .{ .{ #{ #{ Z^ Z^ Z^ Z^ Z^ Z^ Z^ Z^ Z^ Z^ Z^ fp.0r.|~ O+.<=.)1 g5.g3.=p.ar.br.cr.6. 8  t> /  :  }r.dr.g$. - <) V! er.+{ #6.er.21 ~M fr.gr.,h hr.FM mP ^O ir.ir.jr.kr.y7 l  p  4  6  o  lr.                                                                                                                                                ",
"                                                                                                                                                      [/.Q  f  4  f  6  y  D{ .r.U@ B! U@ A>.A>.A>.F; H; F; F; U; Z; %>.^_ H4 H4 H4 H4 [4 H4 [4 mr.N= 6. 6. 6. 6. -$ nr.or.,{ .{ .{ .{ .{ .{ #{ #{ Z^ Z^ Z^ Z^ Z^ Z^ Z^ Z^ Z^ Z^ Z^ fp.x1.=5.g| g| :_.pr.qr.sq.ar.)o.rr.7  6  e  ]  8  sr.tr.ur.z| 0' V! V! +{ er.vr.,*.wr.-q.eM xr.#N DM yr.zr.K{ Ar.Br.kr.y7 l  p  f  4  j  Fq.                                                                                                                                                ",
"                                                                                                                                                      [/.Q  4  6  4  6  q% Cr.W; a] R^ U@ J{ U@ #) Y; D! H; q; <k.>j.v$.G4 H4 H4 H4 H4 [4 H4 [4 Dr.N= 6. 6. 6. 6. -$ VH Er..7.'{ .{ .{ .{ .{ n~ U! Z^ Z^ Z^ Z^ Z^ Z^ Z^ Z^ Z^  { <) Fr.Gr.=5.F5.'1 d1.Hr.-1 6p.Ir.)o.[r.7  6  e  3  6. Jr.Kr.Lr.@- a' a' a' a' a' 64 Mr.Nr.Or.Pr.Qr.Rr.Sr.Tr.Ur.mR mR Vr.Wr.H$ l  4  f  f  |  Xr.                                                                                                                                                ",
"                                                                                                                                                      8r.Q  6  6  6  6  7  Yr.W; I-.Zr.z# B@ B@ `r.=e.G/ G/  s..s..s.y- ^_ ^_ ^_ H4 H4 [4 H4 |( mn.;. 6. 6. 6. 6. H$ VH Er..7.'{ '{ &{ n~ .{ n~ n~ <) &) Z^ Z^ Z^ Z^ Z^ Z^ Z^ U! +{ f8.+s.B1.k| @s.Dg.pW D3.#s.ar.Bh.cr.=$ 8  8  p  6. $s.%s.c$.y- a' a' b' *) G) &( &s.*s.=s.-s.;s.>s.,s.'s.)s.!s.!s.~s.{s.,$ 6  6  p  f  2  ]s.                                                                                                                                                ",
"                                                                                                                                                      8r.Q  6  6  6  6  7  Yr.qp.a] h/ z# B@ C; *R E) b~ b~ E) E) =) *) H4 H4 H4 '_ H4 [4 H4 |( mn.;. 6. 6. 6. 6. H$ ^s./s..7.'{ '{ &{ n~ n~ n~ n~ .{ U! Z^ Z^ Z^ Z^ Z^ Z^ Z^ <) &) m~ L,.(s.:_.M+.:] [* <1._s.:s.Wo.<s.6. p  4  p  8  [s.}s..; y- '_ H4 d' *) a' r} |s.1s.G3.2s.2s.3s.4s.5s.GM N;.)>.6s.7s.C7 l  4  p  f  2  ]s.                                                                                                                                                ",
"                                                                                                                                                      8r.Q  4  6  4  6  7  Cr..r.c] h/ B@ g@ U@ !s.=) F) F) =) *) *) b' H4 H4 )_ '_ H4 [4 H4 |( mn.;. 6. 6. 6. 6. H$ 8s.9s.0s..7.'{ '{ ={ n~ n~ n~ .{ U! <) <) <) <) Z^ Z^ Z^ U! )! as.=* l& 3@.bs.p| cs.ds.es.-l.fs.<s.7  p  8  8  8  gs.hs.a$.45 H4 u- )_ *) J4 5*.is.js.ks.ls.ms.ns.os.ps.qs.rs.ss.6s.7s.%> l  p  p  f  |  ]s.                                                                                                                                                ",
"                                                                                                                                                      8r.Q  4  6  4  6  7  Cr.'] U@ ,! B@ g@ g@ @>.=) E) =) =) *) *) *) *) H4 ^_ H4 H4 H4 H4 |( |n.;. 6. 8  6. 6. -$ ts.us.vs./s.Er.,{ O_.O_.n~ n~ n~ n~ n~ n~ n~ n~ E) E) E) &) |l.ws.xs.ys.zs.As.Bs.Cs.Ds.Es.'q.Fs.Gs.6  6  !$ 8  6. Hs.Is.Js.Ks.H4 |( )_ *) b' Ls.Ms.js.Ns.ls.Os.Ps.Qs.Rs.Ss.Ts.Rl Us.x9 d@ l  p  p  m  |  Vs.                                                                                                                                                ",
"                                                                                                                                                      8r.Q  e  6  c  6  7  X=.K; ~] B@ B@ B@ f@ ss.F) &) *) =) *) *) *) *) ^_ ^_ H4 H4 H4 H4 K4 |n.;. 8  9  6. 7$ x  ko Ws.Xs.Ys.em.Zs.+- &{ 4{ 4{ #{ 3{ n~ n~ %{ %{ 5{ 5{ X~ E) o:.`s. t..t.+t.@t.#t.$t.%t.&t.*t.<s.=t.z> c  g  4  6. -t.;t.>t.,t.'t.^_ )_ '_ b' )t.!t.~t.Eg.{t.ms.]t.^t./t.(t.qP Rl kX x9 O; 6  p  p  p  |  _t.                                                                                                                                                ",
"                                                                                                                                                      B% Q  f  6  f  6  7  X=.A! ,! B@ B@ B@ B@ Rl F) *) =) =) *) *) *) *) =) =) H4 H4 H4 H4 c' |n.;. 8  _  9  9  Y( >0 h, j7.}}.Gq.:t.<t.4{ %( 4{ n~ #{ n~ %{ 5{ 5{ %{ %{ X~ )! )! 16.[t.t> D  :E E  J+ c  l  7  7  e  z> D< !$ e  8  #6 }t.|t.1t.2t.6- )_ '_ b' 3t.4t.5t.6t.{t.7t.]t.8t.9t.WL w5 o_ 0t.x9 ,$ 6  8  p  p  |  at.                                                                                                                                                ",
"                                                                                                                                                      ne.Q  8  6  4  4  7  bt.A! R^ C; B@ T^ B@ o_ F) *) =) =) *) *) =) *) =) =) *) *) *) *) c' |n.;. 6. L< 9  9  :  <$ 9> _4._$ ct.dt.)%.p4.4{ .{ n~ n~ n~ n~ %{ 5{ 5{ 5{ E) E) )! er.et.!$ c  c  o  e  e  e  6  4  3  L< y  l  R$ S$ ft.}t.gt.X- ht.8- '_ '_ )_ it.jt.kt.lt.mt.7t. ^.nt.ot.pt.p5 p5 qt.Wr.,$ l  p  p  p  |  rt.                                                                                                                                                ",
"                                                                                                                                                      ~S Q  l  g  6  4  7  bt.A! h/ ,! h/ T^ B@ st.F) =) =) F) =) =) =) *) *) =) *) *) *) *) I4 tt.=+ 6. H< 6$ 7$ x  ]$ ]$ a$ g: q9.#6 t9.*{ &{ n~ n~ n~ n~ n~ %{ 5{ 5{ %{ E) U! U! &d.k,.>% c  o  |  d  f  o  4  e  L< l  l  e  e  8  Ue ut.vt.wt.`=  - p( ,_ H4 34 xt.yt.Eg.{t.7t.d6.zt.At.Bt.y5 q5 Pl.Wr.=+ e  R$ p  3  |  Ct.                                                                                                                                                ",
"                                                                                                                                                      !6 Q  4  6  4  4  7  bt.A! h/ h/ h/ h/ B@ Dt.F) F) =) F) F) =) =) *) *) *) *) *) *) *) I4 zo.=+ 6. 8  8  7$ {$ ]$ g< >0 _$ ct.dt.F@ ,{ 7{ %{ n~ n~ n~ n~ %{ %{ %{ n~ X~ E) <) o, Et.H$ e  1  ]  ]  3  3  f  f  e  e  3  l  6$ x> 'y 1r.Ft.Gt.Y=  - ^_ 8- H4 44 2a Ht.It.Jt.Kt.d6.1s.Lt.Bt.w5 o_ Pl.Wr.7  4  k  m  f  |  Mt.                                                                                                                                                ",
"                                                                                                                                                      f_.Q  f  6  e  6  7  X=.A! h/ h/ h/ h/ B@ r_ o( F) =) F) F) F) =) *) *) *) *) *) *) *) I/ zo.;. 6. 8  8  7$ {$ Nt.U< V< l7 l7 dt.,%.={ c{ %{ n~ %{ %{ n~ n~ n~ n~ %{ 5{ E) <) 16.Ot.x> z; B  B  ]  A  1  e  8  s% ]  c  c  c  !$ g( 2r.Pt.Qt.Rt.8- :5 8-  - ,3.St.Tt.Ut.Jt.Kt.d6.Vt.Wt.5r w5 wm qt.Wr.-$ 4  R$ R$ f  |  Xt.                                                                                                                                                ",
"                                                                                                                                                      8~ Q  c  6  e  6  7  X=.K; h/ h/ h/ h/ B@ M5 $5 F) F) F) F) F) =) *) *) *) *) *) *) *) I/ tt.=+ 6. 6. 6. 7$ 1: Q< Yt.C{ Zt.`t.0h.$b.={ 7{ %{ %{ 5{ %{ n~ p^ p^ n~ 5{ 5{ U! H,.g1. u..u.+u.@u.#u.$u.%u.@_ UJ &u.W9 4  e  e  3  l  o< *u.=u.-u.;u.Z= :5 8-  - >u.,u.'u.6t.)u.!u.C~.~u.{u.5r iw ]u.kX w9 ,$ 6  p  p  p  |  ^u.                                                                                                                                                ",
"                                                                                                                                                      8~ Q  g  6  l  4  q% Cr.K; ,! h/ h/ h/ B@ u_ $5 F) F) F) F) F) F) *) *) *) *) *) *) b' a' /u.7  6. !$ 6. 7$ x  tn _:.K,.I,.J,.*2 -{ ={ %{ %{ n~ %{ %{ n~ n~ p^ n~ %{ ]] <) o, $_.(u._u.:u.<u.[u.}u.|u.1u.2u.3u.4u.x  3  3  3  p  ;. 5u.6u.7u.n- (- [- (- Z= >u.8u.9u.Eg.0u.ls.C~.au.bu.cu.tD du.eu.S6 d@ 6  4  R$ ]  2  fu.                                                                                                                                                ",
"                                                                                                                                                      8~ Q  c  4  6  f  x> Yr.A! B! ,! ,! ,! C; B5 $5 F) F) F) F) F) F) =) *) *) *) *) *) *) gu.hu.7  6. !$ !$ 6. >% ** iu.ju.ku.lu.`*.={ 7{ 5{ %{ n~ n~ n~ n~ n~ n~ n~ n~ U! Z^ 16.mu.5a.nu.[h.ou.`5.pu.a3 qu.ru.su.tu.%> e  3  3  e  T9 uu.vu.7u.wu.U= xu.[- <- A| yu.zu.It.0u.Au.N2.Bu.Cu.cu.Du.tD Eu.Fu.7  8  p  R$ ]  |  fu.                                                                                                                                                ",
"                                                                                                                                                      Gu.Q  c  4  6  f  x> Yr.A! /^ ,! C; ,! C; u_ G4 F) F) F) F) F) F) =) *) *) *) *) *) *) Hu.hu.7  6  l  l  l  7  ** iu.Iu.Ju.lu.={ ={ ={ 5{ %{ n~ n~ n~ n~ n~ n~ n~ n~ U! Z^ 16.Ku.Lu.Mu.`<.k| 4@.Nu.Ou.Pu.Qu.Ru.Su.a$ o  ]  3  l  N= 5; 6u.Tu.Uu.Vu.V= <- <- @- Wu.Xu.Yu.0u.Zu.`u. v..v.+v.o_ p5 {p.Fu.=+ 6  p  p  3  |  W%.                                                                                                                                                ",
"                                                                                                                                                      @v.Q  g  6  6  4  x> Yr.K; /^ /^ C; ,! C; B5 G4 F) F) F) F) F) F) =) *) *) *) *) *) *) gu.hu.q% 6  6  g  6  7  #v.$v.%v.Ju.lu.={ ={ %{ 5{ %{ n~ n~ n~ n~ n~ n~ n~ n~ U! <) `^ @n.[} <h.l' )1 W{ &v.*v.=v.-v.;v.>v.H$ o  2  ]  e  =+ ,v.'v.)v.Uu.!v.U= p- /- @- ~v.{v.]v.0u.{t.N2.^v./v.(v.w5 p5 _v.Fu.z  6  p  p  3  |  :v.                                                                                                                                                ",
"                                                                                                                                                      <v.Q  e  4  6  4  x> Yr.{5 /^ /^ C; ,! C; B5 G4 F) F) F) F) F) F) =) *) *) *) *) *) *) vr.[v.q% 6  6  y  6  7  }v.$v.0{ 7{ ={ ={ 7{ 7{ 5{ %{ n~ n~ n~ n~ n~ n~ n~ n~ U! <) er.@n.#n.l! )1 ,1 |v.1v.2v.3v.;t.4v.5v.=$ l  3  ]  ]  6  6v.7v.8v.9v.Vu.0v.p- /- @- av.bv.ks.cv.$i.dv.ev.fv.gv.qP hv.{p.iv.=+ 6. p  p  p  |  rt.                                                                                                                                                ",
"                                                                                                                                                      jv.Q  l  4  6  8  x> Yr.{5 B! /^ ,! ,! C; B5 G4 X~ F) F) F) F) F) =) *) *) *) *) *) *) vr.[v.q% 6  6  g  6  7  }v./s.kv.7{ ={ 7{ c{ 7{ %{ n~ n~ n~ n~ n~ n~ n~ n~ n~ U! &) lv.mv.a} _6.l' '1 |@.nv.ov.pv.qv..N rv.<$ p  R$ ^  d  c$ sv.tv.uv.P- vv.wv.T= T= I7.xv.yv.zv.cv.Av.Bv.Cv.Dv.gv.w5 t{._v.iv.=$ p  p  p  _  |  y,.                                                                                                                                                ",
"                                                                                                                                                      Ev.Q  g  6  6  4  x> Yr.{5 /^ /^ C; ,! C; B5 $5 X~ X~ F) F) F) F) =) *) *) *) *) *) *) vr.[v.q% 6  6  g  6  7  }v./s.kv.7{ ={ 7{ c{ 7{ n~ n~ n~ n~ n~ n~ n~ n~ n~ n~ U! Z^ `^ Fv.Gv.Hv.Y) ,1 *_.)8.Iv.Jv.Kv.Lv.#h.x  j  d  d  d  6  Uk.Mv.uv.Nv.Vu.Vu.Vu.Ov.$).Pv.Qv.ks.Rv.}i.Bv.Sv.Tv.Uv.o5 o5 9=.iv.7  6  f  p  R$ |  Vs.                                                                                                                                                ",
"                                                                                                                                                      Vv.Q  c  4  6  4  x> Wv.xy /^ /^ C; ,! C; B5 o( X~ X~ X~ F) F) F) =) *) *) *) *) *) *) vr.[v.q% 6  6  g  6  7  }v.Er.kv.7{ 7{ c{ c{ 7{ n~ n~ n~ n~ n~ n~ n~ n~ n~ n~ U!  { V! Xv.[} k+.j| ,1 `<.=_.Yv.Zv.jr.`v. w.x  j  2  2  b  y7 Ij.tv..w.+w.@w.@w.#w.@w.m4.$w.%w.ks.ji.&w.Yu.*w.=w.-w.m_ m_ _v.iv.d@ 7  4  f  3  j  ;w.                                                                                                                                                ",
"                                                                                                                                                      >w.Q  4  6  l  e  y  Wv.Lc V] C; ,! ,! C; ,w.F) X~ E) X~ F) =) =) =) *) *) *) *) *) *) a' [v.q% 6  6  6  6  7  'w.Er.)w.>{ ;{ >{ c{ 9{ .{ n~ n~ n~ n~ n~ %{ %{ n~ %{ U! Z^ 16.Ku.(} k+.j| '1 `<.&_.!w.~w.jr.{w.]w.=$ e  d  ^  ]  x> !> ^w./w.+w.(w._w._w.:w.<w.[w.}w.]v.|w.1w.2w.3w.4w.5w.r5 n_ ]h LO 7  c$ R$ 3  e  o  6w.                                                                                                                                                ",
"                                                                                                                                                      }/.Q  4  4  p  e  6  ~4.~i `5 C; ,! ,! ,! ,w.F) E) E) X~ F) =) =) =) *) *) *) *) *) *) er.[v.q% 6  7  6  6  7  'w.7w.0{ ={ O_.>{ c{ &{ .{ .{ n~ n~ n~ n~ %{ %{ n~ %{ 4{ Z^ `^ Ku.8w._h.'1 ,1 9w.0w.aw.bw.cw.dw.ew.=$ e  {- ^  d  y  [7.fw.gw.hw.wu.iw.iw.jw.|r.kw.lw.`u.1w.ic.mw.3w.nw.ow.n_ A_ pq LO ;. 8  w@ k  4  j  6w.                                                                                                                                                ",
"                                                                                                                                                      }/.Q  4  4  4  e  6  !,.~i `5 C; ,! ,! ,! ,w.F) X~ &) E) X~ F) F) F) =) =) *) *) *) *) vr.hu.q% 6  7  6  6  7  ,a.pw..7.={ ={ 7{ c{ &{ .{ .{ n~ n~ n~ .{ %{ %{ n~ %{ 4{ Z^ `^ qw.8w._h.'1 g| j:.rw.sw.tw.cw.uw.vw.-$ e  k  ]  5  y  >8 sP ww.xw.9v.yw.yw.zw.q$.P[.Aw.Bw.Cw.Dw.fe.Ew.Fw.Gw.`r.x5 _>.LO N= 8  R$ k  R$ j  Hw.                                                                                                                                                ",
"                                                                                                                                                      }/.Q  6  6  6  6  6  ~4.~i `5 C; ,! ,! C; B5 F) X~ E) E) X~ b~ b~ F) F) =) *) *) *) *) vr.Iw.6  6  7  6  6  7  ,a.pw.Jw.={ &{ ={ 7{ 4{ .{ .{ .{ .{ .{ .{ 4{ %{ n~ %{ ]] Z^ `^ qw.8w._h.,1 O+.j:.Kw.Lw.Mw.Nw.Ow.Pw.-$ e  5  ]  f  7  *7 Qw.Rw.7u.Sw.Tw.yw.zw.Q;.Uw.Vw.Ww.`[ `[ Xw.Yw.Zw.F_ N5 i@ M: [7.,$ 6. p  8  8  y  `w.                                                                                                                                                ",
"                                                                                                                                                      }/.Q  4  o  6  4  !$  x.{6 #) C; C; ,! ~] u_ F) X~ E) &) E) L{ }{ F) F) =) *) =) *) *) vr.hu.y  6  7  6  6  7  ,a..x.0{ ,{ '{ ={ &{ P{ 4{ .{ .{ .{ .{ .{ 4{ %{ n~ %{ ]] Z^ `^ Xv.+x._h.L+.O+.L<.@x.#x.$x.{w.)s.%x.-$ 3  {- ]  f  7  ;..[{ &x.*x.=x.-x.P- ;x.X- >x.,x.'x.h$ )x.!x.~x.{x.@e ]x.H; V; ~8 ,$ 6. p  p  8  o  ^x.                                                                                                                                                ",
"                                                                                                                                                      N  Q  4  !$ 7  6  !$ /x.{6 A>.`5 C; C; T@ u_ F) X~ &) &) E) X~ 1{ )! F) F) =) =) *) *) vr.(x.6  6  7  6  6  =+ 'w._x.Jw.0{ '{ ={ ={ P{ P{ 4{ .{ .{ .{ .{ 4{ %{ n~ %{ ]] Z^ `^ :x.<x.j+.$<.K+.i| @x.[x.}x.&S |x.1x.9> k  {- {- 5  7  yd.2x.3x.4x.5x.6x.7x.8x.8x.=x.vt.Ti.9x.0x.pf.ax.bx.C4 @e v-.@k.'8 ,$ 6. 8  p  R$ 5  cx.                                                                                                                                                ",
"                                                                                                                                                      t  Q  6  7  7  6  >% /x.{6 A>.`5 C; C; J{ u_ F) X~ &) &) &) E) X~ X~ X~ F) F) =) *) *) lv.dx.6  6  7  6  6  7  'w._x.Jw.0{ ,{ ={ ={ 7{ %( 4{ r' .{ .{ .{ 4{ 4{ n~ %{ ]]  { I4 Ku.ex.j+.$<.K+.i| fx.gx.hx.ix.jx.1x.kx.k  ^  5  f  6  0h.2x.lx.&x.5x.mx.nx.ox.=x.px.=u.qx.rx.sx.tx.cj.bx.bx.u-.u-.ux.vx.,$ !$ 8  8  8  o  wx.                                                                                                                                                ",
"                                                                                                                                                      !; Q  y  7  7  6  >% /x.{6 A>.`5 C; C; J{ u_ !_ E) +{ &) &) &) X~ X~ E) E) X~ E) *) b' X_.xx.6  6  7  6  6  7  rv._x.%v.Jw.0{ ={ ={ 7{ 9{ %( r' r' .{ .{ 4{ 4{ n~ %{ ]] Z^ I4 qw.yx.zx.K+.g8.i| Ax.Bx.Cx.Dx.GM Ex.Fx.k  ]  f  f  6  W=.2x.Gx.Hx.Ix.Jx.=x.xw.px.Kx.Lx.Mx.Nx.Ox.Px.7` ,k.Qx.Rx.)l.Sx.Tx.=$ l  8  8  8  c  Ux.                                                                                                                                                ",
"                                                                                                                                                      Vx.Q  6. ;. 7  !$ !$ Wx.Lm.<{ B! U@ C; J{ R6.@( ]] &) &) &) &) E) `~ M{ Xx.&) [<.Qb.`^ u=.Yx.7  6  l  x> q% =+ 5v.Zx.`x.or. y.%v.={ 7{ 7{ &{ r' @{ .{ {_.e5..{ n~ n~ n~ <) `^ Ku.yx.a2.K+.8| i| .y.+y.@y.#y.$y.%y.&y.5  5  5  p  4  #'.*y.'Q =y.-y.;y.Qt.xw.>y.,y.'y.)y.!y.~y.{y.]y.^y./y./y.(y._y.:y.=$ 7  6. 6. 8  y  <y.                                                                                                                                                ",
"                                                                                                                           F$ L9 /$ }).&$ &$ N; W%.[y.}y.|y.1y.2y.d% 3y.R=.4y.W5 <{ 7>.J{ C; ;6 R6.o(  { &) Z^ &) &) E) )! &) w1 #a.5y.6y.7y.8y.9y.;$ %4.0y.d% ^,.ay.by.f$.H$.]>.B;.V;.p^ ={ ={ r' .{ .{ .{ {_.e5..{ .{ n~ n~ <) l5.@n.a} g2.J4.[e.$<.[b.cy.dy.ey.fy.h,.0O 9  x7 e  8  :  gy.dt.hy.iy.jy.Vi.ky.ly.my.ny.oy.py.qy.ry.sy.ty.uy.vy.,k.)h wy.xy.yy.zy.-7 &7 K> )% Ay.By.Cy.+e.A/.Dy.<f.Ey.Fy.                                                                                                                        ",
"                                                                                                                           i&.2  ^  1  1  |  y  yf.ZW 86 W; )k.U; W; )k.k-.aj.b; A>.J{ #) U@ s# u_ }( Z^ &) &) &) &) E) ${ n~ ,*.Gy.x> g  g  !$ x> rz Hy.#;.j, W_ i6 7` q; c; b; T; d; .- -{ r' .{ .{ .{ .{ .{ .{ .{ .{ n~ n~ <) `^ Iy.0} 6t y8.y8.$<.B4.Jy.Ky.Ly.Uv.My.kr.q5.L< x/ 1: */._4.]$ -$ Ny.Oy.Ui.Py.gt.Qy.Ry.Sy.0| wa.Ty.Uy.Vy.Wy.Xy.Yy.~4 'd.Zy.P>.`y. z..z.4>.>7.+z.1K ;4 {$ 6$ 6. =$ ;. @z.                                                                                                                        ",
"                                                                                                                           #z.Q  |  j  c  c  !$ >8 9: ~] C; a; ,! C; o; C; J{ #) h@ J{ #) z# R; u_ }( L( &) &) E) &) &) E) n~ x=.$z.l  l  !$ c  i^ %z.g; b# c# a# c# g@ S@ T@ R; a; s# q( r' .{ .{ .{ .{ n~ .{ .{ .{ n~ n~ n~ &) <) !2.bf.}2.K+.Z+.L+.B4.Jy.&z.*z.*z.=z.-z.^1.!$ 6$ 6$ <$ S9 -$ -$ Ny.;z.gt.Py.>z.,z.'z.)z.!z.2|.lc.~z.h|.{z.]z.^z.G: H: G5 (>.,>.(>.M_ x_ /z.). 4+ -$ 6. H< >% >% =$ (z.                                                                                                                        ",
"                                                                                                                           _z.Q  b  c  c  j  y  .7 86 J{ C; U@ I{ C; C; ,! 7>.n>.J{ J{ I{ z# R; u_ }( L( &) E) X~ &) &) &) n~ _3.n&.o  o  y  o  c  ~/ h6 R@ f@ f@ R@ T^ ^^ 7>.U@ U@ s#  3 &{ .{ .{ .{ n~ n~ .{ .{ n~ n~ n~ n~ E) i*.:z.th.}2.o) 8| )1 .y.Jy.&z.*z.<z.[z.]p.^4.x  H< 7$ >0 @) ud.p&.}z.Nj.ui.|z.1z.{'.2z.3z.4z.5z.6z.1w.7z.8z.9z.0z.az.O]._: M_ O].F_ B5 %# :^.bz.T  -$ 6. =$ x> !$ >% cz.                                                                                                                        ",
"                                                                                                                           c&.Q  b  1  1  |  o  d7 k, ,! C; J{ J{ o; C; C; n>.6>.J{ J{ T@ U@ ;6 N5 G4 Z^ E) X~ X~ E) &) <) n~ dz.~-.c  j  o  o  6  ez..r.y# R@ R@ S^ S@ T@ T@ R; h@ p;  3 &{ n~ n~ n~ n~ n~ n~ n~ n~ n~ n~ n~ &{ o~ Iy.fz.:h.Y+.i) Y+.B4.gz.hz.iz.-q.[z.jz.{4.6. H< 6$ _$ a$ -$ O; Lz kz.Ui.lz.Zi.mz.nz.oz.pz.qz.rz.ic.7z.sz.tz.uz.m: e;._: vz.M_ wz.i@ xz.3` yz.zz.,$ =$ =$ !$ x> !$ Az.                                                                                                                        ",
"                                                                                                                           Bz.Q  |  |  |  |  y  %8 )4 C; C; o; o; o; B@ o; p; n>.T@ J{ J{ C; A>./# x- L( E) `~ X~ E) &) <) n~ Zk.*5.y  o  6  6  e  %$ K-.r# S@ $# T^ ~] #) p; T; I; r; k@ '{ n~ n~ n~ n~ n~ n~ n~ n~ n~ n~ n~ k5.K(.:z.Cz.h! 9w.,1 I5.Dz.gz.Ez.o,.Fz.Gz.|7./6.<  p  6. ]$ x  =$ A; Hz.Iz.Jz.Kz.Lz.Mz.Nz.Oz.Pz.Qz.Rz.t3.Yu Sz.Tz.Uz.Vz.Wz.Xz.%x.Yz.C0.C@ d: d: vf.Zz.-$ 6. =$ 6. 8  6. `z.                                                                                                                        ",
"                                                                                                                           i&.2  |  |  3  3  q% =8 [^.h@ C; C; C; C; C; ,:  A.ah.rs.ju hX .A.]Q VN ^_ L( M{ `~ 1{ E) &) <) n~ Zk.)5.6  6  0> 6  6  @4.+A.!|.:( @A.T^ #A.$A.W].j'.y] x] 2{ P{ 4{ n~ n~ n~ n~ n~ n~ #{ #{ n~ n~ Y^ &6.%A.&A.*A.=A.B4.`p.X* -A.;A.Qr.>A.>A.,A.'A.%/.8  6. =$ =$ 6. =$ k^ )A.!A.~A.{A.v*.]A.^A./A.(A.'u._A.:A.<A.[A.}A.|A.1A.2A.3A.4A.5A.6A.L: ]/ s6 xb -$ 6. m> b$ 8  8  7A.                                                                                                                        ",
"                                                                                                                           O%.2  |  |  3  3  y  $8 [^.C; C; h/ C; C; C; ah.1{ 1{ 1{ L{ L{ L{ L{ X~ F) L( L( L{ X~ E) Z^ Z^ .{ G0.u1.6  6  7  6  6  m< m-.f_ 8A.:( R^ 7N 9A.0A.aA.bA.bA.%{ %{ n~ n~ n~ n~ &) &) n~ n~ n~ n~ n~ .{ H,.g_.cA.dA.eA.fA.gA.hA.iA.jA.kA.lA.mA.nA.oA.y/ =$ !$ !$ =$ =$ H$ xx pA.Zi.qA.>t.>x.rA.sA.tA.uA.vA.wA.xA.yA.zA.AA.BA.CA.DA.EA.FA.GA.f6 &@ -= y: Z6.,$ =$ 0> 0> 6. !$ HA.                                                                                                                        ",
"                                                                                                                           ]@.2  |  |  |  f  y  +7 86 ,! C; /^ C; `5 C; Rl F) X~ F) F) F) F) F) F) F) =) M( }( E) E) E) U! .{ G- 1}.6  6  6  4  e  %$ m-.b] =_ :( 7>.IA.JA.KA.a{ c{ 5{ n~ n~ n~ n~ n~ n~ n~ n~ n~ n~ n~ n~ n~ .{ n~ LA.MA.NA.OA.e4 F2.PA.QA.!/.RA.A1 cP SA.TA.,B x  6$ !$ =$ =$ -$ {^ p9 UA.>x.>t.VA.WA._i.^*.XA.YA.ZA.`A. B..B.Nu.'m.N2.+B.aP @B.#B.1` w# L# t: Z6.p&.=$ 7  7  6. y  $B.                                                                                                                        ",
"                                                                                                                           o&.2  |  |  f  f  6  47 %B.,! C; /^ C; `5 `5 m_ $5 F) F) F) F) F) F) F) F) =) *) *) =) X~ X~ E) r' G- V:.6  6  6  4  e  %$ m-.b] =_ S^ ,! VN c{ >{ c{ ={ n~ n~ n~ n~ n~ E) %{ n~ n~ n~ n~ n~ n~ n~ {_.{_.&{ n~ i*.O_.V! G_.n1 &B.*B.@1 @1 Z) =B.-B.A/ x  g  8  6. =$ =$ @) p9 `i.UA.0$.;B.>B.Bi.Ks._- ,B.}- j*.'B.)B./<.Z4.|2.!B.~B.{B.]B.^B./B.4<.f6 w9 H$ 6. 6  8  p  4  (B.                                                                                                                        ",
"                                                                                                                           2-.2  |  3  f  f  7  47 %B.B! C; /^ `5 `5 `5 o_ /_ G4 F) G4 G4 F) F) F) F) =) *) =) F) 1{ 2{ p^ r' 7@ f:.6  6  6  4  e  %$ Kc b] b] S^ ,! pO 9{ 4{ &{ n~ n~ n~ n~ %{ %{ X~ E) n~ n~ n~ n~ n~ n~ n~ #_./_.{_..{ n~ n~ @{ :) n1 _B.`<.M) M) b) :B.<B.]'.a$ e  p  b$ =$ =$ @) N^ 5$.UA.U;.V- 1t.n@ vv.45 }- [B.N4 }B.|B.1B.,2.Xg.!) h@.2B.3B.4B./B..` F# w9 H$ 6. 8  p  3  o  5B.                                                                                                                        ",
"                                                                                                                           gC 2  |  3  f  3  7  +7 %B.V] V] /^ `5 `5 `5 m_ /_ F) F) G4 G4 F) F) F) F) F) =) F) b~ Z~ Z^ &) p^ (a..:.!$ 6. l  e  l  :B Kc $# :( f_ a] -N 9{ %{ %{ n~ n~ n~ E) X~ X~ X~ E) &) n~ n~ n~ n~ n~ n~ .{ &{ &{ &{ n~ 4{ @{ 6B.7B.8B.B1 3) M) c) 9B.0B.q< R< 7  8  0> =$ >% ;$ %8 aB.bB.cB.U- >B.=# !v.45 Z= 3- N4 }B.dB.eB.,2.pe.'@.fB.gB.hB.{i 86 S; YW S6 H$ l  4  f  p  l  $B.                                                                                                                        ",
"                                                                                                                           iB.2  |  |  |  j  g  +7 '4 V] `5 V] `5 `5 `5 m_ /_ F) F) G4 G4 G4 F) F) F) F) =) F) F) `~ X~ &) T! v0.f-.6. l  6. 8  8  :B Kc H7.:( f_ C; DN 5{ %{ %{ n~ n~ n~ X~ X~ X~ X~ E) &) n~ n~ n~ n~ n~ n~ .{ &{ 9{ &{ ;{ >{ ={ t=.jB.kB.x).lB.N) o) mB.nB.oB.u# d@ 6. 7  H$ -$ ;$ pB.aB.wt.bB.0$.qB.ei.rB.X= r- ht..- 3^.sB.E3.`) tB.He.D' uB.vB.wB.66 )4 k6 D9 p&.7  6  p  8  l  $B.                                                                                                                        ",
"                                                                                                                           xB.2  |  |  f  3  y  +7 '4 V] `5 o; yB.`5 V] Rl $5 F) F) F) G4 G4 F) F) F) F) F) 2{ F) X~ X~ p^ @{ .$.zB.=$ 6  6. 8  9  :B Kc T^ R^ B@ C; zt 9{ .{ n~ n~ n~ n~ X~ X~ X~ X~ E) &) n~ n~ n~ n~ n~ n~ {_.{_.k5.-{ AB.;{ -{ t=.BB.CB.x).3) Xg.h<.DB.EB.FB.)l A; 6. 6. =$ >% @) vk.GB.HB.qA.IB.qB.fi.<w.JB.Z= `= .- 3^.KB.LB.MB.Xg.NB.D' OB.PB.|< A! A>.QB.D9 RB.7  6  8  6  o  SB.                                                                                                                        ",
"                                                                                                                           U$.2  |  j  f  3  6  +7 '4 V] `5 `5 G; `5 V] Rl $5 F) F) F) G4 G4 F) F) F) F) =) @( TB.F) -) )_ a' _a.}}.6. 6. 6. 8  9  UB.Kc S^ T^ C; C; 7N 5{ .{ .{ n~ %{ %{ X~ X~ X~ E) &) &) n~ n~ n~ n~ n~ r' .{ VB.&{ -{ WB.G*.-{ XB.YB.ZB.x).M) Xg.-d.`B. C..C.78 >$ !$ !$ 7  =$ @) +C.@C.#C.$C.%C.&C.Ks.*C.=C.y- `=  - -C.;C.>C.,@.M) 6) 6! ,C.'C.)C.#!.@p.:g D9 RB.7  6  4  6  y  !C.                                                                                                                        ",
"                                                                                                                           .  2  2  ^  d  f  7  +7 '4 `5 `5 `5 o; C; C; ah.$5 F) F) F) F) G4 G4 G4 G4 =) ^_ +( TB.UO xz.3` H5 ~C.U< 6. 6. 7  6. 6. :B '6 T^ T^ B@ `5 {C.5{ n~ r' n~ E) X~ X~ X~ X~ X~ E) &) U! .{ n~ n~ n~ n~ n~ &{ %{ n~ ;{ ]C.G*.^C./C.(C.B~.^) Le.M) _C.:C.<C.[C.tj.=$ =$ 6. =$ ;$ }C.|C.1C.2C.3C.4C.;u.y- JB.45 y- `= X].5C.LB.,@.@1 7) 6C.7C.8C.Me #!.7^.}^.T6 O; 7  4  f  4  e  Y4                                                                                                                         ",
"                                                                                                                           D).2  ]  ]  3  f  7  27 k; #) `5 `5 C; C; C; j_ $5 F) F) F) F) F) G4 G4 G4 G4 ^_ $5 $( 9C.0C.aC.N_ bC.U9 6. 6. 6. 6. m> P< n-.T^ T^ B@ `5 cC.={ n~ n~ n~ X~ X~ X~ E) E) E) E) &) <) n~ n~ n~ n~ n~ n~ .{ .{ .{ r' ]C.G*.dC.eC.fC.M1.^) qe.M) ~^.gC.<C.ay.R< =$ =$ t$ t$ S9 hC.iC.jC.kC.lC.=u.V= Z= 45 45  - mC.nC.oC.pC.qC.~) !) W) rC.sC.r-.=6 56 +A.r9 d@ 6  4  p  f  f  G7                                                                                                                         ",
"                                                                                                                           g% |  j  3  f  f  7  17 k; #) `5 `5 C; C; C; j_ $5 F) F) F) G4 G4 G4 G4 G4 G4 ^_ F) F) Oi.w_ tC.aC.uC.h, 6. 0> 0> b$ 0> UB.W>.S^ S^ B@ H; xe.n~ n~ n~ n~ X~ X~ X~ E) &) &) &) &) &) n~ n~ .{ n~ #{ n~ .{ .{ .{ .{ ={ O_.t=.vC.wC.xC.^) ^) M) .^.yC.zC.$N UJ =$ <$ =$ <$ o< AC.R= BC.CC.DC.EC.r- y- Z=  -  - .- FC.oC.pC.qC.~) GC.HC.IC.sC.r-.#!.K; +A.r9 d@ 6  4  p  f  f  OX                                                                                                                         ",
"                                                                                                                           $> j  j  |  |  j  7  27 '] `5 `5 `5 C; C; C; j_ $5 F) F) F) G4 G4 G4 G4 G4 G4 JC.$5 KC.[{ :: w_ K5 *< U< 6. 6. 8  8  0> UB.LC.B@ T^ T^ G; g[.n~ n~ %{ %{ X~ X~ E) &) &) &) &) &) &) n~ n~ .{ .{ #{ n~ .{ .{ .{ .{ &{ -{ t=.yu.MC.xC.b2.^) *2.I].NC.OC.PC.QC.;. -$ -$ 9> o< RC.o# SC.TC.UC.VC.Z= y- 8- 8- 8- [4 z~.WC.eB.XC.~) Tg.YC.IC.sC.b&.#!.v; +A.T# d@ 6  f  f  f  |  ZC.                                                                                                                        ",
"                                                                                                                           |$ |  |  ]  3  4  7  27 %B.V] `5 `5 C; C; C; ss.o( G4 G4 G4 G4 G4 G4 G4 G4 G4 7- `C.6- -R c: (>.C0./< p< H< 6. 6. 6. c$ Gq.)C.a# B@ T^ G;  D.-{ &) %{ X~ X~ E) &) &) &) &) &) &) &) Z^ U! n~ n~ n~ n~ .{ .{ {_.{_.r' n~ t=..D.S, xC.^) ^) *2.~^.+D.OC.@D.Gq.]$ -$ -$ 9> kx.#D.7: $D.%D.UC.&D.8- y- 8- 8- 8- u- *D.=D.-D.72.;D.!) >D.,D.'D.PU *6 Ke k-.T# d@ 6  f  f  |  |  `'.                                                                                                                        ",
"                                                                                                                            _ 2  Q  Q  ]  f  7  27 '4 V] `5 `5 C; C; C; )D.o( G4 G4 G4 G4 G4 G4 G4 G4 G4 7- d' !D.Yz.~D.{D.L` K0.>0 x  8  6. 6. =$ %$ O# a# z# C; Y; ]D.n~ &) E) X~ E) &) &) &) &) &) &) &) &) Z^ <) n~ n~ n~ .{ .{ .{ .{ .{ n~ p^ XB.^D./D.(D._D.kc.:D.~^.<D.[D.D{ yp Q< >0 9> <l }D.#D.|D.1D.2D.3D.4D.ht..-  -  -  - +- <{.5D.![.6D.^) n<.c@.-#.7D.!k.Vd W; k-.T# d@ 6  f  f  |  |  ZC.                                                                                                                        ",
"                                                                                                                            _ 2  2  2  |  f  7  27 '4 V] `5 `5 C; C; C; Ni.$5 G4 G4 G4 G4 G4 G4 G4 G4 G4 ^_ 0' :%.B# ,$ ,$ F% -$ X( _$ <$ V9 o< g( 8D.Kc R. R. C@ c: *).n~ E) X~ E) &) &) &) &) &) &) &) &) &) Z^ <) n~ n~ n~ n~ n~ n~ .{ .{ n~ @{ 9D.0D.aD.(D.kc._D.:D.~^.bD.[D.cD.dD.hA 3| >0 9> o< eD.S].fD.$D.gD.hD.ht..-  -  -  - +- ~e.iD.-(.jD.h2.*2.RA.kD.lD.mD.{5 E; k-.s9 d@ 6  f  f  f  |  OX                                                                                                                         ",
"                                                                                                                           D( |  j  j  j  j  7  27 '4 V] `5 `5 C; C; C; ]Q $5 F) G4 G4 G4 G4 G4 G4 G4 5- 5- =) }0.U: >% >% >% H< nD.;4 %7 :> oD.=> pD.ZN 2{ G4 F) X~ X~ E) X~ X~ E) &) +{ +{ &) E) E) &) &) &) Z^ Z^ Z^ n~ n~ n~ n~ .{ .{ .{ n~ @{ T) qD.rD.(D._f._D.sD.3s.tD.[D.cD.],.C].Nw -$ T9 uD.vD.wD.xD.$D.$D.yD.ht..-  - 8- 9- +- zD.AD.g<.72.BD.*2.CD.'#.DD.E-.D! Y; Le W6 d@ 6  4  f  f  f  ED.                                                                                                                        ",
"                                                                                                                           !I 2  j  j  3  j  7  47 '4 `5 `5 `5 C; C; C; ]Q $5 G4 G4 G4 G4 G4 G4 G4 G4 G4 G4 }( `$.$: z  z  !$ x> >% H% +< u_ 9& 2* g@ `- 7{ 5{ 5{ 5{ 1{ E) &) E) &) &) &) &) &) &) &) &) &) &) &) Z^ Z^ U! #{ n~ n~ n~ n~ .{ .{ .{ v=.FD.W3.GD.kc.kc.sD.HD.ID.JD.KD.LD.u# V< <$ )..S9 MD.W*.ND.OD.PD.QD.s- u- 9- Y2 v- +- zD.RD.SD.]2.;D.M) c@.TD.UD.VD.Y; F; Le &&.B7 7  4  4  f  o  D#                                                                                                                         ",
"                                                                                                                           !I Q  |  |  3  j  7  L^ k; `5 `5 `5 C; C; C; ]Q G4 G4 G4 G4 G4 (_ (_ (_ (_ (_ /_ /_ }%.c_ 7  7  7  !$ 6. G% WD.XD.YD.pz ZD.`D.c{ 5{ X~ X~ X~ E) &) &) &) &) &) &) &) &) &) &) &) &) &) Z^ Z^ U! #{ n~ n~ n~ n~ .{ .{ .{ l5. E..E.GD.Le.b2.sD.HD.+E.@E.n$ Cr.hA a$ <$ m> T9 Wy Jb #E.$E.%E.&E.[- u- 9- 9- +- M'.00.*E.=E. ^.:D.n<./! -E.UD.)C.Y; v; ;j.&&.p&.7  f  6  f  o  ED.                                                                                                                        ",
"                                                                                                                           !I Q  |  |  3  j  7  67 k; `5 `5 `5 C; C; C; ;E.G4 G4 G4 G4 (_ (_ (_ (_ (- (- w- &2 |%.%$ 7  7  x> x> 6  G% o-.>E.lA ,E.F/ 'E.9{ X~ X~ E) E) E) E) &) &) &) &) &) &) &) &) &) &) &) &) Z^ Z^ <) n~ n~ n~ n~ n~ .{ .{ .{ l5.)E.}3.Wm.0e.P) ,c.!E.~E.id.n$ Cr.u# >0 {$ 8  6. Gq.<> Kb {E.#E.]E.p- +-  - +- +- M'.^E./E.(E._E.r1 f@.a:.:E.<E.[E.}E.Le |E.V6 p&.6  f  f  f  o  Y4                                                                                                                         ",
"                                                                                                                           !I Q  |  |  3  j  7  87 k; C! `5 `5 C; C; C; rE $5 G4 G4 (_ (_ (_ (_ (- 1E.2E.K5 )R ]j.h, 6  6  g  !$ 6  t] '6 >E.3E.^z F/ 4E.%{ E) X~ X~ E) &) &) &) &) &) &) &) &) &) &) &) &) &) &) Z^ Z^ <) n~ r' n~ n~ n~ .{ .{ .{ l5.5E.6E.ck 6c.0e.C9.2{.7E.8E.n$ m$ x;.)$ =$ 6. 6. 6. z  9E.}9 0E.aE.bE.|r.g$.g$.m@ h$.*$.cE.dE.eE.nt.fE.gE.hE.iE.jE.#k.Le kE.U# p&.6  f  f  f  o  Z'.                                                                                                                        ",
"                                                                                                                           !I Q  |  |  |  j  7  *7 *6 C! C! C; C; C; C; rE /_ G4 (_ (_ (_ (_ (- 65 Qo.d; k, 66 |^.h, 6  y  g  x> 6  H% W: lE.mE.P].k= Y- X~ X~ X~ X~ E) &) &) &) &) &) &) &) &) &) &) &) &) &) &) Z^ &) <) n~ .{ r' n~ n~ n~ .{ .{ l5.nE.oE.bj 6c.0e.8c.Se.pE.dd.qE.rE.!,.U< 6. 8  p  e  g  :B }k.sE.tE.>B.ur.c$..; .; c$.uE.vE.wE.xE.yE.d>.zE.AE.BE.X; >j.Le _y.u9 B7 6  4  R$ f  o  1%                                                                                                                         ",
"                                                                                                                           5& Q  |  |  3  e  7  !h *6 C! C! C; C; ~] I{ CE.$5 G4 (_ (_ (_ (_ (- Q;.DE.r; tz YW |^.>$ 4  6  g  x> 6  H% t# fy EE.FE.k= U- E) X~ E) E) E) +{ +{ &) &) &) &) &) &) &) &) &) &) &) &) Z^ &) &) n~ n~ n~ n~ n~ n~ .{ .{ l5.nE.GE.d0.U9.=9.&f.#U HE.dd.IE.IE.lk.g( =$ 6. 4  3  l  R< X% S^ JE.>B.ur..; fi.D@ O;.*).KE.LE.`k.<%.:$.m=.n, ME.'k.>j.u-.NE.OE.B7 6  8  p  p  c  VW                                                                                                                         ",
"                                                                                                                           !I Q  |  |  |  j  7  _% Ke C! I{ C; C; C; J{ PE.o( G4 (_ (_ (_ (_ (- QE.a# p; s# [^.~< ;$ 4  6  6  7  6  t] ek.RE.Qw C& n# SE.E) X~ E) X~ E) *) &) &) &) &) &) &) &) &) &) &) &) &) &) Z^ &) &) &) <) n~ #{ #{ n~ .{ .{ l5.TE.UE.VE..0.6c.WE.XE.YE.ZE.`E.`E. F.%$ x  7  o  o  6  'y C$ =_ JE.>B.xi.fi.Q;..; A;.*).r$.(i..F.+F.@F.R#.#F.$F.,j. > J8 %F.&F.O; 7  p  p  4  g  VW                                                                                                                         ",
"                                                                                                                           *F.Q  |  |  |  j  7  pk.<g C! J{ C; I-.C; J{ PE.F) G4 (_ (_ (_ (_ [- i/ r; a; s# fX =F.-$ 4  6. 6  6  7  t] ek.ZZ Qw v* p# (/ X~ E) X~ E) &) &) &) &) &) &) &) &) &) &) &) &) &) Z^ &) Z^ &) &) <) Z^ &) #{ 3{ n~ .{ .{ l5.-F.;F.2h >F.J9.WE.u( ,F.'F.)F.!F.~F.m< H< g  j  3  3  m< x$ {F.]F.^F.>B./F.xi.!>.*).I$.d$.{i.(F.(F._F.u*.Is.e; w-.v-. 9 'l.Dj.O; 7  8  p  8  g  3%                                                                                                                         ",
"                                                                                                                           j= Q  |  |  |  j  7  -..'] C; h/ ,! C; C; ,! :F.<F.G4 (_ x- s- t- (_ :# F; T; a; l, mj.'$ 6  6  4  g  x> F% Bb E/ fv &* p# [F.E) &) &) E) &) &) &) &) &) &) &) &) &) &) &) &) &) &) &) &) &) &) &) &) &) &) &) n~ n~ n~ p^ s~ }F.Ec.9b.|F.1F.2F.3F.*l.4F.)F. F.g( 7  6  e  p  3  >$ X% x# 5F.6F.7F.V- bi.8F.9F.0F.LE.aF.bF.cF.dF.eF.(x.mD.(y.[&.fF.)l.-> ,$ 6$ p  p  8  y  gF.                                                                                                                        ",
"                                                                                                                           M= Q  |  |  |  j  y  >7 .r.o; 7>.V].C; C; ~] hF.#5 JC..3 Z= (- [- V= VN #) s# s# Q<.iF.@) 7  6  6  x> g  bv t# MX Bu &* M- G/ E) &) &) &) &) &) &) &) &) &) &) &) &) &) &) &) &) &) &) &) &) &) &) &) &) Z^ Z^ <) n~ n~ <) jF.kF.Nu.Dp.Dp.fx.lF.mF.nF.oF.oF.pF._/.f  5  3  6  l  @) d9 w* qF.rF.sF.tF.uF.ai.&>.vF.wF.xF.yF.zF.AF.BF.CF.DF.`: EF.FF.Rx.Bj.'$ 6$ 8  p  p  e  *$                                                                                                                         ",
"                                                                                                                           GF.Q  |  |  |  j  q% /7 :g A>.J{ V].R^ ~] B@ ]/ w5 uy A_ q_ M5 C_ ,w.2* w# ## HF.4<.k8 F% 6  6  6  x> g  t] IF.MX &* &* }@ G/ n~ &) &) &) &) &) &) &) &) &) &) &) &) &) &) &) &) &) &) &) &) &) &) &) Z^ N( N( &) &) &) Z^ P|.JF.KF.LF.LF.MF.NF.OF.PF.QF.RF.SF.TF.]  4  4  o  c  '$ u8 w* UF.VF.WF.WF.XF.Vi.YF.-=.!= ZF.`F. G..G.+G.@G.#G.$G.K8 .9 Rx.Z4 @) H< 6. 6  6  3  %G.                                                                                                                        ",
"                                                                                                                           M= Q  |  |  |  |  y  ^7 :g &G.J{ h/ B@ g@ ~] T@ [@ %@ *@ J# [@ [@ [@ ^# #f.^# H7.+6 *G.A; 6  4  4  g  g  t] Y% >6 &* k= f@ =G.%{ &) &) &) &) &) &) &) &) &) &) &) &) &) &) &) &) &) &) &) &) &) &) &) Z^ Z^ Z^ &) &) &) Z^ `^ 14 -G.;G.h[.,|.>G.)d.;8.,G.'G.)G.!G.B  l  !$ y  y  ,$ ek.w* ~G.{G.]G.^G./G.4C.(G._G.:G._n.<G.[G.}G.|G.{v.1G.q8 98 C4 (y.n; tj.H< 6. 6  6  c  _U                                                                                                                         ",
"                                                                                                                           j= Q  |  |  |  |  y  '0 Vx ;6 B@ B@ R; R; [@ [@ [@ /6 *@ |@ &@ M# z@ Q@ [@ T@ g@ +6 2G.A; 6  6  6  x> g  t] #< %* &* k= c# 3G.n~ &) &) &) &) &) &) &) &) &) &) &) &) &) &) &) &) &) &) &) &) &) &) &) &) &) &) &) &) &) &) &) &) G) a' K4 E<.D<.4G.5G.=|.6G.7G.8G.y> e  x> g  o  ,$ W% E/ 9G.{z #E.^G.0G.Tu.aG.bG.cG.dG.eG.fG.gG.hG.iG.jG.U] Ib C4 (y.Uk.k< 6. 8  p  e  c  e/                                                                                                                         ",
"                                                                                                                           j= Q  |  |  |  |  y  ^7 k6 ;6 B@ B@ a; 0: ,6 ,6 ,6 M+ >6 M+ 1@ e@ u2.1@ T@ T@ U@ tz 6` A; 7  6  6  6  g  t] {/ A& ZZ P= B@ x] n~ n~ &) &) &) &) &) &) &) &) &) &) &) &) &) &) &) &) &) &) &) &) &) &) &) &) &) &) &) &) &) E) 2{ M( *) *) J4 wm.kG.2h Gm.9b.y^ lG.B  c  o  c  o  A; kj.mG.nG.oG.aE.pG.0G.qG.rG.sG.tG.uG.eG.vG.wG.6t.iG.xG.yG.zG.AG./y.Pj.g( 6. p  p  p  l  BG.                                                                                                                        ",
"                                                                                                                           j= Q  |  |  |  |  7  0h.QB.z# B@ ^^ g@ [@ %@ e@ [@ m# o# m# o# m# N+ Q@ .` 2^.66 k6 sa H$ g  4  4  g  g  t] t# A& &* k= c# 4$.%{ n~ &) &) &) &) &) &) &) &) &) &) &) &) &) &) &) &) &) &) &) &) &) &) &) &) &) &) &) &) &) L( G) a' G) )_ a' l~ CG.Yu DG.EG.FG.GG.{F g  o  j  g  >% QS &< O# ek.q8 *9 HG.vu.rG.Jh.IG.JG.KG.LG.[G.oa.MG.NG.OG.fF.AG./y.PG.m< 6. 8  6  f  l  D2.                                                                                                                        ",
"                                                                                                                           j= Q  |  |  |  |  !$ 0h.7` z# R; T@ f@ f@ l: ;E.yg.l_ .A.QG.h_ RX hX _S *G.9Y |^.RG.TS =$ 6  6  6  g  g  '$ t# D& a4.MX R; ;<.%{ n~ &) &) &) &) &) &) &) &) &) &) &) &) &) &) &) &) &) &) &) &) &) &) &) Z^ Z^ &) &) &) 0' 0' a' a' j1 G) a' =1.SG.TG.)z.UG.VG.WG.9, XG.3Y YG.63.ZG.d@ F% F% N= F% `G.9' Py.6u. H..H.+H.<! @H.7z.Ax.#H.$H.$G.Kb Jb FF.Vk.j< 7  7  6  f  L< }K                                                                                                                         ",
"                                                                                                                           j= 2  |  |  |  |  g  0h.QB.R; s# z# a# a# M5 m^ (w.(^ lz.%H.&H.*H.=H.-H.G( F% h, ;4 x  6  4  e  6  3  e  t] @6 9& {y l: J# W^.={ n~ &) &) Z^ Z^ Z^ Z^ &) &) &) &) &) &) &) &) &) &) &) &) &) &) &) &) &) &) &) &) *) *) *) G) a' a' G) G) a' 74 ;H.>H.,H.'H.)H.!H.}B.i4 34 i4 |:.~H.x> 6  c$ c$ -$ aF qv.{H.]H.^H./=./H.(H._H.:H.<H.[H.}H.:9 _9 _9 [9 Vk.m< 6. 6. 6. 8  6. 80                                                                                                                         ",
"                                                                                                                           j= 2  |  |  |  |  g  c0 QB.;6 s# s# a# J# Dt.|H.1H.2H.>z.>y.Kz.3H.Zi.4H.z  =$ 7$ 6$ I< !$ g  c  f  3  e  t] t# 0& 5H.l: G# 6$.={ n~ &) <) Z^ Z^ Z^ Z^ Z^ &) &) Z^ &) &) &) &) &) &) &) &) &) &) &) &) Z^ 0' G) G) G) G) G) G) G) a' G) G) G) K4 D0.6H.7H.T) T) 8H.9H.p^ p^ 0H.aH.Kq.6$ l  6  6  -$ 2$.qv.Ti.bH.cH.dH.eH.fH.gH.hH.iH.jH.kH.K8 K8 qf NE.C) @4.6. 6. 6. 6. 6. lH.                                                                                                                        ",
"                                                                                                                           j= |  |  |  |  |  c  >].QB.R; +6 s# a# a# Dt.V^ (/ |H.[F.mH.nH.nH. b.oH.z  =$ 6. I< I< !$ g  c  f  g  g  !w yb N5 :Z A& &@ 7$.-{ n~ U! Z^ Z^ Z^ Z^ Z^ &) &) &) Z^ &) &) &) &) &) &) &) &) &) &) &) L( G) G) G) G) G) G) G) G) G) G) M( !_ G) '_ |( b' +{ >5 N( T! pH.qH.rH.-{ sH.Ak.!$ 6  6  6  ,$ 2$.}t.{H.tH.'v.uH.vH.wH.xH.yH.wH.zH.#e .9 K8 AH.:9 C) :B 6. 6. 6. 6. 6. !&.                                                                                                                        ",
"                                                                                                                           j= 2  |  |  |  |  c  $k.4: R; /B.s# w# J# p_ (/ (/ (/ W] mH.=G.3G. b.BH.z  7  l  g  A7 g  D< e  6  g  g  t] yb N5 9& SW *@ F$.={ n~ n~ <) Z^ Z^ Z^ Z^ &) &) &) &) &) &) &) &) &) &) &) &) 0' G) G) G) G) G) G) G) G) G) G) G) G) G) M( k1 k1 ,_ '_ )_ L( k1  { I/ T! rH.={ *{ Q(.Ak.!$ 6  6  6  =+ lu CH.{H.bH.DH.DH.EH.EH.Ti.>z.Wi.FH.W*..e _9 .9 [9 Pw .B 7  6. 6. 6. 6. )L                                                                                                                         ",
"                                                                                                                           GF.2  |  |  3  |  c  v&..r.s# pp.s# s# s# Rl (/ V^ V^ m^ (/ GH.HH.>3.IH.z  6. 6  g  I< I< I< x> 6  g  y7 bv LX E_ :: SW N+ D@ lu.&) &) &) &) &) &) &) &) L( *) &) &) &) &) &) &) 0' 0' 0' G) G) G) G) G) G) G) G) G) G) G) G) G) a' |( |( ,_ ,_ '_ )_ G) G) M( Z^ V! @{ @{ JH.KH.LH.x> !$ 6  !$ H< u# -*.xH.MH.uH.NH.OH.Si.ui.Ui.Ui.PH.QH.!=._9 J$ T8 Pw ~/ =$ 6. 6. 6. 6. RH.                                                                                                                        ",
"                                                                                                                           SH.2  |  |  3  |  c  ~,.+A.s# s# s# s# s# p_ HN TH.UH.UH.VH.WH.D) XH.|: z  6  6  l  !$ x> Pd.Bd.YH.4&.ZH.07 46 0& D& v. 2* 85 ={ n~ &) =) *) *) *) *) -) -) *) *) -) -) -) -) *) -) -) -) -) *) -) -) H4 p( p( H4 H4 H4 H4 x- '_ c| u- p( '_ '_ c| H4 H4 H4 H4 H4 *) +{ p^ T! w=.lO x> !$ !$ x> H< %$ `H. I..I.+I.@I.UO Ih.#I.,O $I.%I.AG._9 N$ 5&.L8 Nj.~/ =$ 6. 6. 6. 6. )0                                                                                                                         ",
"                                                                                                                           &I.2  |  |  3  |  3  *I.=I.b; s# s# a; s# p; a; +6 +6 fX b; d; b; m, Rj.q% 6  4  e  6  7  27.#{.MS -I.LU ;I.v_ E6.+_.+_.>6 #p.>I.>I.,I.r5 t{.n_ n_ n_ n_ 'I.L5 L5 'I.'I.L5 L5 L5 L5 L5 L5 L5 I_ L5 I_ I_ H_ H_ I_ I_ I_ I_ A_ s_ s_ s_ s_ z_ )I.)I.xo.M_ xo.K5 L_ L_ xo.!I.!I.~I.{I.y7 !$ l  g  g  A; ]I.g*.7=.O$ O$ 7=.K8 7=.^I.zG.D*./I.7=._9 =% a8 Uk.:B =$ 6. 6. 6. 6. OK                                                                                                                         ",
"                                                                                                                           $/.2  |  |  3  |  e  PC.f; b; s# s# a; +6 S; pp.+6 /B.86 +6 )4 9: e6 P; z  6  6  6  6  z  Zs (I.*x _I.:I.,w.N5 <I.Qt [I.]/ ]/ 96 96 F: &@ &@ &@ J# J# G# G# J# J# G# w# J# J# J# J# J# J# J# J# J# J# J# J# s# J# J# J# J# 9: +6 s# s# s# )4 )4 s# s# }I.^; J# w# w# s# J# {j.|I.1I.>% 6. 6. l  g  H$ n; 'h @e K8 Jb .9 Jb .9 K8 O$ QH.qf K8 L8 2I.ck.Uk.:B 6. 6. 6. 6. 6. 9^.                                                                                                                        ",
"                                                                                                                           3I.Q  ^  f  g  4  g  4{.g; )4 a; a; a; s# s# s# s# s# 0: +6 fX cj.q: 4I.q% 6  7  6  6  B7 Zs kn 5I.6I.~a.J6.SW SW A& C5 >6 >6 Q. N+ M+ -: &@ &@ &@ &@ J# J# J# J# J# J# J# J# J# J# J# J# J# J# J# J# J# J# J# J# J# J# J# 1@ Q@ g@ T@ R; s# s# J# J# J# J# J# G# G# J# b# b# 6A.1I.6. l  g  g  g  d@ Sk.Vd i-.C4 _9 _9 Ib .9 K8 K8 K8 K8 K8 L8 P$ s8 n; 7I.6. 0> t$ 8  6$ &N                                                                                                                         ",
"                                                                                                                           -. Q  f  6  6  4  !$ 8I.j6 tz a; a; s# /B./B.pp.s# s# s# 0: +6 s# s: 6V 7  7  7  6  e  z  9I.o5 Dt.C_ ~a.$d.0I.9. 9. C5 Q. 2* 2* *@ &@ &@ G# G# H# H# G# G# G# G# G# G# G# M# M# Q@ Q@ M# M# Q@ Q@ M# G# G# G# G# G# G# &@ G# J# J# J# J# 9: +6 G# G# G# G# G# G# E: &@ &@ T/.gA ~9 6  g  g  g  g  N= Tk.)k. > Cb  9 Kb C4 Kb K8 K8 K8 [9 [9 L8 L8 d8 Tk.:B x  H< 6. 6. =$ 5<                                                                                                                         ",
"                                                                                                                           0^.Q  4  6  6  4  0> Zt.4B.f6 m, ZW f6 .o.aI.aI.n6 n6 m6 A6 z6 e6 7o.bI.7  6  g  c  e  B7 cI.dI.eo eI.r{.). ,d.,d.B0.x3.,R Qp.p6 fI.[;.[;.Rd.W[.W[.W[.Rd.Rd.Rd.Rd.W[.W[.W[.Rd.Rd.Rd.Rd.x6 x6 Rd.Rd.Rd.Rd.Rd.Rd.Rd.Rd.Rd.Rd.Rd.bC bC bC Rd.aI.aI.Rd.Rd.W[.W[.W[.Rd.p6 p6 p6 gI.hI.iI.x> x> g  g  e  ;. Nm.jI.mD.$< yb yb <6 d9 d9 d9  < d9 d9  <  < $G.kI.P< x  H< 6. 6. -$ %*.                                                                                                                        ",
"                                                         y-.N  T% lI.mI.nI.T%  B N  N  oI.y% y% 8r.                        V_.2  6  6  6  6  6  }}.8%. 8 27 17 17 7%.7%. 8  8  8  8  8 L^ L^  8 pI.!$ l  6  g  g  y7 q^.8%. 8 W0. 8  8 qI.4&.4&.4&.4&.4&.7%.7%.7%.rI.rI.sI.sI.sI.rI.rI.rI.7%.qI.qI.qI.tI.W0.tI.W0.W0.W0.W0.W0.7%.4&.4&.4&.4&.4&.$8 @8 0_ c7 c7 g7 Io.0_ 0_ Io.Io.g7 g7 g7 Io.SO -P Q6 O6 uI.vI.g  g  x> g  g  l  O4.Lq.o%.wI.xI.I%.Pc f^.=7 ]i }7 }7 mn mn d^.$7 o%.]$ 6$ =$ 6. b$ 6. W'.yI.zI.=*.v$ gB <<.$'.F'.uu uu uu c(.<<.AI.F'.BI.1* j1.BI.AI.ne.~S !6 CI.                                                ",
"                                                         &6 Q  Q  Q  Q  Q  Q  Q  Q  Q  Q  Q  Q  Q  2  |  3  }  n  DI.</.6$ c  g  6  6  6  g  !$ 6. 6. l  !$ q% q% q% q% q% q% q% 7  z  q% q% x> I< x> x> 6  6  6  7  7  q% x> x> 7  7  7  7  7  7  7  7  7  7  7  7  7  7  7  y  7  7  7  7  7  7  7  7  7  7  7  7  7  7  7  q% z  z  z  y7 z  z  B7 z  z  z  z  j^ j^ j^ j^ =+ 7  7  q% z  z  B7 G% B7 =+ x> g  c  x> g  g  g  l  !$ x> g  x> l  g  7  7  7  7  7  7  !$ !$ 6. =$ 6. 6. =$ 6. 4  4  o  Q  Q  Q  Q  Q  Q  Q  Q  Q  Q  Q  Q  Q  Q  Q  Q  Q  Q  Q  Q  Q  Q  Q  O.                                                 ",
"                                                         D7 3  3  3  |  |  b  g  6  6  6  g  g  o  o  g  6  6  6  6  6  6  6  6  6  6  6  g  c$ 6. p  p  6. l  g  g  g  g  6  6  6  6  6  4  6  c  g  6  4  f  f  6  6  4  g  g  6  6  6  6  6  6  6  6  6  6  6  6  6  6  6  6  6  6  6  6  6  6  6  6  6  6  6  6  6  6  6  6  6  6  6  6  6  6  7  6  6  !$ 6. !$ 6  6  6  6  6  6  6  7  7  x> x> 7  x> g  4  c  g  i^ c  g  !$ 6$ l  y  l  4  c  l  !$ !$ !$ 6. !$ 6. 6. 6. 6. 6. 6. =$ 6$ g  g  6  6  6  6  6  6  6  f  f  f  f  f  f  f  f  j  4  4  3  f  f  f  4  9  D7                                                 ",
"                                                         5. 2  |  |  |  |  3  g  6  6  6  6  6  6  6  o  6  6  6  6  6  6  6  6  6  6  6  g  6  l  _  l  l  g  g  g  g  g  6  6  6  6  6  g  c  e  x> 6  4  f  f  4  6  4  6  y  g  g  g  g  g  g  g  g  o  o  o  g  g  g  g  g  g  g  g  g  y  g  y  y  6  6  6  6  6  6  6  6  6  6  6  6  6  6  6  6  7  7  7  7  6. 6. 6. 7  6  6  6  6  6  g  g  g  g  6  4  f  c  i^ g  g  6  !$ g  g  g  l  g  g  g  g  g  g  g  g  l  6. 6. 6. 6. l  g  g  g  6  6  6  6  6  6  4  f  f  f  f  f  |  |  |  |  j  j  |  |  f  m  m  p  EI.                                                ",
"                                                         :@ |  |  |  |  o  c  g  6  6  6  6  6  6  o  o  o  6  6  6  6  6  6  6  e  g  g  D< !$ c  e  7$ 6$ g  g  g  g  g  6  6  g  6  6  6  6  c  x> g  c  f  6  6  6  6  7  x> g  g  g  g  g  g  g  c  c  g  g  g  g  g  g  g  o  o  o  g  g  g  g  o  o  g  g  g  g  g  g  g  g  g  g  g  g  g  g  7  7  7  7  7  7  7  6  7  7  q% x> g  g  g  D< x> x> 7  6  6  g  g  x> 6  6  7  6  6  y  g  g  g  g  6  g  6  g  g  g  e  l  6  6  g  g  g  6  6  6  6  6  6  6  f  f  c  g  g  g  c  o  o  o  |  |  |  |  |  f  f  p  %                                                  ",
"                                                         <% |  1  b  j  g  g  c  6  6  6  6  6  6  o  6  6  l  e  y  6  6  g  g  l  g  l  6$ g  g  g  l  l  l  g  y  c  l  c  6$ !$ 6  s% f  6  x> !$ L< e  4  f  f  4  6  =+ 6  c$ j  c  c  e  g  c  c  3  3  j  j  |  |  |  j  o  j  j  |  |  j  j  j  o  j  c  g  x> g  c  g  g  b  3  j  l  g  g  c$ 0> >% j^ >% !$ !$ 7  =+ =+ !$ g  D< g  c  c  g  6  g  l  l  l  6  6  6  6  6  6  6  6  6  6  e  3  3  e  e  l  c  l  l  6. !$ g  6  7  7  g  e  _  4  e  l  6  6  f  4  g  f  3  j  o  j  b  |  |  b  f  |  f  |  /  FI.                                                ",
"                                                          ).6  l  y  y  6  x> 6  g  x> x> x> x> x> !$ !$ g  l  g  x> 6  g  g  x> 6. 6$ 6. =$ 6. H< GI.%> a$ H< 6$ 2Y HI.II._0 p).2Y 6  c$ 6  >% 6$ A> I% E  y> C  J+ 3  7  7  e  e  /  C  E  E  }0 }0 y> y> E  E  E  E  E  E  E  J+ 2+ E  F  W< J+ E  E  y> y> y> y> y> y> E  y> y> E  Ju D  ^( :E y> s> l  >% >% x  >% >% l  i^ B> {F :E p).p).}0 y> A> A> B  y> y> y> C  C  D  J+ C  C  C  C  C  C  D  E  E  D  D  C  I  I  C  Jc z; _  e  g  7  6  f  3  l  !$ z7 y7 6. f  B  y> J+ 2+ 2+ A  J+ W< 2+ E  E  J+ F  [0 H  10 JI.                                                ",
"                                    %  KI.Km.GF.r< 3> 0*.LI.]^.V-.V-.hd.&4.hd.&4.hd.hd.hd.G6 G6 ~-.~-.MI.NI.~-.4' .C.4  3  4  g  6. 6. f% $&.(S k}.OI.PI.fM hd.QI.RI.SI.TI.UI.VI.WI.XI.|D YI.ZI.`I. J..J.+J.@J.#J.$J.%J.&J.*J.=J.-J.;J.>J.,J.'J.)J.!J.~J.{J.]J.^J.^J./J.^J.(J.(J._J.:J.<J.[J.}J.|J.1J.)J.2J.3J.4J.5J.6J.7J.7J.8J.9J.0J.aJ.:n.bJ.cJ.'a dJ.eJ.fJ.gJ.gJ.hJ.w:.iJ.jJ.kJ.5J.9J.lJ.mJ.mJ.mJ.lJ.lJ.9J.nJ.nJ.oJ.pJ.qJ.4J.rJ.4J.3J.3J.sJ.sJ.sJ.tJ.uJ.!J.}J.!J.vJ.wJ.xJ.yJ.zJ.AJ.Q  f  f  6  4  f  8  f/.k}.BJ.PI.CJ.DJ.EJ.FJ.GJ.HJ.IJ.JJ.KJ.LJ.MJ.NJ.OJ.PJ.QJ.RJ.SJ.TJ.UJ.G^ A5.~3.E^ M].VJ.                              ",
"                                    SH.d( Q  2  2  |  j  q^.WJ.XJ.YJ.XJ.Te 9Y ZJ.!% !% !% `J. K..K.Fb.Fb.c<.c<.H5.+K.y  g  g  g  =$ ;. I%.*q.b&.@K.{/ IF.p8 iF.#K.$K.%K.&K.*K.=K.-K.;K.'^ >K.,K.'K.)K.!K.~K.{K.]K.^K./K.(K.6r._K.tt.:K.<K.[K.}K.x( |K.1K.2K.3K.@2 @2 @2 4K.5K.U( Ln.Ln.@2 4K.4K.2K.|/ +/ +/ `n.6K.7K.7K.8K.9K.8K.0K.aK.bK.cK.dK.42 eK.fK.}/ gK.|K hK.M6 iK.jK.kK.lK.mK.C, bK.bK.aK.aK.nK.bK. p.oK.oK.oK.oK.oK.oK.7K.7K.^o.7K.7K.7K.7K.oK.6o.`n.6o.6o.mK.mK.pK.qK.rK.sK.Q  f  6  c$ 4  y  :h tK.uK.'n.vK.wK.xK.yK.zK.AK.AK.AK.AK.BK.CK.lg.DK.EK.FK.GK.HK.IK.JK.', 1  |  ]  |  |  KK.                              ",
"                                    SH.d( Q  |  |  |  j  )Q l8 e&.yx #9 yx LK.MK.yx yx yx N8 n8 @] xc.xc.Eb.l^.G- NK.x> D< D< 6$ 6$ =$ =..2< .> .> j-.1g &9 >9 OK.PK.QK.RK.SK.TK.UK.VK.*j.*j.Om.WK.XK.YK.ZK.`K. L..L.+L.@L.-i.>N br.#L.R@.$L.%L.&L.~d.~d.*L.=L.=L.=L.-L.-L.-L.;L.;L.;L.>L.>L.>h.,L.'L.'L.)L.!L.!L.xC.(D.~L.{L.]L.^L.9_.9_./L.*B.f@.(L._L.:L.<L.:7.4N 4N [L.}L.8t.]m |L.ii.9_.1@.1@.Dw.>m 9_.>m 9_.9_.~d.~d.~d.>m |L.|L.|L.1L.1L.>m /L.~d.~d.~d.~d.1@.9_.f@.A1 h@.2L.3L.Q  j  f  4  !$ y  V$.4L.z: 96 '+ 5L.6L.7L.8L.9L.30.9L.0L.aL.bL.Ca.cL.dL.eL.fL.fL.gL.hL.iL.B  |  3  3  3  jL.                              ",
"                                    SH.d( |  |  |  |  j  )Q B8 yx yx #9 Y9 ]0 Xx R8 ra ra R8 ;9 m] Eb.Eb.kL.K= J, lL.q% x> x> x> x> 7  -..V>.=6 {5 ]5 t-.Dm 1g mL.nL.oL.pL.qL.rL.sL.;K.6] 4i.tL.uL.vL.wL.xL.yL.zL.AL.BL.CL.kq DL.EL.FL.GL.HL.IL.IL.JL.q) KL.q) q) q) q) q) q) =|.Yu.Yu.j3.Bb.Bb.Bb.s3.s3.s3.s3.s3.s3.LL.LL.LL.2w.2w.ML.i3.N2.m) X) +1 aU '& NL.U# U6 U# F(.OL.PL.QL.,p.,p.,p.N2.RL.MB.,p.yh.yh.yh.,p.i3.i3.(8.,p.,p.,p.,p.,p.,p.,p.,p.S4.SL.`4.`4.`4.`4.`4.h| X) TL.-5.Q  b  3  5  3  b  Lk.VJ 9X A: x: UL.M..VL.Da.WL.XL.YL.YL.ZL.ZL.`L.`L. M..M.+M.@M.#M.$M.%M.B  2  ]  |  |  @@.                              ",
"                                    k- d( |  |  |  o  y  o^.W8 Y9 &M.*M.ra ra ra T8 G8 ra R8  ( !h.Eb.xc.Z#.Eb.#= :(.7  6. =$ 6$ 6$ =$ 6_ $o.k5 X5 y;.=M.^^.<&.-M.;M.>M.,M.'M.)M.!M.~M.*l -i.Xo.{M.]M.^M./M.(M._M.:M./K.[#.<M.my.,z.[M.}M.|M.1M.IL.2M.1F.1F.6G.3M.3M.3M.3M.3M.3M.4M.4M.4M.5M.=|.KL.3M.3M.=|.=|.=|.=|.=|.=|.=|.%i.%i.1F.1F.6M.,p.B~. /.m& <& 7M.50 8M.9M.ZI.0M.aM.bM.!L.,8.]d.xC.xC.K4.cM.cM.cM.cM.cM.dM.eM.dM.6M.1F.1F.1F.)L.(8.(8.(8.K4.cM.K4.,p.0:.h| `) O+.b) u+.>5.Q  3  f  3  3  e  Mk.fM./1.t. p6 gM.hM.fe.iM.jM.kM.lM.mM.lM.nM.oM.pM.qM.qM.rM.sM.tM.uM.vM.J+ {- 5  |  j  *$                               ",
"                                    wM.d( |  |  |  g  6  o^.W8 |9 Xx ra ra ra R8 G8 o9 5&.ra B$ |o.xc.xc.Y;.Eb.s* xM.6  6. =$ 6$ 6. =$ 6_ $o.=M.X5 yM.Y5 l5 Lc zM.AM.BM.CM.,x DM.EM.<@.FM.#I.GM.HM.IM.JM.KM.LM.MM.NM.OM.PM.QM.UA.S#.RM.SM.1<.Re.ae.u( u( u( 4c.4c.4c.TM.TM.TM.%U UM.UM.VM.WM.WM.WM.XM.XM.VM.VM.Rp Rp Rp YM.Rp Rp YM.+0.ZM.K9.G9.I8.`M. N..N.+N.za.8M.8M.@N.#N.$N.l_.'2.n9. 2.%N.%N.T4. 5.%N.$5.%N.h3.%N.n9.h3.'G.,G.,G.,G.,G.'2.&9.,G.,G.n9.&9.Yq b@.B~.Y+.i) a) v+.<5.Q  ]  s% 8  6  6  Kk.&N.L+ B: s6 *N.|8.=N.-N.;N.>N.6Q hQ ,N.6Q 'N.)N.!N.)N.~N.{N.]N.^N./N.A> {- f  |  1  2%                               ",
"                                    x{ d( j  |  o  f  6  (N.,^.yx n9 ra R8 R8 ra _9 _9 _9 z$ &9 _N.@] X$.:N.%l m^.h,.z  !$ H< =$ 6. >% ej._o.y;.X5 X5 2;.X5 k5 <N.[N.}N.|N.1N.2N.3N.4N.,k cC.tr.5N.6N.7N.8N.9N.0N.aN.bN.cN.9F.0i.R$.)L dN.eN.fN.O/ gN.hN.9} 2n.ph.ph.bn.bn.bn.gh.J! iN.iN.iN.iN.jN.kN.2n.lN.th.mN.<} <} nN.~} oN.pN.qN.rN.sN.tN.uN.vN.wN.xN.5m.yN.zN.AN.O6 BN.CN.DN.iA.EN.FN.GN.HN.IN.JN.KN.LN.MN.MN.KN.qh.JN.NN.ON.PN.QN.RN.SN.TN.UN.VN.SN.WN.XN.YN.>1.Y+.8) 9) ZN.>5.Q  f  6  6  3  6  f: Td e_ M# Q; `N. O..O.E[ +O.@O.#O.$O.%O.&O.*O.=O.-O.;O.>O.,O.'O.)O.!O.f  f  f  f  3  ED.                              ",
"                                    x{ d( j  |  f  k  4  (N.K9 *M.Gb ra ra R8 ra $9 z$ z$ z$ 1&.d&.`4 Kc +A.'6 h6 ]# j^ 6$ 6$ 6. 8  >% ^7 _o.y;.X5 X5 s-.=6 m5 a9 ~O.{O.]O.^O./O.(O._O.:O.<O.[O.S*.|_.}O.|O.1O.2O.=( ]$..; yi.yi.;@ 1d.K2.3O.4O.5O.6O.7O.8O.9O.9O.lH.0O.JM JM aO.aO.bO.bO.bO.bO.bO.cO.cO.dO.8O.9O.9O.8O.eO.fO.fO.fO.{3.{3.{3.{3.gO.hO.`|.iO.jO.kO.lO.mO.nO._(.oO.pO.:x.qO.rO.sO.rO.Xv.rO.5O.5O.Ku.Ku.sO.tO.AO qO.qO.5O.qO.pP pP RO RO uO.vO.wO.x#.xO.yO.L+.6) zO.U1 z5.Q  o  6  4  c  6  Ik.N: d# &@ L# %: AO.BO.CO.DO.EO.e[.}#.FO.C( l<.l<.2<.GO.HO.,e.k9.IO.(  f  f  f  f  3  9#                               ",
"                                    9; d( |  f  f  k  4  JO.K9 *M.ra ra ra R8 |9 $9 z$ z$ z$ 1&.Oc Db Db Db Db Y: W# =+ p  p  8  6$ !$ )7 r-.-6 -6 W5 A! KO.~).K; }^.7^.46 W_ _g =6 m: LO.Ti.Ag.=e.)@ j@ /a.n4./a.h$.@; n@ Ks.3l./5 9- c' #6.#6.V! s' MO.l5.NO.o~ o~ o~ o~ o~ o~ o~ o~ o~ o~ o~ o~ o~ o~ l5.8H.o~ o~ o~ l5.`^ G! G! u, w=.w=.w=.c~ OO.PO.QO.RO.SO.TO.UO.VO.5w.Jw.n~ n~ n~ O_.o~ 0H.b=.LA.LA.LA.b=.LA.@{ @{ o~ o~ o~ o~ o~ o~ MO.WO.J(.`/.XO.OO.YO.ZO.;8.$<.%<.8| I} (9.Q  l  6  4  g  7  1^.wB.QB.s# Q@ U-.`O.I/ J4 Z_.O}.O}.=3 r, w1 21 u- 21 -3.-3.2( T}  P.9> f  f  f  f  f  H7                               ",
"                                    .P.d( f  4  6  f  7  JO.K9 R8 ra ra ra $9 $9 8&.+P.~0 z$ Re 1g Kb *9 Db $9 (y.W# z  p  p  S$ _  8  )7 Kc -6 ]6 C! F; C! C! ]6 K; r; J{ 2^.76 h@ D5 '! i/ @P.#P.$P.%P.U= xu.U= 85 l@ 75 vv.Vu.|5 G4 =) &) U! ${ ${ 9{ %{ %{ 5{ %{ 5{ 5{ 5{ 5{ 5{ 5{ 5{ 5{ 5{ 5{ 5{ %{ %{ %{ %{ %{ 5{ %{ &) &) L( Z^ Z^ Z^ Z^ .{ Z^ '{ &P.!F.*P.=P.VO.-P.fr.;P.>P.,P._/ >P.H/ 5{ H/ 5{ 5{ 5{ 5{ 5{ 7{ 7{ 5{ 5{ 7{ 5{ 5{ 5{ 7{ 9{ 5{ ]] %( p4.%A.'P.)P.$<.Y:.|{.I} !P.Q  _  c$ p  9  >% ia LX 7^.s# R; R; ~P.}{ F) F) -) *) H4 G4 H4 ^_ 't..3  - y- __ z| 7/ -$ f  f  f  f  f  w7                               ",
"                                    {P.d( o  6  6  8  =+ JO.K9 *M.R8 ra ra ra $9 $9 z$ z$ z$ z$ z$ &9 $9 z$ z$  9 |Z y7 g  6$ l  9  !$ ^7 {6 ;).C! C! `5 `5 <>.t!.I; 8' o; J{ J{ I; &@ -R x$.9$.b$.Dl.T= ;m.y- ]P.85 65 )@ 65 ^P.ht.G4 0l.E) E) b{ b{ %{ 5{ 5{ 5{ X~ X~ X~ X~ X~ X~ X~ X~ X~ X~ X~ X~ 1{ 6{ 6{ 6{ >_ 1{ X~ X~ X~ `~ X~ X~ X~ X~ U! n~ ,{ p-./P.(P._P.kO.:P.<P.[P._/ b{ 6{ >P.8{ 5{ 6{ :/ Y] Y] b{ 5{ 5{ 5{ 5{ 5{ 5{ X~ X~ 5{ 5{ 5{ 5{ E) X~ <) H:.}P.|P.1P.72.qC.2P.3P.Q  t> 8  p  _  6. AL LX 76 p; s# p; D) X~ F) F) al.2t.2t.7- (_ :5 8- .3  3 y- M4 .-  P.<$ f  f  f  f  3  w                                ",
"                                    wM.i  o  f  6  p  6. JO.`9 *M.R8 R8 ra ra $9 $9 $9 z$ z$ z$ z$ Re z$ 8&.z$ Cb 4P.j^ x> 6$ 6$ 6. >% 6_ Ke ~).C! C! C! <{ C! =6 I; J{ A>.A>.J{ A>.g@ !s.mR -N '! '@ U= *5 [5 U= U= )@ l@ M7.Dl.(_ H) 5P.|l.%{ 8{ _/ ]] X~ X~ H/ X~ X~ X~ X~ X~ X~ X~ X~ X~ X~ X~ X~ X~ X~ X~ X~ X~ &) &) &) X~ X~ X~  { Z^ Z^ <) n~ .7.6P.7P.8P.9P.9P.0P.6s.c{ Y] Y] Z~ aP.1{ b{ _/ 8{ 5{ 5{ 5{ 5{ 5{ 5{ 5{ 5{ 5{ X~ X~ X~ X~ X~ X~ X~ X~ &) m~ bP.cP.S4.&f.,c.n+.dP.Q  ]  8  p  p  6. (B <6 76 J{ eP.p; fP.&) *) F) $( G4 H4 (_ 't.gP..3 9- (- (- *5 M'.hP.<$ f  f  f  m  f  Ne                               ",
"                                    &I.d( 4  f  p  p  8  JO.`9 *M.R8 R8 ra ra z$ z$ $9 z$ z$ $9 $9 z$ &9 8&.z$ J8 04.y7 8  p  p  6. =$ 6_ Xs ~).<>.<>.tq t!.KO.#!.F; `5 gr @p.#) o; J{ r; o; G; h@ Q;.Y= U= &# iP.2).jP.XH.3@ kP.8$.)! lP.5{ 8{ 5{ 1{ `~ |{ |{ |{ |{ |{ |{ |{ |{ X~ X~ X~ X~ X~ X~ X~ 1{ 1{ X~ X~ E) &) E) X~ X~ X~ |{ |{ |{  { U! n~ Jw.r=.mP.nP.oP.pP.qP.rP.c{ Y] `~ `~ 0l.`~ Y] _/ 8{ b{ Y] b{ b{ Y] Y] Y] X~ X~ X~ X~ X~ X~ X~ X~ |{ X~ U! sP.tP.uP.2M.=9.&f.^9.vP.Q  3  6  4  6  B7 )l D/ p; p; p; p; D) E) F) F) G4 H4 ^_ (_ 3- 8- (_ s- W= W= Y= mC.wP.9> f  f  f  m  |  !/                               ",
"                                    k- c/ f  f  p  p  6. JO.`9 *M.R8 C$ R8 ra z$ z$ $9 $9 z$ $9  ( $9 $9 z$ ]&.S8 W# y7 6. p  S$ t$ =$ 6_ Ke C! C! #).C! C! F; E; E; V~ ~).I{ C; o; r; V] C; J; #) ei._- Vu.xP. 3 yP.$) r; F; U; zP.E) %{ </ 8{ %{ b{ Y] H/ ]] X~ X~ X~ X~ X~ X~ X~ X~ X~ X~ X~ X~ X~ X~ X~ E) &) &) E) E) E) Z~ Z~ |{ |{ |{ |{ U! n~ *{ Kj.AP.BP.CP.DP.EP.*u.${ N{ 0l.N{ aP.1{ `~ _/ Z~ FP.FP.Y] Y] FP.Y] Y] X~ X~ X~ X~ X~ X~ X~ X~ X~ lP.|l.5*.GP.cn.i3.dc.Q9.@d.HP.Q  e  6  6  6  B7 )l {/ gr C; J{ 7>.IP.>_ }{ $5 G4 G4 G4 (_ (_ (_ (_ JP.(- s- :5 +- KP.9> f  f  f  m  |  4%.                              ",
"                                    SH.d( f  f  p  p  6. LP.`9 *M.R8 R8 R8 R8 R8 H8 z$ $9 $9 A$ $9 $9 $9 H8 $9 l^ r9 y7 6$ p  e  p  =$ 0h.{6 ]6 t!.t!.#).C! J{ I; U; E; ]6 C! C! `5 C! C! #) C; C; MP.Mi.)D.ah.m_ B5 C; C; G; G; ,I.]] 5{ 5{ 5{ 5{ 1{ 6{ 5{ X~ X~ X~ X~ X~ X~ X~ X~ X~ X~ X~ X~ X~ X~ X~ X~ E) &) &) &) E) X~ X~ X~ X~ X~ X~ E) n~ r' K5.Uk.NP.OP.PP.QP.EP.RP.6- SP.TP.Z~ 0l.F! 5P.)! `~ UP.Y] Y] Y] Y] Y] Y] X~ X~ X~ E) E) X~ X~ X~ L{ `~ lP. / VP.WP.mw.XP.YP.Se.ZP.Q  3  6. =$ 9  6  Ik.Eb n>.h/ ,! o; zt 1{ F) `C.G4 `C.6- `P.(_ 3-  Q. Q. Q.s- (_ )_ Xo.U9 4  f  f  {- |  .Q.                              ",
"                                    M= }  l  6  6  p  =$ *^.`9 *M.R8 R8 R8 R8 R8 R8 z$ $9 $9 $9 $9 $9 K8 L8 $9  ( W# y7 g  8  l  4  !$ /7 }^.]6 t!.t!.C! I; C! C! F; E; I; C! C! C! C! C! C! I{ #) r# B@ B@ C; C; C; C; `5 yB. 5 r5 ]] n~ %{ n~ n~ %{ b{ Y] `~ X~ X~ X~ X~ X~ |{ X~ X~ X~ X~ X~ X~ X~ X~ X~ X~ X~ X~ X~ X~ X~ X~ X~ X~ X~  { L( n~ r' ,{ 0; NP.+Q.@Q.#Q.AP.$Q.r- #( Y~ b~ `~ 0l.0l.`~ `~ 0l.Y] Y] Y] Y] Y] Y] X~ X~ X~ E) E) X~ X~ X~ H/ 6{ E) @<.%Q.&Q.Bv.,0.*Q.2{.=Q.Q  ]  p  6. _  6  Ik.IF.M{.B! C; r; D) 1{ F) -Q.G4 5- 5- (_ (_ 3-  Q. Q. Q.3- (_ H4 -l.U9 4  f  f  {- |  .Q.                              ",
"                                    z& _  g  7  6  6. =$ *^.`9 *M.R8 R8 R8 R8 R8 R8 ra T8 $9 $9 $9 H8 L8 L8 $9 l^ >> j^ 6  p  g  3  !$ _7 {6 ]6 C! C! C! H; C! C! I; F; F; I; C! C! C! C! C! C! #) f@ ,! h/ T^ T^ C; `5 `5 yB.;Q.r5 X~ X~ 5{ %{ X~ 1{ }{ X~ X~ X~ X~ X~ X~ X~ X~ X~ X~ X~ X~ X~ X~ X~ X~ X~ X~ X~ X~ X~ X~ X~ 2{ L( L( L( Z^ <) .{ '{ %r.Jj.>Q.,Q.'Q.)Q.!Q.~Q.U;.{Q.]Q.]Q.SP.0l.0l.0l.`~ X~ X~ X~ X~ X~ X~ X~ X~ X~ X~ X~ X~ X~ X~ X~ X~ ]] +{ p:.^Q./Q.!z.(Q._Q.k:./9.Q  ^  _  _  _  6  Ik.Y% y;.V] `5 G; [N X~ F) G4 /_ G4 (_ (_ (_ 8- gP.(_ (_ (_ .3 )_ s7.h, 4  f  f  {- |  .Q.                              ",
"                                    5& _  g  6  6  6  =$ *^.`9 *M.R8 R8 R8 R8 R8 R8 *% L8 $9 ]&.<9 T8 L8 L8 R8 l^ Y# B7 6. 4  l  p  !$ zd.~i ]6 C! C! C! ]6 $) C! C! ]6 F; F; I; C! C! C! C! C! I{ C; C; C; C; C; `5 yB.yB.yB.Se r5 ]] &{ n~ n~ 4{ 8{ 6{ 5{ 5{ 5{ 5{ 5{ 5{ 5{ 5{ 5{ 5{ 5{ 5{ 5{ 5{ 5{ ]] .{ .{ 4{ |{  { Z^ Z^ .{ {_.5| {_.p4.{_.:Q.<Q.[Q.B; }Q.,Q.|Q.1Q.2Q.3Q.>3.=# aP.aP.b~ `~ X~ Z~ b{ 5{ X~ X~ 5{ 5{ 5{ 5{ X~ X~ X~ X~ X~ X~ X~ X~ ]] .{ <) 4Q.5Q.6Q.7Q.|P.E3.s& 8Q.Q  ^$ b$ 6. 6. 6  c_ v8 2;.9Q.U].H; [{ 5{ |{ 2{ !_ F) }( G4 G4 ^_ G4 G4 G4 G4 o( 0' 0Q.h, 4  f  f  {- |  .Q.                              ",
"                                    RB _  3  f  6  6  6. aQ.v8 z8 R8 R8 R8 R8 R8 R8 y$ L8 U8 L8 R8 L8 L8 P$ :9 l^ Y# O; 6. p  L< e  =$ _7 <g ]6 C! C! ]5 ]5 D! 3;.n5 C! F; F; -6 C! C! C! C! C! C! C! C! `5 `5 `5 `5 yB.yB.yB. 5 T/.bQ.3@ 3@ i;.i;.cQ.dQ.cQ.cQ.cQ.cQ.{4 i;.i;.g;.i;.3@ 3@ 3@ 3@ _N bQ.eQ.fQ.^O ^O gQ.>Q -S hQ.1r.2r.2r.2r.2r.1r.yr.mP >S iQ.jQ.hC.kQ.lQ.mQ.nQ.b9 NX )D.)>.hF.oQ.Ar.[{ ir._N 3@ 3@ 3@ .5 i;.g;.cQ.cQ.cQ.cQ.cQ.cQ.pQ.pQ.5r.5r.eQ.qQ.rQ.<= sQ.)^.tQ.uQ.vQ.j  _  6. =$ 6. 6  N7 Y% W5 Z5 U].H; b# s5 wQ.r5 ,I.r5 xQ.r5 ,I.s5 o5 n_ p5 o_ p5 :S }< >$ j  f  |  {- |  X'                               ",
"                                    r&./  ]  3  p  6. =$ yQ.v8 z8 R8 R8 R8 R8 R8 R8 y$ L8 L8 L8 R8 L8 L8 L8 K8  ( :> d@ 6  p  8  e  !$ ;7 :g #) C! C! V~ $) ]5 n5 3;.]5 F; H; `5 `5 `5 C! C! C! C! C! V] /^ V] // yB.yB.yB.yB.Se D4 _9 @e _9 _9 _9 .e .e _9 _9 _9 _9 C4 @e @e @e @e @e @e C4 Kb Kb Kb Kb Kb Kb .9 _9 C4 K8 K8 K8 [9 L8 L8 K8 K8 Kb Kb Y: zQ.AQ.,Q.BQ.CQ.DQ.EQ.+% G8 G8 G8 _9 _9 G8 G8 G8 .9 _9 _9 _9 _9 _9 _9 _9 FQ.FQ.FQ.FQ.FQ.FQ.FQ.K8 5&.'=.'=.d8 i, GQ.6v.HQ./< +> F% 6  6  6  4  6  N7 tT 2;.yB.yB.H; H; x-.$) x-.D4 {=.Se {=.;Q.#e ;Q.;Q.yB.yB.Se j-.IQ.>$ j  3  |  {- |  JQ.                              ",
"                                    4H t> |  f  6  6  6  '0 v8 z8 R8 R8 R8 R8 R8 R8 G8 L8 L8 L8 L8 L8 L8 L8 K8 l^ F9 d@ 6  4  6  f  !$ =7 QB.h@ C! C! G; D! ]5 n5 ]5 D! $) C! `5 S].`5 `5 `5 `5 `5 `5 `5 `5 `5 yB.yB.yB.yB.yB. 5 @e @e D4 Se #e #e #e #e @e @e @e @e @e #e x-. 5 $) D! D! @e @e C4 Kb C4 E4 @e @e @e @e @e @e C4 Kb Kb .9 C4 @e @e @e ~5 KQ.LQ.MQ.NQ.OQ.pP.PQ.G8 G8 G8 _9 @e _9 _9 N$ .e _9 _9 _9 @e @e @e @e #e {=.{=.{=.{=.{=.#e FQ.FQ.{=.QQ.QQ.#e D! V~ `5 S].F; -x n< 6  g  e  3  6  O: tT 2;.`5 `5 G; H; `5 yB.yB.U].yB.U].yB.yB.yB.U].]5 ]5 // ]5 'h Vc >$ j  3  |  d  |  RQ.                              ",
"                                    K^ l  o  6  7  6. 8  ,&.Y% z8 R8 R8 R8 R8 R8 L8 =% L8 L8 L8 L8 T8 R8 H8 _9 98 F9 O; 7  6  6  3  6$ e^.ZW h@ #) G; G;  5  5 $) $) D! s-.s-.-6 G; G; G; V~ ]5 ]5 yB. 5 x-.x-.x-. 5  5  5 {=.{=.@e @e SQ.TQ.;Q.UQ.#e @e w-.w-.@e x-.E4 E4 D! D! A-.i-.D! D! E4 E4 E4 E4 E4  > 'h 'h 'h 'h 'h 'h 'h 'h 'h Ib j-.i-.i-.v; 9P.VQ.WQ.XQ.YQ.ZQ.`Q.=% =% y$ y$ .9 Ib Ib !j !j C4 j-.j-.!j @e j-.D! x-.D4 D4 D4 D4 {=.{=.{=.yB.]x.t-.{=.x-.D! G; `5  R.c] }k.6x 7  g  6  6  >% O: Y% W5 `5 `5 x-.G; G; G; G; G;  5  5  5  5 $) V~ Mc {5 $) $) v; P; >$ j  3  |  Q  |  .R.                              ",
"                                    a^.]  3  f  6  g  !$ Lq.-< o8  ( U] X% U] U] U] U] U] U] U] U] u8 {s >9 $9 c9 u* O; 7  6  6  3  8  I&.+R.4: QB.<g )k.Kc m-.Kc Kc 7V 7V 7V r-.Kc Kc m-.r-.Ie Ie .> `4 A# A# A# `4 `4 m-.`4 X: f/ f/ b9 b9 b9 b9 X: a9 A# A# m-.Kc Kc Kc Kc Kc Kc Kc '6 '6 O# 1< 1< !k.b&.<6 <6 <6 <6 <6 b&.b&.b&.b&.b&.b&.b&.b&.b&.B].@R.#R.El.-j.F{ $R.%R.f8 U] ;9  ( {s ;9 Eb Eb t# t# Eb f/ f/ f/ f/ f/ `4 `4 `4 m-.m-.k-.k-.k-.~5 Nc .> #k.Z; &R.D; r; *R.=R.nj.n< x> x> =+ x> x> hA /< V>.:g :g <g :g }^.Kc Kc Kc Kc Kc {6 m-.`4 Ie OU 8^.r-.Ie B].N` ;$ o  c  3  |  |  -4                               ",
"                                    r< t> 3  6  6  g  6$ q_.Ad..7 %8 E$ >8 l .-R.>8 >8 +7 +7 +7 +7 $8 $8 17 +7 >8 )^ =$ !$ !$ !$ 6. 6. Gk.qR )7 {7 '7 p^.)7 yQ.,&.=..I%.=..=..Pc ;R.e^.ym ym ^8 ^8 ZH.|7 z1.n}.n}..8 *8 *8 =8 .8 +7 +7 +7 +7 +7 +7 +7 +7 qI.qI.7%.7%.7%.W0.8%.8%.ZH.ym e^.e^.Lf.Mt S# S# 7!.7!.7!.7!.7!.7!.7!.f^.I%.I%.I%.I%.=..I%.=..Ot PB x;.bL bL c_ (B o^.Ot *..J> #_ 87 c,.Cn. 8 17 17 Q7 Z7 +8 +8 +8 +8 *8 *8 &8 I8 I8  7  7  7 *8 *8 *8 ;8 >R.,R.V7 d-.'R.)R.!R.A; g  7  7  x> g  l7 9%.47 67 %7 %7 67 87 }7 }7 }7 e^.e^.e^.;R.0j.mf f^.f^.f^.mf 7!.{(.!$ b  j  |  |  o  9[.                              ",
"                                    ~R.3  l  6  6  g  6$ 8  H< H$ >% A; S9 =$ :  9> -$ =$ !$ >% >% H$ >% c$ 7  0> 6. 8  6  !$ x> !$ !$ !$ x> x> x> 7  !$ x> x> g  !$ x> y7 y7 x> y  y  y  y  y  y  y  7  z  z  z  z  z  z  z  z  =+ =+ =+ =+ =+ =+ =+ z  z  z  z  q% x> y7 z  z  z  z  q% y  y  x> x> x> y7 y7 y7 y7 y7 y7 y7 y7 y7 y7 y7 y7 y7 y7 >% >% >% 6  l  g  x> q% B7 z  7  z  z  =+ z  z  =+ z  z  z  z  z  z  z  z  j^ H$ d@ =+ =+ =+ =+ =+ z  y7 =+ 0> 7  z  j^ H$ H$ H$ =+ 7  g  6  6  g  g  !$ !$ %> y7 7  x> y7 H$ H$ >% y7 y7 y7 z  y7 !$ 7  7  7  6. !$ !$ 6$ e  3  f  3  3  o  @@.                              ",
"                                    D7 3  l  7  7  g  6$ 8  6. H< 6$ 6. 6. 8  p  p  8  8  _  e  z> z> z> 3  _  _  3  R$ p  p  D< L< g  6$ B> i^ g  g  g  g  g  y  y  x> y  y  y  o  o  o  g  g  o  o  o  o  o  o  g  g  g  g  o  y  y  y  y  y  y  y  y  o  o  y  g  g  g  g  g  g  g  g  g  g  g  g  g  g  g  g  g  g  g  g  g  g  g  g  g  g  g  g  g  g  !$ 6  6  x> x> >% x> x> x> x> x> g  g  g  g  g  g  g  g  x> x> g  x> g  g  y  g  g  g  g  !$ 6. 6  6  6  6  g  g  6$ 6$ 6$ l  6  6  e  3  3  3  e  e  e  f  f  f  4  4  4  4  4  4  j  4  g  g  g  g  g  e  e  g  f  ]  f  ^  ^  3  T$                               ",
"                                    ~  3  x  7  6  6$ 6$ 6. 6. 6$ 6$ 6$ H< 6. L< _  6$ l  6$ x> D< L< e  l  !$ 6. 8  p  p  e  l  4  f  f  g  g  g  6  c  b  g  g  g  x> g  g  g  o  g  g  g  g  g  o  j  |  |  |  |  b  3  3  e  g  g  g  g  g  g  g  g  g  g  g  g  g  g  g  g  g  g  g  g  g  g  g  g  g  g  g  g  g  g  g  g  g  g  g  g  g  g  g  g  D< g  g  7  x> g  I< x> x> x> x> x> x> x> x> x> x> g  x> g  g  g  g  g  g  g  g  g  g  g  g  6  6  g  g  e  3  3  3  l  e  3  p  f  f  3  ]  3  3  3  g  6  6  l  g  g  g  g  o  o  o  o  o  o  o  g  g  y  3  3  o  o  j  f  5  ]  |  F<                               ",
"                                    ~S 3  g  6  6. g  6$ 6. 6$ H< {R.x> =+ >% 6$ 6  x> 7  j^ >% x> 6$ l  7  x> 7  6  f  l  6  !$ 8  3  4  7  7  6  6  6  e  g  x> x> x> x> g  g  g  g  g  g  g  g  o  o  o  o  g  g  g  g  g  g  g  g  g  g  g  g  g  g  g  g  g  g  g  g  g  g  g  g  g  g  g  g  g  g  g  g  g  g  g  g  g  g  g  g  g  g  g  g  g  g  g  g  g  x> x> g  x> z7 z7 x> g  g  x> x> y7 x> g  g  g  g  g  g  g  g  x> x> g  x> x> x> x> 7  7  7  7  7  6  6  7  7  6  e  p  p  6  6  4  4  6  6  !$ =$ =+ z  y7 7  7  7  7  7  7  7  7  !$ 7  7  =+ 7  e  g  x> g  g  o  o  b  g  F<                               ",
"                                    oI.]  3  p  l  6$ 6$ _  _  6. 6$ g  l  6$ p  e  l  !$ x> I< I< c  e  l  6$ g  c  A> z> g  x> g  b  3  g  7  x> g  g  3  e  x> x> x> g  o  o  o  o  g  g  g  g  o  o  o  o  g  g  g  g  g  g  g  g  g  g  g  g  g  g  o  g  g  g  x> g  g  g  g  g  g  g  g  g  g  g  g  g  g  g  g  g  g  g  g  g  g  g  g  g  g  g  g  6  g  g  g  g  x> x> g  g  x> x> y7 j^ j^ y7 x> x> g  g  g  g  g  g  x> x> 7  7  z  B7 B7 B7 B7 x> x> x> y7 H$ p&.H$ B7 7  6$ 6$ %> H$ 6  p  f  j  c  o  g  c  i^ o  o  o  c  c  c  c  c  c  e  c  y7 x> g  g  x> c  b  |  |  f  |  V_.                              ",
"                                    y% /  ]  f  f  g  L< t> _  _  6. _  p  8  R$ v7 /  _  e  e  z; A> /  x7 z> i^ z; H  C  c  H< x> g  g  x> j^ y7 x> 6  b  3  g  g  x> g  o  j  g  o  g  g  g  g  o  o  o  o  o  o  o  o  g  g  g  g  g  o  o  o  o  o  o  o  y  y  g  g  g  g  g  g  g  g  g  g  g  g  g  g  g  g  g  g  g  g  g  g  g  g  g  g  g  x> x> x> g  x> I< x> y7 x> 7  6  g  g  g  x> I< x> x> g  g  g  e  c  g  g  x> x> x> x> y7 p&.p&.=+ 7  x> g  x> x> j^ ]R.p&.j^ =+ 6$ g  x> 6  5  ^  ^  Q  ]  ]  ]  ]  ]  ]  ]  ^  ^  ^  ^  ^  2  ]  ^  ^  c  c  B> B  1  A  ^  ^  ^  {- 3  F7                               "};
