/* XPM */
static char * trashcan_xpm[] = {
"287 422 2080 2",
"  	c None",
". 	c #33342D",
"+ 	c #444541",
"@ 	c #5B5E5A",
"# 	c #575952",
"$ 	c #585B54",
"% 	c #585B55",
"& 	c #575A55",
"* 	c #575A53",
"= 	c #575953",
"- 	c #565853",
"; 	c #545751",
"> 	c #53554E",
", 	c #54564E",
"' 	c #54554E",
") 	c #52534C",
"! 	c #555750",
"~ 	c #565851",
"{ 	c #565852",
"] 	c #555751",
"^ 	c #4E4F49",
"/ 	c #4D4F49",
"( 	c #4F5049",
"_ 	c #4E5048",
": 	c #4E4F48",
"< 	c #51514B",
"[ 	c #4D4E47",
"} 	c #4B4C45",
"| 	c #4A4B45",
"1 	c #484943",
"2 	c #484841",
"3 	c #474841",
"4 	c #494942",
"5 	c #464740",
"6 	c #45463E",
"7 	c #46463F",
"8 	c #44433D",
"9 	c #3E3E37",
"0 	c #3C3C35",
"a 	c #414139",
"b 	c #424440",
"c 	c #626360",
"d 	c #5F635F",
"e 	c #595D58",
"f 	c #50534E",
"g 	c #535551",
"h 	c #575A54",
"i 	c #555853",
"j 	c #4E504B",
"k 	c #4D4F4B",
"l 	c #4D504B",
"m 	c #4E504C",
"n 	c #4C4D49",
"o 	c #4B4D49",
"p 	c #4A4C48",
"q 	c #4B4C47",
"r 	c #494B45",
"s 	c #4D4D4A",
"t 	c #4E4F4C",
"u 	c #4D4E49",
"v 	c #4D4E4B",
"w 	c #4F514C",
"x 	c #51524D",
"y 	c #50524C",
"z 	c #50524D",
"A 	c #52544F",
"B 	c #4F514D",
"C 	c #545552",
"D 	c #575955",
"E 	c #575954",
"F 	c #585955",
"G 	c #585954",
"H 	c #585A56",
"I 	c #5A5C58",
"J 	c #5A5D59",
"K 	c #535550",
"L 	c #565854",
"M 	c #5B5D5B",
"N 	c #60625E",
"O 	c #5E5F5A",
"P 	c #43443E",
"Q 	c #60625D",
"R 	c #525450",
"S 	c #494B46",
"T 	c #484B46",
"U 	c #494A46",
"V 	c #4D4E4A",
"W 	c #4D4F4A",
"X 	c #4C4D4A",
"Y 	c #4E504A",
"Z 	c #4B4E49",
"` 	c #4B4D48",
" .	c #4A4D48",
"..	c #4B4D47",
"+.	c #494A45",
"@.	c #4A4B47",
"#.	c #4C4E49",
"$.	c #4A4C46",
"%.	c #494B47",
"&.	c #4A4C47",
"*.	c #474945",
"=.	c #4E4F4A",
"-.	c #5E5F5C",
";.	c #484945",
">.	c #3F4139",
",.	c #5A5D56",
"'.	c #4C4E4A",
").	c #4B4C48",
"!.	c #4E4F4B",
"~.	c #4C4F4A",
"{.	c #4C4C48",
"].	c #494C48",
"^.	c #4A4B46",
"/.	c #4D4E48",
"(.	c #4D4D48",
"_.	c #5C5E59",
":.	c #41423D",
"<.	c #2E2E29",
"[.	c #484A46",
"}.	c #4F504C",
"|.	c #4B4E4A",
"1.	c #4C4D48",
"2.	c #494A47",
"3.	c #4A4C49",
"4.	c #4A4A46",
"5.	c #4A4C45",
"6.	c #494C46",
"7.	c #545651",
"8.	c #2B2B26",
"9.	c #52534F",
"0.	c #4E514C",
"a.	c #4B4F4A",
"b.	c #474844",
"c.	c #464844",
"d.	c #4C4E48",
"e.	c #4C4F49",
"f.	c #4B4C46",
"g.	c #474843",
"h.	c #484944",
"i.	c #484B45",
"j.	c #484A45",
"k.	c #454743",
"l.	c #52554E",
"m.	c #494C47",
"n.	c #4D4D49",
"o.	c #474944",
"p.	c #51534E",
"q.	c #53544E",
"r.	c #51534D",
"s.	c #4C4D47",
"t.	c #464843",
"u.	c #464742",
"v.	c #454642",
"w.	c #494945",
"x.	c #4F504A",
"y.	c #464841",
"z.	c #383832",
"A.	c #4A4D47",
"B.	c #444542",
"C.	c #40413D",
"D.	c #444641",
"E.	c #474842",
"F.	c #43443F",
"G.	c #3F403C",
"H.	c #41433E",
"I.	c #444540",
"J.	c #42433E",
"K.	c #42443F",
"L.	c #444440",
"M.	c #484844",
"N.	c #484A44",
"O.	c #4A4A47",
"P.	c #444640",
"Q.	c #454640",
"R.	c #434540",
"S.	c #4A4A45",
"T.	c #52534D",
"U.	c #555652",
"V.	c #454641",
"W.	c #474743",
"X.	c #484A43",
"Y.	c #54544D",
"Z.	c #42443C",
"`.	c #2D2D27",
" +	c #575850",
".+	c #464743",
"++	c #3C3C38",
"@+	c #585953",
"#+	c #33322D",
"$+	c #575852",
"%+	c #464744",
"&+	c #3A3B38",
"*+	c #474A45",
"=+	c #565751",
"-+	c #292A23",
";+	c #4B4B45",
">+	c #545550",
",+	c #4D4D47",
"'+	c #3F413B",
")+	c #464944",
"!+	c #454843",
"~+	c #51524E",
"{+	c #3A3B37",
"]+	c #454742",
"^+	c #464842",
"/+	c #2A2C28",
"(+	c #474943",
"_+	c #3C3E36",
":+	c #363731",
"<+	c #3A3A33",
"[+	c #41413A",
"}+	c #43443C",
"|+	c #44453F",
"1+	c #494A44",
"2+	c #4B4A45",
"3+	c #4D4C47",
"4+	c #535450",
"5+	c #4F514A",
"6+	c #54554F",
"7+	c #5D5F58",
"8+	c #5C5F59",
"9+	c #5A5B55",
"0+	c #595C55",
"a+	c #5F615B",
"b+	c #5B5D58",
"c+	c #5B5D57",
"d+	c #383B36",
"e+	c #494B43",
"f+	c #454841",
"g+	c #464741",
"h+	c #454741",
"i+	c #44453E",
"j+	c #40423C",
"k+	c #40413B",
"l+	c #40403A",
"m+	c #40413C",
"n+	c #41423C",
"o+	c #3F403B",
"p+	c #3D3F3A",
"q+	c #3E3F39",
"r+	c #3D3E39",
"s+	c #3C3E38",
"t+	c #3C3D37",
"u+	c #3A3C37",
"v+	c #3F4039",
"w+	c #484843",
"x+	c #44443E",
"y+	c #454540",
"z+	c #464641",
"A+	c #474742",
"B+	c #50514A",
"C+	c #56574F",
"D+	c #585851",
"E+	c #52544D",
"F+	c #4B4D45",
"G+	c #53534F",
"H+	c #4F504B",
"I+	c #50524B",
"J+	c #50514B",
"K+	c #4A4A43",
"L+	c #4A4B44",
"M+	c #3B3B34",
"N+	c #333530",
"O+	c #393A36",
"P+	c #41413C",
"Q+	c #474A47",
"R+	c #4C4E4B",
"S+	c #525451",
"T+	c #575A57",
"U+	c #5E615F",
"V+	c #626562",
"W+	c #626563",
"X+	c #656866",
"Y+	c #666966",
"Z+	c #656965",
"`+	c #666A66",
" @	c #636763",
".@	c #666866",
"+@	c #676B67",
"@@	c #666B67",
"#@	c #646764",
"$@	c #5F6260",
"%@	c #5D615E",
"&@	c #5E625E",
"*@	c #5F625F",
"=@	c #5E615E",
"-@	c #5C605D",
";@	c #595B58",
">@	c #585B58",
",@	c #575B57",
"'@	c #5A5D5A",
")@	c #5C605C",
"!@	c #60625F",
"~@	c #646763",
"{@	c #3A3C38",
"]@	c #555752",
"^@	c #4A4D49",
"/@	c #434541",
"(@	c #4A4D46",
"_@	c #4D4F4C",
":@	c #50524E",
"<@	c #515450",
"[@	c #525650",
"}@	c #535652",
"|@	c #545551",
"1@	c #545753",
"2@	c #555753",
"3@	c #545754",
"4@	c #545752",
"5@	c #555654",
"6@	c #545653",
"7@	c #535552",
"8@	c #545854",
"9@	c #535553",
"0@	c #535752",
"a@	c #545652",
"b@	c #555854",
"c@	c #575855",
"d@	c #5C5F5A",
"e@	c #5D605C",
"f@	c #5F615D",
"g@	c #5C5F5C",
"h@	c #5E615D",
"i@	c #5C5F5B",
"j@	c #616460",
"k@	c #565A56",
"l@	c #565956",
"m@	c #565754",
"n@	c #4C4E4C",
"o@	c #373935",
"p@	c #31322F",
"q@	c #373933",
"r@	c #43423C",
"s@	c #4A4B43",
"t@	c #50514D",
"u@	c #5F625D",
"v@	c #656864",
"w@	c #686B67",
"x@	c #666965",
"y@	c #676A67",
"z@	c #616561",
"A@	c #5C5E5C",
"B@	c #565855",
"C@	c #575957",
"D@	c #585B59",
"E@	c #606360",
"F@	c #5F625E",
"G@	c #5B5F5B",
"H@	c #595C58",
"I@	c #5A5E5A",
"J@	c #5B5E5B",
"K@	c #595D59",
"L@	c #5B5F5A",
"M@	c #585B56",
"N@	c #555956",
"O@	c #61635F",
"P@	c #414240",
"Q@	c #3E413B",
"R@	c #464845",
"S@	c #464946",
"T@	c #474946",
"U@	c #484A47",
"V@	c #494B48",
"W@	c #484947",
"X@	c #4B4D4A",
"Y@	c #474845",
"Z@	c #4A4B48",
"`@	c #484B47",
" #	c #444642",
".#	c #454844",
"+#	c #565955",
"@#	c #5A5B58",
"##	c #595B57",
"$#	c #575A56",
"%#	c #5C5E5A",
"&#	c #5D615D",
"*#	c #5C5E5B",
"=#	c #5A5C59",
"-#	c #5B5D5A",
";#	c #5D605D",
">#	c #666864",
",#	c #666865",
"'#	c #686A67",
")#	c #646864",
"!#	c #60635E",
"~#	c #5D5F5B",
"{#	c #5B5C59",
"]#	c #585A55",
"^#	c #3F413A",
"/#	c #393934",
"(#	c #3C3C37",
"_#	c #46473F",
":#	c #494A43",
"<#	c #595B54",
"[#	c #5A5C56",
"}#	c #5E615A",
"|#	c #5E615C",
"1#	c #5F615C",
"2#	c #626661",
"3#	c #626560",
"4#	c #626460",
"5#	c #626561",
"6#	c #565A55",
"7#	c #585B57",
"8#	c #555755",
"9#	c #575856",
"0#	c #585A57",
"a#	c #595C59",
"b#	c #5A5E59",
"c#	c #585C58",
"d#	c #565856",
"e#	c #5C605B",
"f#	c #444743",
"g#	c #454541",
"h#	c #454744",
"i#	c #454542",
"j#	c #434341",
"k#	c #434440",
"l#	c #434441",
"m#	c #464943",
"n#	c #5B5D59",
"o#	c #575956",
"p#	c #595A57",
"q#	c #555653",
"r#	c #555754",
"s#	c #5B5E59",
"t#	c #5E625D",
"u#	c #5A5D58",
"v#	c #61645F",
"w#	c #636661",
"x#	c #5E605B",
"y#	c #5B5E58",
"z#	c #4E504D",
"A#	c #4D4F47",
"B#	c #43453E",
"C#	c #353630",
"D#	c #42433D",
"E#	c #4F4F47",
"F#	c #53544D",
"G#	c #565752",
"H#	c #565B57",
"I#	c #5A5F5A",
"J#	c #60645F",
"K#	c #646663",
"L#	c #696B67",
"M#	c #5F635D",
"N#	c #5F635E",
"O#	c #5A5E5B",
"P#	c #585A58",
"Q#	c #595B59",
"R#	c #555955",
"S#	c #454643",
"T#	c #3D3E3A",
"U#	c #41433F",
"V#	c #424541",
"W#	c #434641",
"X#	c #434642",
"Y#	c #41423F",
"Z#	c #40423E",
"`#	c #40433F",
" $	c #42433F",
".$	c #40423D",
"+$	c #41423E",
"@$	c #40423F",
"#$	c #3F413D",
"$$	c #3E403C",
"%$	c #61635E",
"&$	c #595C57",
"*$	c #5E605C",
"=$	c #51544F",
"-$	c #525550",
";$	c #50534F",
">$	c #535651",
",$	c #5A5C57",
"'$	c #595D57",
")$	c #5A5E58",
"!$	c #5D605B",
"~$	c #60635F",
"{$	c #646964",
"]$	c #676B65",
"^$	c #616560",
"/$	c #5C605A",
"($	c #51534F",
"_$	c #555650",
":$	c #484941",
"<$	c #41423B",
"[$	c #2E2E2A",
"}$	c #3F3F3A",
"|$	c #474B45",
"1$	c #515350",
"2$	c #5B605D",
"3$	c #6A6E6A",
"4$	c #6A6D6A",
"5$	c #555855",
"6$	c #575B58",
"7$	c #575A58",
"8$	c #585C59",
"9$	c #5B5C5A",
"0$	c #373835",
"a$	c #464643",
"b$	c #3F413E",
"c$	c #424340",
"d$	c #41443F",
"e$	c #3F423F",
"f$	c #3F423D",
"g$	c #3F423E",
"h$	c #3D3F3B",
"i$	c #3D3F3C",
"j$	c #3C3E3A",
"k$	c #3B3D3A",
"l$	c #3C3D3A",
"m$	c #3E3E3B",
"n$	c #3D3E3B",
"o$	c #3C3D39",
"p$	c #3B3C38",
"q$	c #3B3D39",
"r$	c #373834",
"s$	c #4B4D4B",
"t$	c #595B56",
"u$	c #585C57",
"v$	c #5D615C",
"w$	c #525552",
"x$	c #565953",
"y$	c #5F615E",
"z$	c #575B56",
"A$	c #5E605D",
"B$	c #50514C",
"C$	c #4E4E48",
"D$	c #5C5E58",
"E$	c #646661",
"F$	c #696B68",
"G$	c #6A6C68",
"H$	c #636662",
"I$	c #595E59",
"J$	c #525652",
"K$	c #3E403B",
"L$	c #3C3C39",
"M$	c #3B3D38",
"N$	c #3B3E39",
"O$	c #3A3C39",
"P$	c #3A3D38",
"Q$	c #3B3E3A",
"R$	c #3D3E3C",
"S$	c #3F403D",
"T$	c #3E3F3C",
"U$	c #3E3F3B",
"V$	c #3C3F3B",
"W$	c #3C3E3B",
"X$	c #3A3D39",
"Y$	c #383A37",
"Z$	c #383A36",
"`$	c #383835",
" %	c #383936",
".%	c #383935",
"+%	c #363733",
"@%	c #363834",
"#%	c #343733",
"$%	c #343531",
"%%	c #323430",
"&%	c #444742",
"*%	c #565954",
"=%	c #5D5F5C",
"-%	c #5A5C5A",
";%	c #5A5D5B",
">%	c #616360",
",%	c #646762",
"'%	c #686A65",
")%	c #393A34",
"!%	c #484A42",
"~%	c #656964",
"{%	c #545853",
"]%	c #515551",
"^%	c #545855",
"/%	c #40433E",
"(%	c #444441",
"_%	c #353732",
":%	c #363734",
"<%	c #333632",
"[%	c #32332F",
"}%	c #2D2E2B",
"|%	c #292B27",
"1%	c #262823",
"2%	c #242722",
"3%	c #21221E",
"4%	c #1F201D",
"5%	c #1E201B",
"6%	c #1E1F1A",
"7%	c #1D1E1B",
"8%	c #1C1E1A",
"9%	c #1C1D1A",
"0%	c #1A1C18",
"a%	c #1B1B18",
"b%	c #1B1C19",
"c%	c #1E1F1B",
"d%	c #20211D",
"e%	c #232520",
"f%	c #272825",
"g%	c #2B2D29",
"h%	c #2D302B",
"i%	c #2F312D",
"j%	c #31322E",
"k%	c #323431",
"l%	c #32342F",
"m%	c #333430",
"n%	c #333531",
"o%	c #32332E",
"p%	c #2F302C",
"q%	c #2E2F2B",
"r%	c #2D2E2A",
"s%	c #2A2B28",
"t%	c #434640",
"u%	c #43433F",
"v%	c #414440",
"w%	c #373934",
"x%	c #5C5D59",
"y%	c #595A56",
"z%	c #535653",
"A%	c #676C66",
"B%	c #363831",
"C%	c #3E403A",
"D%	c #4F5149",
"E%	c #525551",
"F%	c #50514F",
"G%	c #5D5F5D",
"H%	c #505450",
"I%	c #535451",
"J%	c #4F524E",
"K%	c #353632",
"L%	c #3E3F3D",
"M%	c #2C2E2A",
"N%	c #2F302B",
"O%	c #2E302C",
"P%	c #2C2E2B",
"Q%	c #2D2D2A",
"R%	c #2A2A28",
"S%	c #282926",
"T%	c #272824",
"U%	c #252623",
"V%	c #22231F",
"W%	c #20211E",
"X%	c #20201C",
"Y%	c #1F201C",
"Z%	c #1E201C",
"`%	c #20211C",
" &	c #1F211C",
".&	c #232420",
"+&	c #242622",
"@&	c #262723",
"#&	c #272924",
"$&	c #282A25",
"%&	c #282924",
"&&	c #282925",
"*&	c #252622",
"=&	c #242521",
"-&	c #242421",
";&	c #22241F",
">&	c #22221E",
",&	c #1D1F1A",
"'&	c #1D1D19",
")&	c #1A1B17",
"!&	c #191916",
"~&	c #191915",
"{&	c #1A1A16",
"]&	c #191A17",
"^&	c #21221F",
"/&	c #242623",
"(&	c #262824",
"_&	c #42423F",
":&	c #353633",
"<&	c #565753",
"[&	c #585956",
"}&	c #545654",
"|&	c #616361",
"1&	c #505350",
"2&	c #4F504E",
"3&	c #626660",
"4&	c #5B5E57",
"5&	c #3E3E38",
"6&	c #5E625C",
"7&	c #696C6A",
"8&	c #636562",
"9&	c #595A58",
"0&	c #555954",
"a&	c #565A57",
"b&	c #535753",
"c&	c #4F524D",
"d&	c #40413E",
"e&	c #21231E",
"f&	c #242422",
"g&	c #22221F",
"h&	c #262623",
"i&	c #262925",
"j&	c #292A25",
"k&	c #2A2B27",
"l&	c #2D2F2A",
"m&	c #30322E",
"n&	c #343631",
"o&	c #353733",
"p&	c #393935",
"q&	c #363833",
"r&	c #343633",
"s&	c #333431",
"t&	c #343430",
"u&	c #30312C",
"v&	c #2F2F2C",
"w&	c #2D2F2B",
"x&	c #2B2C28",
"y&	c #292926",
"z&	c #252823",
"A&	c #22231E",
"B&	c #1F1F1B",
"C&	c #1C1E19",
"D&	c #191B18",
"E&	c #181815",
"F&	c #161614",
"G&	c #151613",
"H&	c #131411",
"I&	c #3C3E39",
"J&	c #4F504D",
"K&	c #4F514E",
"L&	c #5B5F5C",
"M&	c #5C5D5A",
"N&	c #616461",
"O&	c #44463F",
"P&	c #3F3F37",
"Q&	c #62655F",
"R&	c #646662",
"S&	c #5B5C58",
"T&	c #595C5A",
"U&	c #50524F",
"V&	c #4D4E4C",
"W&	c #4E514E",
"X&	c #2A2C29",
"Y&	c #3C3F3A",
"Z&	c #1F211D",
"`&	c #282A26",
" *	c #2C2D29",
".*	c #2E302B",
"+*	c #393B37",
"@*	c #3C3C3A",
"#*	c #414340",
"$*	c #3E3F3A",
"%*	c #393B36",
"&*	c #373734",
"**	c #323530",
"=*	c #30312D",
"-*	c #2B2C27",
";*	c #272723",
">*	c #222420",
",*	c #3C3D38",
"'*	c #292B26",
")*	c #444442",
"!*	c #525350",
"~*	c #535452",
"{*	c #5D5E5B",
"]*	c #5D5E5C",
"^*	c #5C5D5B",
"/*	c #5A5B59",
"(*	c #626662",
"_*	c #6B6C67",
":*	c #6A6B67",
"<*	c #61625E",
"[*	c #363730",
"}*	c #4B4B43",
"|*	c #5D5F59",
"1*	c #61655E",
"2*	c #5B5F59",
"3*	c #545553",
"4*	c #595D5A",
"5*	c #4D504D",
"6*	c #4E514D",
"7*	c #444643",
"8*	c #484946",
"9*	c #404340",
"0*	c #3E403D",
"a*	c #1E1F1C",
"b*	c #343632",
"c*	c #3A3E39",
"d*	c #363633",
"e*	c #31342F",
"f*	c #2F312B",
"g*	c #424540",
"h*	c #525452",
"i*	c #4C4F4C",
"j*	c #565755",
"k*	c #595A55",
"l*	c #5D5F5A",
"m*	c #656761",
"n*	c #5F625C",
"o*	c #3F3F38",
"p*	c #5C5C55",
"q*	c #5C5E57",
"r*	c #65655F",
"s*	c #646660",
"t*	c #575B55",
"u*	c #575754",
"v*	c #585D58",
"w*	c #515550",
"x*	c #494D49",
"y*	c #474A46",
"z*	c #3F413C",
"A*	c #4D504C",
"B*	c #5E5F5D",
"C*	c #5C5F5D",
"D*	c #626461",
"E*	c #575854",
"F*	c #656863",
"G*	c #676863",
"H*	c #60625C",
"I*	c #5B5B50",
"J*	c #43413A",
"K*	c #4A4B42",
"L*	c #545650",
"M*	c #656762",
"N*	c #595C56",
"O*	c #484C47",
"P*	c #4C504B",
"Q*	c #4C4F4B",
"R*	c #4B4E48",
"S*	c #4B4C4A",
"T*	c #656663",
"U*	c #4F5048",
"V*	c #61635A",
"W*	c #62645E",
"X*	c #585957",
"Y*	c #5E605E",
"Z*	c #5E625F",
"`*	c #4D514C",
" =	c #5A5B57",
".=	c #646562",
"+=	c #61625F",
"@=	c #5F615F",
"#=	c #6D6E67",
"$=	c #44443D",
"%=	c #595C54",
"&=	c #61635C",
"*=	c #5C5F58",
"==	c #555A55",
"-=	c #51514F",
";=	c #626462",
">=	c #646563",
",=	c #636560",
"'=	c #696A65",
")=	c #545249",
"!=	c #60635B",
"~=	c #62665F",
"{=	c #5E605A",
"]=	c #5A5B56",
"^=	c #545755",
"/=	c #525351",
"(=	c #60615E",
"_=	c #616260",
":=	c #5B5D52",
"<=	c #63635B",
"[=	c #62635F",
"}=	c #61645E",
"|=	c #5D5E5A",
"1=	c #515451",
"2=	c #535350",
"3=	c #4E4F4D",
"4=	c #575857",
"5=	c #636462",
"6=	c #5F605D",
"7=	c #636460",
"8=	c #636561",
"9=	c #60625A",
"0=	c #54544A",
"a=	c #5E5E56",
"b=	c #62645F",
"c=	c #666761",
"d=	c #606058",
"e=	c #43443B",
"f=	c #4D4E45",
"g=	c #636660",
"h=	c #60615C",
"i=	c #656865",
"j=	c #636461",
"k=	c #63645F",
"l=	c #63655E",
"m=	c #616158",
"n=	c #37362E",
"o=	c #49493F",
"p=	c #63655F",
"q=	c #5E5F5B",
"r=	c #50514E",
"s=	c #646664",
"t=	c #5F605C",
"u=	c #606260",
"v=	c #5D605E",
"w=	c #5F605E",
"x=	c #5D6059",
"y=	c #5A5B52",
"z=	c #35352E",
"A=	c #50504B",
"B=	c #525553",
"C=	c #606460",
"D=	c #575755",
"E=	c #666763",
"F=	c #656764",
"G=	c #51524B",
"H=	c #30302A",
"I=	c #474840",
"J=	c #676964",
"K=	c #646863",
"L=	c #5C5E5D",
"M=	c #5B5B58",
"N=	c #616462",
"O=	c #60615D",
"P=	c #585856",
"Q=	c #626361",
"R=	c #656662",
"S=	c #565652",
"T=	c #545451",
"U=	c #55564F",
"V=	c #494B44",
"W=	c #2B2C26",
"X=	c #46483F",
"Y=	c #636762",
"Z=	c #595A59",
"`=	c #686A66",
" -	c #676966",
".-	c #696A68",
"+-	c #696C69",
"@-	c #676965",
"#-	c #53544F",
"$-	c #292824",
"%-	c #47473E",
"&-	c #42443E",
"*-	c #636563",
"=-	c #656763",
"--	c #636663",
";-	c #6A6D69",
">-	c #686966",
",-	c #6B6D6A",
"'-	c #6C6D6B",
")-	c #666964",
"!-	c #52534E",
"~-	c #51534C",
"{-	c #464840",
"]-	c #45473E",
"^-	c #6B6E6A",
"/-	c #6D706B",
"(-	c #6B6D69",
"_-	c #696D68",
":-	c #656765",
"<-	c #6C6D6A",
"[-	c #686A68",
"}-	c #6C706B",
"|-	c #6B6E69",
"1-	c #6E716C",
"2-	c #51524C",
"3-	c #50524A",
"4-	c #262521",
"5-	c #43443D",
"6-	c #42423D",
"7-	c #43453F",
"8-	c #41433D",
"9-	c #6F726D",
"0-	c #71746F",
"a-	c #6D6F6A",
"b-	c #676A65",
"c-	c #656A65",
"d-	c #4D4F4D",
"e-	c #525653",
"f-	c #6C6E6B",
"g-	c #6D706C",
"h-	c #6C6E6A",
"i-	c #51524F",
"j-	c #22211C",
"k-	c #47473F",
"l-	c #696D67",
"m-	c #696C67",
"n-	c #6A6D68",
"o-	c #666A65",
"p-	c #686B68",
"q-	c #696C68",
"r-	c #6F726E",
"s-	c #737572",
"t-	c #70736E",
"u-	c #6F716D",
"v-	c #717570",
"w-	c #737570",
"x-	c #747671",
"y-	c #6D6F6B",
"z-	c #52524F",
"A-	c #50504C",
"B-	c #3E3F38",
"C-	c #1F201B",
"D-	c #42443D",
"E-	c #43433E",
"F-	c #40423B",
"G-	c #3F403A",
"H-	c #6C6F6B",
"I-	c #6D6F6C",
"J-	c #676A66",
"K-	c #565957",
"L-	c #616562",
"M-	c #676866",
"N-	c #6B6E6B",
"O-	c #6C6F6C",
"P-	c #6C706C",
"Q-	c #696B69",
"R-	c #6A6A68",
"S-	c #696A66",
"T-	c #6E706C",
"U-	c #676865",
"V-	c #4F4F4B",
"W-	c #4D5049",
"X-	c #24231D",
"Y-	c #696B66",
"Z-	c #6C6F6A",
"`-	c #686C67",
" ;	c #62635E",
".;	c #666764",
"+;	c #6B6C69",
"@;	c #6E6F6B",
"#;	c #6A6B68",
"$;	c #62625F",
"%;	c #4F4F4A",
"&;	c #51534B",
"*;	c #28261E",
"=;	c #51514D",
"-;	c #5E625B",
";;	c #6E716D",
">;	c #686D68",
",;	c #686B66",
"';	c #606461",
");	c #6C6D69",
"!;	c #696A67",
"~;	c #717370",
"{;	c #767975",
"];	c #757874",
"^;	c #737470",
"/;	c #575853",
"(;	c #4F4F4C",
"_;	c #4E4E4A",
":;	c #53554D",
"<;	c #393B35",
"[;	c #2A2920",
"};	c #43433D",
"|;	c #40403B",
"1;	c #474A44",
"2;	c #6E726D",
"3;	c #676B68",
"4;	c #50544F",
"5;	c #6A6C69",
"6;	c #6E706D",
"7;	c #70726F",
"8;	c #727470",
"9;	c #6B6D68",
"0;	c #6B6C68",
"a;	c #51514E",
"b;	c #54554D",
"c;	c #373833",
"d;	c #2F2D23",
"e;	c #3F3F3B",
"f;	c #686C68",
"g;	c #5B5E5C",
"h;	c #474846",
"i;	c #515351",
"j;	c #60615F",
"k;	c #646561",
"l;	c #71726F",
"m;	c #6F716E",
"n;	c #6F716C",
"o;	c #53554F",
"p;	c #4E4E49",
"q;	c #55574F",
"r;	c #383A33",
"s;	c #313025",
"t;	c #494D48",
"u;	c #6D716D",
"v;	c #6A6E69",
"w;	c #70726E",
"x;	c #70736F",
"y;	c #71736F",
"z;	c #6D716C",
"A;	c #555552",
"B;	c #565951",
"C;	c #32322A",
"D;	c #2C2B22",
"E;	c #48473F",
"F;	c #6F736E",
"G;	c #686B65",
"H;	c #6A6C67",
"I;	c #696D69",
"J;	c #70726D",
"K;	c #70736D",
"L;	c #70716D",
"M;	c #71736E",
"N;	c #737671",
"O;	c #747773",
"P;	c #747673",
"Q;	c #737672",
"R;	c #777975",
"S;	c #797B76",
"T;	c #7A7C78",
"U;	c #7B7D78",
"V;	c #7B7D79",
"W;	c #787B76",
"X;	c #757974",
"Y;	c #757873",
"Z;	c #767974",
"`;	c #787A76",
" >	c #4F514F",
".>	c #52524E",
"+>	c #585A51",
"@>	c #313027",
"#>	c #2B291F",
"$>	c #464A44",
"%>	c #484846",
"&>	c #6F706C",
"*>	c #666863",
"=>	c #6C6E69",
"->	c #6D6E6B",
";>	c #6B6C6A",
">>	c #727571",
",>	c #757672",
"'>	c #747571",
")>	c #737571",
"!>	c #747672",
"~>	c #777874",
"{>	c #797C77",
"]>	c #797B77",
"^>	c #787C77",
"/>	c #787B77",
"(>	c #757773",
"_>	c #767873",
":>	c #777A75",
"<>	c #747572",
"[>	c #757673",
"}>	c #71726E",
"|>	c #4B4C49",
"1>	c #515250",
"2>	c #545450",
"3>	c #4D4F48",
"4>	c #585A52",
"5>	c #323229",
"6>	c #24231B",
"7>	c #41413D",
"8>	c #40403C",
"9>	c #464642",
"0>	c #484845",
"a>	c #646761",
"b>	c #676864",
"c>	c #727671",
"d>	c #6D706A",
"e>	c #777976",
"f>	c #797A76",
"g>	c #787975",
"h>	c #767874",
"i>	c #6D6E6A",
"j>	c #727471",
"k>	c #757772",
"l>	c #717470",
"m>	c #70716E",
"n>	c #72746F",
"o>	c #727370",
"p>	c #727570",
"q>	c #767773",
"r>	c #777974",
"s>	c #787A75",
"t>	c #7A7B77",
"u>	c #7B7C79",
"v>	c #7B7E79",
"w>	c #7C7F7A",
"x>	c #7F807C",
"y>	c #81827D",
"z>	c #81837D",
"A>	c #7F817D",
"B>	c #7D7F7B",
"C>	c #7C7D79",
"D>	c #6A6D67",
"E>	c #656862",
"F>	c #313028",
"G>	c #1D1D16",
"H>	c #46463D",
"I>	c #42423C",
"J>	c #4B4B48",
"K>	c #4C4D4B",
"L>	c #6C6C69",
"M>	c #6D6E69",
"N>	c #6E706B",
"O>	c #71726D",
"P>	c #71736D",
"Q>	c #747772",
"R>	c #797B75",
"S>	c #7E807C",
"T>	c #7D7E7A",
"U>	c #7A7C77",
"V>	c #7E7F7A",
"W>	c #7D7E79",
"X>	c #7A7C76",
"Y>	c #7E7E79",
"Z>	c #80817D",
"`>	c #80817C",
" ,	c #858580",
".,	c #868782",
"+,	c #848580",
"@,	c #81837E",
"#,	c #83837F",
"$,	c #80827C",
"%,	c #83847E",
"&,	c #858681",
"*,	c #848681",
"=,	c #83847F",
"-,	c #82847F",
";,	c #81827E",
">,	c #848680",
",,	c #838580",
"',	c #81837F",
"),	c #7E807B",
"!,	c #7C7E79",
"~,	c #6A6B66",
"{,	c #57584F",
"],	c #282720",
"^,	c #191A13",
"/,	c #46473D",
"(,	c #41413B",
"_,	c #494946",
":,	c #5E5E5A",
"<,	c #686965",
"[,	c #6C6D68",
"},	c #696C66",
"|,	c #70716C",
"1,	c #767872",
"2,	c #787974",
"3,	c #767672",
"4,	c #777774",
"5,	c #767772",
"6,	c #747570",
"7,	c #757671",
"8,	c #7A7B76",
"9,	c #55564E",
"0,	c #20201A",
"a,	c #1A1A13",
"b,	c #3F423C",
"c,	c #4E4E4B",
"d,	c #4F534D",
"e,	c #656561",
"f,	c #555553",
"g,	c #1C1C18",
"h,	c #44453D",
"i,	c #41433C",
"j,	c #51544E",
"k,	c #52554F",
"l,	c #595956",
"m,	c #5C5D58",
"n,	c #535754",
"o,	c #4D504A",
"p,	c #4F4F49",
"q,	c #48483F",
"r,	c #42433C",
"s,	c #4C4C49",
"t,	c #4F514B",
"u,	c #55564D",
"v,	c #484940",
"w,	c #42413B",
"x,	c #4B4B47",
"y,	c #4F534F",
"z,	c #51554F",
"A,	c #52544B",
"B,	c #2F2F27",
"C,	c #40413A",
"D,	c #494A48",
"E,	c #201E17",
"F,	c #2E2D25",
"G,	c #34342E",
"H,	c #494D47",
"I,	c #52544E",
"J,	c #4E5049",
"K,	c #30312B",
"L,	c #3F423B",
"M,	c #2A2921",
"N,	c #414237",
"O,	c #4A4D4A",
"P,	c #585A59",
"Q,	c #4B4B46",
"R,	c #525148",
"S,	c #393730",
"T,	c #32322C",
"U,	c #3E4039",
"V,	c #474B46",
"W,	c #464945",
"X,	c #525651",
"Y,	c #50534D",
"Z,	c #4B4E47",
"`,	c #292821",
" '	c #2B2C24",
".'	c #3D3D37",
"+'	c #3E413A",
"@'	c #5C5C5A",
"#'	c #24231C",
"$'	c #3A3B35",
"%'	c #3E3E39",
"&'	c #585958",
"*'	c #575958",
"='	c #454842",
"-'	c #252520",
";'	c #181712",
">'	c #3B3B33",
",'	c #32332D",
"''	c #3B3B35",
")'	c #484C46",
"!'	c #32342E",
"~'	c #30322C",
"{'	c #3B3C34",
"]'	c #33332E",
"^'	c #31322C",
"/'	c #2F302A",
"('	c #2D2E28",
"_'	c #383A35",
":'	c #3D403B",
"<'	c #4F524F",
"['	c #373832",
"}'	c #31322D",
"|'	c #343530",
"1'	c #3E3E36",
"2'	c #3D3D34",
"3'	c #35372F",
"4'	c #31312A",
"5'	c #2F2F2A",
"6'	c #2E2F2A",
"7'	c #3A3B36",
"8'	c #3B3E38",
"9'	c #31332E",
"0'	c #32322E",
"a'	c #33342F",
"b'	c #353731",
"c'	c #393A33",
"d'	c #3D3F38",
"e'	c #383932",
"f'	c #33352F",
"g'	c #33342E",
"h'	c #2E2F29",
"i'	c #2A2B26",
"j'	c #2B2B27",
"k'	c #2F322C",
"l'	c #3E413C",
"m'	c #474643",
"n'	c #4A4A48",
"o'	c #595957",
"p'	c #565756",
"q'	c #32322F",
"r'	c #353531",
"s'	c #373932",
"t'	c #383934",
"u'	c #373731",
"v'	c #353530",
"w'	c #2C2E29",
"x'	c #2B2D28",
"y'	c #2A2D27",
"z'	c #2C2C28",
"A'	c #2C2D28",
"B'	c #393C37",
"C'	c #3A3C35",
"D'	c #33332F",
"E'	c #373733",
"F'	c #383833",
"G'	c #3D3E38",
"H'	c #3A3B33",
"I'	c #3D3E37",
"J'	c #363732",
"K'	c #34342F",
"L'	c #30302C",
"M'	c #2F2F2B",
"N'	c #2D2E29",
"O'	c #2C2D27",
"P'	c #2C2C27",
"Q'	c #363832",
"R'	c #353834",
"S'	c #353833",
"T'	c #464745",
"U'	c #2F312C",
"V'	c #363632",
"W'	c #3A3A36",
"X'	c #3C3B37",
"Y'	c #3D3D38",
"Z'	c #3B3A33",
"`'	c #3A3C36",
" )	c #31312D",
".)	c #30302B",
"+)	c #2D2D28",
"@)	c #2F302D",
"#)	c #373A35",
"$)	c #4C504A",
"%)	c #393A37",
"&)	c #373A36",
"*)	c #353631",
"=)	c #393A35",
"-)	c #3B3C37",
";)	c #3E3D39",
">)	c #3A3932",
",)	c #2A2C26",
"')	c #2A2C27",
"))	c #2C2F29",
"!)	c #30322D",
"~)	c #363934",
"{)	c #353832",
"])	c #4A4B49",
"^)	c #505250",
"/)	c #4E504E",
"()	c #484B48",
"_)	c #343532",
":)	c #31332F",
"<)	c #323330",
"[)	c #3B3B37",
"})	c #3D3F39",
"|)	c #454740",
"1)	c #393932",
"2)	c #3B3C35",
"3)	c #4C504C",
"4)	c #4E524D",
"5)	c #545452",
"6)	c #343630",
"7)	c #3E3E3A",
"8)	c #45473F",
"9)	c #3B3D35",
"0)	c #3B3D37",
"a)	c #31332D",
"b)	c #30332E",
"c)	c #383B38",
"d)	c #383B35",
"e)	c #50504E",
"f)	c #434542",
"g)	c #363835",
"h)	c #333532",
"i)	c #363631",
"j)	c #3D3D39",
"k)	c #484942",
"l)	c #34352F",
"m)	c #2A2A27",
"n)	c #393B38",
"o)	c #525250",
"p)	c #3D3F3D",
"q)	c #383834",
"r)	c #393936",
"s)	c #42423E",
"t)	c #494944",
"u)	c #4A4A42",
"v)	c #40433C",
"w)	c #383933",
"x)	c #2D2D29",
"y)	c #2E2F2C",
"z)	c #353734",
"A)	c #424441",
"B)	c #373936",
"C)	c #313430",
"D)	c #3E3F37",
"E)	c #36352F",
"F)	c #3C3E35",
"G)	c #3A3A34",
"H)	c #373A34",
"I)	c #373732",
"J)	c #2E2E2B",
"K)	c #302F2C",
"L)	c #2F2F2D",
"M)	c #313330",
"N)	c #30312E",
"O)	c #585855",
"P)	c #393C38",
"Q)	c #3A3B39",
"R)	c #393A38",
"S)	c #333432",
"T)	c #343431",
"U)	c #41413E",
"V)	c #4C4C47",
"W)	c #4B4E46",
"X)	c #3E4038",
"Y)	c #35342E",
"Z)	c #3B3C36",
"`)	c #393B34",
" !	c #32322D",
".!	c #2E312C",
"+!	c #30302D",
"@!	c #3B3C3A",
"#!	c #434340",
"$!	c #3F413F",
"%!	c #3C3E3C",
"&!	c #3B3C39",
"*!	c #4C4E47",
"=!	c #31312B",
"-!	c #383A34",
";!	c #34332F",
">!	c #31312E",
",!	c #2F2E2A",
"'!	c #323531",
")!	c #353735",
"!!	c #3F403E",
"~!	c #3E413D",
"{!	c #383B37",
"]!	c #383937",
"^!	c #363935",
"/!	c #393933",
"(!	c #404039",
"_!	c #333330",
":!	c #30312F",
"<!	c #30322F",
"[!	c #343533",
"}!	c #353634",
"|!	c #343732",
"1!	c #383836",
"2!	c #373836",
"3!	c #373735",
"4!	c #353532",
"5!	c #272721",
"6!	c #333630",
"7!	c #353533",
"8!	c #363735",
"9!	c #373634",
"0!	c #474745",
"a!	c #2C2E28",
"b!	c #24241E",
"c!	c #43453C",
"d!	c #363634",
"e!	c #3D3C38",
"f!	c #4E5047",
"g!	c #2C2D24",
"h!	c #23231C",
"i!	c #44463E",
"j!	c #3B3B36",
"k!	c #3C3F39",
"l!	c #3D3D3A",
"m!	c #3A3A37",
"n!	c #383A38",
"o!	c #3A3A38",
"p!	c #505149",
"q!	c #2D2D25",
"r!	c #24241C",
"s!	c #3A3A35",
"t!	c #42453F",
"u!	c #3B3B38",
"v!	c #2D2D24",
"w!	c #29281F",
"x!	c #404139",
"y!	c #3C3C36",
"z!	c #3A3D36",
"A!	c #353730",
"B!	c #40433D",
"C!	c #40403D",
"D!	c #3E3E3C",
"E!	c #3E423C",
"F!	c #3F3F3C",
"G!	c #434442",
"H!	c #424542",
"I!	c #51544B",
"J!	c #2B2B23",
"K!	c #494A40",
"L!	c #3F3F39",
"M!	c #3C3E37",
"N!	c #41443E",
"O!	c #444741",
"P!	c #53554C",
"Q!	c #25251E",
"R!	c #29281E",
"S!	c #3F3E39",
"T!	c #4A4A44",
"U!	c #53544C",
"V!	c #21211A",
"W!	c #24241B",
"X!	c #1E1D16",
"Y!	c #46483E",
"Z!	c #474744",
"`!	c #464644",
" ~	c #4B4E4B",
".~	c #505249",
"+~	c #191812",
"@~	c #45463D",
"#~	c #51534A",
"$~	c #4B4F48",
"%~	c #50504D",
"&~	c #4F524C",
"*~	c #505349",
"=~	c #373A33",
"-~	c #4E514B",
";~	c #4C4B49",
">~	c #494947",
",~	c #4C4D45",
"'~	c #3D3D36",
")~	c #3D3C39",
"!~	c #4C4D44",
"~~	c #3C3D36",
"{~	c #4C4F48",
"]~	c #50504A",
"^~	c #44443F",
"/~	c #555651",
"(~	c #3D403C",
"_~	c #494B49",
":~	c #3C3C34",
"<~	c #474741",
"[~	c #3A3A32",
"}~	c #3D403A",
"|~	c #4F534E",
"1~	c #393A32",
"2~	c #2E2F27",
"3~	c #393C36",
"4~	c #41413F",
"5~	c #4B4D46",
"6~	c #2B2B24",
"7~	c #272923",
"8~	c #2A2922",
"9~	c #262720",
"0~	c #282721",
"a~	c #292920",
"b~	c #40403E",
"c~	c #444744",
"d~	c #4B4B49",
"e~	c #494C45",
"f~	c #201F1A",
"g~	c #4C4C46",
"h~	c #2B2921",
"i~	c #28271F",
"j~	c #4D4D4B",
"k~	c #565653",
"l~	c #25241C",
"m~	c #4D514D",
"n~	c #444843",
"o~	c #201F18",
"p~	c #454440",
"q~	c #505049",
"r~	c #1C1B15",
"s~	c #484842",
"t~	c #454644",
"u~	c #535650",
"v~	c #474942",
"w~	c #45433F",
"x~	c #181711",
"y~	c #484743",
"z~	c #484742",
"A~	c #464542",
"B~	c #53524D",
"C~	c #464640",
"D~	c #494943",
"E~	c #44433E",
"F~	c #3E3D3A",
"G~	c #4A4E49",
"H~	c #444543",
"I~	c #53534D",
"J~	c #454543",
"K~	c #55554F",
"L~	c #2E302A",
"M~	c #51514C",
"N~	c #56564F",
"O~	c #303129",
"P~	c #313129",
"Q~	c #3D4039",
"R~	c #2B2A24",
"S~	c #4F4F4D",
"T~	c #22221C",
"U~	c #454845",
"V~	c #43463F",
"W~	c #4E524E",
"X~	c #292925",
"Y~	c #292A24",
"Z~	c #555852",
"`~	c #2C2A24",
" {	c #4C4C44",
".{	c #3B3D36",
"+{	c #25241E",
"@{	c #494C49",
"#{	c #434643",
"${	c #23221C",
"%{	c #4D4E46",
"&{	c #40423A",
"*{	c #3E4139",
"={	c #1B1B17",
"-{	c #4C4D46",
";{	c #464942",
">{	c #565654",
",{	c #575753",
"'{	c #4D5048",
"){	c #31342E",
"!{	c #4C4E46",
"~{	c #43453D",
"{{	c #3F4138",
"]{	c #4D514B",
"^{	c #414540",
"/{	c #52554D",
"({	c #2D2F29",
"_{	c #41433B",
":{	c #3F433D",
"<{	c #414441",
"[{	c #474947",
"}{	c #57574F",
"|{	c #58584F",
"1{	c #32332C",
"2{	c #42433B",
"3{	c #32332B",
"4{	c #403F3A",
"5{	c #454441",
"6{	c #32312A",
"7{	c #585850",
"8{	c #2F2E27",
"9{	c #444740",
"0{	c #2F322B",
"a{	c #3F4239",
"b{	c #282923",
"c{	c #474940",
"d{	c #464A46",
"e{	c #2A2B24",
"f{	c #484840",
"g{	c #3F4038",
"h{	c #474941",
"i{	c #2F2D26",
"j{	c #25241D",
"k{	c #1F1E18",
"l{	c #46463E",
"m{	c #454944",
"n{	c #171712",
"o{	c #46453E",
"p{	c #464540",
"q{	c #4E4F47",
"r{	c #141511",
"s{	c #464A45",
"t{	c #45453D",
"u{	c #585A54",
"v{	c #52524D",
"w{	c #45453E",
"x{	c #44443C",
"y{	c #414039",
"z{	c #4F5147",
"A{	c #3C3D35",
"B{	c #404138",
"C{	c #51524A",
"D{	c #373A32",
"E{	c #555953",
"F{	c #3D3D35",
"G{	c #41423A",
"H{	c #4B4F4B",
"I{	c #54564D",
"J{	c #31332C",
"K{	c #3D3C36",
"L{	c #42443B",
"M{	c #474B47",
"N{	c #58594E",
"O{	c #2F3129",
"P{	c #43453B",
"Q{	c #58594F",
"R{	c #313229",
"S{	c #5A5A50",
"T{	c #44463D",
"U{	c #3F3F3D",
"V{	c #424240",
"W{	c #5A5A51",
"X{	c #313128",
"Y{	c #44463C",
"Z{	c #56564E",
"`{	c #2D2C24",
" ]	c #55554C",
".]	c #282820",
"+]	c #53534C",
"@]	c #54544C",
"#]	c #22211B",
"$]	c #46473E",
"%]	c #52534A",
"&]	c #2D2C27",
"*]	c #47493F",
"=]	c #1B1B15",
"-]	c #292924",
";]	c #494940",
">]	c #252621",
",]	c #484A40",
"']	c #272720",
")]	c #555551",
"!]	c #515249",
"~]	c #505247",
"{]	c #4A4C43",
"]]	c #4E5046",
"^]	c #27261D",
"/]	c #51514A",
"(]	c #4E4F46",
"_]	c #23221B",
":]	c #484A41",
"<]	c #211F18",
"[]	c #191913",
"}]	c #494A41",
"|]	c #3E3D38",
"1]	c #161611",
"2]	c #44453A",
"3]	c #52524C",
"4]	c #45453C",
"5]	c #585854",
"6]	c #41433A",
"7]	c #504F4A",
"8]	c #2E2E27",
"9]	c #43433C",
"0]	c #575752",
"a]	c #51504D",
"b]	c #2F3029",
"c]	c #323028",
"d]	c #42423B",
"e]	c #575751",
"f]	c #303028",
"g]	c #2C2B24",
"h]	c #3A3C34",
"i]	c #35362F",
"j]	c #595A54",
"k]	c #21221D",
"l]	c #5B5C57",
"m]	c #2D2E26",
"n]	c #4E4E4C",
"o]	c #5B5B57",
"p]	c #40443D",
"q]	c #434741",
"r]	c #27251E",
"s]	c #292720",
"t]	c #2B2A22",
"u]	c #424341",
"v]	c #2D2B21",
"w]	c #27251D",
"x]	c #4F4F48",
"y]	c #1F1D18",
"z]	c #3A3D37",
"A]	c #1B1A16",
"B]	c #444842",
"C]	c #3B3E37",
"D]	c #42413E",
"E]	c #434543",
"F]	c #52544C",
"G]	c #31322B",
"H]	c #2C2C25",
"I]	c #262620",
"J]	c #1D1E1A",
"K]	c #454943",
"L]	c #484C48",
"M]	c #42413D",
"N]	c #2A2A24",
"O]	c #494A42",
"P]	c #4D4D46",
"Q]	c #2A2923",
"R]	c #3D3F37",
"S]	c #4C4C45",
"T]	c #2C2B23",
"U]	c #3C403B",
"V]	c #4E4E47",
"W]	c #505048",
"X]	c #45463F",
"Y]	c #27261F",
"Z]	c #22221B",
"`]	c #4C4E45",
" ^	c #50544E",
".^	c #3C3F37",
"+^	c #52524A",
"@^	c #3C3F38",
"#^	c #54554C",
"$^	c #404239",
"%^	c #31322A",
"&^	c #56564D",
"*^	c #302F27",
"=^	c #42433A",
"-^	c #2B2A23",
";^	c #40443F",
">^	c #55554D",
",^	c #21211C",
"'^	c #21211D",
")^	c #393C35",
"!^	c #4F5047",
"~^	c #4C4B48",
"{^	c #434742",
"]^	c #4C4C4A",
"^^	c #4F524B",
"/^	c #272823",
"(^	c #2B2B22",
"_^	c #494941",
":^	c #2F2E25",
"<^	c #4A4A41",
"[^	c #505148",
"}^	c #302E25",
"|^	c #4B4A43",
"1^	c #2A2820",
"2^	c #4C4D42",
"3^	c #4B4F49",
"4^	c #4C4C43",
"5^	c #37372F",
"6^	c #22211A",
"7^	c #4B4B42",
"8^	c #333329",
"9^	c #1D1C16",
"0^	c #55574E",
"a^	c #181813",
"b^	c #474740",
"c^	c #41443D",
"d^	c #303027",
"e^	c #45453F",
"f^	c #595B51",
"g^	c #2E2E26",
"h^	c #424641",
"i^	c #5B5B52",
"j^	c #403F39",
"k^	c #434743",
"l^	c #595A50",
"m^	c #1F1F19",
"n^	c #585750",
"o^	c #414239",
"p^	c #3D3E35",
"q^	c #3F3E37",
"r^	c #43463C",
"s^	c #444644",
"t^	c #42453D",
"u^	c #33332C",
"v^	c #32312B",
"w^	c #47483F",
"x^	c #282823",
"y^	c #25251D",
"z^	c #2E322B",
"A^	c #28271E",
"B^	c #42453E",
"C^	c #2A281F",
"D^	c #2E2E24",
"E^	c #4C4B47",
"F^	c #1D1D17",
"G^	c #141410",
"H^	c #3A3E38",
"I^	c #424339",
"J^	c #4E524C",
"K^	c #3D3F35",
"L^	c #383A30",
"M^	c #383930",
"N^	c #46483D",
"O^	c #45443C",
"P^	c #66665C",
"Q^	c #64665D",
"R^	c #4F4E49",
"S^	c #5D6057",
"T^	c #63655C",
"U^	c #383830",
"V^	c #484B44",
"W^	c #595B55",
"X^	c #545750",
"Y^	c #292921",
"Z^	c #61645D",
"`^	c #33332B",
" /	c #5B5B56",
"./	c #3F4037",
"+/	c #5D5E59",
"@/	c #41453F",
"#/	c #40443E",
"$/	c #666963",
"%/	c #25251F",
"&/	c #25231C",
"*/	c #5D5D59",
"=/	c #2C2920",
"-/	c #61615D",
";/	c #2C2A20",
">/	c #676963",
",/	c #54564F",
"'/	c #34352E",
")/	c #2C2A21",
"!/	c #3D413C",
"~/	c #32322B",
"{/	c #2C2B21",
"]/	c #474A43",
"^/	c #272822",
"//	c #504F4C",
"(/	c #1C1D18",
"_/	c #5F605B",
":/	c #6C6E68",
"</	c #52524B",
"[/	c #62625E",
"}/	c #676A64",
"|/	c #31312C",
"1/	c #51544D",
"2/	c #5A5D57",
"3/	c #55554E",
"4/	c #3A3B34",
"5/	c #4F4F46",
"6/	c #24251E",
"7/	c #3D3F36",
"8/	c #5A5A56",
"9/	c #373831",
"0/	c #61615E",
"a/	c #40433B",
"b/	c #3C3D33",
"c/	c #53534E",
"d/	c #2A2925",
"e/	c #28281F",
"f/	c #3C3D3B",
"g/	c #545852",
"h/	c #5D605A",
"i/	c #1E1C16",
"j/	c #373730",
"k/	c #666762",
"l/	c #24221C",
"m/	c #42413C",
"n/	c #26261F",
"o/	c #1E1E18",
"p/	c #595955",
"q/	c #646560",
"r/	c #1F1F18",
"s/	c #60635D",
"t/	c #262721",
"u/	c #656661",
"v/	c #686865",
"w/	c #4E4E46",
"x/	c #4C4A44",
"y/	c #404038",
"z/	c #61625D",
"A/	c #656562",
"B/	c #53534A",
"C/	c #3C3C33",
"D/	c #5C5C59",
"E/	c #6A6C66",
"F/	c #6E6F6A",
"G/	c #686A64",
"H/	c #535249",
"I/	c #1A1A14",
"J/	c #60605C",
"K/	c #2F2F28",
"L/	c #201F16",
"M/	c #404037",
"N/	c #636360",
"O/	c #61635D",
"P/	c #323129",
"Q/	c #60605D",
"R/	c #676762",
"S/	c #63665F",
"T/	c #5C5C58",
"U/	c #565750",
"V/	c #646460",
"W/	c #5D5D5A",
"X/	c #56554E",
"Y/	c #36352E",
"Z/	c #535351",
"`/	c #53524B",
" (	c #595953",
".(	c #3D3E36",
"+(	c #2C2C24",
"@(	c #5C5D57",
"#(	c #393831",
"$(	c #4C4B44",
"%(	c #454840",
"&(	c #494841",
"*(	c #2E2D27",
"=(	c #32342C",
"-(	c #1E1E1A",
";(	c #39352F",
">(	c #363630",
",(	c #24211C",
"'(	c #272620",
")(	c #25241F",
"!(	c #54544E",
"~(	c #24241F",
"{(	c #4A4945",
"](	c #252420",
"^(	c #43463E",
"/(	c #2A2924",
"((	c #585752",
"_(	c #2B2B25",
":(	c #4E514A",
"<(	c #38362F",
"[(	c #282824",
"}(	c #292923",
"|(	c #252620",
"1(	c #403F3C",
"2(	c #282822",
"3(	c #3C3B34",
"4(	c #33352E",
"5(	c #5E5F59",
"6(	c #606159",
"7(	c #33312B",
"8(	c #3B3A34",
"9(	c #292822",
"0(	c #2B2D26",
"a(	c #282723",
"b(	c #211F1A",
"c(	c #53534B",
"d(	c #50534C",
"e(	c #575851",
"f(	c #46453F",
"g(	c #373630",
"h(	c #20201D",
"i(	c #21201A",
"j(	c #5A5C55",
"k(	c #2A2A25",
"l(	c #22221D",
"m(	c #333433",
"n(	c #1C1D19",
"o(	c #2D2B24",
"p(	c #2D2E27",
"q(	c #23221D",
"                                                                                                                                                                                                                                                                                                                                                                                                                                                                                                                                                                                              ",
"                                                                                                                                                                                                                                                                                                                                                                                                                                                                                                                                                                                              ",
"                                                                                                                                                                                                                                                . + @ # $ % & * = - ; > , ' ) ! ~ { ] ^ / ( ^ ^ _ : ( < [ } | 1 2 3 4 5 6 7 8 9 0 0 a                                                                                                                                                                                                                                                         ",
"                                                                                                                                                                                                                                              b c d e f g h i j k l m n o p q r q s t u v w x y z z A z B C D E F G H I J J H K L M N O +                                                                                                                                                                                                                                                     ",
"                                                                                                                                                                                                                                            P Q R S T S U n n V k W j X Y j o V o n Z ` `  ...T S +.@.` n V ` k #.q $.+.U %.$.q @.&.*.=.-.;.                                                                                                                                                                                                                                                  ",
"                                                                                                                                                                                                                                          >.,.'.#.&.).%.'.` #.'.Z '.k W W ` o W v n !.u W ~.V v Z u n ).#.X #.{.` n n p ].&.@.#...^.` /.(._.:.                                                                                                                                                                                                                                                ",
"                                                                                                                                                                                                                                        <.{ w j S [.%.[.[.).k V }.j k Z V o '.Z #.V |.&.p 1.#.).&.&.n 2...p U 3.).n o S 4.U ;.S U ^.@.5.6.^ 7.8.                                                                                                                                                                                                                                              ",
"                                                                                                                                                                                                                                        9.0.a.+.p %.[.b.+.c.[.#.d.e.#.'.'.Z Z #./ #.k ` ` o ` ).^.@.@.q f...` d.#.n #.d.d.&.$.b.g.c.h.g.h.i.j.(                                                                                                                                                                                                                                               ",
"                                                                                                                                                                                                                                      k.l.` m.@.n.` o.+.q d.W p.p.p.f q.r.z w k j m j u #.#.1.o 1.#.d.^ u u d.s././ 1.1.d.q S t.u.v.+ o.w.6.+.x.y.                                                                                                                                                                                                                                            ",
"                                                                                                                                                                                                                                    z.A A.S @.B.C.D.#.E.F.G.H.F.I.u.t.J.K.L.b M.N.b.o.O.&.^.o.P.Q.J.R.S.^.4.S N.^.^.d.d.x.r.T.U.p h.V.h.+.W.b.X.Y.Z.                                                                                                                                                                                                                                          ",
"                                                                                                                                                                                                                                  `. +#.6.U %..+*.t .+                                                                        ++x.&.h.g..+k.D.y.5.@+#+                                                                                                                                                                                                                                        ",
"                                                                                                                                                                                                                                  $+y V [.%+c.+.$.n.z.                                                                          &+> N.t.v.I.k.D.*+'.=+-+                                                                                                                                                                                                                                      ",
"                                                                                                                                                                                                                                ;+>+..^.g.V.P.,+^ '+                                                                              5.5.g.1 j.)+k.!+S ~+u.                                                                                                                                                                                                                                      ",
"                                                                                                                                                                                                                              {+T.r g.[.]+^+.+: :                                                                                 /+^ S (+j.g.t.t.o.U ) _+                                                                                                                                                                                                                                    ",
"                                                                                                                                                                            :+<+[+}+|+1+2+3+=.9.g U.4+5+l.6+$+7+8+9+0+a+b+c+d+R j.t.v.o..+v.j.e+_ ..o.f+g+h+P.i+P P J.j+k+l+m+n+j+k+'+o+p+q+r+r+s+t+u+s+q+v+l+|+g+w+u.x+y+z+A+B+C+D+E+%.;.o.b.b.b.*+o...F+2+G+H+I+< J+1.K+L+K+a M+                                                                                                                                                                                                            ",
"                                                                                                                                              N+O+P+K.Q+R+S+T+U+V+W+X+Y+Y+Z+`+ @.@+@@@#@V+$@%@&@*@=@-@T+;@>@,@@ '@)@*@!@~@{@]@^@c.b.c.c./@%+o.(@ ._@:@<@R [@}@|@1@1@2@3@4@5@}@6@2@3@}@}@7@8@3@g 9@7@<@}@6@0@a@6@a@2@b@g a@1@3@c@;@J @ %.@.t.o.o.D.;.)+S n o.d@e@f@g@h@i@i@h@=@d j@d g@'@T+k@l@D m@S+n@].&.+.g.j+o@p@                                                                                                                                                                          ",
"                                                                                                                        q@r@s@h.1.t@S+;@u@v@w@x@y@w@Z+Z+Z+#@z@A@D B@B@C@D@J g@d E@F@G@'@H@I@I@J@'@J@J ;@K@@ L@J M@l@N@O@P@n n j.+ U *.t.+ .+V Q@).*.%.*+R@S@T@[.U@V@3.).o %.W@p o o X@p S U %.;.U j.[.Y@Y@;.U@%.).Z@p T U Z@p p %.p p !+`@T  #m.*+c..#;.&.+ R J +#@###m@$#H@%#'@J '@&#*#@ @ %#=#-#;#d F@j@>#,#`+x@'#)#!#~#{#]#l.z v S 3 ^#/#                                                                                                                                                  ",
"                                                                                                      (#_#:#%.p.<#[#}#|#1#Q 1#2#3#4#5#e@G@@ @ b@1@6#H@7#b@3@8#9#$#7#0#a#a#>@0#+#B@>@@ {#-#g@i@b#H@;@a#H@c#k@d#B@M@a#e#:@ #m g.c.b.W %+f#.+%.g# #v.v.]+ # # # # # #h#t.h# #c..#)+*.;.;.%+v.i#B.j#k#+  # #/@ # #k#b b i#l#/@+ + v. # # #.+p+W c.U m#c.h.*+j.%.C.e@n#o#D p#H B@D H q#r#6@l@7#I J @ i@@ s#*#%#*#-#i@h@|#t#@ u#I s#e@N v#w#4#O@N %#O@x#y#0#z#j 6.j.A#B#C#                                                                                                                          ",
"                                                                                      D#E#F#G#,@H#I#J#K#L#w@2#j@M#!@h@|#F@N#h@G@K@H@$#c#H@J u#7#6#+#$#a#=#K@K@O#J @ *#a#>@P#a#J@)@;#e@e@G@J@J@@ %#*#@ G@@ J Q#,@R#0#a#{@m t.R.S#b.j.c. #c.4.T#/@R.l#b U#b /@D.V#V#/@b /@/@B.V#V#W#+  #X#V#k#Y#Z#`#Z#Z# $Z#Y#Y#U#Y#.$H.Z#+$U#@$+$Z##$$$G.&+%+^.c.c..+g.c.o.;.j.$$%$%#_.&$I I H@@ *$*$h@e@*#b#;@I 7#H@J $#H@%#7#0@=$-$;$1@>$& d@@ u#H@H ,$u#n#J J '$)$e#e#!$e@e@~${$]$^$/$& - ($_$:$<$                                                                                                          ",
"                                                                        [$}$|$1$7#2$)#3$4$x@)@5$}@5$6$g@e@*#K@c#T++#,@7#;@@ J ;#-@)@@ =#7$o#k@0#R#R 1@$#,@0#T+7#>@7#c#;@o#P#8$H@T+B@+#-#*#J a#H@7#7#7#T+##J K@$#B@9$0$&.c. #B.k.t.a$B.k.p +$b$Y#c$d$b H.Z#Z#e$C.f$g$b$@$C.$$$$G.$$h$i$h$h$h$j$T#j$j$k$l$l$j$j$p+m$T#h$h$h$n$h$j$l$o${@p$q$r$s$c.v.c.c.t. #+ *+g.b t$1@& H D u$T+$#H@n#~#v$~#=#0#H@@ i@~###w$w$u$M@D 7#;@c#x$g r#p#i@!@y$i@;@K@e@=@;#8$;@$#$#8$$#,@T+'@,@z$=#O#@ $@Y+Y+e@-#A$=#($B$s.o$                                                                                        ",
"                                                              /#C$@+D$E$F$G$H$F@&#g@@ H@>@;@s#-###a#7#5$1@5$7#J L@I@6#H@P#l@+#2@b@5$R#a#I$'@>@;@J J ,@H +#+#$#a#>@b@3@6@5$C@>@J a#;@+#m@b@l@+#+#D D +#R#1@J$S+f 7#n$t.S Y#W#k#/@/@ #t.j.o.p$h$K$h$h$h$l$L$M$N$M$q$O$P$o$Q$j$R$S$S$$$S$T$U$j$V$h$W$l$X$u+{+Y$Z$O+`$o@ %.%.%.%Z$.%r$+%@%#%$%%%j$[.]+k.&%R.V.V.D.h.+$'.]@($>$+#*%7#D 2@1$K >$g L H D M@$###%#|#h@@ I ~#=%H r#D 7#0#D 2@7@m@##~#n#o#B@B@$#+#$#c#o#b@5$;@;@7#T+-%;%g@I@>@8$H@B@9@B@y$!@>%,%'%H$N n#y z+)%                                                                          ",
"                                                      <+!%r.!$w@~%u@!$n#I 0#;@J >@$#K@O#H@I@z$+#{%+#&$a#K@H@7#6#i L >@>@c#>@##>@0#0#>@C@T+;@J a#-#;#;#L@H@T+B@R ]%B@5$5$w$S+}@1@b@l@l@5${%3@b@8@1@<@]%]%1@^%3@##[.p+.+ #b + t./% $(%D.#._%@%r$r$@%r$o@:%:%:%r$@%#%<%[%}%|%1%2%3%4%5%6%6%7%8%9%0%a%b%c%d%e%f%g%h%i%j%k%l%m%$%<%$%n%%%o%p%q%r%s%[.B.t%J.u%v%c$t%R.b.w%i a@A m R a@1@1@+#o#+#+#7#x%M@o#y%H 2@6@o#;@##L & =#J s#7#n#-.%###H@7#B@L 5$+#b@$#H@,@$#7#;#A$7#b@##*#*#7#6@z%l@b@B@=#=%J@b@D 0#H@z$o#c#G@h@x@A%z@d@c+l.!%B%                                                              ",
"                                              C%D%>$}#H$z@h@J !$s#M@{%+#M@&$##0#H@I L 3@7@1@& @ )@&#'@J T+&$u#7#0#I a#$#6@g a@5$k@=#*#*#'@i@n#7#l@E%F%}@T+H@0#0#,@k@;@G%;#@ +#3@5$d#+#7#7#C@+#H%I%o#7#5$R ]%6#J%K%v.H.K.c$k#+ U#b K.c.L%M%N%O%h%P%Q%g%R%S%T%U%V%W%X%Y%Z%Z%`% &.&+&@&#&$&S%%&&&&&@&*&=&-&;&>&d%Y%,&'&0%)&!&~&{&]&7%^&=&/&(&T%S%s%@.H. $.$U# $Z#_&+$+ :&D R I%:@I%a@<&a@w$z%$#p#b@H >@&$7#@#9$[&2@6@}&&$*#0#2@+#o#r#L o#C@0#H@;#*@E@|&=@H@a#'@-#3@S+1@b@5$1&2&0#A$;#*#%#G@o#6@o#>@H@;@7#u$J u#>@z$M@u$$#&$7#d@j@3&4&] $.5&                                                      ",
"                                      M+X.*%6&7&8&~#& i $#I H@7#z$M@$#1@}@g 2@9&$#r#2@$#;@n#H@+#+#0#,@$#B@r#,@,$$#3@3@0&T+a#K@&$##B@}@3@c@$#5$w$S+z%k@C@r#l@a&N@C@o#b&S+}&7#'@C@d#l@5$-$k t@3@b@B@z%m c&S+g 1@%%b d&d&d&d$`#U##$S$Z#@$e&f&.&g&V%=&h&i&&&j&k&g%l&m&l%<%n&:&+%o&o&0$0$ % %O+p&o@r$r$q&r&s&t&%%p@u&p%v&w&x&/+y&z&A&d%B&C&D&E&F&G&H&:&K.N$I&I&o$q$M$q$o$j$p$H J&B :@}.t K&R b@b@1@}@C 0#J J ;@0#B@o#=%f@n#;@~#F@F@'@##s#v$'@J H l@b@1$6@+#0#=#0#o#>@M =%*#o#$#>@L&M g@f@h@n#n#M&H@T++#o###J '@L 7@+#>@=%)@J@e@y$K@7@b@@ @ N&V+J w$O&                                              ",
"                                P&/.x$Q&R&~#&$2@& $#u$%#S&7#$#D B@D c@%#'@J &$*%H@@ i@n#;@[&H I D +#+###H@@ k@2@>@'@'@*#T&,@l@6#l@z$H@,@2@1@b@l@$#7#R#T+o#}@5$$#l@S+;$:@;$U&<@6@U&V&W&<@a@b@1@6@9.;$S+($~+7#X&Y&T#j$j$m$$$S$$$p+h$W#*&Z&^&*&`& *.*p@N+K%_%r$+*u+M$@*n$n$T$K$S$#$Z#K.b k#l#l#/@X#k#b #*_&+$+$#$G.$*I&X$%*r$&*+%_%**=*M%-*;*>* &,&G&n$U$$*$*,*q$O+w%r$:&'*)*!*:@-$($!*C K ~+!*~*2@6@9.E%o#0#o#;@##$#0#;@o#L S+U&L {*I B@I {*]*=%n#-#-#^*=#l@H >@H ,@;@>@~#d@*#/*H 0#y%]@6@C@$#o#&$H ;@7#;@=#-#J i@M 7#+#6@I%R 6@H@-.=%i@s#i@h@(*_*:*<*2@1 [*                                    ",
"                          }*6+|*1*N#2*~$2#R&z@%#u#H 2@L $#8#q#& T+o#L H ;@0#$#a#b@7@7@6@1@3*6@1@8@r#6@1@1@q#+#0#T+$#T+5$5$+#a#T+l@0#>@K@>@0#H@@ a#T+p#l@P#a#+#1@}@7@E%}@8@B@;$z#+#4*J 7#b&U&5*6*]%E%<@R g 7*].X X@V@Q+8*R@h#9*0*+*g%a*S%p%[%b*w%d+q$h$$$G.C.Z#@$b 7*S#k.7*f#7*k.%+;.T [.[.[.`@[.U@2.`@[.%.p V@`@*.)+.+v.k#b +$#$U$T#c*,*%*d*e*f*l&`$L.g*f#c.S#*.V@3.].m #.2@C m@c@o#7@*%H H p#H@I @#7###I@-#a#%#'@o#4@J 0#J h@!@n#{#0#4+1$r#7#i@!$A$=%@ c#o#0#M @ '@7#D C B@-%-###D J y$~#*#h@F@*$B@r#S+h*5$'@=%J o#R#H@H@a#@ =%o#R+i*R ;$j*R#k*l*l*d@%$m*n*4@y f.                            ",
"                  o*p*q*r*s*x#,$M@z$t*n#&$& u*0#=#A$f@{#v*-#M&I =#I o#r#L Q#I D 7#i@a#^**#*#i@=#o#$#7#c#7#$#>@b@1@4@r#>@H@>@0#=#c#+#B@d#$#d#1@w$1@7#K@J@H@0#$#5$6@b@o#B@+#o#J@@ >@D }@]%w*}@3@r#a@E%E%7@1$4@]%b@}&2@1@J$7@;$;$m B }.U@d&S$C.Z#P@V# #X#S#t.*.Q+%.3.3.o  .`@Z@3.|.^@o X 3.o o x*m.V@p X@k X@|.3.p %.Z@`@y*S j.*+!+/@b `#b K.f$z*v%S#o H+A*A*z#6*J%;$;$($-$g ; 2@7@a@6@B@o#$#7#[&7#0#&$H@I & 7#>@$#$###I Q#-#*#'@T+o#B@-#>%5#*#H a#3*S+}@r#J@B*=%J@a#=%E@!@>%!@-#0#B@$#$#r###{#;@q#U&;@N& @H$~$>@8#6@0#i@C*!@D*B*6@J%*#=%'@G@E*H@i@I 4@$#H u#n#-#Q F*G*H*I*J*                    ",
"              K*L*1#M*N*U.1@$#M@*%u$n#=%!@;#'@D 7.($2@D 6@L $#5$B@$#H@J ;@7#$#,@;@'@;@,$0#1@1@a@$#-#-#H@H@0#$#T+H >@>@T+;@o#l@0#;@##;@B@g r#l@B@r#5$+#$#H B@1@8#1@5@5$H@J B@6@b&5$7#0#T+>@'@T+B@D T+,@;@>@z$R#& $#,@C@a@;$^@[.3.V@%.].U@T %.m.O*p o #.o o |.a.P*m B 6*A*A*K&6*K&6*m m Q*X Q*l X |.X@'.Q*R+k Q*k !.W k R*S*X@o U@[.j.c.*.U %.%.o R+l z#=$R g }@}@]@b@i E D D 0#H M@H@&$H@0#0#T+b@q#8#k@@ @ *#N -.{#n#@ -#y$=@i@)@N y$U+*#o#;@=#I@=%h@F@=%^*&$7#0#6@b@B@H@9#D a#M =%l**#j@A$##m@B@o#*#*@y$A@;@}&S+B@7###7#C S++#]*N ~#5@L @#=#~*:@2@e@z@J@o#m@j*Q#n#x%&#j@T*K#A$U*              ",
"          [ V*W*1#~#d@_.|#f@!$t#J#h@l*e@Q#;@J %#-#J 7#n#K@o#;@f@^*T+T+J H@##k@J@=#>@a#7#9&;@H@'@I +#1@b@H X*+#;@>@a#M H@l@l@+#1@$#J a#H@-#J@Y*Z*;#@ c#+#L +#$#T+o#;@7$$#7#>@c#>@D 8@B@l@+#7#7###>@$#+#b@3@6@5$5$1@]%J$b@9.X@`@m z#J&m ~.k k _@m '.`*:@J&K&J%1$;$($:@($9.($K&m m A*k k R+k z#U&U&W&f R ($!*R :@:@t@z 6*B 0.6*`*V ~.'.A.n o n Z k !.m 1&K g C i B@L E D ##H H L L L B@$#9&'@i@*#~#y$Y*>@H =#0#C@##%#@ &$ =q#>$0#a#=#i@@ @#J@=%A@=#P#=#e@]*n#-%'@]*E@O@=@~#;#=#T+=%Y*a#0#L ;@'@o#=%.=+==#T+0#n#V+Y+V+@==%e@@=~$J@=###;@*$Q F@=%-.f@;#H U&U&L D -#~#0#@#-#*$-.f@O@#=G*^           ",
"      $=%=&=*=Q u@1#!$~#7#$#&$##+#- *%2@b@D n#i@%#@ %#=%=#7#o#1$0#@ A@n#s#J@A@]*7#5$+#T+$#+#7#o#5$l@T+>@a#d@i@H@T+o#+#>@-#J@A@i@J@##a#'@a#B@t J%E%i o#@ H@D b@m@B@z%}@z%==k@T+T+,@7#7#+#1@a@3@a@-$}@b@l@6#o#l@0#;@7#T+0#}@<@=$S+B '.'.k m B B J%<@S+E%S+w*<@}@$#7#+#a@U&c&1&S+R <@g C B@+#i a@!*;$W&B 9.($R }@4+<@:@:@c&B p.<@<@=$;$A f -=~+f ($=$-$}@r#b@B@$#D [&[&p#0#*%l@I H@##0###&$$#9#H =#H@I -#=%*#*#A@M&,@+#7#H@e@h@A$*$@ C@1@B@B@o#I ^*h@;#c#l@b#y$d h@i@-#@ =%A$!@;=Y**#>%>=>%-#0#A$i@B@+#$#;@A$N -#}@8#'@i@=%$#7@L 0#@ ;#M&L <@0#~#%#I %#;#F@i@3#s#E*%#*$f@=#@#~#N ,=Q&'=}#        ",
"    )=!=~=!#h@{=7#]=[#E _.%#n#H@~#F@!#N&j@=@n#$#M@J@H@M@;@9$H@B@2@r#6@b@$#o#D 8@-#;#K@o#o#d#q#B@o#$#B@>@7#H ##a#J '@%#e@*$*#~#J@A$f@@ =#0#/*e@=%J -#J a#a#7#H =#J =#>@0#5$+#B@l@r#1@6@1@7@2@b&a@q#L 5$^=$#7#K@@ $#D 5$+#$#B@2@r#6@L o#+#r#D q#}@}@}@4@1@r#i a@K&z#1$1$>$L C S+a@w$}@}@S+1&:@($>$7@g 7@b@2@1@!*R S+a@I%S+I%9.w*w$($K&p.!*p.~+A >$7.2@2@b@L L *%D r#L H  =y%H o#[&H H $#$#T+o#o#z%/=1@9$i@M Q#T&0#-#-.i@'@C@o#2@U&t K&T+%#]*-#=#@ =#7#I A$a#o#X*n#F@5#j@i@0#;@0#-#=#j*B@P#-#(=A$'@0#o#;@i@e@*#A$8&_=i@M @ y$5#j@N =#r#& y$5#F@H@;@M a#J u#J I ;#*@A$%#S&@ (=~$5#s*w#,=M*:=      ",
"    <=[=,=}=Q %#n#|=u#n#I J i@A$*$##D 7#;@@ h@e@&$B@7#I y%D & ;@>@H@a#o#7#T+H@a#$#>@J *#J@~#A@=#H@K@=#I ##B@b@i X*;#-#o#d#l@0#a#H@;@n#;@-#J ;@t$0#k@6@r#l@H $#r#6@+#o#=#=%=%7#c@o#0#T+B@7#7#H@H@;@I H@c#t$H H@H@H@o#*%+#$#k@D B@B@S+K&1=1$<@}@0@2@b@E**%0#,@6#+#6#1@4@{%2@r#3@a@}@7.E%4@6@2@z%h*g a@a@I%2=S+z%r#7.S+;$J&F%R E%A S+}@>$g E%E%<@K 4@{%L 2@<&D L L E l@$#H@;@7#>@>@n#%#@ =#-#J@-#*$>%A$X*Q*3=4=-#e@;#J =#Q#o#0&b@u#>%5=>%*#-%d#7#0#B@B@l@2@B@0#a#G%A$%#;@*#@#;@0#J ~#=%=%F@*$=#I =%@=N&D*6=@#;@a#7#/*;#e@y$=#L S+J&o#=@>%i@##J y$a#;@I +#-#%#-#0#L +###j@D*.=~@j@7=N 8=>#9=E#    ",
"  0=a=,=E$b=v#u@d@,$E u#;@7#+#2@<&##e@F@~#n#0#I L@)@J b+n#H@M@o#D ;@-%g@G@J H@0#5$0#J i@g@G@=###=#'@b#b#@ J@i@@ p#5@5$7#l@p#T&@ I o#r#&$H@##c#+#+#z$>@a#;@o#B@0#o#L B@D 2@}@7#o#2@z%J$+#$#T+H ;@##H 1@b@D I @ &$1@q#& H & a&& +#+#b@r#<@-$4@2@2@i +#+#+#b@5$B@L 2@2@b@U.]@7@S+E%B@D L i 2@2@R#m@U.a@C 4@6@r#a@U.2@2@i L 1@L q#i a@E%g a@4@a@>$2@6@2@i D ]@D $#& $#I J a#a#n#-#s#=#7#0#J 9&n#J 7#$#[&{#~$v#=%*#T+H 8#D @ ]*;@+#p#Y*=%=#o#C@-%-#A$4#E@=@*@N |#J@B@R#n#=%p#$#p#*#~#H@;@S&x%=%j@E@e@F@e@i@u@~$*@&@*@A$=#T+6@0#i@>%H$5#F@=% =n#n#I *#M@a@I I a#{#|#O@>%l*o#-#*$x%*$,=4#3#w#c=d=    ",
"  e=f=|*g=E$,=l*_.{*s#n#n#_.|#=%J D R 9.+#a#!$d@##o#L b@+#M@##$#&$7#o#6@w$$###J@i@J ]#c@l@5$1@3@C z%7@o#r#}@1@E%}@o#J@J@{#0#b@z%U.r#$#;@+#o#D 0#$#+#+#D 5$,@0#;@,@2@r#1@2@H 7#c#K@=#'@a#+#+#,@H +#D 7#H@;@i R ]@D ;@H@;@$#7#u#T+0#7#####p#0#$#$#$#D B@E*L D & E M@M@o#M@D +#- d#B@D F D *%r#L i r#L *% =0#H [&& L D +#2@a@q#m@L L L 2@2@U.<&L L B@o#H 7#7#& 0###7#0#7#H@b#I@J u#u#*#*#@#-#!$e@h@e@=%J 7#7#=#-#n#-#5#j@J@K@I g@P#6@1@r#d@y$y$N&~$7#7#*#~#I@e#*$~$=%T+0#-.y$D*K#.=h=A@J =#I ;@H U.R o#@#D m@& ##y$~$h@-#;@=#-#0#7#0#L b@@ *$-#H@D ;@{#p#7#D ##=%A$*$4#i=b=4#8=3#g=4#j=k=l=m=    ",
"  n=o=J+$+a+p=,%4#q=|#!@N f@s#@ a#n#i@e@)@%#I *#!@y$f@@ =#J M&=%J @ B*!@*@g@-#;@0#B@2@8#}@7@o#J =%J@J ,@n#h@!#N&d =%=#K@;#A$=@*@;#M =#7#$#o#D 0&r#r#*%+#$#7#7#>@7#T+>@@#s#-#;@P#6$-#J L@G@%#H@0#7#>@K@a#I i@e@I I s#@ e@=@J L R#D +#L *%6@}@1@B@b@E*F 0#>@I $#7#L L D l@D c@$#H $#+#]#D +#H ##t$##H +#B@l@d#c@D & +#$#H $#$#D B@2@<&B@D D L B@$#$#+#x$o#o#D ##H@7#I s#%#-#@ M&J@-#@ d@=%g@-#M =#n#{#@#7#/*M&-#@ J@o#5$5$o#I '@*#-#Y*;=N&e@*#z%r=T+e@G@*#-#H@9$;@=#(=$@s=D*M&g R++#*#t=A$=%@ =%u=d /*D ~#!@h@'@z%1&1@M v=A$w=@==@;#A$e@7#5$;@%#*$F@A$@ ^*!@~$<*f@!@c D*5#3#3#M*E$Q 1#_.x=y=    ",
"  z=:$| d.A={ O@L ~#>%!@n#H@|#f@!$e@~#0#~*E%w$!*6@j*T+7#;@'@##0#0#=#c#r#o#;@I T+H I h@Y*g@@ '@;@T+l@+#l@0#-%o#1=1&S+r#B@0#l@o#b@+#;@'@4*;@B@r#}@b@0#7#$#$#>@;@0#I n#H@l@6@1=B=B@$#1@z%r#5$T+;@H@I H@e H@u#@ J g@J@u#H@o#|@7@k@o#T+7#7#$#B@o#B@+#2@q#D c@& T+=#I ;@##7#0#+#b@b@+#D o#7#o#D $#+#B@D L 6@2@c@$#H 0#$#H H 0#7###;@[&D D L D 0#H 6@r#& c#;@0#o#D 0###x%*$e@i@*#i@*#*#=%f@*#g@]*M&'@o#5$0#u#J n#%#=%-#s#=#=#M *$*$&@*@!@Y*M 9&=#i@&@D*;=C=*#*#!@|&j@@=*$$#w$K&}.D=@#J@h@!@~$6=i@g@A$9$I N D*6=@#2@l@i@(=y$*#F@!@F@=%{#o#p#-#%#*#*#G%*${#=%~$K#K#H$E@K#T*8&8&8&E=F=,%x#p#F <&=+G=    ",
"  H=I=O&(+E.$.4.4@J=~@~#v#K=w#j@N#!$@ h@~$!@*@E@=%=#@ g@J >@n#*$=@;#;#~$&#~#=%L=e@*#H@$#o#o#z$=#=#-#@ i@J@-#)@e@e@*#=#Q#a#8$M h@h@M 0#$#+#$#z$n#J ;@p###7#$#0#0#L +###a#a#H@>@>@K@e#%@g@*#J '@s#s#'@J J J H@&$7#7#;@H@H@I -#L@&$H@H@K@$#D c@c@$#7#=#;@;@u$H@0#H H c@+#+#l@M@0#0#D D 6#6#D B@D H ;@H@t$[& =H@I n#I I I H $#X*##M@7#I H@7#$#$#=#=#H & T+H I I =#J H@@#I n#'@'@n#M=##H ;@9&-#i@~#F@Y**$h@|#b#+#B@I I H o#>@-#i@>@5$D 5$a#~$N=>%e@T+l@>@G%i@##L ##7#4@o#J@D*F=j@=@h@*$A$=@~$D*N#A$h@O=x%;@p#{#F@N&|#H@7#@ [&m@5$P=J F@F@!$I >@=#;@i@N >%5#Q=v#H$ @R=T*~$E$R&~@4#& S=T=>+7.U=V=    ",
"  W=X=B#F.L.y+F.b.t@a@e@~@,%E$3#5#,%)#Y=J#F@=@=%!$e@l*;#J@@ *$>%)@%#H@B@5$r#>$1$!*1$7@c@H D b@B@r#d#*%$#T+,@7#T+>@G@*#G%M a#;@+#l@Q#-%J@J J J X*B@l@H B@b@L r#5$b@r#r#R#$#T+'@'@,@>$E%d#;@H@H@7#z$7#;@c#7#H ##=#H@H@H@@#z$b@L $#b@L 1@r#+#T+o#H 0#H@a#0#H@H@S&I &$##@#I ;@H D H H@0#$#;@7#,$S&-#>@$#7#H@##0#H H H ##I I s#n#@ 0#+# ==#H@7#H@=###H@M J I ##0#c@+#$#@#-#*#O#'@n#~#e#h@~#J@@ -#n#-#a#0#;@[&@ y$!@A$;#=%i@H@+#~*o#G%h@!@Y*Z=2@7$;#G%=%-###J h@!@y$G%v#>%y$=@@ *#*#H@a#=#>@c@0#@#*$e#J@A$A$*#=%i@*#e@e@i@!$=%e@y$;#-#6#c@;@6=~$+=(=f@Q >%8= @R&`= -.-w@+-@-@-%#7.z t@9.4+#-F#3     ",
"  $-%-F.P &-|+H. $u.g.1 a@&$w#*-K#R&i=x@v@v@=---J#f@f@;#A$e@H E%w$H {#;@H@-#*#A@@ -#-%=#H & H l@H g@=@h@@ =#e@=%r#:@m 1=1@B@B@z%;$S+<@E%{%B@+#0#0#$#l@;@##X*##=#=#b#-#-#c#o#w$}&k@J@G@a#>@####;@T+$#7#J '@K@I H@H@s#@ u#H@%#i@J@'@e ##H@,@0#$###H 7#6#o#D [&[&5$r#D [&k@+#H@n###H b@*%H $#& p#7#;@;@7#H &$##H@{#=#b+J I@*#%#%#A@i@~#%#J L@J H@##H@n#I 7#T+##I -#n#n#I =#*#M&~#=%M&J n#g@i@h@*$G%y$=@y$B**#-#a#I -#J n#=%!@F@|#-#H@P#J y$e@>@B@o#a#h@~$h@G@I ;@Q#q#B@*#A$g@=@~$O@*@!@F@y$G%~#H@J >@B@o###I@0#M *@*@=%7#J@Y*j@8&C=!@>%D**#@ A$D*8=O@8&@-;-L#>-,-'-)-K=R&D 4+z z w ~+z !-~-{-    ",
"  $-]-P P D#R.J.:.F.K.I.v.*.g n#v#^-/-L#F$;-(-4$_-`=v@s=8&~$t#j@8=5#f@A$A$u@!$*#H@e J g@F@h@g@*#n#Q#D@a#J@@ 7#@=:-#@V+@ a#o#$#$#I =%;#g@i@~#'@@ g@%#>@+#$#0#J *#n#o#R#$#0#c#4*'@a#0#0#+#1@o#>@H@J b#H@P#I J I@-#J J J 7#L b@$#0#p#H@;@$#D B@+#H H 0#0###J -#@ =#I u#J =#I ##&$;@I e ;@$#H@H@;@H ##,$M@p###;@;@##I n#J =#J J '@J -#'@H@I ####,@I n#;@7#a#K@J a#'@%#~#*#i@i@M&i@*#%#i@|#=%G%G@i@O@N h@A$)@A$6==@A$A$*#)@e@y$5#E@*@~$Y*g@=#Q#G%y$*@B*-#T+B@;@C*=@h@;#T&3@S+S+U&z%c@-#J@##D 9${*=%@#c@B@>@y$E@!@F@&@!@--i=F=>% =o#+#A@j@R&i=4$<-[-L#}-|-^-1-|-;-F$>->#1#<&:@9.z B x B$~+2-3-6     ",
"  4-_#P 5-6-7-i+:.8-J.6-:.d$I.` x$9-0-a-`+h@v#b-v@@->#x@x@c-=-5#~$~$N&f@~#e@!$~#h@h@y$*#>@T+;@;@H@>@B@7#=#=#7#f d-<@7#@ -#n#J a#0#}&e-0&b@*%##,@D $#e I o#;@'@J I '@4*H@H@c#a#I @ -#J u###7#H@@ b#@ J@@ @ I@I J &$&$c###n#K@=#-#@ J 7#b#d@*#;@[&##I =#;@H +#u$H@H@;@H &$##H H $#D o###I ##,$H@n#s#J *#~#i@%#J n#s#-#@ ~#@ I i@)@d@i@-#I &$=#J 7#& H H@M&n#-#=#J I *#A@M&%#%#_.d@~#J H@n#M a#0#q#$#=#J@i@J i@;#*#K@*#i@y$e@;@T+-#=#a#-%%#]*Y*;#=%y$~$~$>%;#J@;#A$@=F@Y*y$N 4#+==@g@J@*#=%G%-.*${*M&^*J 5$o#>@^*5#w@^-y@=-F=)-v@`==-~@Y+G$ -F=Y+G$^-1-f-g-h-3$b-.=M&p#=$R !-i-m t@w w j ( <$    ",
"  j-k-P J.D#|+F.8-D#D#m+k+C.H.]+j %$b=*$v$l-(-@-m-m-m-n-w@o- -+-_-x@F*p-G$q-w@w@x@8=N =@h@=@e@i@=#0#J ;@& a#J e@v$=%'@=#J ;@i@d *@!@g@I 7#I =#*#A@J 0#H@H@H@;@a#I@J J -#'@H@>@H@C@H@J -#e@g@@ @ I@=#H@e J ;@7#0#@ i@G@n#-#I@n#P#T+##7#7#+#r#[&=#-#a#H@>@H@;@I I &$##=#7#0#=#s#n#%#|=~#@ H@=#I I I u#n#@ L@*#s#*#d@J J *#i@@ n#H@I -#@ i@b+n#@ %#*#~#%#~#g@e@h@*@*$=%*#~#e@=%e@-#7#7#J =#@ *#t#!@f@'@>@;@=#9${#7#0#0#;@'@J *#f@y$E@u=Y*y$A$J@=%g@i@A$A$&#*@y$e@;%=@8&#@,##@~$e@-#M&%#%#{#c@D [&{*|#!@5#F=~@H$j@e@o#7@m@-#~$H$`=x@5#=-L#;-r-s-t-u-v-w-x-y-`=m->%p#q#4+c&($t@z-}.A-B m H+Y B-    ",
"  C-{-D-P E-|+I.J.+$J.j+F-G-Q@/%f#t E*,$*$I *#!#v#,%w#K=~%;-h-H-h-I-g-p-x@,#J-v@K#x@x@H$=%;@I =#=%!@>%(*V+h@i@J@d@;#=%H@@#I o#K-T&P#Q#0#+#2@2@($7@H J K@7#o#r#r#6@D ;@a@E%6@8#+#r#6@r#z%1$7@0#a#H@'@i@i@i@A@=%v$i@I >@o#J @ J I@I 0#7#=#J@h@A$;#=%i@@ *#J J J J %#'@>@J n#=#J b#{#y%D ##M@0#;@s#d@%#*#%#e@*#%#~#e@g@~#e@*#%#~#e@i@^*-#@ i@J@-#u#-#i@%#n#-#@ =#H@J {**#e@|#*$|#=%=%M&{#K@@ =%J o#B@0#*#i@-%*#=%!@N&8&5#>%y$y$E@L-&@-#H@=#H@/*-%e@*#H@4*M >@b@;#N=A$j*2&F%r#^*E@:-Y+M-#@N&~$H$R&!@!@~$*@i@A$u=#@+@+-N-O-P-Q-'#R-w@q-S-`=@-J-F$/-9-g-T-}-g-U->#g m i-4+x A z p.:@}.w V-=.W-t+    ",
"  X-]-E-J.x+|+F.J.n+8-j+P+o+G.z*f$p ;$A r.m z 2@- H u#w#Y-L#J-H$M*;-Z-`-:*^-4$q-L#b-`+R&>#n-;-G$w@>#v@K#H$ ;E@~$d =@j@H$j@!@;#J H H '@=@5#K#--N J@M g@-%;@{#=%@ i E%9@l@-#~$N=e@=#H@7#l@H@*#)@e@h@e@J@Q#o#+#;@H@=#%#J@-#M&-#J@J -#J@@ -#7#0#T+7#;@J@i@I -#i@~#!$G@J@-#_.-#M&*#_.I J *#x#q==%s#{#^*-#-#*#_.-#~#f@A$*#=#-#M&*#*#~#l*{*=%~#-#H@;@=#-%-#-#=%(=y$y$y$O@>%*@~#i@*$&#A$>%>%*@@=G%6@r#T+H M&=#=#Q#0#;@%#I D 3@7#%#*#=#;@*#>%D**@u=!@U+@ n#=%*@N ~#h@-#=#-.V+:-~@--u=A$*#y$!@D*s=>#`=q-y-(-w@Y+=-.;w@w@;-+;F$F=b-,-@;,-q-#;`=8=j@8=~$i@N *#O@8=8=$;~#U&B B |@~+:@z x 6*j B$%;=.&;t+    ",
"  *;k-P D#E-P F.E-:.n+m+n+o+'+j+o+o.u &.` +.j.S W W 0.=;!*C ]@*%&$>%-;f@w#'%]$G$;;r-P->;,;F=J-J-=->%L@b@2@*$2#i=,;Y+j@v$h@5#Y=H$H$~$;@g R I%a@p#J@%#*#=%I@o#7@7@J @=*@A$0#t W@2.z#g r#$#$#H@####[&y%b+v$C=V+';*$b#H b@q#[&I I H@;@##>@0#H@@ J@|#~#=#0#I n#@ g@*$e@i@e@s#H@H b@M@{#n#7###I I S&*#f@y$y$f@q=*$e@{*~#=%=@e@*#H o#@ v$h@f@e@!$|#A$x#~#=%F@N&!#~$y$6=G@n#'@~#f@!@F@f@n#@#@ =#H A$y$5#D*!@h@*$|#h@=%i@|=%#J@@ ~#t=O@O@A$n#H@-#*#{#9&t$0#Q#B@p#y$8&;=A$^*n#i@=%y$D*s= -x@F=K#w@);(-+-!;`=w@;-<-h-F$;-;;~;{;];^;T-F$v@f@|=S&m@B@y%<&1@y%L C U./;D F r=}.t@4+K r.=;B$(;H+H+_;=.:;<;    ",
"  [;I=x+J.};F.E-D-n+n+m+m+|;k+j+$$b.^.;.p (+m#t.j.@.m.S T 1;o.*.m.p ).V =$7.t$|#,%4#%$O@!$D*x@J-J-;-^-2;;;I-(-p-Y=H$^$@-J---8=#@8&F=b-J-~@O@O@>%F@D*D*,%v@x@J-3;N&K@6@E%1=o#G%;=#@F=v@#@#@=---e@@ *#~#>@r#<@4;o#@ ~#i@-#l@2@L p#$#[&0#s#i@h@F@6=H@/**#f@u@~#H 2@B@>@I n#d@h@F@@ ##M&|#*$~#e@~#A$O@5#N&c O@>%+=1#{*%#*#=%y$j@4#j@F@F@F@C=5#K#F=#@R&5#O@h@e@*@N Q=_=5#^$>%y$~#n#G%*@N y$y$F@>%Q=>%N M&$#U&m i-6@H @#J ~#M&H@H c@7#9$^*%#H 5@a@j*%#~$D*>#Y+v@E@!@E@+=D*U-J-5;5;,-3$H-6;u-9-r-T-T-7;8;t-g-^-9;;-L#0;=-v@5#>%M&6@L a@7@U.g g a@4+R q#K a@!*}@a@L w H+(;K |@a;t@}.!.m H+!.u b;c;    ",
"  d;{-F.J.8-E-F.E-:.8-m+z*e;P+G.U$g.S *.j.o.U j.*.i.T S j.u.h#D.V.]+D.j.`@X B U&a@}@}@H M@t$h@,%Y-@->#8&)-L##;F$q-q-_-'#x@q-h-f;x@F=~@Z+`+w@L#>-w@+-L# -K#D*=@-%g;E@'#O-f-q-M-f@o#3*U&R+h;k.T@i;'@y$~$~$R&Y+'#,#H$5#j=y$y$y$O@N F@h@=%J B@U&_@<@D =#I B@U&}&J u@J I L@=@N f@!@K#K#>%_.-#i@d@i@d@~#n#=#=%{**#=%h@*@O@j;i@;@D @#Y*5#8&8&D*N g@%#6=y$~$~$d h@*#7#5@7@B@x%t#!@j@~$!@!@D*D*N&8&j@A$e@e@A$N .=F=F=--8&K#R&K#8&5#k;T*F=j=4#!@~$j@N&j@j@K#`+>#H$O@5#>-N-^-+;(-,-O-I-g-;;~;l;m;9-n;1-Z-;-G$L#>=5#*#m@1@($4+S+L X*<&a@g S+S+g R <@g ($g a@C q#R 7@a@C k j B o;7.z t@J&=.V %;p;n q;r;    ",
"  s;k-J.D#D#D#D#6-n+8-'+o+K$C.K$T#g.t;S ;.S [.T o.[.[.[.S o.o.u. #I.R.]++ .+8*S &.p p '.V V ^@c&:@r=L ##*$!@=%~$x@q-+-,-|-(- @5#2#Y+q-q-o-Y+f;u;9-v;`-T-T-;;g-|-5;H-^-q-,;,#O@!@8&v@x@q-g-w;g-q-L#J-o-Y+ -~@~$!#>%N F@h@F@h@f@~$K#># @F=x@M*~@H$j@3#3#w#4#u@J@D *#2#v@F*R&N f@-#0#H 1#K#>#)-~@7=[=N j@R&8=8=j@5#j=7=w#Z+ -`+~%=-j@=@;@##9$e@5#V+>%5#D*D*c K#i=U-'#w@`=`=`=,;w@w@,;m-4$^-4$m-_-,-H-g-Z-n-G$,-4$L#L#G$,-1-;;6;u-m;x;7;r-y;m;r-z;H-n- -b->#>#~@#@L#f-N-|-L#h-r-T-(-#;@->#)-b=J@=#;@D ;@7@7@9.1$1&:@p.|@6@6@}@C 6@6@6@r#}&6@D=C r#2@A;}@S+a@U.a@z#B p.#-7.z t@H+_;=.!.=.u B;C;    ",
"  D;E;8-n+:.H.D#n+.$P+n+o+e;C.C%p+.+..S +.S +.^.h.%.S %.^@U ;.o.v.(%l#v. #c.Y@8*U U *+q &.&.&.n %.[.[.*++.n #.}@[&$#s#N j@H$8=F*`=,;>#H$,%H$F*,%J-1-t-u-a-h-;-h-/-h-f-/-}-1-w;8;w;F;}-;-J-,%q-1-^-w@F*,=v#R&x@v@8=K#~%)-x@@-o-b-b->#x@'#L#m-q-,;Y+b-F=F*)-w@w@L#>#R&j=*$*$j@v@>#)-'%@-R=8=4#8=@-S-G;,;`=#;n-G$G$F$(-q-,;H;,-I;L#G$y-9-t-1-H-,-+;+;F$'#'#G$;-;-#;F$,-y-f-H-,-G$L#x@>#x@># -;-y-g-r-x;x;J;K;r-9-L;M;w;8;N;O;P;Q;];R;S;T;U;V;W;X;R;Y;Z;{;`;];7;;;;-J->#>#y$~#=#2@2@!*1$ >6*_@i-1&U&($1$;$I%1$!*g I%R z%2@1@r#b@r#b@r#r#r#2@b@m@*%D L 1@|@1@2@C k J&!-g g .>}.=.V _;j ^ u +>@>    ",
"  #>7 D#n+D#6-D#8-m+:.m+}$e;z*K$T#V.O.+.o.%.4.%.N.%.%.6.&.6.[.j.]++ + .+]+o.*.@.@.c.o.b.b.*.^.3.%.).p *+$>`@*.;.%>;.S }.<@6@H $#y%M&|#t=x#u@%$5#;-Z-n-m-,;Y-L#&>t-J;9-u-/-u-t-9-g-/-Z-g-9-N;w; -`=;-Z-y-Z-a-;-L#J-q-G$m-L#q-G$q-w@H;:*`=)-x@@-`=x@>-v;|-'#K#8&v@*>`=q-,;v@>#R=,%,%E$k;T*@-5;);L#y@L#0;|-;-h-<-=>h-y-y-I-(-`=>#>#,# -S-G$;-,-->->f-(-;>g-;;y-T-->&>>>,>x-w-8;'>,>)>!>)>>>~>R;{>]>^>/>Z;N;x-!>(>_>:>]>R;<>)>(>Y;!>[>R;Y;}>T-1-g-`=!;=-1#I ;@##T+D 6@S+t@|>'.J&1>i-U&i-F%!*J%/=<@C g C S+E%I%E%C E%E%6@+#r#B@b@2@L r#m@q#9#H o#o#[&2@r#g q#<&a@}.l :@K 2>p.H+!._;Y Y 3>u 4>5>    ",
"  6>6 .$n+6-};D-7>C.6-m+m+8>m+K$I&V.&.S o.%.S [.h.U &.S p &.r [.]+]+9>b..#c.h.%.` 0>;.o.;.8*o X@).'.X p @.).w.[.;.a$D.2.Z@Z@p Z@o R+z#:@=$S+2@##e@*$~#e@~#=%N ,=a>,%b>@-Y-n-H;G$q-q-(-n;y;u-r-,>c>u-d>&>^-(-+;Z-h-H;H;n;Q;{;~>`;{>e>f>g>h>!>,-u-w;i>,-|-@;w;j>>>8;8;>>k>y;r-w;M;8;'>!>)>l>m>;;u-8;w-8;n>o>M;m>8;p>l>y;x;)>q>r>{>]>R;,>)>m>}>w-Q;Q;h>(>9-;;8;h>s>t>]>u>S;S;T;v>w>x>y>z>A>B>B>x>C>(>M;u-D>H;););h-5;U-E>>#w@h-T-G$`=F*,%j@=%/*H L D h*;$U&w$E%<@>$1$;$r=J&F%K&:@1$1$R ($A 1$7@6@6@}&3*>$0@9@6@6@6@q#6@L q#B@j*m@+#o#c@2@7#P#X*$#D L r#6@2@c@a@}.l t@U.A z }.H+=.W ^ u u B;F>    ",
"  G>H>I>n+6-:.n+P+n+P+k+o+m+m+U$p+D.$.j.*.[.V@U b.[.m.&.Z@J>%.4.o.c.;.j.j.c.;.%.&.S *.c.Y@[.o ~.n Q*K>U @.p [.o &.o. #U |>` o ^@o |>^@X@Z@#.l w :@U&f m U&($!*-$a@a@7@D |=~#q=*$f@4#4#%$[=R&v#%$f@1#F@4#R&,=4#g=R=E=F*L#(-H;);L>M>h-(-<-);=>(-N>a-->g-n;O>P>Q>Y;r>s>R>S;S>T>t>U>S;V>W>X>Y>S>Z>`> ,.,+,@,#,@,y>$,%,+,&,*,=,+,-,;,>,,,',,,Z>),x>!,_>]>r>x-y;t-x;w;O>y;}>J;->);L#'%~,S-=-v@b>8=@->#[=q=n#H M=y%o#B@L r#o#&$##H m@& [&I M@E*D 7@1@R 7.1=1$1$h*S+R <@1>I%1$;$1$;$1=1$1$I%i;g g g 6@9@6@6@1@6@z%6@5$2@L 7@5$L B@b@o#H 0#o#B@/*9&7#$#B@B@r#4@<&L g !.m t@2>p.B V-k _;x.!.u p;{,],    ",
"  ^,/,n+(,D#6-P+m+C.o+k+G.m+m+G-q+h+A.S ;.[.A.p *.S &.n ).o j._,;.0>;.;.[.;.[.` ].S [.j.[.p '.u n V #.S U@3.Z@$.p o. #j.o v Q*` o '.v ).].X W k t@6*K&_@t Q*W B 6*m B r=g S+($R z-E%-$9.g R I%|@:@z#;$7.]@m@1@m@]#H b@7.U.<&2@- S&|=n#t$y%,$@#t=:,J %#l*|=|=~#l*x%|=f@4#,%k;,=<,G*[,n-},|,P>M;1,2,2,3,r>4,2,s>2,5,6,7,7,s>8,~>^;}>y-G$@-8=j@%$O@(=(=e@*$l*n#@#@#{#=#M&@#& l@c@L L L L L T=S+7@a@a@7@R S+2@L 4@r#r#6@L D C 1&i-C a@B@L 1@6@a@1@}@|@7@E%7@S+($!*7@q#3*h*1$/=S+E%<@i;7@~*}@7@7@6@6@6@6@2@m@6@6@3@5$2@2@B@L D o#T+[&y%P#0#=#a#o###l@H +#6@a@2@2@m B ~+4+9.t@H+!.!.Y ^ u / 9,0,    ",
"  a,6 <$m+n+n+b,j+m+k+m+z*8>m+K$h$+ S U o.S m.@.j.U ^.o ).|>[.^.;.;.0>[.U [.8*).3.3.U Y@j.).'.Z X@c,R+%.@.` &.Z@%.*.!+[.^@t t '.'.!.j k ~.k W d,i-:@}.z#l m 0.z U&f J%J%=$<@($a@g r=B m B t '.'.K>'.k c&t _@A*B$($($U&p.J%i-p.r=i-p.c&m J&J&B K&r=J&~+z#:@t@($=$1$R a@|@q#E E*p#H I b+0#n#I %#%$b=7=3#b=j=R&e,7=5#N N *$-#S&c@;@n#J =#7#H H ##I *%c@2@B@E D L D H o#k*,$]#H p#D D H H & q#7.2@f,a@I%R 7@2@m@}&2@6@a@r#D=6@|@R >$2@D T+l@B@U.b@1@C 6@1@I%E%S+C 1@8#6@I%7@1$6@}@1=E%7@w$w$E%7@2@a@2@6@b@r#6@1@1@B@L *%B@L B@o#F H z$H 7#;@7#H ;@L D c@a@8@B@]@t@z f 9.x w =.H+=.Y =.#.x.9,g,    ",
"    h,j+j+n+i,j+n+m+'+m+G.m+m+U$$*/@).&.j.%.p p w.r @.p p |>@.%.[.j.8*+.&.V@O.o Z@p @.T@J>p q ].o R+` S &.o n @.@.;.b.J>'._@m :@6*B B B m t ;$E%E%;$c&($f m :@i-~+:@:@F%1$($R 7.q#z B :@($;$J&($w z#B ($:@r=~+($($~+:@i-9.R A j,($=$~+B :@:@r=A C C -$a@K p.k,C 7@2@D D L <&2@E*m@l, =I -#m,_.h@|#x#f@!$d@_.@ x%%#{#{#n#I o#0#%#*#M&n#H@0#p#{#J H F c@o### =;@J u#I S&%#-#I &$M@####F c@b@<&*%b@i a@g g q#b@5$b@L c@H o#B@a@E%a@1@+#c@B@+#2@a@b@b@3@L 1@}@7@a@d#B@l@q#R S+}&r#}@6@6@a@}@C q#q#6@z%7@2@n,6@^=}@b@+#D D B@+#$#[&$#7#0#@#>@T+c@0#6#b@q#|@a@E*{%J&($p.9.~+w =.}.o,o,}.u p,'       ",
"    q,r,n+n+n+j+m+j+z*m+o+m+G.$*T#P.` &.@.%.Z ` %.^.m.` @.p p @.%.U %.^.@.p s,'.p ].%.Q+@.n n o o k o m.p #.'.p p ;.o.p K>_@z ($c&6*6*B m z#;$R ($U&c&;$r=0.B p.R 1=<@f |@|@6@{%+#g p.f R S+g R ~+~+K ($:@:@=$R S+~+r=J&p.2@b@2@a@g S+K R S+!*g 2@a@1@m@L }@L 2@6@a@r#H c@*%c@<&F H  =s#|=|=l*x#q=~#%#n#*#M&{#M=d@%#n###@#x%^**$f@g@*#;@n#=#%#d@H 0#T+p#0#$#7###{#M&*#~#e@-.i@-#I H@>@0#D 0#+#2@<&r#>$I%r#q#r#1@i r#2@B@+#7@E%2@c@o#& B@c@*%2@i r#2@D r#r#3@b@j*c@o#8#E%7@}&b@2@}@1@q#C B@r#3@r#q#3@b@B@1@5$z%r#D d#+#L 9#7#p#o#o#7#;@0#o#D B@+#j*E >$g *%a@z#~+~+:@:@w H+=.W 1.u #.t,u,      ",
"    v,n+I>w,i,<$k+o+|;z*k+m+z*C%$*u.#.@.@.).1. .S U $.p Z@@.&.x,U %.&.%.2.).).o n @.T 8*|>'.n n W k Z p ..'.k s,&.;.*.%.3.V J%:@m w 6*t@}.6*y,R !*1$1$<@U&B ;$<@R 1$1&z,g a@- a@2@a@R A -$g |@g R g q#7@R R K 4@1@-$:@($g L H +#5@1@R 7@g 7@a@>$]@E *%c@F L +#H 2@a@L L H b@*%L D ##H@##%#~#!$~#-.=%i@|=~#|=*#M&M&I n#x%M&=%!@!@N f@~#=#%#-#e@*$n###u#n#=#%#!$%#%#=%*#]*O=6=!$%#=#I @#I p#H o#6@q#2@1@a@6@q#2@1@2@1@{%o#$#r#1@2@l@o#+#D D j*B@+#6@B@H E*B@m@5$B@o#D d#C 6@B@B@o#z%r#r#}&m@b@r#2@r#L +#l@3@3@1@8#r#B@+#B@$#7#o#& +#o#M@0#X*L r#o#c@+#7@2@[&+#z#a;r=t@z z }.=./ p;x.%;5+u,      ",
"    6 D#k+(,n+k+k+k+k+j+'+m+o+o+p+D.p @.].n ` A.6.&.$.p &.x,q ^.U ^.&.Z@@.o o ).3.p S %.).X n n '.k '.J>).V |.n &.U c.U |>o 5*B m !.m B w J&:@4+-$($;$R ;$B f !*($I%<@E%E%a@2@1@b@5@g R S+a@a@g }@a@5$2@-$w$0@L 1@6@4+i--$]@L b@r#]@R 6@a@a@a@C 4@- b@L c@D H H 2@a@r#- $#0#H E*6### =##s#n#l*%#%#i@=#=#%#M&-#~#@ I J n#{*6=A$!@!@>%i@=#*#{**#-.'@H@{#=#;@I H@=#-#*#*#~#*$f@)@i@i@@ I  =H@;@0#D *%L 2@i r#b@c@i D & +#[&H L 6@]#D 0#M@H o#o#+#2@0@b@o#9#l@[&B@j*o#o#B@2@3@D $#o#}&B@L r#r#B@L E 1@b@c@B@3@8@r#r#B@D 9#m@L H o#H o#o#T+[&o#*%2@c@D D z%7@c@<&!.z B$B$~+A-p;W V W ^ j J+A,      ",
"    9 n+k+(,P+k+(,m+(,m+m+m+o+K$K$v.q &.Z@).` $.$.).q ].m.^.&.%.U &.&. .).o X@o 3.m.S %.).R+o '.k B j o #.!.k n X@@.*.S o o !.6*z#B !.A*}.t@t@R R ~+:@-$I%:@z#S+<@E%1$g a@2@m@i o#z%a@E%I%a@q#4@L B@F D b@+#L 6#b@b@a@g 6@L +#$#+#a@7@r#c@B@i 6@2@E*<&3@L B@c@0#j*q#5@i H ;@0#D H H@=#7#=#-#l*{#J n#=#=#-#9$;@-#%#b+u#@ M&-#~#N ~$F@f@|#e@e@h@-.@#;@n#%#9$-#@ -#-#M&l**$*$=%=%-.*$d@I ,$7###H@7#p#0#& b@L L c@L D X*+###& & 5$o#H c@D $#o#D L i b@l@o#o#D ,@0#D 0#$#k@r#b@c@##H o#B@B@8#2@*%D 5$b@r#+#5$r#m@L B@o#+#B@3@D o#$#H $#l@$#$#D $#+#& 0#B@7@|@<&2@m J&~+.>x j u u =.^ %;=.x [       ",
"    B,<$^#C,P+P+P+m+:.o+m+m+U$K$G.]+` o o #.|.%.D,).o o &.@.p %.@.).o o o k V o m.j.j.[.).o p ).'.w 6*'.'.'.'.X@|>3.T@[.).n Q*z#m w A*l 0.B J%($1$=$($($7@1$:@-$E%I%g 7@2@b@L *%o#K 1@E%7@r#a@1@L $#H L D H & D b@z%}@7@R }@1@a@5$3*E%S+b@r#a@I%a@r#m@r#9#+#$#+#B@$#b@r#[&Q#;@o###n#H@##I J %#I I ;@7#o#;@H 0#0#I H@7#H H@I J {*~#e@n#e#*$*#G@*$-#J@a#;@@#n#'@;@I /*@ ~#-.g@*#!$g@=%I u#7#H H@u#=#0#M@c@[&B@o#H k@+#b@0#d#r#2@D 0#H H [&X*o#l@b@& o#0#C@D 7#$#b@H 0#+#b@r#o#>@H B@B@9#B@a@1@b@b@B@+#+#5$b@r#5$L R#5$2@}&B@$#D $#[&9#l@b@B@D +#D o#r#E%|@a@]@B K&z f }.!.~.u _;^ ( J+' a       ",
"    E,n+C,C,C,k+k+n+:.z*z*C.k+r+e;u.#.).` W Z q %.n #.#.@.p ..o q n #.#.o s,#.Z m.Z@U@O* .` ` p V m j 0.W X k #.o @.V@p n |>k 5*k }.B A*B U&:@($1$($;$1$g S+($S+}@|@g S+6@r#r#i 6@g E%7@2@r#b@*%+#& l@B@*%+#$#*%L a@}@a@6@q#4@4@6@2@}@}@q#r#1@E%C 6@a@r#L c@o#+#b@[&0&r#$#;@H@7#H@{#;@##;@n#M&;@## =H@H ,$H 7#H@@#9&0#>@H 0#u#n#@ %#!$e@{*'@J ;#*$@ J -#s#9$=#;@[&y%a#-#{#{#@ *#d@@ n#-#;@##=#n#M H I +#o#o#+#$#0#p#o###C@B@b@X*T+9&7#0#0#+#D L D 0###0#o#7#M@0#7###o#9#d#0#>@$#B@$#$#B@5@r#B@c@B@r#o#5$L 5$5$6@2@r#L 7@5@D r#l@o#o#$#b@L [&+#+#B@1@a@S+S+]@B t@x z w =.u u W C$( 5+~ F,      ",
"      G,i+C,C,m+j+n+I>8>'+C.o+p+$*k.@.p H,#.` p m.n.1.` %.&.&.^@1.).o V@3.Z Z W  .o S %.Z@o ^@T R+k m 0.W k m v |.n p Z@3.|.v V&R+t 6*A*z#U&J%R ($<@A <@]%!*($R 7@C g 1=}@6@a@1@1@7@g E%a@2@m@L 1@2@L m@b@9#B@L b@}@7@C 1@r#6@6@6@a@I%7@a@6@2@U.}@a@U.1@b@o#B@+#o#H $#5$5$0#$#0#M@9&I H@##J %#;@p#I H@D 7#D D D M@0#o#0#D o#>@=#@ A$f@~#*#%#~#i@i@=#@ %#'@n#H@9&H [&0#/*H@@#;@@ J@~#J n#J I@;@n#@ I n###& $#[&7#T+7#+#p#6#+#D 0#c@T+l@B@+#D D 0#D [&l@B@C@;@0#c@o#T+D 0#0#D ;@0#+#l@P#0#D B@B@l@B@1@o#+#b@6@r#q#}@z%6@1=1@5$B@c@+#D B@B@2@+#L B@r#3*S+<@!*4@z i-I,!-w !.V u =.p,J,$+J.        ",
"        K,i,F-F-L,n+P+m+'+m+o+h$K$i#&.o &.n o  . .V u X@ .p `  .` n |>V@p p '.'.o Z@Z@p p |>` %.k t@w 0.~.'.k R+'.X p #.R+X V k V |.v m 6*;$f =$<@R R f <@K A <@g E%!*1>w$}@B@5$r#6@2@R E%6@r#b@6@1@B@5$+#+#2@1@6@R 1$7@}@<&3@a@7@7@7@E%7@C a@7@9@I%q#j*L 5$c@R#l@D 7#D r#D o#y%[&[&D $#7###-#J -#@###o#o#H b@L c@L L H H o#0###-#M&%#i@*#%#M&x%-#S&-#~#*#-#&$7#$#+#7#=#;@##;@J @ *#J H@J -#a#J@=%i@H@@#o#X*C@;@$#0#o#D *%L D D H B@D +#+#o#T+o#r#D +#^=B@##0#o#T+0#l@0#T+0#@#0#+#0#=#o#r#B@j*o#L B@b@r#r#r#7@6@7@I%6@n,r#c@B@B@o#B@B@8#l@B@L B@6@}@E%S+7@6@t@:@R t@=.j =.Y %;x.q.A+          ",
"          M,N,6 <$k+G-o+G.o+e;$$G.v.@.`@`@%.U@U ).j '.X@J>&.` o |>n o o ` o v X@ .p ].o ).).p p Q*B m z#t Q*A*'.~.R+O,X@o o v k ~.X Q*m m K&K&i-<@g E%;$p.1$1$i-<@!*S+I%I%1@b@2@8#r#7@R R 1@B@m@r#B@b@r#H B@1@a@7@I%a@r#r#2@5@E%7@6@S+<@I%}&^=2@r#a@b@B@r#r#j*B@0#0#0#o#r#q#o### =H B@b@D P#>@;@=#@#=#T+[&9&9#D [&0#+#D m@D C@H -#u#-#*#J@=#=#@#/*=#'@*#*#n#o#l@o#H ;@S&=#;@9&;@##=#0#;@'@'@-#=#=#=#0#B@[&l@o#0#D T+l@B@b@+#5$B@0#H D C@C@l@T+D 9#+#R#B@d#C@##o#0#D@l@o###>@P,o#c@$#>@o#B@2@r#8#L j*1@9@5@8#1=I%I%7@z%}@7@2@l@B@L D r#8#B@b@b@2@r#1@E%S+g a@;$B p.H+!.Y 3>s.Q,R,S,            ",
"              T,w,n+U,o+o+K$k+C%Q@ #&.V,W,[.U U @.k W n s,` ` n ).o A.o ).).#.3.).Z@p Z@@.` 3.).#.A*m B j v A*k ).).X@'.O,X@k Q*A*k m 0.m J&B :@K&R S+!*;$R !*($;$1$7@7@E%6@b@- 1@6@X,!*R a@<&2@2@L j*L D +#1@1@S+a@2@2@1@6@3@q#7@z%~*/=g q#5$q#L 2@B@L q#2@6@1@j*[&;@7#B@j*B@D 7#;@*%3@o#p### =I I I p#[&8#9#F c@o#B@L b@B@7#I =#a#I =#*#J I n#i@-#-#M&i@@ 9&9#0###0#I =#=#@#H@I 7#L D /*;@H@;@0#;@0#D $#0#o#b@D 0#l@B@5$B@B@B@$#[&F H 9#b@7#0#[&0#a#$#b@c@0#o#0#p#H ;@%#-#g@-#[&B@H o#L r#z%6@C 6@1@6@6@w$}@9@/=g 6@6@}@b@D B@L 5$3@B@C 1@b@2@6@7@<@g C a@R ($p.:@Y,J,Z,N.J.`,              ",
"                 '.'+'q+$*G-k+z*.$V.@.j.[.j.1;[.U V '.o ` ).J>J>S p %.].@.'.'.` p %.p |>&.^@X p '.j R+'.'.!.k W 3.'.V |.` o R+Q*Q*v t@r=B :@2&($c&p.<@S+U&U&S+1$:@($a@E%-$}@2@2@1@f,g E%1$g <&2@r#L m@B@6#l@b@B@2@2@2@r#r#6@a@I%7@C ~*E%}@}@r#r#b@1@+#L 6@6@6@}&4@2@D 0#B@B@L D $#;@X*B@H p#9&0#7#;@;@;@p#0#o#D +#0#o#B@r#9@j*=#H@a#;@a#J -#*#-#'@K@-#*#g@=%##c@7#@#9&9&a#;@=#=#;@;@o#$#7#M=;@a#0###@#C@l@C@n#$#0#p#0#p#+#o#o#$#o#0#o#C@0#$###;@7#H@u#H@D *%7#B@o#;@o#p#*#@'*#=#0#o#$#B@L 2@6@b@1@2@B@5$6@7@w$J$g S+C a@1@5$o#L b@r#B@b@w$6@2@6@S+6@g I%a@- g 7.L*B$S V=V=q@                  ",
"                #')%$'J.%',*U$z*m+v. .W,*+*+*.[.@.X ~.o &.@.p V@2.&.@.2.p ` n.p %.2.@.Z o &.o p o _@|.'.R+j B }.l v X@^@^@ .'.A*z#t }.~+:@B K&J%;$;$i-<@!*!*/=R ;$J%7@~*E%6@- 1@8@1@a@E%7@1@4@1@1@2@2@B@B@L r#5$a@r#m@m@9#6@q#6@6@a@g <@w$7@3@r#B@6@8#L 6@2@2@z%3@+#B@>@C@l@[&H D ##D o#o#9#p#7#0#0#0#o#0#0#[&B@9#o#H o#j*m@c@=#n#;@H e ;@a#;@-%Q#n#I -#i@'@I 0#$#X*[&&';@'@=#9&o#$#m@l@T+o#o#0#o#0#P#*'B@B@p#;@;@>@o#[&T+o#C@9#+#+#o#$#H@7#J ;@H@I ;@T+$#o#7#B@d#I 7#>@=#J n#0#7#D D l@1@b@5@5$b@5$B@B@6@9@h*w$<@S+3*7@g - L 3@E%E%R <@;$1&g 2@a@6@g }@L ]#L w t.S #.='s+-'                  ",
"                ;'>','u&''m+'+O+%*T#j.p $.)+c.o.)'p '.`  .3.^@3.@.@.Z@[.p @.Z S r U [.].` &. .%.^@V V&X #.X k A*m ~.X@|>o ` |.Q*'.k _@B A*t B ~+:@i-($w :@($:@1$1$J%J%1$C q#a@3@r#4@6@a@7@7@g }@B@m@6@2@m@3@6@E%I%a@1@C 5@~*I%R C 7@I%S+S+I%1$6@2@b@+#c@i <&}@6@r#b@D o#B@B@B@o#o#0#>@l@c@o#p#@###P#9&o#o#B@o#B@i 2@1@q#r#1@B@H@n#;@T+a#>@I H@'@Q#;@H@*#@ 9$a#@#7#H o#H 0#o#$#P#0#c@3@8#+#B@C@B@o#D o#l@8#r#o#H '@9&B@0#0#$#5$r#5@5$o#H >@7#@ {#H@=#;@$#+#o#T+T+c@j*+#7#;@9&0#0#T+j*D r#7@3@1@r#1@6@q#b@7@}@w$h*R R 1=-$R g w$($($B f ;$<@w*w$6###t$7#,$F B$o.$.U m+!'~'{'                    ",
"                  0 ]'^'/'('o%C%:.,*_'%*:'/@o.b.@.&.` o ).o o ).@.p [.j.*+;.T [.*.U `@@.S m.` p o Q*'.|.~.X ~.a.Q*'.X@p ^@p ^@V X o |.}.m m 6*:@i-F%($K&:@:@J%i-U&U&U&!*R 6@S+2@C 4@7@7@1=1$1$7.1@1@1@6@2@6@1@g S+!*}@0@g 7@I%<@7@2@z%7@7@6@3@+#b@b@$#o#L 1@6@6@r#l@l@0#+#b@m@m@+#[&H +#c@*%7#;@##7#7#o#o#B@+#C 6@1@}@g |@7@2@7#,$p#$#H@H@T+$#H &$@#=#J@=#=#a#9&=#0#T+o#7#B@0#;@H [&5$r#c@$#0#5$C@E*[&[&H m@B@0#;@H B@0#9#d#b@a@q#^%X*D p#;@=#J >@D@H l@$#l@l@o#c@3@b@9#$#5$o#l@+#9@7@7@1@B@5$b@B@r#r#b@E%R 1=<'i-<@S+K <@<@H%=$($A >$>$a@2@]#l*N H@}@).b.)+7-['}'o%|'[*1'                    ",
"                  2'3']'^'4'5'-*6'7'K$Q@+'8'_'p+U#1;/ j #.Z #.` %.).S r j.b.;..+c.%.S &.%.@.t;%.V@!.m |.'.V l l k W o p Z@X@^@~.^@Z@Z !.A*V&z#J%J%U&U&r=U&f ($1$U&1>U&g -$7@|@g 7@6@C g S+($1$I%S+U.4@1@z%7@6@g <@9.E%S+S+E%1>z#1$7@3*7@7@7@}@r#2@2@o#D B@8#L r#L b@*%$#b@m@m@r#B@[&p#H >@D ##=#0#&$@#B@8#B@m@a@U.6@g 1=}@C r#0#I 7#6#p#0#+#o#H 7#I =#H@0#####>@X*9#r#o#0#0#0#0#l@B@r#}&l@$#7#R#R#+#F H H l@r#D D D F c@2@j*r#q#a@b@B@l@+#H ##a#7#0#$#B@5$B@B@5$r#C }&j*B@B@B@r#}&7@7@r#1@2@r#6@6@z%}@7@1$1&;$;$S+I%-$E%R R !*($E%g ]@+#7#M@& a@A*l [.J._'9'u&0'a'|'b'c'd'                    ",
"                  >'e'f'g'T,K,h' *i'j'k'n&%*C%/%l'd+o@V$/@)+(+).).#.` R*@.U ;.b.v.m'S &.p p S T p V '.#.1.'.n ^@o n ` V@n').p '.Z Z@o '.Q*m c&U&1$($i-:@p.1$<@($($U&!*R 7@}@7@E%E%2@g I%7@g E%}@g C 6@2@6@1@a@4+S+/=2@J$9@R U&K&1$R !*w$7@w$C }@9@}&b@l@b@5$r#i 7@z%L 0&b@C C r#[&o'[&B@o#o#D ;@c#7#y%+#B@j*3*I%6@a@7@w$w$S+2@l@X*;@D T+0#o#$#0#=#9&;@a#$#;@&$;@p#0#D B@o#T+$#D o#+#c@p'9#0#0#0#T+B@o#T+o#$#o#H ;@0#H 9#L L 3@b@9#j*5$j*B@o#C@0#0#0#l@1@3@}&6@6@}&a@6@r#}&r#2@5@m@J$-$E%w$I%h*7@7@g E%1= >6*J%!*7@S+R A >$]@- b@b@]@~+l X m <@2@k q$p@=*9'q']'a'r's't'_+B-                    ",
"                  {'$'u'v']'}'N%6'w'x'y'z'x&-*A'=*['B'C'%*w%r$w%r$u+.$c.%. .O*T *.*.V,%.&.p )'m. .o %.X@#.'.|.o V |>p ].`@p ^@S ).`@%.%.O.|>_@6*i-($i-K&($!*<@U&($1$1>($S+S+}@S+S+C w$~*}@}@S+}@1@r#3@1@6@}@E%E%w$C 1@C 1@7@S+;$=$9.S+7@S+S+S+7@1@6@z%3@3@5$*%B@6@3*8#m@r#a@2@2@D D D B@c@B@L o#p#o#0&j*r#r#r#C 2@R R 7@R R }@r#o#+#*%[&0#o#H o#[&D 7$-%@#;@[&@###o#$#l@c@D o#+#5$r#1@r#B@B@P#& ##$#$#T+0#7#X*H 7#T+0#+#B@l@+#o#j*B@j*L & X*T+$#7#5$b@6@}&7@7@C E%7@7@h*7@g 1>i;S+<@U&<@<@R g C a@[@1=i;U&9.;$;$($0.A*q *+/@U#`#/@o.&.R*u j.b,a'N%}'9'j%D'm%$%E'F'$'G'k+v+                    ",
"                  H'I'$'c'J'K','L'M'N'A'-*-*A'A'O'-*P'w'l&u&o%N+$%Q'q&R'S'@%{@d$T Z m.i.S p p o o #.p 2.).'.X x,#.#.#.` p V@@.m.S *+y*c.t.T'[.|>X@t K&J&:@-=($r=K&F%;$:@($I%7@R E%g 9@a@g R S+g E%C r#r#6@4@C E%I%7@}@7@5@3*S+/=;$R 1$1$w*S+E%}@1@>$}@6@1@L r#L L r#3@r#b@r#5$r#c@L B@3@m@B@r#B@;@p#0#H D 2@1@<&<&m@6@}@=$S+r#r#F D 2@& o#o#H D H [&9&;@##Q#0#$#$#o#B@E*2@q#B@L b@2@8#L l@o#P#T+##0#$#0#z$$#o#,@0#9#o#L b@*%+#L m@m@b@L D o#$#D *%{%}@g g 1=}@a@J$S+S+6@S+i;7@6@6@E%S+g 7@I%4@E o#D o#B@w*A*|.R@R.+$C.Z#.$/%z*p+7'@%n%[%U'i%9'a'm%m%N+v'V'J'['W'X'Y''+D-^#                    ",
"                  Z'I'B-G'`':+C#a' ).)<.A'+)x'W=W=-*j'x&-*z'z'N'N'N'6'@)m&K%#)#)o&%%o@K.[. .~.j $)m m k  .o Q*V Q*R+~.'.o '.|.|>o o ^@2.[.D,Z@p %.V@X@R+t z#z 6*_@6*J%K&:@S+7@g g C 6@r#E%7@>$2=i-S+6@b@2@2@w$g E%I%7@>$}@E%($/=U&U&K&F%1$<@!*R }@6@C 6@2@r#L r#1@8#b@1@r#6@q#z%+#L L 2@1@r#r#2@$#H 0#o#b@r#]@+#c@L r#a@g 7@5$L +#o#2@y%;@T+>@H D 7#@#=#;@9&[&$#$#$#l@B@B@m@c@M@& j*d#B@D +#B@o#H 7#o#D +#5$r#L 5$r#r#6@w$a@}@U.q#2@a@a@r#}&r#}@1@1@r#}@S+7@1@6@7@4@z%q#C r#$#H o#+#M@/*& [&b@g 2&).R@#*U#9*U#$$I&%)&)o&N+m%l%m%m%n%|'|'m%m%$%r'|'*)n&z..%=)-)Y';)q+:.O&D#                    ",
"                  >)G'q+o+G-`'q@*)K'}'f*v&6'N'A'-*W=k&,)i'i'8.')-*-*-* *g%x'g%))!)_%~){)m%9'N+Y$z*]+%.l B i-<@-$R ($w m t j ~.'.'.~.k ])V@X@'.m t v Q*'.V R+!.R+|>'.X v z#B U&U&;$^)!*6@6@E%<@;$K&:@R 7@I%h*R ($i;!*($;$S+R :@S+1=1&r=/)U&;$U&K&U&S+I%w$~*7@a@q#3@r#6@r#r#6@L 3@b@L m@2@2@<&c@L L D o#o#d#B@m@b@c@L q#7@~*a@L L 1@E*2@o#o#+#$#0#c@L B@0#[&H [&[&o#L B@r#1@q#r#L 8#B@b@z%z%q#a@0&+#1@C 2@m@6@7@7@9@7@3*E%7@g S+<@E%!*!*R }@5@6@7@C r#r#1@8#r#o#+#o#D D H =#{#I &$[&S+_@()W,S#B. #%+ #d$l'{@r$b*b*n&_)[%:)[%D'[%l%l%<)[%%%m%|'|'_%J'E'c;[)L$o$I&})e;7>F.|)F-                    ",
"                  1)2)})m+i,K$,*o@:+f'[%}'~'u&6'r%A'A'z'P'-*-*j'j'j'i'')j'j'')')O'x&z'N'.*j%N+n&J'_%o&Z$%*+*N$:'Z#!+t;l m 0.0.3)4)6*6*l i*k i*l w B z :@~+z#m j X@3.3.|.R+z#k '.'.K>k A*z#m 6*A*B w :@U&($;$U&i-:@c&J%J%U&:@K&K&1$i-K&B :@F%<'J%J%1$1$<@E%<@/=g 1@1@1@3@2@1@a@C 2@D L q#2@1@L b@L [&$#B@D b@8#6@5@]@1@7@g S+1@r#6@6@1@1@}&3@b@2@C 7@r#+#B@j*2@q#C }&}@<@/=g S+7@7@6@z%<@<@i-($<@!*S+($7@6@6@g C 5)g E%g a@g 1=7@q#5@7@w$q#1@a@I%g }@B@H ;@I@H@,@l@b@J$~+l 3.h#d$/%V#7*R.S$o$+*w%_%b*K%6)n&m%m%[%p@[%:)%%[%m%[%D'N+|'$%$%$%_%S'p&=)7'p$r+7)C%z*m+E-L.y+8)B-                    ",
"                  <+9)0)v+G-C.o+,*O+Q'|'K'|'t&g'a)K,N%5'<.N'N'A'z'j'x&-*-*x&A'x&k&k&')x&x&x& *r%q%N%U'b)N+$%K%&+M${@c)d)O+X$$$Z#D.*.^@o A*;$($A f ~+($($:@K&B :@B J&6*B 5*J&K&m t z#m m A*k m k 0.B ;$:@=$U&J%:@:@J%J%J%:@z#k X e)r=B B K&K&6*6*z#t@r=J%J%<'F%($/=g w$U.}@|@}@7@7@}@6@a@g 7@r#r#r#q#5@f,2@6@a@6@1@a@6@6@|@S+7@a@a@7@7@2@2@2@2@q#3*|@r#r#5@6@a@J$7@C 6@g E%7@7@9@7@7@>$;$<@R h*S+S+7@7@}@& 0#0#c@L C q#1@L 2@}@2@r#B@+#*%H 0#o#D 0#& L 6#C@1@J%`@f)b$i$U$z*S$0*m+h$Z$g)b*r'N+h)|'$%%%m%[%o%q'q'a'a'%%N+N+$%_)K%K%*)i)o&q&t'<;{+j)U$K$o+G.7> $V.z+^+u.g.k)B-                    ",
"                  1){'`'-)r+.$6-o+r+7'r$J'J'i)b'6)v't&l)o%}'^'L'6'r%[$ *-*x&x&x&j'k&j'm)x&x&P'A' *r%N'.*q%N%p%=*b)s&n&c;o@@%q&@%~) %n)p+$$b$J.!+|>z#p.>$E%>$R g R ($o)S+($1$($($J%U&:@B z#6*K&B B :@:@:@f p.1$9.;$U&;$;$!*($:@k A*6*6*t@z#z#B (;t _@/)z#J%1&U&J%:@U&=$R R R g g S+|@|@7@<@R g <@S+E%}@C C }@a@T=S+I%a@}@7@7@6@r#i B@r#1@E%9@6@7@6@2@B@b@8@a@q#r#3@6@E%z%r#6@6@r#b@r#d#B@*%o#$#####H@H@H@H@=#@#>@7$0#p#M@@#H@&$n#=#=#s#!$@ =#H@L R l U@/@d&p)i$i$Q$l${@Z$g)+%b*n%a'D'<)l%:)o%D'[%9':)m&:):)%%m%$%*)+%E'q)0$ %r){+{+p$o$p+,*T#U$P+C.:.s)u%V.]+h.S.S.t)1 u)B-                    ",
"                  u'C'$'=)=)%'v):.m+r+u+p&t'c;c;r$w)Q'q&Q'V'_%*)|'a'o%}'p%M'M'w' * *x'/+A'x&x&x&z'x'x)l&r%q%y).*O%U'j%9'9'm&o%9'j%l%s&**n%z)t'#)r$w%+*Q$#$d$&%*+3.|>v 6*J%f o)R R S+!*1$;$;$R 1$<@S+g /=-$!*-$E%}@7@g >$6@g 9.r=J%r=r=B 2&6*B J&:@:@U&U&p.R S+R 7@C 6@b&4@U.r#b@4@2@6@U.9@7@q#r#2@C |@C a@b@c@[&D B@L r#b@c@o#7###I J 0#D H D L L L m@d#9#B@H @###;@##M@T+X*p#$#7#[&D $#C@H H ;@J ;@7#7#$#>@I n#-#=#I &$&$r#7@6@E%:@Q*].R@A)b$#$b$T$i$i$T$j$&+B):%o&*)K%_)$%n%<)[%D':)<)m%l%%%C)l%$%K%o@{+j$j$j$p+K$U$U$G.j+:..$.$s)u%L.U$U$|;:.K.K.F.u.h.q n u d.$.| F+D)                    ",
"                  E)F)''G)w)$'G'o+8-J.C%,*-)<;=)p&=)=)H)H)t'q@t'E'I)_%*)|'a'm%!) )i%p%J)q%6'r% *N'[$Q%J)}%q%q%q%q%M'p%K)p%p%@)L)p%.*O%O%p%j%M)N)0'o%<)%%n%$%q&@%0$r$.%+*{@l$T$Z#Y#k#f)c.V@).'.m m U&1&U&K&=$<@7@6@C a@K E%7@7@/=($R i-9.R 1$:@<'i-9.R ~*a@q#a@q#2@2@L b@B@O)l@D H 0#$#& p#[&$#D D D D D H 0#H@{#{#~#d@=%f@h@@==%*$6=6={*=%x#h@*@y$;#@ *#d@@ J@%#n#M @ 0#9&[&L q#a@R i;r=K&m X@|>%.*.R@.#h#h#7*B./@Y#b$T#q$P)Q)R)Q)q$N${@j$j$k$+*.%o@o@o&@%+%S)N+s&n%n%_)$%_)_)$%$%t&T)t&r'|'n&V'q)p$:'U#k#b #$C.U# $ $+ v.D.D.+ R.I.b K.U)+$R.D.g#9>1;1.=.Y H+d.V)| h.W)X)                    ",
"                  Y)D)Z)`)q@F'Z)Z)I&I>.$K$q+G'r+-)7'<;%*=)_'W'W'=)q)=)%*_'.%.%+%V'r's&[% !j%}'=*p%N%O%5'M'y).*p%M'q%.!L'q%q%y).*q%w&v&q%N%p%=*=*v&+!@)u&L'=*@)j%[%<)<)n%n%$%_)+%:%r$@%:%g)q&.%W'+*&+O$O$q$@!l$k$j$i$.$U#U##*f)(%B. #7*k.c.*.j.[.U p Z@|>X@v k B ($S+7@i r#L r#1@b@L L D ]#H H J ,$=#{#d@y$<**$<*~$O@b=%$N =%i@n#n#M&{#p###$#H o#+#1@/=i-B k v '.U@R@h# ##!@$$!d&G.$$%!&!P)+*%)O+O+Z$n)O++* %%)Y$Z$+*&++*&+&+&+&+n) %B)o@@%:%@%@%K%:&r&b*s&%%n%s&N+s&_)d*o&+%+%K%V'd*r$r$W'p${@n$K$C.R.R. #R.Y#k#+ k.!+b.h.o.h#u.v.R.k#u.V..+o.W.w.^.W j 3>1+A++.{.| :#*!I'                    ",
"                  =!D)-)G)z.['$'`'-!$*.$'+o+K$o+p+,*(#`'{+7'7'-)7'7'%*Z)O+7'p$W'_'=)c;K%*)*)$%m%l%;![%[%j%j%>!i%U'u&N)u&!)U'U'p%q%y)q%,!q%M'p%y)O%p%i%p%@)u&=*>!!)p@:)C):)[%<)p@p@p@<)l%%%a'n%s&_)<%b*b*b*$%_)_)'!%%l%T)s&_)b*:&)!:%R'o@&)Z$%)+*Y$+*%)n){@{@p$j$n$T$L%L%i$#$#$!!~!Z#Y#U#U#b l#/@f#]+R@`@T n'8*Y@%+S# #X#/@c$c$Y#`#d$c$d&e$#$#$h$W$k$W$k$O$+*{++*Y$+*{!{!]!Y$n) %B)Z$g)^!B) %o@o@~)0$o@o@g)~)0$:%@%@%o@o@o@0$r$@%&*:%:%:%q&:%:%:&b*n%b*%%%%m%h)b*n&r'J'E'@%.%O+r)O+&!$$+$b U##$.$6-I.u.k.k.t.k.c.b.o.j.2.%.S 4.;.h.*.w.U c.*._,^.&.x,Y =.V.j+o+};Q,$.V=A#/!                    ",
"                  +)(!t+$'w)z.-!)%I))%j+|;o+l+.$m+C%$*s+I&o$r+s+,*I&,*,*o$M$0)-)%*{+7'_'t'-!w%r$E'+%_%S'K%K%$%$%m%m%a'm%m%_!l%9'j%=*u&L'@)p%i%p%@)p%p%f*i%+!i%i%}'9':!:)l%<)l%<!:)p@p@M)M)[%M)<)m%s&s&m%n%n%s&m%<)%%q'm%S)s&%%n%h)$%$%[!r&o&o&:&}!b*K%n%h)h)s&n%|!o&o&@%g)Z$ % %g).%o&r&o&+%o&:%^!o@t'0$Z$ %o@&)Z$r)c)n){!]!B)o@ %B)o@Y$Y$&)B)Y$Y$1!0$B)2!2!:%0$@%:%g)g)o@:%:%z)@%:%b*o&o&:%@%g)r$3!r$0$g)@%g)3!r$r$0$0$r$@%q&~).%r$+%o&b*4!K%b*4!:&:&:&o&o&+%:%o@n)q$n$`#U#b _&Z#l#R.S#/@+ /@S#k.*.[.*.j.j.*.8*@. .f. .Z @.^.%.&.%.j.j.j.T ^.).&.j j V.G-I&I&$*+...1+_ g'                    ",
"                  5!i,G't+/!F'q@)%_%J'^#F-|;o++$F.:..$G.U$C%C%p+p+C%$*o+:'G-$*G'++-)-)[)[)u+0)M$M$7'O+d)O+7'W'=)`$c;o&+%d*J'|!6!6)N+s&l%[%[%p@j%0'>!j%m&>!:)9'[%l%a'm%l%t&m%m%s&N+l%[%j%_!m%'!s&t&m%'!**|'n%'!n%$%N+s&m%s&$%n&n%s&n%s&_):&+%_%b*T)h)n%n%$%n%_)_)K%b*#%K%o&#%_%o&q&r$+%*)_):&b*K%:&o&7!r&:&K%:&o&@%d*o&_)o&o&K%K%7!:&r&z)@%o&g)o@.%r$@%@%o&:%:&:&4!+%z)7!K%#%8!9!r$0$:%0$^!o@ % %.%Z$%) %@%Z$ %q)0$0$o@@%@%0$r$E'r$:%0$r$E'r$@%+%r$t'#)o@{+j$l'c$v.[.Z@0!.+u.k.%+v.+ I.9>b.b.%++.j.j.6.j.U @.).k w w W #.u n ).S U S U &.q @.n @.1.x b.j);)Y'++Y'E.V)g.*!a!                    ",
"                  b!c!q+(#)%e'c;G)*)*)$'8-o+K$n+I.K.H..$:.n+m+8>m++$s)K.K.R.D.&-z*T#++7'p$p$M$0)I&r+j)r+o$p+r+r+n$G'M$M$-)+*O+.%w%o@O+_'w%w%w%q&_%*)|'N+_!s&s&t&%%s&$%n%r'$%_)|'m%m%<)<)m%N+%%s&n&n%$%%%r'N+n%h)$%$%T)$%h)T)_)b*4!|'$%_):&:&:&r&K%r&o&o&_)b*r&:&b*:&+%+%d!:&o&+%+%:%@%:&_):&K%+%:%:%@%r$E':&:%+%c;z)d*+%:%:%:%o@r$0$0$B)o@.% %g)g)3!0$:%o&:%0$w%.%`$0$r$:%g) %O+Z$Y$ % %Y$O+{+%)O+%)+*&+Z$ % %.%1!.%B).%`$ %Y${+{+r)%)[)&+%)&+M$j$U$#$Z# #c.`@V@o Z p c.%+ #R.k..+.+b.j.@.S [.&.).).` d.#.m B ($}.1.6.A.=.'.=.o &.&.S $.1.n V 1._;B$U$t+,*[)-)e!E.{.E.f!g!                    ",
"                  h!i!v+Y'j!w)w)c'i)|'r''+j+G-m+P F.8-H.j++$:. $K.|+V.W.t.M.h.g.u.D.j+L$p$p$,*,*T#I&p+z*h$e;$$K$o+T#I&r+Y&T#$*j$I&o$o$,*I&j$k!U$p+l!-)M$.%o@0$w%@%o&:&:&[!4!K%r&_)$%n%n&b*_)n%b*4!V'_)n%$%_)h)$%n&J'K%b*<%b*n&b*[!b*_)K%b*+%:%:&o&:%:%&*r$g)r$@%0$0$@%@%g)r$g)o@0$w%@%@%o&o&+%o&o&`$O+.%&*:%3!q)r$@%0$0$g).%0$.% %B)Y$%)Z$%*&+m!%)+*%)%)n!P)&+{@o!Z$Y$Y$ %Z$n!Z$O+{+&+n)+*&+Q){@u+{+q$u+{+{+&+{+O$p$&!q$o$q$p$o$k$T#$$z*z*#$U) $k#]+t.W,m.Z o Z@T@[.)+%+k.v. #h#c.R@U@%.S &.@.V V V W W !.t w '.c.W.W.b.j.@.o n ` ).&.#.W !.!.1.j S.o$G'[)j!`'(#1 f.E.p!q!                    ",
"                  r!{-C,G'(#$'r;s!b'C#l%,*j+b,m+.$F.:.J.U#H. $R.v.A+u.b.o.g.o.o.o.h.m#t!m+$*%'r+7)r+C%G.G.G.:.z*m+8>7)$*r+T#p+U$U$U$h$T#p+$*G.#$Z#Z#.$U#U#s)#$K$G.U$o$M$p$o$q$p$u!M$7'o@o@t'.%.%t'.%Z$r$r$o@`$r$c;r$`$.%o@r$:%w%0$@%:%:%g) % % % %O+d+&+&++* %.%O+%)%)Z$r)O+%)%*+*O+O+o@.%.%r$@%w%q)t'`$Z$ %O+r)r)r)Z$.%%)%)%)P)&+&++*{@p$&!k$q$&!L$M$q$&!k$&!l!T#n$h$$$h$n$q${@h$U$#$`#R.b R.b  $d&d&Z#Y#@$7>C.+$u%+ X#k.v.!+t.R@b.Y@*.!+7*S#)+j.T %.%.p  .[.c.W,*+t.k.%+b.;.[.S %.o o &.$.n k !.!.m k #.V @.X#U#K.H.F. #t.U '.Z o n j t@z t@..H+E-++-)2)[)Z)-)w.Q,E.B+v!                    ",
"                  w!q,x!G'(#y!z!-!_%A!N+t'm+.$C.Q@H.B!J.F.R.F.I.D.D.R.m+$*p+Q@H.I.g.j.g..+P.#$p+U$K$U$C!+$l'C.z*C.+$7>8>U$K$$$G.U$K$K$U$T#U$K$8>.$H.H.c$l# $d$ $ $k#b +$U#K.K.I./@/@g*K.l#/@v.R. $l#l#b b +$Z#:.C..$#$z*$$h$$$U$D!U$T#T#G.S$E!.$#$#$z*T$$$G.F!T#T#I&k$k$W$T#h$h$h$q$&!q$I&q$q$q$o$o$k$n$m$T#h$m$o$l!Y&&!p$&!o$++L$L$X$j$l$l$V$n$j$j$o$q$q$j$W$$$S$C.0*+$+$Z#b$b %+%+R@t..+G!H!v.b.*.@.p @.U@%+b.U j.[.0>[.[.U@+.T@8*Y@8*h.*.U@` Z  .m.[.b.c.S#c.*.@.p %.'.n ^@|> .o  .` Z@&.#.~.v V W 1.o ` t.U#8>z*G.7>F.R.o.Z !.#.#.z z x B $.H+o+0)=)=)W'u+++| 1+E.I!J!                    ",
"                  [;K!k+L!G'G'M!`)B%b'6)['G..$C.'+P+j+H.I.g+K.I.J.C.U$-)t'-!s!7'p$T##$F.v.c.u..$m+m+C..$J.H.:.8>+$+$/%m+z*K$K$G.U$e;G.G.T$$$#$m+C.Z#N!F.u% $H._& $K.B. #/@l#+ +  #u.k.a$o.*.o.c.c.o.T 8**.b..+]+v.k.g.c.%+R@o.[.[.U [.U [.U@y*Y@h#c.W,c.)+j.[.[.g.]+ #k.;.k.S#k.&%]+*.v.#! $V#k#c$k#i#a$]+v.v.W.]+.+t.k. #%+k.S# #b K.R.)*]++ D.f#u.c.b.*.T 2.T@*+W,8*Z@@.2.%.%.X %.U ;.;.*+T %.m.).|>'.X '.^@p '.).%.;.U@U T [.j.R@*.@.%.].|>o @.[.*+c..+R@U @.'.B z B J%j k #.u !.!.#.o p k !.u k #.).1.^.]+#$U$T#$*$*C!J.O!&.=.#.!.=;t@f =.(.q $*++W'%*7'-)%'V)1+w+P!Q!                    ",
"                  R!v,<$l+Y'q+S!7'F'i)|'['$*m+n+L,'+o+:.V.k.F.K.:.$*M$%*E'J'q&E'.%%*0)j)P+D.c.V.7-H. $k#I.F.R.Y#Y#&-k#:.z*G.o+8>z*U$U$U$p+$$z*$$#$C.:.u% $b b U#N!c$f)l#b l#I.&%B.k.b.c.c.*.Y@b.*+*.T S [.[.[.;.*.o.;.j.*.*.*.y**+*.Z@p %.%.`@%.y*Y@@.S `@V@].m.].8**.m.Z #.'.#.|>o n Z@[.[.S @.@.).n ` ).n.n W '.X@o p ^@X@V&m m '.'.V k l R+k '.v v X@o |>).%.2.U ].o @.V@X@V@V@%.[.[.j.V@S %.S V@p Z '.X@Z ` o ).S ;.*.[.U@[.b.;.U @.^@o ` p S U j.;.%.).n B <@($($~+f t@J&~+m t@z m X n !.V !.k '.o p N.J.p+r+o$p+7)K$+$I.o.W u w .>j .>V u ^.7)o$(#+*-)++8>V)T!t)U!V!                    ",
"                  W!I=r,|;L!q+q+Z)F'I)*)['p+K$7>z*'+^#m+D.g./@H.m+$*u+=)J'v'K%V'+%q)%*u+o$:.D.t.^+I.I.]+^+.+o.t.]+9>V.+ c$&-J.7-R.#!R.+ 7-k#+$U#C.C..$Z#B!K.g*k#k#+ v.D.O! #v.k.B.]+k.c.*.U T T ;.U S U 2.@.Z@T y**.y*T U ;.*.W,W,*.;.y*2.`@2.[.`@S `@U@U@%.[.%. .p %.#.~.o o V '.#.V '. .).'.#.'.V X X n  .|>'.V X V v o o t K&p.w k k _@m k V k t j '.R+k #. .p @.[.p U &.p %.V@].T@*.U@%.U %.2.`@2.p %.y*j.2.Z@[.*+;.;.8*[.T *.;.[.p q %.).%.@.%.Z@p v a;g a@R p.m }.m B f ($:@~+t@:@v V '.W m #.u o 2.S#F!o$o$-)r+T#C.+$y+t.1.=.W t@!.B$1.o +.p+s+-),*r+$*k#&.f.Q,&;                      ",
"                  X!Y!P+G-d'})C%t+-!Q'*)t'k!I&z*z*o+:'G.+ (+D.K.$*,*O+w%V'r':&_%J'+%@%.%{+-)&-h+k.D.+ u.t.g.+.T j.o.o.*.;.*.*.b.c.t.N.S S &.S U Z!v.k#J.J.:.+$+$ $/@f)+  # #c.k.7*k.k.Y@*.8*T r U U@y**.2.2.[.%+`!f#k.S#7*%+c.b.8**.*.o.[.`@S [.V@@.%.%.^@d.3.|.Q*o p k c,o ].).@.@.).].@.p @.U p ).m.@.S %.Z@` X ).^@Z@S*X@ ~k J&z A*}.z#J%J%m W '.W z#B m '.o ` #.p 2.W@@.p p D,V@[.U [.p 3.p ).^@].@.%.S S j.S T %.).J>p Z@@.;.%.p ).|> .%.@.U %. .W 9.I%<@;$k O.8*;.%.@.'.k ~+A }.W V '.'.k V '.W %.c.R.T#s+o$I&$*p+C.+$v.b.&.k u !.W m &.V)g.'+T#j)%'p+m+L.q } 5..~                      ",
"                  +~@~k+l+5&G-F-Y')%e'J'w)G',*'+o+z*p+o+y+b.t.R.o+-)O+_'o&*)*)_%J'_%c;c;w%=)r+I.]+u.V.^+o.8*j.2.U H,&.q S @.).q {.#.k V V V Q*V #.).Z@;.b.v.A) $k#b  #v.v.k.*.;.b.Y@*.;.j.2.^@` q %.%.U j.T@U@.+%+='t..+c.W,*.R@c..+c.c.%+T@[.2.%.m.p %.@.` '.v l ~.S*X@|>n @.&.p @.@.^.%.%.[.[.%.[.[.;.T@[.%.2.%.%.Z@%.D,%.p p ).'.'.'.X R+ ~'.'.'.!._@t k n X@o '.).).2.).).` o R+z#'.X m B }.a;x ~+w k o o @.p '.W V X |>{.Z@|>X '.V o p %.j.^. .l ($($(;|>|>%+v.v.v..+b.%.U o =.p q &.R*l t !.'.W ^.g.k#K$e;})$*U$8>s)D.t.h.$.j _;!.j x.).{.h.G-%'}$7)z*F.V.s.V)| #~                      ",
"                    }+k+G-5&$*6-s+$'w)c;<;$*-)z*K$'+U$e;K.W.h.]+.$q+=)w%J'*)v'r'r'N+K%c;c;w%7'U$+ u.P..+j.@.@.S [.$.@.` &.|>).&.A.p o x,q p  .1.u }.j z u '.p ;.k.u.]+c..+o.j.+.U %.Z@p m.&.&.p o ).Z@U U *.[.[.*.;.[.%.%.@.S T *++.*.*.b.o.;.%. .%.].@.j.U V@&.o X &.o p  .).n ` ` p @.%.Z@p Z@Z@&.[.%.S o V !.!.!.v '.).o o V@Z@O.@.&.&. .n o  .).X o Q*'.k o %.).p V@[.Z@n k k :@R K R a@a@K g E%<@9.~+B t v X V m t Q*W '.o n X V k n Z@3.&.$~B :@%~v ;.B./@ $Y# $F.K.k#h#b.].p %.2.[.n W =.n o #.^.S#K.z*m+o+o+z*7> $k.w.N.&.H+/ j =._;` n ;.m+|;m+o+L.V.z+../.$.#~                      ",
"                    r,k+G-I'd'J.r+=)r;-!W'G--)'+j+n+z*$$U#^+o.g.+ m+Z)w%_%v'$%n&r'$%*)_%q&q&_'r+R..+v.g.S &.q  .&.S j.S T@.+u.]+D.&%&%&%)+;.j.;.%.o =.z t@p.0.v ].U h.@.%.&.@. .p o X@n X |.).p ).|>o o ).J>@.&.m.%.).~.t m l !.v o p ].[.2.@.V@^@o o o 6.m. .p X '.o ^@ .o ` p Z@Z@Z@].p ` #.` |.|>).W m B :@f p.a;~+($p.K&r='.|>p n #.o o o X@V o n #.'.'.o ^@%.Z@%.@.%.n Q*J%A C 3@L 6@}@6@2@U.a@i-~+:@z c&&~j V ^@X l }.'.k }.w }.!.e.n |>'.w z B |>b. $C.G.G.o+G.C.d&K./@+ h.U S ` ` '.W v s,=.#.S v.R..$H..$H.H.c$W#j.j.j.'.j W m H+!.#.u +..$:.:.J.A+u.u.u /.^.*~                      ",
"                    [+<$L!M!C%D#r+)%=~_'0)K$M$C%m+Z#.$m+b h+u.W.t.F.p+M$c;+%n&6!|'*)4!_%c;t'-!,* $v.]+t.g.S ` j =.V p j.v.R.7-/%+$C.F!m+o+B!K./@ #c.[.o -~t@t@j V '. .'.n |.|.#.k '.Q*k k v !.k '.o ~.!.k '.R+|>n n ^@R+R+A*B z p.z r=B m k m '.k k Q*k X |. ~k Q*l R+o ~.|.'.o p &.].^@o k _@#.k ;$=$9.9.9.!*~+r=z k,~+9.A A r=z m v !.t k A*t V&k v m 6*z#k '.o p x*&.;~X@6*=$A K <@9.t@B J%($;$m k v X k B x c&:@6*m w x J&B i-A ($~+m t m t@z B R+*.K.U)i$n$$*U$T$G.8>U#X#v.c.;.%.~.V k k V n W o ^.+ b U#+$8-+$H.J.k.;.T @.!.=.!.J&_;=.V s +.F.+$J.7-t.c.E.^ u | f!                      ",
"                    L!D#B-G'U,&-r+)%t'=)o$o+t+|;j+i,H.J.u%+ + g.g.D.C.$*O+r$K%*)|'$%J'V'E'p&_'[).$]+.+b.u.j.U n V #.O.b.+ K.Z#G.})L$p$q$T#U$G.H.F.c$v.Z!j.n W k W W W '.v R+'.k k n '.V !.l B m j m m j j W k o o '.X@#.` p Z !.}.B$~+:@}.r=1$4+z J%c&r=!.m 2&6*w }.j v k k v V n p Z u k B K&z :@-$g B V V ` n ).o R*).n v w B t@r=:@B B B <'B m 0.f 9.:@t@B c,'.n u {.X '.m B }.k  ~|>|>'.3.).>~c.Y@c.*.2.3.l ~+R 9.9.x t@9.!*9.-$A 9.:@B r=B$t@k %.A).$n$l!7)o$o$U$m$.$ $/@/@k.[.p !.}.k R+u _;V n S R.b H..$U)+$U#R.g.r S ` W l 0.B =.!.=.=.^.L.J.P I.b.^+h.x./.$.,~                      ",
"                    '~r,5&G'q+};5&)%)%7's+o+,*G-:.7>J.K.k#D.u.g.b.v.K.z*L$=).%w%J'J'E'E'_%@%.%-)G.R.W.j.t.^+*+&.s,n q *.D.Z#G.$*p$7'-)u+{+)~j$I&U$C!_&I.i#S#j.U @.'.!.k ~.'.'.W _@W }.c,l _@}.w 0.k j '.W '.X %.*.;.8*;.b.Y@0!*.*.U 3.o n j t@:@B U&:@f :@U&i-U&B m k k k J&k m t m z %~B ~+2=-$9.:@k p [.8*.+]+.+h#]+k.c.*.|>o w i-J%c&K&J&p.I%g g a@a@K 1$($!.V V V _@'.k !.j n p U _,*.c..+a$B.c$ $H.R./@c.T@X@:@A K =$R I%7.C A;C I%S+2&t@:@w n o.U#K$T#o$o$r+j)m$F!d& $L.L..+^. .k !.!.!.j B !.o ;.R.K.K.&-&-J.k#R.g.U U V !.}.w B$V H+=.=.;.y+J.I.I.w+u.t)Y *!s.!~                      ",
"                    ~~5-B-%'B-J.G-/#)%O+})m+Y'K$K.J.J.J.I.t.g.o.o.;.v.K.K$-)7'7'o@ %t'.%w%q).%0)o+J.]+j.;.o.o.+.).n ` j.v. $z*q${+[)%*+*%*u+u!p$o$r+j)U$:./@v.D.;.+.` t t k !.m m !.w B w 6*B w m m k n ` 2.b. #/@ $K./@/@V.D.]++ /@+ k.%+2.Q*k k J&:@p.($1$R f B B B &~:@:@:@w }.U&($f <@4+9.z t Z@M.S# #/@k#/@+ k#R./@v.c.8*Z@J%-$p.w :@($|@4@1@a@U.2@6@1$($!.}.}.z#z#k !.u #.%.0!k.S#7*l#+ R. $d&C!H.c$(%/@+ *.#.:@7.2@|@U.2@L q#C I%R :@t@~+j U a$C.U$j$T#r+T#h$U$G.+$ $k#I.b.Z@|>n #.n m B r=!.V Y@R.R.F. $K.b R.v.U &.` l A-t@x z (;m Y W +.I.x+I.D..+v.^.x.{~s.,~                      ",
"                    0 5-q+%'})D#}$t't'7'$*'+I&o+u%R.K.g*D.o.t.h.;.N.h.D.Z#r+M$p$-)+*7'O+W'O+%*p+z*K.S#[.j.g.b.j.@.n '.@.v.k#Z#p+{+W'Z$O+W'+*&+{+&+o$L$h$H.F.k.+ S#;.3.t r=J&l 0.B B :@t@B 0.B z#B A*R+&.*. #U#.$.$#$z*+$U#Y#U#k# $@$/%K.k#+ B.o.p X@k a;($R S+A 9.f K&0.Y,p.f K&r=z :@($R :@'.o [. #/@7-A) $Z#H.F.L.F. $ $k#B.b.#.z g K p.R g {%2@a@b@L 2@g i-6*t@6*B J&k |.%.U c. # #g*d$U#Z#8>G.T$n$G.z*d&Y#c$+ %+'.9.|@K - L H <&S+($B j B B c,_,B.G.7)T#T#U$F!p+$$.$+$.$K. #c.%.p ~.o _;H+W W #.V *.V.V.k#b /@/@]+.+^.p o j 0.B z z H+H+x._;t)v.k#I.g#g+D.n ]~1.S.6                       ",
"                    <;x+5&q+%'D#$*-!t'7'C%U$r+k+F.I.R.b  #o.c.(++.8*h.t.J.K$T#I&M${+{+u+{@{@7'o$P+K. #+.+.[.j.@.&.o #.1.&.;.b K$p$O+Z$H).%w%d+%*7'{+p$l$o+C.K.k#O!t.[.V B B 0.B :@;$f x c&t w j m v o p M.l#d&z*G.U$$$#$#$C.Z#U#:.z*T$z*#$U#k# #k.*. .!.m B ($:@:@B 6*m <@t@t J%t@B B p.i-z#&.*+ #b  $K.U#Z#j+C..$+$.$Z#Z#Y#K.+ c. .B k,g S+a@i 2@3*2@a@g 7@S+:@:@B f w k o [.;.R./@c$U#d&$$z*U$T#7)U$U$U$G.f$_&d$ #*+(;4+I%4+a@U.i-K&n Z@'.!.H+s ;./@#$K$T#U$T$o+o+C. $K.b k.;.[.%.3.!.X j ~.#.n.o #.o.D.V.k#R.k#D.v.b.&.` ~.w H+w c&B$m }.k /.+.g#I.y+v.t.]+^ Y s.$.8)                      ",
"                    $'^~G'q+q+D#C%)%/#`'C%o+k!m+K.h++ R.]+g.u.g.j.j.+.M.+ 7>K$U$r+M$[)-)-)p$M$l!#$b k.*.1+j.h.+.%.p o q ` @.*.H.p+{+7'%*%*O+<;7'%*[),*K$$$z*.$C.Z#R.t.Z@k l B x B ($($:@z }.z#0.k ~.` p w.k#C.G.$$K$T$F!K$C.+$.$:':'h$h$p+G.+$ $k# #T '.0.i-R ($J%m k k :@t@_@m c&:@~+=;w n 0> #U#U#+$J. $U)+$C.G.C..$G.S$+$d& $l#Y@|>z /~<&B@& i a@U.<&6@C 4+!*:@r=x m !.n ;.]+Y#Z#U)T$K$U$o+7)T#o$U$F!(~G.+$Y#b g#;.t ($i-z ($f !.X V@S Z@` !.).b.B.+$K$h$G./%b$U#k#k. #%+[.%.%.p o B k '.n.~.o,V n c.+ v.k#g#+  #S#M. .` #.!.!.w B B !.j !.n h.z+g#I.]+g.b.x.t,q V)O&                      ",
"                    s!Q.5&q+5&I>G-G)r;0)o+K$q+m+R.^+V. #]+g.t.b.;.^.j.h.v..$z*'+7)%',*M$o$M$++p+P+k#V.o.S %.U S m.S ^.;.j.).U D./%p+-)Z$O+O+O+O+u+o$M$j$U$o+K$$*#$H.v.2.X j ~+A 1$($p.($:@z c&w k '.#.m.R@K.G.:'$$U$$$G.#$C.+$H.#$h$I&W$l$l$$$z*d&U)V._~m :@;$R 4+($m z#J%:@J&j c&($x 0.k %..+b U#H.7>+$Z#Z#Z##$#$m+C.#$C.z*C.Z#H.f)j.B R |@- H L g a@1@a@C 1$!*z#B w B B o o.+ +$S$K$l'G.l'U$U$T$G.e;$$8>#$+$@$k#.+S :@-$1$:@i-($!.k p ].Z@p o ).b.L.H.#$G.8>b  $k#.+o.*.[.p Z '.o W B k n o W H+j n c.&% #K. #D. #V.*.o n #.W A-:@:@}.c,_;=.s.U v.g#D..+g.o.x.B$q V)v)                      ",
"                    :~<~I'r+r+j+'+)%/!0)k+'+s+f$k#u.O!S#t.g.j.t.b.U U +.]+s)H.m+o+U$M$o$T#r+r+r+z* $ #j.^.&.S &.1.).T [.c.b.1;t.J.z*j$%*W'7'u+u+M$o$I&j$K$z*l'G.G.+$S#;.).k K&($A p.;$c&r=~+z j !.v v %.)++$$$n$p+T#T$U$G.z*z*.$F!K$k$o$q$l$j$K$G.$$U#*.&.m J%S+g ($z#B r=m Q*W m w m !.X@[. #_&Y#U# $d$+$Z#.$C..$+$d&C.+$+$Z#d& $/@h#X@l r=E%H E*2@g E%|@K -$:@m _@m m m |>Z!k#+$#$(~K$p+U$G.G.C.$$U$U$C..$/%k#u.;.p B I%=$f 9.9.:@k ).` o k '.n o.D. $s)d&U#l#/@]+*.S U %.R+k W '.l 0.V '.R+v !.~.).u.V.g#/@+ D.g#W#%+p n v k t@t@($Y =.=.!.q ^.u.I.V.u.W.N.^ %;V)u s'                      ",
"                    [~:$I'r+r+:.k+=)/#-)o+'+,*j++ v.v..+b.g..+t.c.j.*+o.]+ $s)Z#m+$*l$G'r+r+U$U$z* $+ j.&.).U +.` ).2.S *+.#.+c.D.+$G.j$,*,*o$o$,*I&I&T#p+G.m+G.S$U# #[.@.V m :@f r=B z }.t@U&m '.#.&.b.+ .$h$}~T#l!I&I&h$U$U$$$$$m$j$q$q$q$j$p+U$$$C.k.@.m |~4+g !*J%B B j k k m t@c&l |>Y@/@d$+$U#H. $ $8-+$Z#Z#+$d&U#+$.$.$ $K.i#W.S '.z#}@m@7.a@-$a@g E%R c&B }.w }.=.2.k.k#.$z*K$G.S$C.#$7>.$C.Y#Z#+$Z#Z#+ c.%.X w 9.p.f !*4+A z !.}.z w l n ;.v. $ $s)V#/@B.R@U@&.V@o k 0.A*'.t t@V V m }.k V @.]+D.k# $l#D.+ ='b.1.n k m B z 9.j k k }.{.^.h+I.V.A+W.w.]~( q J,T,                      ",
"                    1~:#G'G'q+j+j+=)_'-)^#z*M$z*t%h+V.V.u.)+(+t.!+j.b.;.u.F.:.H.:.'+})r+p+j$p+7)e;+$V.*+j.p $.S A.{.&.S T i.o.;.t.L.B!K$m$j)T#T#T#l!n$U$K$U$z*d&#$+$/@*.S o !.f ($:@B B j }.c&j 3.U j.k.d$#$h$p+p+p+j$j$p+h$U$$$K$p+p+T#Q$l!n$K$K$C.H.D.T m ($R >$!*($($B m 0.z#6*&~W ~.).;.+ k#U#J. $K. $:.Y#+$Z#+$C.Z##$Z#U#b K.v..+).k p.a@+#- 2@7.a@a@I%<@K&B t@B k n U t.+ +$d&.$C..$C.Z#+$Z#H.d$ $K.u%/@%+8*|>v !.z z A K U.U.I%R 9.~+B !.u w.]+k#K.K.k#/@ #;.j.%.p '.!.%~m !.J&J&'.(;(;m !.V ^.u.D.P.I.I.D.V.u.h.Z n k 0.m w !-}.!.!.(;q S V.I.v.E.1 1+H+^ Q,G=4'                      ",
"                    K'T!%'s+%'k+j+s!)%0)Q@L,,*l'k# #t.u.u.o.b.^+c.*.t.b.]+F.+$Z# $d&G.T#o+7)})$$U$C.L.T@[.&.^.U p ` x,S U n *.o.c.+ J.C.K$h$T#i$G.m+G..$Z#.$j++$.$U#v.%. .W m ;$;$c&p.:@B t@|~w '.p T .#b #$T#o$l$j$T#h$$$K$G.l'0*$$U$$$h$G.z*.$+$ $#!+ U Q*($L*|@I%R R ($z ~+B J%B l t X g.k#k#U#H.U#H.H.H.+$#$C.H. $U#C.+$b V#A) #_,o m ($7.1@U.C g }@a@4+R 1$K&z B '.o [.t.+ Y#C.+$#$H..$Y# $U##! $D. #v.S#*.T v }.t c&7.]@<&]#E*- U.I%($t@j V 8*k.l#b R.B.k.c.Y@8*U@p o '.m m l B }.j }.(;B m V-@.v.S#v.I.+  #V.g.*.v V k B$B B$G+w A*V-V-x,O.g+^~V.u.W.j.^ p;f.G=2~                      ",
"                    W=1 C%})r+n+j+3~o@-)'+'+0)C%R.v.]+.+.+o.b..+h.*.t.o. #7-H.U#U#.$C%p+o+G.p+T#K$z*c$W,[.m.S 2.o |>#.m.p p `@j.g.7*d$Z#o+G.U$T$C.#$l'H.H.H.+$+$K.l#7*%.o k :@($g R R ($i-U&J%B k '.3.)+ #:.n$o$o$N$j$h$n$m$K$C.z*C!T$U$7)$$g$Y#K.U#l#h#Z@m ;$-$7.a@1$g 9.($;$K&:@w W k o b.b k#b K.K. $u%Y#U#4~k#k#/@k# $b /@S#%+W@&.W 0.:@R E%S+7@E%>$g R =$~+x z B k X %.k. #c$Y#+$ $ $U#V#R.+ k#B.S#t.h#Y@%.|>V k B 9.4@i & I  =o#a@R p.B m X [.k.k#k#+ v..+c.*.p &.p ^@'.m (;!.t@}.}.m B B !.k S S#V.D.D.+ V.V.j.j.V k k j %~B$($B$m / W q +.V.K.R..+u.^.n.^ 5~w v!                      ",
"                    j&1+}$%'})j+m+7'/#0)G.P+M$G.+ v.^+o.W.o.b.g.h.j.o.c.]+K.K.J.K..$G.p+K$G.K$7)G.z*b 0>j.S %.@.).#.'.|>p o %.S ;.k.l#Z#G.G.o+G.F!#$#$+$s)H.U#b  $/@S#%.o m ;$R >$}@g g !*($p.c&_@~.|.T c.b #$K$h$j$T#T#&!l$h$$$K$$$$$$$S$~!b$K.k#k# #k.@.k r=/=|@S+!*9.R ($~+:@i-B v l o W,l#k#g*K.K.k# $+$K.k#+ B.B.G!/@l#k.0>0>p |.}.:@z ;$S+C ]@4@2@q#4+=$r=K&B r=}.X U Y@]+F.b l#i#/@D.B.D.+ b.)+U S [.|>n '.!.m t@r=K L F y%c@E*a@G+~+t@w X 0>v./@/@R.k.S#k.[.p p p ).k }.}.J&:@t@t@:@c&z V-k %.!+ #f) #v.u.k.*._,u W k m !.}.t@:@j =.W f.^.I.F.7-9>.+| u ^ f.y 6~                      ",
"                    7~V=v+d'C%'+j+s!)%-)'+:.M$U$g* #9>c.g.b.g.g.N.;.*.a$W#l#R.k# $c$:.S$K$K$o+K$K$C.U#b.h.m.).` q n V ` ` p ^.S j.t.l#U##$:.z*m+K$f$+$b  $U#c$b K.A)]+).Z t@R S+g |@a@g ($A :@B 6*B o,p j. #Z#F!h$n$U$T#q$T#T#G.#$+$C!#$d&g$#*A)/@+ .+b.%._@6*g g a@}@E%g 4+R -$;$:@c&t@n [. #b U#K.c$v%#*b R.R./@(%v.I.B.v..+U ].o '.B }.A -$R a@m@c@D 2@C R ($:@r=~+m ` %.b.u.O!D.v..+D.S#k..+k.)++. .p &.'.A*'.!.!.}.w 9.7@4@- ]@g !*t@B k W p 8*.++ /@+ v.a$.+S 3.|>p #.t }.B t@B B B t@z a;j =.%.k.(%/@W#u.D.t.1 8*k !.!.j j B$B ~+j =.u ^.4.|+F.I.V.g+:#[ / $.2-8~                      ",
"                    9~| v+G'})Q@B!7'=)u+m+D#,*U$I.^+9>c.g.;.g.W,j.U ;.t.I.R.F.k#k#u%n+'+o+m+8>G.G.C.P t.j.S |>n n 1.'.#.o  .[.].p S D.U#$$#$:..$G.S$+$v%l#/@ # #/@/@!+|.k r=R ($=$g C >$!*-$($:@r=:@J&#.m..+c$f$C.+$C.C.G.G.U)+$d$K.H.#*#*A)/@V.f).+b.*.` A*m >$6@r#U.7.g -$i-f =$z f B X@8*t.+ /@+ v.k. #&% #+ B.u.t.v.k..+o.%.Z@o j r=($R |@|@E*H ]#H 2@g g !*f ~+~+z##.@.b.b.c.b.b.0>h;*.b.b.W,[.Z@o ).n k m k !.!.r=A K 2@4@m@q#R A :@B t v X @..+&%+ D.a$S#.+p o %.@.#.m t J&B J&i-~+:@c&r=m V 2.]+D.D.I.V.i#t.o.U V !.!.j }.t@w z }.W u $.4.I.F.^~g#u.1+/.u | x 0~                      ",
"                    a~f.q+M!v+C%:.7'_'0)m+J.I&T#7-t.]+!+;.[.+.b.U @.%.T k.v.R.I.g./@+$m+G.C.C.K$G.b,K.b.;.@.'.V c,'.V V #.o p &.%.T !+ $.$Z#Z#Z#b~m++$R./@R.&% # # #c.|>k :@=$K&;$1$-$E%1$S+($z p.:@B R+p c.c$U#@$ $U#b k#/@X#v.f) #/@/@V#W#c~.+b.t.%.o w c&~+1@L E*<&]@7.!*1=1=<@f c&m '.U k.V.v.k.h#%+a$c.c.b.;.j.Y@R@0>b.y*m.).X j :@K g 1@L D H $#o#L 2@1@($r=:@i-B X U Y@;.;.j.b.o.8*;.c.o.y*` X@R+|>d~'.l Q*m :@A I%C c@c@E*- g ($z 6*m W X U .+D./@ #&%.+o.p o m.).k r=J&}.m J&:@~+:@z#t@}.V 2.u.h+f) #g#v.u.;.` !.j k H+}.t@B t@}.=.{.q S.|+R.I.z+u.M.: ^ e~x f~                      ",
"                    M,g~v+G'v+$*n+Z)t't+z*D#})T#L.9>D.]+b.[.;.]++.p [.U ]+R.k#b a$L.H.+$C.C.n+z*m+j+E-j.j.%.o W W W W '.V u 4.T U j..+F.#$Z#H.U#+$+$Z#D.+ D.k..+.+.#b. .Q*}.($r=($<@1$g R p.z c&z B k k ` T + R.R.D.D.v.a$k.]+.+k.v. #v.+  #.+b.b.*+m.R+B ($;$a@m@2@a@E%|@1$1$z x ($w j e.S .+.+.#T@W,*.t.;.;.U U U U U _,S ].V j w :@R 4@a@L 2@r#D ]#D D G L R :@f J&t@n [.M.[.;.;.j.S ;.o.g.Y@T@U p k n o _@J&m :@9.R |@2@]#]#H E a@4+i-:@m !.X 2.u.I. #]+S#]+b.V@` %.{.J&:@}.t@B B A p.c&}.!.k o U ]+D.D.V.V.W.h.+.p =.H+!.}.V-B ~+A-A=!.1.q 4.F.R.I.v.z+b.u (.r B$                        ",
"                    h~V)U,Y'q+o+n+7't'Z)'+J.r+})R.]+i#V.t.T j.W.0>@.w.U t.+ k#k#D.k#F.U)j++$H.C..$z*s)t.o.^.1.W ~.W V _;W o ).%.%.+.k.c$m+C.Z#H.+$+$ $b + 7*c.b..#b.*.p ~.m :@f =$R -$R ($i-t@w z x r=6*v &.h#b R.+ D.u..+k.t.%+;.k. #+ k#+ f) #m#*.`@o B U&R a@1@]@a@R R R 4+i-=$9.~+~+j S ]+v.!+R@*.Y@*.U %.%.w.U @.8*8*Z@'.j J%A -$a@K i D q#6@D F D D E |@R c&J&}.t@#.%.;.;.*.c.*.c.c.b.%+c.*.8*|>m 0.t J&:@K&i-K g 2@B@H ]#& E*}@K =$r=J%!.` %.W.v. #k.c.c.b.%.|>@.n }.p.:@t@B ~+i-=$t@}.!.n.1.U v.D.v. #D..+b.j.@.V W V w }.p.9.}.t@j u ^.+.F.I.y+g#z+M.p;d.1+H+                        ",
"                    i~$.}$d'q+}~:.-))%u+'+H.p+r+I.k.]+h+g.j.j.1;U U 0>j.t.I.b E-J.k#K.C..$ $+$C..$s) $o._,).n W '.R+u V V #.p &.Z@2.%+b C.C.+$+$H.Z#J. $/@ #.+*.W,c.*.'.k m r=($!*K K g ($B z A*t@:@z m k o .+k#b /@ #W,0>b.c.*.W,.+g#/@g*l# #&%b.j.%.X@B ;$g a@6@a@a@R I%A 4+z 1$4+!*;$l %.b.c.k.)+*+[.[.2.8*U [.&.Z@%.p #.j~m 9.#->+-$K 2@D m@k~*%L L c@E*C 1$~+t@B B #.S *.;.*+*.Y@T@*.c.u..+T@%.n &~:@}.z z r=:@R C 1@- L - E 2@g |@!*B w _@o S Z!]+S#k.*..+b.@.n U '.H+~+~+r=t@i-($R :@}.!.V #.;. #S#+ /@/@V.g.j.&.W #.k J&w z ~+}.z !./ f.t)^~K.|+I.z+b.d./ r u                         ",
"                    l~L+k+G'q+G-n+-)_'u+C%8-I&I&g*D.D.I.b.h.t.h.4.i.o.*+S#F._& $+$/%+$7>C.J./%.$B!H.b g.j.@.#.V '.V o,Z #.Q*k '.o Z@T@K..$.$#$d&+$K.K.Y#k#+ 7*Y@;.b.`@).V !.!.r=p.4+R ($:@B :@m -~f J%6*m~|>o.W#k#V.k.k.)+[.*.b.*.!+v. #7*k.7*k.b.;.V@X :@i-E%U.q#4@E%9.R E%<@f R 2>R 9.m [.k.]+v.R@o.*.[.[.*.j.O.&. .&.Z@&.R+z R R R <@6@2@D 2@k~= 6#r#o#D q#R U&c&0.t |>T k.b.M.o.c.o.)+n~k.k.;.%.` B z t@r=:@:@i-R S+2@- 2@U.U.a@>$C !*m J&k o U k.D.v.v.%+u.*.p p %.e.m B U&B }.($($I%:@m V p;#.*. #v.R./@I.h+o.@.&.W V t k w ~+9.a;x !.X q w.L.F.|+V.u.(+^ p,g~$.                        ",
"                    o~t)(,})r+^#j+-)_'`'K$ $%'G' $D.P.I.g.;.W.j.U +.t.b.+ k# $+$+$G.C.B!C!.$J..$C.:.K.k.[.o '.=.V W ~.Z #.Z R+|>` &.*+k#C.C.C.Z##$b$U#d$A)R.D.k.T@c.T@Z@X '.t :@~+9.R ~+i-w w w w :@:@J&}.o W,V#U#K.]+D..+R@.#c.c.c.f#t.v.&% #.+.#8*%.n z#K&R g r#1@/=p.9.R =$~+9.4+S+R J&%.k.D.S#c.o.;.*.8**+;.4.U %.U %.O.~.z R 4+-$K 4@a@1@a@U.m@*%<&D D 2@K U&K&m j n *.!+b.*.*.b.b.b.S#v.*.8*S ).!.w m t@<@R R ;$K <&L i U.a@- a@a@9._@!.=.n +.v.W# #&%]+.+_,&.&.@.V }.z#r=t@c&($R 9.w z#=.n.).b.D.W#I.+ + u.;.&.+.V '.!.w =;B$=$p.=;H+#.q t)F.F.p~y+^+(+q~p;V)h.                        ",
"                    r~s~(,5&Y'G-:.,*_'7'K$&-})o$K.g#I./@b.N.t.;.8*j.b.w.I.F.+$.$C.G.:.|;o+C!J.:.:.7>F.9>[.` V !.W k k '.` '.#.` &.%.Y@K.z*f$+$d&d&.$.$c$Y#K.f)+ k.h#*.p K>v v }.B :@!*~+($m j j J%:@p.B k ` Z!d$U#b B. # #.+t.f#.+c.k.f#S# #D.k..#8*%.o A*K&R I%r#f,E%R 1$E%R !*($4+4+z-}.%.v.k..+c.8*%+;.U T@2.@.%.S [.U Z@'.}.9.I%R 7.a@a@1@U.U.]@E*L L L 2@E%~+J&z#t 3.*.%+b.b.T@;.Y@c.t~%+;.8*2.` m m B p.R =$9.R g 2@E - 7.|@- q#u~p.m 3=W ` j..+D.]+a$S#v.*.U ^.O.V B }.:@c&:@($($=$t@t =.#.o b.+ D.+ /@D.u.(+&.j.n #.V B z %~K !-B$}.n.q w+L.I.L.y+g.1 B+/ f.v~                        ",
"                    ;'g+6-q+G'o+r,Y')%`'^#&-})q$D#u.V.+ .+N..+;.A.;.o.N.D.J.:.C.m+G..$m+C.C.Z#:.C..$H.]+U@q u Y k Q*V '.R+R+V 3.|>V@*.K..$d&+$Z#Z#+$Z#U#U#U##!+ ]+k.[.^@Q*A*k m J&:@p.($($B$w m K&:@:@0.W o ;.g*Y#c$/@g* #D.]+/@f#k.X#f#k.v.l#/@R@8*U o _@B ($7@B@m@C I%E%R <@($R 4+K =$6*%.k. #.+o.[.8*8*S j.U %.2.2.U U %.Z m ($1$K >$b@2@2@]@2@2@2@2@L L }@1=~+B z#m ^@R@a$S#c..+8*o.o.`!%+;.*.[.Z@!.B ~+A |@A A #->$]@<&]@g C q#- /~p.}.t W  .U k.B. #v.i#]+o.U p p k m B$c&c&B$:@:@i-t@j '.~.).%+I. #+ /@(%v.b.S S #.n !.J&B %~I,t@m !.n ` M.w~|+F.z+A+g.B+^ f.E.                        ",
"                    x~2 n+r+G'C,D-(#=)<;^#F.$*I&D#V.D.h+(+j.b.j.r Y@o.(++ +$B!m+z*z*.$C.G.m+:.H.C..$ $k.[.V@o |>'.k '.o e.v '.o o V@t.U#z*C.H.C.+$4~@$U#U#k#b g*/@k.T@o l '.k B t@J%;$($:@J%}.k j f ~+B m v W@/@v%v%B.B.B./@+  #S#k.X# #.+ #H! #k.R@%.o !.m ($a@- L q#g |@K E%K 4+g >$g c&).c.t.b.;.[.j.8*U  .&.U &.2.[.8*@.Z }.9.A w$R m@D 1@4@a@a@1@2@h b@7@g ($2&d-_@X *.k.k.c.c.c.t.c.R@c.S [.`@p k U&R R >$A ($g |@|@a@U./~]@L 2@4+J&k '.n p ;.f#(%v.k.!+.+8*2.@.&. .V }.B }.J&U&B c&:@6*A-W Z@)+/@ #l#k#I.V.%+m.m.=.o j w !.A-4+}.!.j d.1.y~I.L.I.g#9>N.I+Y f.E.                        ",
"                      y.Z.G'M!G-r,G'`)$'C%P G-j)J.z+D.V.t.*+t.h.[.o.t.t.+ Y#.$f$z*.$C.8>8>m+C.j+J.d&Y#k.j.%.&. .~.V R+n ).X k #.p S !+#!.$C.Z#/%.$J.+$ $H.d$U#B. #S#*.^@A*l A*p.p.:@f :@z U&B t J&f J%%~w '.U /@K.b S#D./@f)D.D.&%D.v.k..+v.X#B.k.Y@`@#.k 6*R a@2@L b@a@4+|@7.>$C 7.a@R t@X@*.b.0>U U@j.[.2.p %.;.[.U U 8*U o J&;$;$4+|@E**%2@2@L 2@a@|@4@|@g K :@B A*w V %>v.&%t.%+]+.+c.%+*.U 8*U o W J%K E%4+p.!*a@a@|@m@- 2@r#B@<&g :@_@'.n U *..+I.v.D.X#.+w.@.Z@@.o '.c&($z B K&w J&i-w W |>@.b.l#D.b R.^~g#.+S q W u }.t@j B$A z =./ n.q z~F.I.L.A~V.1 ) ( 5~^~                        ",
"                      x+n+%'M!|;8-G'<;7'v+&-C%G'D#v.]+D.u.j.b.*.*+o.Y@h.R.C.#$T$G.S$C.G.h$$$G.C.H.Z# $]+[.@. .n '.Q*R+o ` o '.p S j.t.R..$.$f$.$j+ $Y#U#d$b b + + ='*+|>l A*m :@:@:@($:@x :@}.k w i-J%J&6*Q*`@D.d$k#W#+ R.+ B.D.v. #7*k.!+f#f)+ ]+8*%.'.k K&R 7.6@L 2@U.g >$U.a@7.a@7.I%c&o *.R@c.*.*.b.*._,%.U %._,U 8**.%.3.X m B p.a@2@- r#2@]@r#a@}@}@6@I%($z J&m _@o Y@k.W.b.%+.+t.o.;.[.S [.^.o k f R g I%U&I%C q#U.m@2@q#a@S=q#R z t k #.^.;.v.k#W#v.v.u.N.S %.Z@` V B 9.w J&B }.J&9.}.t 1.Z@Z!g#g#R.K.F.R.t.S ).'.V k t@W =;.>a;Y !.n V)A+y+g#^~Q.5 1 B~Y ,+E-                        ",
"                      D#D#G'.'C%i,B-$'7'K$&-o+j)J.V.u.+ k.h.W.;.j.b..+)+R.m+F!T$z*8>k+C!U$K$G.$$C.:.D#&%j.i.p ).V V '.#.o o o Z @.`@Y@A)H.C.m+z*C.+$U# $U#u%k#v.7*v.*.o R+'.Q*B B :@($($1$p.z#0.J%~+:@K&J&v %.D.b k#W#B./@+ + D. #k.k.k.c.c.D.A)v.[.%.Z m U&R a@L +#L - 2@C q#4@C |@4+R :@V ;.Y@b.g.b.b.R@;.2.S 2.U U [.h;@.X |.6*B ~+a@/;E m@b@<&U.g 3*6@2@g R ~+t@}.m o b.]+]+%+%+)+h#c.*.j.%.`@@.n t t@($4+4+($4+2>2@b@- 1@7.q#7.a@1$r=k V  .S j./@/@+ &%v.t.[.%.` o W u m j,J%B B m ~+p.J&k '.` .+I.+ L.R.F.(%h.&.n #._;}.x v B$~+2-w H+V)q .+y+y+u%C~V.D~) ^ : r,                        ",
"                      I.D#G-s+v+n+$*<;C'r+J.Q@M$6-v.]+v. #g.W.b.;.;.)+t.+ .$(~T$m+'+l'F!G.$$U$U$G.F!Z#]+*+[.V@m.v W n X X@).p p x,[.h# $#$C.#$C.d&+$U#U#k# $l#R. #!+Q+o ~.k A*m B ;$<@;$z |~m A*m J&W&J%:@k ()/@K.k# #D.V#g*l#W# #k..#f#k.D./@/@ #j.%.X 0.c&1$U.L +#L H +#a@a@R -$<@=$<@z |>8*j.j.;.o.b.b.;.U T *+)+*.*.;.U@Z@'.B z :@g 2@2@b@L m@7@S+g 7.1@6@-$J%m k v p k./@c.T@b.='%+*.8*[.Z@Z@V@#.w :@!*R |@S+E%4@4@4@a@-$|@|@|@!*i-z W Z Z@*.%+ #+ +  # #S#%.).m.).V !.B =$p.B m z r=r=w v u &.k.L.R.R.t%k#L.W. .o n n.B B$j w 9.z w j p q ]+I.y+^~V.z+u.( 3>/ q+                        ",
"                      P D#L!G'|;n+}$$'-)$*J.L,0)+$g#D.^+V.b.c.t.o.c.*.v./@C.K$8>G.'+K$$$#$G.K$K$G.$$.$ #o.[.S %.o o,R+'.V |>X o o @.R@R.C.G.#$+$C.C.H.H.K.H.Y#k#v.t.[.o '.k V l z ($;$;$K&K&5*k j 0.J%:@~+l [.D.b k#W#/@/@/@/@/@B.v.!+7*f#D./@b /@a$[.#.m :@<@1@U.2@r#+#1@g a@|@-$=$R ($t@o [.y**.[.*.b.b.c.[.;.[.[.h.T@;.%.p V :@($<@a@2@2@b@L L g R I%E%a@}@9.t@m j m ).k./@%+c.k.T'Y@;.;.j.p p p o t ~+R -$-$R g 2@m@a@7@R K #-4+R !-t@v o ).*+.+]+D.k.+ ]+a$S ).Z #.j J&c&<@U&w w :@~+B m c,W p t.l#/@K.K.F.F.u.n ).n n.m }.w w ($t@z W ).q 9>|++ P I.u.A+]~: ( )%                        ",
"                      8-P G-G'G-8-G-''-)p+J.k+,*.$v.V.v.V.(+h.o.b.b.*.&%l#S$U$o+K$K$e;G.U$#$$$$$l'C..$v.c.[.S &.Z !.R+V X o o p &.@.o.R./%b~8>G.C.d&Y#H.@$+$d$+ k.c.[.'._@R+Q*Q*r=;$($;$r=B m v _@m :@:@:@m %.k#`#b g*+  #D./@k#/@B.7*S# #B.D.l#f)Y@%.).0.:@R a@U.2@- - K g |@A ($!*R ($B #.;.o.o.Y@W,*.*.*.8*;.T T@*.T@W,U@ .k K&($p.|@a@<&E E 2@g g 4+I%a@4@R 6*m m !.).%+v.k.k.R@c.b.b.Y@.+S 2.|>o J&J%($R !*i-I%m@m@4@a@|@9.A I%!*~+t,v V ^.j.Y@t.+  #D. #k.[.).Z #.m J&t@:@t@}.0.:@z w J&}.W p u.R.I.b K.F.b .+).x,'.j J&}.H+!.p.t@w _;).1.V.L.I.^~Q.g+w+x.[ ]~]'                        ",
"                      |;E~L!5&G-:.o+''-)})&-n+,*.$]+V.]+]+A+b.)+.+;.o.u.R.m+h$G.h$F~K$G.$$C.K$$*G.G.+$S#b.U [. .X !.~.'.'.X G~]. .S h.R.8-m+f$K$C.Z#+$H.b U#Z#l#B.*.p ~.v R+'._@J&:@;$;$:@B m Q*A*w J&K&B m @.f)b c$V#D.H~ #f)A)g*X#]+]+k.]+ #V#7*k.[.o B U&1$}@r#q#2@2@g R R =$1$/=R <@;$n 8*.+Z!M.o.c.t.%+Y@*.[.U S [.*.T  .v J&:@p.>$g - ]#[&q#|@g S+g }@}@1$F%}.t _@o g.k.c.%+o.%+h#c.o.!+U@^@o o t ~+r=i-1$R I%L m@2@U.I%R g U.4+($K&v c,q U [.v.b l#+ l#h#U@^@o '.B B z &~}.t }.w z c&}.v W &..+k#l# $F.k# $W.| &.k j !.}.}.t@~+Y,w u @.` v.L.|+R.I.u.1 Y /.I~l&                        ",
"                      n+};l+r+}$:.j+7'j!s+J.:.M$m+D.v.v.v.t..#*.W.0>T@]+R.b,$$$$K$p+K$G.o+e;U$K$K$T$Z#V.+.S U ).'.K>|.l k V X m.m.[.*.l#d&Z##$S$#$H./%H. $H.U#/@&%*.p ~.R+X@o R+m 6*f K&:@m m j 0.B B m B m `@/@b U#b k#/@/@f# #v. #f#='R@c.h#X#h#W,V@k J&p.<@g 2@b@b@L U.($1$;$1$-$E%($J&o *.R@*.;.R@c.%+b.y*w.x,Z@m.[.U@&.|>'.k B J%g g 2@+#D m@a@E%g 4@i 6@R ($K&J&!.n c.S#a$c.b.%+k.T'*.R@W@])|>n J&:@:@($<@!*a@+#r#C C g A 7.<&>$g :@}.l &.2.[.J~+ + R./@]+h.[.p o t@($:@m m !.m t :@:@6*!.n.&. #k#/@k#t!k#k#b.%.` J+!.A*w !.:@J%t@c&=.@.1.u.L.I.|++ u.h.5+/.K~L~                        ",
"                      o+P G-B-q+D#k+`'7'G'D#8-,*z*I.B.D. #k..+h..+S#c..+b C!G.G.e;U$h$U$K$$*o+K$|;G.Z#]+S U@[.` n '.R+Q*k k Q*o ).2.Y@/@H.+$:.d&C.+$+$+$U#P@H.K. #o.o V Q*o o _@m B f :@t@m }.W B J&z#J&z#A*()B.d$d$c$/@b b f)W#+  #f#k.k.c..# #c.[.Z@~.j B R a@2@r#b@a@K ($($~+:@($=$($:@X@8*c.;.*.b.Y@c.j.;.2.U @.S [.[.%.o '.'.z#U&6@q#L & +#L U.g 7@a@2@|@R ($w t@m o b.k.t.c.c.)+S#Y@[.o.j.V@p R+B f ($9.($9.U.*%E <&g S+g 7.q#U.>+:@m V m.@.;.B.k#A)k#+ ]+t.j.` V t@i-B !.m j m j a;:@B V-1.r g#R.t%R.k#(%#!)+%.o V W m B m t@w r.M~V U n V.I.R.^~V.g.T!B+3>N~/'                        ",
"                      s+B#C,B-q+6-m+7'7'r+8-J.s+G.Q.v.V.+ v..+o.g.]+k.%+l#G.$$C!h$h$U$p+K$Q@U$C%z*#$+$S#[.%.j.p o #.n R+'.v W Z  .p 8*D.Z#.$+$.$.$:./%H.U#_&U#v%D.Y@p X@X@3.X@P*_@0.:@($J%m z#t 6*t@c&6*m A*&.v.U#Y#U#b v%/@V#V#B.k.]+.#)+)+%+k.%+T@p ~.m U&4+/~4@7@7@T=g ($S+!*f p.E%($:@s,*.c.Y@*.Y@j.W,*.8*T@[.%.S [.[.S |>X@~.B ($g 2@D H b@a@S+}@U.3@a@7@R i-K&t@A*o ;.c.c.c.b.R@b.b.M.;.;.[.3.'.c&;$z-4+1$S+<&*%r#|@7@!*|@7.a@a@g B !.~.p [.b.B.b K.k#B.S#.+8*|>V w t@r=B }.m j !.c&z J&}.1._,i#L./@R.F.u%F.9>U n k k 0.B !.j B$x z u @.1.y+I.7-R.Q.(+N.D%/.b;O~                        ",
"                      8'O&'+q+q+B!C.7'%*I&s)J.s+o+I.V.W#f) #t.t.t..+k.+ K.U$h$U$$$U$h$U$h$p+$*U$K$U$+$/@j.U 2.p n X o '.'.'.k '.o &.8* #/%Z#+$Z#.$@$Y#d$.$U#@$b &%Y@Z@K>|.Z o l A*6*z r=J%K&l Q*l B c&K&B m %.f)#*b K.g*A)R.K.A)+ /@g*f#c.Y@R@.+h#h;V@|.l U&!*a@2@a@1$g }@R A ($f U&<@f 5*` Y@R@*.j.c.t.%+c.y*8*Z@%.j.%.y*U@).X w :@($g ]@b@2@}@R h*>$a@2@4@g R ($=;m m '.*.b.c.h#h#Y@o.Y@j.;.U@2.S*'.B U&i-R R g i L D <&7@R >+g C g 9.c&_@n &.8*Y@+ b R.k#/@B.k.`@o n.J&:@B K&z#J&m A*B K&0.t o U v.R.g#R.b  $b k.2.|>=.=.t B m l w x B '.%.1.+ L.I.F.Q.g.+.Y /.F#=!                        ",
"                      ,*B#k+$*q+8-z*3~$'G':.&-M$G.P. #R. #i#h.;.)+]+k.&%b G.p+K$j$p+j$C%U$p+K$K$G.z*`#D.;.T@S p p n X@'.^@o X@'.Z t;[. #H.Z#U#+$.$C.U#_&+$H.@$(%v.*.p X@'.X@|.0.0.0.J%:@z 6*Q*n A*c&J%U&:@6*2.X#k#b b l#b /@b /@+ l#A)/@k.R@)+W,k.R@t;'.z#f S+2@2@a@w$R #-:@;$=$($A ($U&J&o y**.o.o.W,*+T@8*%.V@V@%.*.Y@R@8*%.o m :@U&I%6@7@E%E%|@g a@4@a@U.I%<@9.m Q*m X@c.h#k.k.k.h#Y@8*y**.;.S o n m :@f K&($4+a@2@c@F i R 7.4@2@g R c&~.|.U ;.t.D.k#k#l#/@ #.+`@p u B t@r=t@w !.m !.w :@J%!.|>;.D.+ D.R.b k#I.v.U ).W V !.}.t l r=x B$o %.{.z+I.+ (%V.M.^.3>^ ' P~                        ",
"                      _'B#F-q+Q~n+P+7'<;,*.$7-I&G.Q.D.u%R.+ o.N.b.t. # #H.K$T#R$T#n$p+T#7)j$p+U$U$G.H.B.%.[.`@p p ` '.X@|>'.o X@'.p *+ # $.$+$H.Y#U#+$+$+$+$ $R. #c.`@o k '.X@z#z#z#6*z#w l |.'.m :@1&f ($w T  #b d$V#b /@g*b /@ #/@#*b B.k.)+c.%+*. .Q*_@J%E%2@q#m@U.K R U&S+g !*1$R A B X@*.c.t.o.0>j.b.*.U %.+.j.*.*.8**+T@Z B i-;$-$K 4+I%U.U.- a@a@7@-$S+($r=J&m m W 8*b.k.!+k.R@t.;.*.o.*.S V@W J&r=J&:@A R C i u*c@b@A ]@r#1@g ($J&X #.%.8*c.D.+ (%A)R.D.v.+.@.v }.r=B z t k z#m K&:@i-!.q b. #D.+ b c$k##!k.%...c,V j w V j z =;w ` S q V.L.+ L.g+w+} : [ U!R~                        ",
"                      J'i+(,q+q+8-:.2)7't+:.7-s+C%h+O!D.7-D.h.+.o.g.]+V. $8>I&T#U$T#p+p+C%k!}~o+K$z* $ #T @.@.p  .'.Q*n p n n o o p T ]+Z#C.C.U)Z#.$+$U#H.Y#k#/@7*;.p ` Q*X '.m k A*A*m t '.` R+z#J%<@;$:@m U@ #V#K./@/@A)g*V#X#f)/@b /@i#]+c.%+!+T@o '._@($S+a@]@2@a@<@j,($=$:@z K&9.~+l o [.W,*+j.[.8**.T@2.U j.[.j.*.[.;.2.o 0.($R g -$R |@6@2@<&2@2@g S+E%($m S~}.m ~.U .+k.c.c.o.%+c.*.%+j.*+q k c&c&:@!*a@/=g <&c@D <&4+a@2@4@S+f m k n 2.;.;.D.I.R. $R.+ &%@.).'.j z t@:@B A-B m B z B H+q g.+ /@I.F.b F.b t.S ).W V j =.d.w p.($w n.S &.F.y+L.I.g+E.q _ /.&;T~                        ",
"                      m%Q.n+q+})8-8-`'7',*C.I.k!C%P.V.V./@]+o.[.U g..+P.K.m+r+j$j$I&r+r+j$T#r+:'U$#$Z#/@`@q p Z Z Q*k '.p Z n #.X@o U t.d$.$Z#U#+$H. $U#U#U#U#+ 7*Y@].G~ ~#.X _@z#m `*B 0.|.o a.6*J%;$:@<'m V@ #l#l#l#f)/@D.b  # #B./@ # #h#.#c.Y@%.X@R+k J%S+U.b@i 6@H%w*9.A ;$U&:@($:@m '.[.c.*.*.*.T@[.U S U U@*.[.2.8*T@%.|>l <@g g g g I%2@m@- a@4@>$X,E%=$B }.B 6*'.8*%+k.c.b.c.%+)+*.W,[.;.&.V B z p.g a@>+u~- [&]#<&g C 7.6@R U&}.j X U@0>;.D.g*l#K.k#&%t~%.o '.}.x t@r=w m w B B j }.k @.t.W#W#g*/@b /@k#u.h.p V !.w W n B$A ($t@1.^.&.F.I.I.7-g+w+q W-u ) '&                        ",
"                      5'k)k+q+d'n+i,-)W'-)n+R.p+p+W#]+S#b v.t.*.Y@*.b.k. #C.h$o$s+k!I&r+7)p+p+U$z*#$/%/@j.&.3.~.'.~.~.~.o ^@v B k Z y*]+#*H.H.Y#Y#K. $ $c$K.c$+ S#*.p ^@o Q*k B :@K&m~m !.~.l 6*0.B ($K&i-0.T X#l#U#k#f)/@ #/@k.!+k.k.S#U~*.Y@Y@%+c.^@_@t@($z%4@2@a@}@J%($;$;$f ($9.=$($t Z %.8*_,*.*.*.[.%.%.2.m.S T@8*;.[.`@^@w R S+7@g I%g 2@c@D z%m@q#E%7.!*a;J&m t@!.T .#.#[.*.*.;..#k.!+[.h; .l c&f U&g g |@<&2@D c@L 7./~a@a@g :@j o o S j.k.V#k#l#R.B.u..+[.Z k r=r=B t@m l t@:@a;}.l j @.c.l#I.I.k#/@b J.]+j.p o k l t _;!-g ~+j ).o ^.u%I.I.k#y+w+^.J,A#E+c%                        ",
"                      k&4 <$L!d':.n+,*7',*n+V~q+q+V.^+]+b D.1;;.b.o.b.b.t.H.p+r+o$I&I&T#$*U$$*G.C.#$Z#R.j.p R*#.'.'.'.V '.k Q*j k o `@k.d$H.U#U#Y#H.U# $ $ $ $+ k.Y@`@o ~.X |.0.K&6*W~6*w k 0.B B z :@f ($0.[.]+f)/@I.D. # #/@!+k.S#k.k.T@R@*.o.c.*.p k f =$w$4@2@6@}@:@1&;$~+($($f f :@K&v m.U U ;.[.;.+.%.4.U @.U ;.*.T %>%.k :@=$S+I%4+R >$]@D H i L B@}&a@A r=B B J%W [.k.o.;.o.b.*.c.t..+U T o '.B :@($g 7.}@2@U.*%*%L a@; 1@U.I%U&t n  .@.[.]+B.R./@ $R.k.b.&.|.A*:@z t@}.m }.Y,~+z B j X U W.(%D.+ /@R.b F.v.+.).n !.k k =.x E%x H+` ` ^.k#I.P.^~g+D~f.U*[ )                           ",
"                      X~X.<$U,G'n+6-t+<;M$#$R.T#r+I.^+.+k#I.)+*+m#b.*.m#.+H.$*T#o$r+I&p+$*T#p+U$.$C.U#l#*.q o '.'.~.'.#.Z V !._@k n %.!++$+$U#+$Z#+$U#c$K.K.b  #k.o.%.^@e.'.R+t B t@K&B B j m z#m m c&:@;$m T@f#D./@f#7*O!k. #f#k.7*7*.+k.c.*.0>c.*. .R+:@1$}@a@4@<&m@-$($=$=$A ($z :@($J%v V@*+*+;.[.;._,@.@.[.U ;.*.*.8*U %.t f !*K 7.-$R a@E*E +#2@m@L b@a@=$j }.j z#k w.%+.+*.R@o.*.c.Y@)+8*%.Z k 6*z ($g 4@U.m@E D - <&g |@2@q#g ~+j n p S j.v.D.l#/@#*/@t.U |>'.k :@($t@}.!.t :@U&z Y m '.S b.R.D.k#/@7-k#U#D.U ).|>V k !.!.z ($t@j @.1.4.u%I.^~K.z+h...( *!B+                          ",
"                      Y~V=F-L!G'n+D#,*7'-)G.K.U$T#+ g+u.R.D.t.1;o.b.j.t.]+J.h$p+l$,*o$T#I&r+p+K$z*Z#U#)*8*&.o '.n Q*n '.n v l W Z o %.k.H.Z#H.+$Z#K.K./% $K.k#/@.#*.%.3.V&X@~.l K&w J%c&6*m B z#z#:@:@4;;$3)[.k. # # # #k.t.&%.#h#k.S#k.h#c.y*R@k.R@])P*z#U&}@2@1@m@D 4@4@g E%0@g R =$=$J%#.U o.*.;.8*T 2.%.%.%.@.[.8*T@[.&.].m ($($R 7.-$4+7.Z~E*m@r#b@+#D 6@j,w m m w _@[.c.*.*.*+o.c.S#t.t.;.%.V A*c&($|@a@2@= E F H E q#I%]@G#<&] ($A-#.p U Y@u./@b A)b v.k.[. .#.m ($p.t@}.K>m r=f B }.m V @..+k#/@/@k#K.L.b ]+%.&.n W W W t w p.r.=.q 1.+.u%I.|+7-u.h.V)J,d.*!                          ",
"                      `~ {<$U,s+j+J.})%*`'+'7-h$U$V.]++ F.D.c.;.c.u.*.t.^+u%h$-)r+I&M$,*j$T#p+T$C..$+$g**+%.%.].n o,a.'.'.R+3)l ~.o %.)+b Z#d&H.H.+$ $_&U#c$V#X#k.Y@O*].'.|.Q*P*Q*!.J%:@B c&l `*c&z :@U&<'A*]. #b /@/@ #7*k..#k.*.c.R@[.T y*y*h#k.R@3.o _@U&4@1@}@b@+#5$2@g E%-$C a@g H%K&X@[.c.*.[.j.[.%.%.6.[.*+b.;.[.[.%.].m 6*f R 7@!*S+1@2@[&D b@b@2@r#}@=$t@B B w W ;.7*c.*.Y@*.o.c..+t.c.j. .B t@1==$>$a@i L o#M@D 2@7.a@q#U.E%:@j Z p *.o.&%/@k#k#K. #%+S p ~.0.z :@B k k H+t@a;:@J&!.o j.7*b l#b R./@/@+ .+&.&.o V k }.}.m :@($k @.).N.F. $F.F.E.W.+.3>/.V=                          ",
"                      ],} <$^#G'j+D#})<;.{G-P o+r+V.='D.I.D.m#h.g.t.*.o.=' $K${@o$I&t+j)U$j$h$G.m+C.+$R.)+%.@.p Z ~.~.R+'.Q*l k V R*%.t.U#b$d$J.H. $c$b Y#U#v%/@S#T'%.'.'.O,Q*m m m `*B t@B m B c&c&:@;$p.l V@h#/@/@/@v.V. #]+!+*.W,*.i.S [.*+c.t.y*].o '.:@U.2@C *%+#& *%a@E%I%a@]@a@R t@3.[.o.*.[.S [.[.T [.;._,b.1;c.8*%.&.j J%($1$>$R R 2@E*F D *%D L 2@a@R .>:@2&J&o *.7*o.b.W,.+o.c.c.%+b.;.n 6*z 9.p.<@K ]@c@o#$#D i a@C 2@a@g z }.X@%.j.c.R.k#k#L.b &%o.[.p Z m w :@B s k B c&J&w j k n h.k.K.+ F.K.K.+ I..+S q 1.'.V }.H+A-Y,p./ q ).1 F.F.K.^~A+A+| _ [ A+                          ",
"                      +{V=<$v+%'k+&-q+O+7'C%7-$*k!P.D.V.R.S#o.j.)+.+h.b.]+R.:'M$M$I&s+j)r+T#j$o+#$C.Z#R.o.[.S ]. .W W ~.'.k l '.n  .T k.K.U)Z#/%`#/%b U#U#c$/@+  #k.[.|.R+|.j B A*_@B w B r=B 0.B :@:@f J%m @{t.g*l#A)&%f#f# #k.h#T@T@R@T@8*8*c.c.*.p o Q*($1@L +#6#B@i 2@C I%<@}@2@] g c&X@U j.Y@[.T@*.[.U +.+.*+k.b.*.*.j.p m m p.c&R R 7.L c@]#F D L b@2@C R :@:@%~m o ;.k.k.8*T@;.o..#b.[.@.[.|>j c&f r=!*|@U.m@+#c@2@2@q#A;2@U.g ~+m W @.S ]+l#k#l#R.D.]+)+y*p #.0.0.B t Z !.B r=t@c&=.'.1.h..+k#F.#!b F.+ K..+@.x,` X W }.t A-i-p.n @.).o.F.F.J.|+v.g.^.3>*!g+                          ",
"                      j-V=F-C,d'm+&-U,<;%*^#7-K$$*V.]+]+P.O!o.j.b.k.h.o.]+k#U$j$j$L$p$q$r+T#l!K$z*.$:.d$t.j.p 3.X@~.m Q*k k A*Q*X@^@[.!+R.+$+$Z#+$+$U#b b U# $b R.k.%.^@k Z k 0.z#B B K&K&;$:@J%0.:@:@f ;$K&^@c.f) #D.#{f#v.f#!+c.[.8*S@T@[.y*c.R@T@].R+Q*($}@L L a@a@2@i g 1$R 7@1@}@-$c&~.%.[.8*[.8*o.b.y*j.;.[.*.*+U@*.8*m.Q*m B m -$S+|@- D ]#p#& D B@L 6@!*:@:@B m '.[.c.c.c.*.b.y*)+*+*.[.[.|>Q*z#;$:@S+a@a@<&L L r#C g 2@L C 4+($m k S *+k.D.k#R.b  #u.m#;.).'.k t@r=v Z B :@c&B m H+X ).o.u.I.b l#b k#K.b c.U &.o '.W j v t Y,t@n S ).g.F.R.K.k#u.A+f./.d.Q.                          ",
"                      ${%{&{*{q+C,D#C%`'W'o+&-K$r+I.='+ D.]+b.o.b.t~N.*.]+I.'+l$Y'j)N$I&T#})T#Q@:..$8-K.*.+.].p W ~.l W '.#.Q*|.).o [. #c$+$Z##$Z#s)s)Y#b d$A)l#l#v.[.o X '.~.A*m B 6*B J%z f B m c&z :@;$B ].k./@+ W# # # #f#!+*+Q+y*[.T 8*U@[.*.8*p o _@:@}@B@L 4@g C r#6@R !*4+g g g 1$Q*)'y**+*.*.*.;.*.[.[.[.;.[.[.[.S `@#.~.j B -$|@2@L +#]#H & $#c@1@X,1$($p.c&w #.;. # #]+t.!+R@b.*+y*`@@.n k c&:@=$R a@- 2@L D *%a@2@a@]@] S+K&j X@U 8*%+D.W#/@D.X# #g.j.p #.k B }.'.k t@:@B t@H+!.W ).+.9>+ R.7-b + k#k#h.p &.).u ~.m m j z }.q @.1.E.^~F.R.I.u.A+1.f.L+1                           ",
"                      ={5~C,v+r+k+D#o+`'O+C%F.m+I&R.]+P.R.='o.N.o.S#t.o.='R.#$q$o$o$s+I&r+T#:''+.$#$Y#b b.U @.].n / k '.W W '.|.p &.[.]+#*/%U#Z#Z#.$/% $Y#K.b /@/@7*[.n '.~.'.l m m c&f :@B t@z t@J%z c&f c&V@k.R. #]+]+ # #k.%+*.[.`@`@[.[.[.0>*.j.U@o ~.0.X,L i 7@E%1@<&I%($1$-$-$R g A !.U )+c.T@*.[.N.[.&.;.8*T@*.8*[.U @.R*#.m x S+r#D D E*D ]#H p#]#+#q#1$:@t@m t@'.;.v.D.]+c.c.t.)+[.[.j.%.o W ($i-A -$a@1@m@<&D F c@L - = ]@g ($j k @.j.c.]+k#+ + + D.b.%.%.#.'.m J&k m z t@t@B j !.k |>N.v.R.R.k#U#R.#!/@b.1.&.p #.k B }.H+B$A=q ^.1..+L.F.F.^~A+^+1.-{:#k)                          ",
"                        L+C,X)5&o+D#o+[)<;p+K.C.T#7-h+I.+ u.b.M.b.u.b.*.]+R.m+M$p$M$-)t+q$I&p+o+z*G.Z#v%k.+.p ).` V !.o '.W k n R*Z@*+&%U#+$ $/%/%Z#H.Y#+$K.b l#g*/@o.n o k !.l m z#0.z#0.J%r=:@:@~+J%:@($:@p b.b l#B.&%W#v.%+*.U@S %.%.`@2.U@*..+k.2.k t w E%2@*%2@g a@C I%9.-$-$R K |@;$V *.c.c.c.Y@;.j.[.U@*.;.T@c.j.[.[.2. .o w z 4+4@D ]#B@D o#[&##& B@a@9.f B m m #.[..+&%]+b.c..+k.;.8*T@[.|>p;<@($S+u~2@U.2@2@o#F - L - - a@4+9.k u %.*.t.B.l#K./@+  #o.Z@p ).X k t }.f c&B z z w A-!.` o.+ k#k#b K.I.u%D.b.).).@.).j m j }.r=&~q &.` g#I.L.J.^~9>w+/.%{V=3                           ",
"                        ;{F-X)d''+D#'+u+=)}$F..$,*K.h+ #+ v.t.(+b.g..+*.^+R.G.o$j$M$p$q$q$,*I&U$z*S$.$R.]+*.%.m.^@'.'.o ^@'.'.~.R+|>y*&%H.+$U#U#U#:.+$+$:.Y#U#k#/@ #c.^@'.k V&m 6*K&j B B B J&J%:@f c&($B z#].]+A)f)k.&%]+)+*.%.%.%.8*8*j.%.m.*.c.T'%.`*k K&E%i *%U.R 1@C R ($E%g g 2@}@1$V j.o.*.Y@Y@[.;.b.;.j.c..+c.*.;.;.%. .'.m B K C m@H H H $#o#M@H L >$;$w }.t m o T@v.]+k..+!+k.c.Y@T@[.%.'.m p.4+R ]@2@/;<&E & t$F +#L E C g ($m #.2.*+%+h#k#k#B./@l#.+S @.` #.k !.w f }.t@t@c&0.}.v o ;.S#k#k# $H.c$K. #)+x,Z@o v }.k H+w z w q Z@` P.I.F.&-I.V.(+/.d.V=A+                          ",
"                        I=Z.>.d'G-J.o+`'=)p+K.H.I&K.v.v.b  #c.*+*.b.%+;.V.K.G.,*I&++M$p$k$8'U,p+z*C.C.R.k.*.%.o |>o o k Q*X '.].p Z 2. #.$z*Z#Z#+$+$H.+$Y#K.v%+ /@ #*.~.'.k 3)z#r=0.6*B t@r=J%c&p.($i-($B l m.v.D./@f#k.&%.#c.Y@*.c.*+[.[.%.m.[.c.R@V@m k B <@1@+#>$w*($!*;$R E%R ^)4@-$A Q*+.o.]+t.b.;.T@0!*.*.h.c.)+)+t..+Y@|>'._@f g C 7@B@t$F +#2@L L }@-$r=J&z#m m '.8*S#/@ # #k. #c.*.R@*.U@'.}.R 7@E%7@i ]@4@L 2@]#H t$E <&a@g A k 1.%.o..+k.g*K.R./@D.c.[.S ^@'.k k m z z B c&B t@z#v S*M.k.b F.K.b k#R.+ *.Z@O.&.c,}.V-!.l t@j @.$.o Q.L.^~F.I.u.h.n : g~3                           ",
"                        B#D-*{G'G-D#m+-)<;$*P  $r+H.h+O!R. #g.o.o.b.c.h.]+R.$$I&L$o$p$M$&!,*p+U$G.o+Z#g* #h.%.o n o Z V W W W R*&.&.U D.C.S$b~C.Z#H.U#U#+$+$v%/@/@B.Y@'.K>W t z#K&c&J%:@z B ;$:@=$9.S+1$:@m ^@.#v.g#!+]+f#f# #%+R@c.*.*.*.%.`@[.%+Y@V@t j m 1$2@b@a@g ($($!*7@>$g g >$g ($R+[.c. #k..+w.;.b.b.T i.j.j.o.a$b.[.Z@~.z#=$4@a@a@E y%H l@4@b@i g 4+:@B }.H+B W [.k.&%.+h#c..+%+k.c._,@.W :@A >+K a@E*<&L L - D H ]#<&A;C K x W #.%.o.o.v.K.R.+ + W#Y@U m.` n '.'.'.J%t@}.J&J&j m V {.0>.+k#F. $U#u%R.g#j.&.Z@o V m j j }.}.Y ^.&.o g#F.^~7-I.u.o.1._ -{x+                          ",
"                        };D-v+G'q+J.m+7'=)r+u% $j)H.D.W#k#R.^+o.Y@*.b.*.9>/@b,o$++p$M$M$0)&!})U$i$z*+$ $]+c.[.p A.3.o n |.'.Z |>).p `@ #S$G.+$+$d& $+$H.Z#s)c$b /@ #T '.k k m B c&r=:@~+:@B <'m B ;$R ]%:@4)^@.+W#v.D. #f)R.]+k.k.b.*.T@y*[.Y@c..#7*[.k z#1>g 2@4@a@a@a@g g K 7.C g g 1$J%X@U *+!+v.*.U *.R@%+Y@*.*.b.b.b.Y@j.3.o t ~+U.g a@+#H D D 7@2@4@/=($K&B t w B ~.U ]+]+&%.+k.S#k.b.g.Y@U X z ($1$!*a@L m@2@i - ]#H H >{C |@A :@X ).`@*.c. #k#I.R.v.+ b.[.%.o '.Z '.X J&}.t !.}.(;m R+).j.k.K.F.K. $K.+  #Y@@.).).v }.B$-~t !.0.O.q {.I.|+I.7-D.D.h.1.U**!<$                          ",
"                        r,D->.Y'}$J.m+-)W'})P K.r+6-Q.]+/@D.=')+;.*.%+*..++ .$N$X$M$u+q$r+M$I&T#U$o++$b k.;.[. .#.3.X o '.k Z o ).3.%.+ S$C!Z#Z#Z# $U#H.U#U#U#g*W# #j.R+k l l z#J%;$($:@:@w B c&:@:@($H%|~m 3.h#G!/@ # #B./@D. #c.c.*.[.U@[.R@h#c.R@%.A*B ($}@2@2@q#b@b@6@C S+g a@|@R <@K&` [.)+h+]+8*[.%>T')+T@b.j.b.b.b.b.j.p k B U&g I%g b@F D E*a@r#a@7@($i-:@t@c&6*'.*. #7*f#b.%+c.c.R@c.*+%.X K&=$!*R g *%<&,{x$E M@D D E*a@g 4+($#.p [.t.g.V. $b + D.l#b.Y@p '.n '.V '.t@K&w j }.w t V q ;.k.k#/@ $ $c$R.B.;.O.|>o k }.B !.j H+W @.@.q R.I.^~|+g#V.h.p;'{J,Z)                          ",
"                        v+i,*{G'L!n+:.p$s!r+F.R.r+:.]+I.+ D.t.M.j.*+c.o.v.D.z*j$M$O$M$,*o$o$p+h$T#e;#$I.k.1;[.3. .p  .Z '.k '.` #.p `@t.C.z*C..$C.+$U# $U#U#b l#W#]+y*'.!.m A*A*6*U&($:@:@c&6*z i-:@c&j,J%l o t.W#W#f# #&%f)W#f)k..#*.[.S *+S@c..+k.p m }.;$}@r#D *%B@i q#a@a@g a@C a@g t@o %.*..+c.U@V@[..+c.j.[.T [.[.b.c.*.|>'.z#J%E%S+>$b@D L b@>$U.1@E%1$1$f t@J%0.'.8*+  #.+t.t..+t.b.o.[.%.V r=($9.I%a@L U.<&b@[&y%G *%u*i >$<@:@k Z %.j.t.v.K.k#v.S# #.+;.` W 1.o =.l t@r=B K&z m m k &.j..+/@b K.k# $/@ #j.@.).).k B W j w }.V &.q ).k#y+u%I.V.z+h.H+[ U*<;                          ",
"                        D)Z.>.G'C%8-.$,*)%r+E-F.T#:.h+v. #h+t.o.j.;.*.1;D./@j+q$q$&!I&M$M$,*I&$$0*8>C.J.]+)+r ` n o o |.'.s,X@).R*p S c.C.#$#$z*C.C.U#.$.$Y#Y# $g*v.[.'.k J&m H+m K&f p.($z J%0.p.f c&:@:@k p k.g*/@/@v.]+ #+ + i#S#R@*.[.[.T@Z!*.*.p _@w :@g 2@L L D L 4@7.6@q#q#>$a@g t@m.y*;.c.c.[.p ;.t.g.j.%.[.b.Y@S#7**+p k v f >$}@1@+#E*E 2@2@<&6@R 1$($B B m z V [.k.&%f#t.]+k.b.t.b.j.8*W :@!*=$a@<&/;a@]@L H M@E L E /;g R z m '.@.*+.+v.F.+ k.D.i#.+*.p !.W n j v :@:@B t@t@z#H+v &.;.t.k# $ $b k#R.D.b.p ).n !.z t w w !.o 4.Q,$.F.I.u%L.V.g++.x.[ 3-){                          ",
"                        .{Z.v+G'q+D#j+,*-!Y'J.F.}).$h+]+ #&%b.*.S *.t.%.t.D.8-T#,*p$q$o$s+,*p+$*K$m+.$H.X#t.;.` o o o #.'.n o ^@ .p %.t.#$$$$$Z#:.#$m+:.C.+$K.c$b v.;.o |.!.j j m B ($~+p.B U&3=z#B J%J%J%k O* #J. $U#A)W#W# #/@ #.+;.%.m.%.8*R@*.y*o _@w i-a@B@2@L *%i ]@6@a@6@C }@g S+z @.W@;.%+g.[.&.U b.*.S p %.*.c.k.c.S |>l V&~+g g 4@B@E*b@6@D i a@R !*~+B t m J%W T k..+!+R@c.c.o.W,*.*.S !.B ($R }@2@L U.a@D H H E*c@]#2@4+~+:@j '.Z@j.='/@k#S#D.+ + t.*.).W !.|.j v r=r=K&c&z w !.W q h.]+F.b  $_&J.u%I.b.` q #.W j j m H+=.1.6.).&.7-I.B#P.]+V.S.t,!{&;/'                          ",
"                        e'~{{{I'%'n+r,I&_',*J.R.p+.$u.]++ v.g.*+j.o.g.U *+]++$n$q$o$M$o$d'q$G'p+K$o+.$+$D.)+[.` Z '.|.Z '.A.1.o o ` S c.z*G.C..$#$.$Z#.$`#H.+$U#K.v.*.%.|.m m ]{m B$z K&:@:@;$6*0.z z :@K&k @.&%^{d$H.c$A)A)/@ #S#.+*.@{V@()].[.T 2.'.4)1$-$]@L - E L i 4@1@b@2@1@g S+R B  .8*W,t.*.2.m.;.*.8*&.m.S o.t.u.]+*+` m m ($}@}@a@L L o#<&m@4@7.g R ($B J&m m '.[.v.%+R@b.o.$>*.*.b.*.V@k :@($<@g a@L 2@U.D y%t$D L E*U.R p.t@k o %.*.k.D.+ /@+ R.D.o.U o W k '.k !.~+~+z B t@}.t,V x,b..+K.b &- $U#R.D.j.n q #.W j =.w B$W &.S q 4.I.+ I.7-V.V.+.M~d./{({                          ",
"                        t'_{U,G'U,n+8-})p&M$H.R.o$m+g.u.V..+g.o.j.b.b.*.b.k.U#j$r+o$,*,*p+T#Y&$*U$C.@$U#(%o.`@p o k o H, . . .p S*p T v.#$$$G.#$Z#Z#:{/%+$Z#U#b (%k.y*^@o l 5*6*B t@;$f :@J&m m :@6*4)f :@k `@ ##*H.<{d$/@B.h#R@b.*.[{U %.n'Z@`@[.3.'.J%9.($1@B@D *%L <&L E 5$a@]@|@E%A J&3.[.b.t.*.[.%.[.*.T@V@%.[.*.k.]+]+*.|>A*z#4;7.g 4@+#o#H E*3@1@a@a@<@1$~+z m o,'.*.k.]+t.b.*.j.`@*..#o.@.m f f <@7.a@r#L L H ]#y%F *%L a@A :@B v 1.%.(+]+R.R./@p~k# #.+p o k '.o s !.a;i-($}.~+}.}.'.@.o.c.b b R. $U#k#t.@.n p |>V m m A-w l ` @.q S k#g#I.L.h+.+^.2-: }{u&                          ",
"                        w)r,U,t+})m+8-})<;(#8-R.r+m+]+g.D.v.k.b.o.g.b.o.o.v.b I&%'T#,*s+r+s+k!j$U$S$+$U#t%)+[.` Z@).#.^@` Z Z p X@o U  ##$T$.$z*d&.$+$U#K.H.d$b /@h#U@o X R+A*J%c&:@;$<@z 0.z#:@U&z <'K&K&k T &%J.b W#W#i#v..#c.*+[.[.%.%.p  .`@`@p R+:@;$=$}@L ]#D b@i b@<&D 4@}@a@>$<@z#Z@8*b.Z!h.%.U ;..+*.S 8*0>c.h# # #y*Z '.W f >$g ]@D ]#D E*2@1@a@K ($<@w m k m n 8*k.]+t.b.*.*.*.Y@Y@*+p (;U&($R R g +#*%*%y%]=H G D 2@C 9.9.B v ).U Y@v.+ R.+ l#k#/@)+A.#.k k X m j K&i-:@t@~+6*k W &.0>.+k#t!K.K.g*D.Z!S ` o d~s !.w t m k 1.&.s.r I.D.I.V.V.g.q T.( |{1{                          ",
"                        w)2{C%t+s+m+J.%'<;-)D#R.p+m+u.h.V.g#u.o.b.h.w+;.Y@u. $T#o$o$N$q$o$j$p+T#U$G.B!b D.*.[.p  .Z o X@ .).n  .n 3.%.!+z*h$#$f$S$7>.$+$+$H. $ $B.%+[.^@'.X A*r=r=:@i-($:@J%B ($;$:@;$:@K&z#p ]+b R./@B. #c..+.#*+8*2.%.%.p x**+y*S a.J%:@:@}@+#D D +#b@2@2@+#U.2@2@2@R }.U c.Y@^++.U@U *.S#%+*.j.M.%+7*]+ #[.n #.'.6*|@C q#L F +#O)E*U.I%|@K ~+A*t j }.'.S .+k.m#b.;.*.R@*.R@Y@%.!.J%!*;$!*C L E*c@##p#& ##L ]@K !*($w v Z@j.o.t.V.+ /@k#k#D.c.&.n l k V !.k 2&}.%~z :@m =.#.` b.a$/@ $K.&-k#V..+^.q ).^@V j j !.}.j ` @.1.+.L.I.F.D.A+(+q F#U* +3{                          ",
"                        [*Z.^#t+G'4{J.r+=)p$:.K.})'+h+o.]+='^+t.o.;.h.*.b.]+F.T#I&q$l$q$I&o$s+T#p+o+:.K./@*.*.m. .Z ` o t;3.).p Z@p &.h#C.p+h$C.G..$Z#Z#+$U#U#v%/@.+2.o X@'.A*J%;$:@A R =$p.($($;$c&B :@K&0.p t.c$J.v%g*+ ]+!+k.R@T T@U@U@`@`@j.y*%.k |~:@y,g *%E H +#*%2@2@b@b@L 2@1@($m %.[._,o.;.D,U T@)+c.*+j.*.W,S#f) #o.^@Q*k f g a@m@+#D D F D D |@!*!*U&B m }.6*|.[.k.t.o.c.[.c.b.b.W,8*R+m B J%:@=$a@b@2@E*H H ]#M@L 2@g 4+($w =. .w.o.t.]+D.R.R.K.D.b.%.` W ~.Q*t !.z B }.A-z m j '.@.M.a$g*K.d$U#U#+ b.&.` 1.` !.m }.j t,j (.@.).+.I.5{F.V.u.1 q ) J,C+6{                          ",
"                        b'5-C,B-G'G-&-})-!u+:.R.p+z*+ t.u..+.+!+*.;.*.o.b..+K.I&k!I&I&I&I&o$o$r+$*o+.$@$/@^+j.].p p  .^@ .3.^@3.Z@@.%.k.C.U$$$z*.$H.7>H.H.U# $ $/@k.p '.'.o j :@($p.:@($1$U&($r=m B B B :@m~o ]+/@A)g*R. #k.k.n~h#*.8*8*[.[.T@8*T@U@X :@4+<@6@*%E E i B@L L +#r#1@3@a@;$k p 8*W@*.y*[.[.U 8*j.j.U ;.c.k. #k.[.o m J&!*g E%i L & F D H m@4+($U&t@B B B _@X@U@k.u.;.c.c.T@8*T@U@2. .Q*m j x R q#& E E*D H H H *%2@}@=$p.}.!.p ;.g..+v.D.I.b b  #;.@.'.W k W m B :@B B B t@j k e.Z@b..+b K. $ $b + o.m.).n &.W B B$!.H+j ` @.1.+.L.g#F.V.g+w+f.y ( 7{8{                          ",
"                        f'i+C,B-d'C%&-q+_'j!n+7-$*Q@9{^+u.W.]+b.o.h.*.o.t.v.k#j$Y',*,*I&p+j)r+r+U$U$m+N!k#m#T @.%.A.&.@.q ).` R*)...&.)+Z#G.$$m+P++$+$Z#z*#$:.U#c$k.p l K>p Q*B ($9.R ($9.;$;$:@6*0.m B J%w p u.K.K.K.O!v.%+W.k.c.*+8*%.].j.T ;.W,T Z B >$S+a@2@L 1@r#D L B@+#2@r#]@E%;$'.T c.b..+*.T@;.;.Y@j.w.;.;.o.]+D.k.[.'.k z#c&j,K 7.b@D H H ]#E C R :@A-w r=B 0.'.U@o..+)+R@*.*._,[.T @.3.R+z#t@~+4+m@F E c@E*o#H H E <&C E%A ($}.o [.t. #I.R.K. $b V.;.` n k H+j z#m B t@J&6*w m k W @.;.]+F. $ $ $K.D.;.&.&.` ).!.B$}.W w l 1.@.q ;.P g#k#I.g+k)..2-p! +5!                          ",
"                        0{i!a{q+G'$*P C%-![)m+7-p+'+t%t.]+^+u.b.*.h.o.o.^+]+R.I&M$I&M$-)I&,*p+s+p+K$.$U#R.t.[.&.%.` 1.o &.%.|>` Z p S k.H.z*(~m+z*.$S$#$Z#.$B!Y#c$v.%.X |.^@l p.($R E%R R ;$;$B z 0.6*z :@m p v.t! $k#]+!+b.t.W,o.U %.p o `@`@Y@c.y*'.B 1$I%g g 7.1@r#o#- 2@2@4@a@U.R ~+V U@c.c.u.c.)+*.o.Y@[.2.S w.o.k.&%c.S |.l m J%($g 2@L E y%H F L R !*t@J&4)z#j J&k U c..+t.b.c.c.*.*+^.|>Z R+B i-g q#L F E D L F E y%]#- a@|@-$z j ).j.b.D. #c$ $J.I.V.j.).o V W j m }.0.w B j w 0.j s @.;..+ $k# $K.b ]+1;&.&.` p m c&j V t,j {.4.{.N.P I.|+P.u.1 s.2-p!C+B&                          ",
"                        a!|)C,d'Y'$*x+G-<;7'.$ $T#C%7-E.D..+.+c.N.h.b.b.v.v.I.r+++o$M$M$I&o$j)})l!$*C.Z#/@o.U &. .Z o  .o p p  .p Z@&.c.U#G.G.m+b$#$S$Z#+$.$Z#U#U# #`@X@X@Z S~f =$<@R -$R f c&6*U&K&K&B J%k V@]+c$l#A)V.k.!+t.y**.S S o ].y*T@W,W,`@^@z#($R g 2@2@3*]@E*b@2@r#X,0@4@4+p.k [..#t.o.%+c.;.S@;.*.[.2.*.]+]+ #W,[.|._@t B S+>$2@a@*%o#c@m@a@1$9.r=:@t@:@}.0.'.U Z!]+k.c.*.*.*.y*U p 3.R+:@1$4@]@b@]#E c@- D & o#D D 6@I%~+:@m p ;.c.D.l#k#b b l#B.)+Z@'.n !.m !.r=w B }.m m J&W Z @.8*.+J.K.H.d$b  #*.&.&.n n m m }.W !.!.n.%.1.h.R.I.+ P.A+M.1.J+_ 9,b%                          ",
"                        b{c{X)B-G'U,F.$*<;7'j+H.}$G-g*.+V.!+t.c.+.c.t.t..+v./@K$o$M$I&q$I&})j$})n$$$C.U#+ c.*.%.o n o S ].]. .` ` ).V@k.Z#(~z*C!z*C.d&.$s)z*C.Z#k#7*`@o '.~.0.B f <@-$-$($:@r=B r=B J%K&:@m  . #b #*#!/@v.]+Y@*..+[.%. .p %.U@*+[.`@X@0.($S+L +#L 1@1@}@6@4@a@-$}@I%<@c&'.`@k.]+t.R@Y@Y@T@[.[.U O.;.!+]+%+c.d{Z@k Q*B 1$($4;E%*%]#0#$#>$R 4+<@:@J&J&r=J&k [.b.7*%+R@;.*.R@c.j.2.p A*c&;$g 2@D L E*L b@D D B@D a@g <@($:@Y p [.k.I.k#k# $b b  #c.@.` #.z#}.m J&}.-~0.}.!.B t |.U M. #U#J.U#J.R.]+U p m.&.Z #.w m }.W k #.^.` ;.L.V.|+O!g.h./.M~!{b;)&                          ",
"                        e{f{g{q+M!}$D#C%=)$'m+R.p+o+k#.+v.]+.+N.T o.c.t.&%V.R.K$8'j)I&o$Y'o$p+K$$*z*f$d$D.o.i.p ` Z Z %.S Z@o ).` p &.S#B!l'G.C.#$#$#$#$.$B!/%8- $l#8*~.X@'.B B :@($K K ($J%p.:@J%6*f ($A c&o )+/@b g*O!v.]+c.m#!+W,%.3.p U@8**.y*%.Z m U&S+L & & i }@K C 6@6@4+g g R B Z j.t. #%+.+b.c.o.R@*+j.+.Y@.+]+u..#U@m.Z o 0.:@($R a@m@F H D U.4+R ($:@r=B B m '.Z@b..+b.Y@Y@*.c.c.)+U p W ;$($g ]@i c@[&H +#L D c@F g -$A R ($!.p [..+B.L.l# $d$k#+ t.%.Z o !.W m J&B }.6*t j J&}.o S 8* # $K.d$U#R.!++.&.m.o '.V w m !.V / ` S d.+.+ Q.+ D.y~h./.G=%{)                             ",
"                        q!h{G-d's+G-J.C%%*[)m+ $p+G-|+W. # #^+h.U b.1;*.k.D.R.T$q$(#,*,*M$,*s+$*K$z*U#U#D.o.j. .m. .3.p S 3.1.Z  .|>p &%Z#z*#$d&f$7>+$C.$$#$.$+$d$D.Y@p ` '.m K&:@A I%w*($;$~+B :@U&A <@($:@X@t.R.W#A) #&%k.!+o.)+o.%.%.%.[.T@*+[.T@'.0.:@1$2@B@b@2@2@a@>$C g 9.A g 2=B o [.c.c.]+W.c.)+)+T@j.W,+.Y@h#&%c.*+W,U@ .~.0.($R |@a@b@D D L 6@R i-:@B r=j }.m '.%.R@c.o.j.Y@c.!+;.8*p o m :@($a@2@L y%$#[&+#b@*%L L R R 9.!*~+!.p 8*c.R.K.k#K.K.k#+ t.&.n '.K>k w r=c&B B }.}.w !.Z T h.v.c$K.c$k#g*t.S @.U n Z '.w k / V _;n @.` S V.Q.Q.+ g.1 / ]~%{I+                            ",
"                        i{I=x!})Y'q+D#o+%*u+'+&-}$p+F.]+]+O!t.o.;.j.g.o.t.h+R.F!q$o$8'I&o$o$s+k!h$K$f$d$D.)+U  .S p ` Z 3.o Z X@^@2.[.f#.$K$T$f$#$.$.$.$Z#Z#.$/%H.W#Y@^@^@~.0.;$=$=$R A ;$;$:@U&~+=$#-<@:@B o %+W#R.k#D./@/@D.]+h#t.8*`@`@U@T@T@%.&.#.6*:@U&R r#1@2@1@4@>$g R R g g !*6*^@c.v.v. #.+t.*.y*[.U %.[.Y@k.f)k.R@8*U@p Q*j ($R g >$2@L c@L b@a@=$~+J%:@(;B K&s 2.R@)+t.*.%+h#h#Y@8*Z@^@m B g a@2@b@M@t$[&L B@D E*q#R E%($A ($0.p _,Y@R.k#u%U#H.l#B.;.o  .|>V _@0.p.:@B B w z#t@}.o Z@h./@c$ $d$K.K. #S p %.X X@k t@!.V 0.W 1.&.1.+.R.D.I.P.(+N.Y x.!{A#                            ",
"                        j{_#X)d'r+r+&-C%=)<;C%&-e;})R. #.+V.^+^+o.h.h.o.c.V./@o+j)s+I&M$q$,*,*I&:'o+.$H.D.*.m.p %.%.o o o o o ^@p m.%.]+#$G.0*d&Z#Z#Z#`#U#g$+$Z#Z#7*[.o o v 6*($A =$($;$w*=$<@c&B |~($;$1$B X@R@ # #]+]+f)X#O!/@k.c.`@%.U@*.*.[.%.@.'.m r=;$g b@L 2@- 4@3@a@g ($R 4+;$0. .Y@k. #7*t.c.*.[.b.y*[.8*.+k. #.+c.`@3.R+m B S+1@]@1@L c@D D i a@!*!*p.K&}.B K&k y*W,]+.+*.)+c.%+b.*.;.p 0.c&E%}@a@L H y%H F & E*L <&|@I%p.c&x k p %.t.g*F.t!Z#U#b D.0>).).k ).s,B R 0.w r=w B K&j  .S o.R.&-K.U#Y#Z#]+^.W p |.V j B W m t,l n @.n S I.V.y+D.;.1+( t,F+!{                            ",
"                        k{l{X)q+G'r+D-'+)%_'U$F.o+I&R.k.c.D..+t.j.;.b.c.o.v.P.z*,*p$I&,*p$M$M$M$r+o+C. $D.o.&.` m.$.p o o |.'.o  .m.8*7*#$l'$$C.+$Z#Z#U)H.Z#+$ $v%.#[.Z@|>o _@K&U&($($($p.;$($:@B B :@R w*c&|.)+D.k.n~!+]+m{c. #t.m{*+m.*+y**+[.%.V@3.k }.J%>$H D 2@1@a@|@g >$-$p.($f 0.` Y@]+f#]+]+c.o.h.;.i.%.[.!+.#c.%+Y@%.` _@m :@S+g 1@2@o#H ]#2@4@0@-$<@A 5*w w ($W 8**+t.N.[.T@8**.o.*.U ..W B >$>$>$L p###H D E*L B@2@L*-$A ($:@(;J>j.u.+ k#7-K. $g*&%[.n '.j @.p B i-m }.t@B B r=B$o %.o.k#H. $U#K.K.g.x,l #.n k m z 0.j t,=.).S ` +.+ g#V.h+N.V=H+5+!{f.                            ",
"                        n{o{U,v+t+%'D#j+-!=)C%F.})k!t!]+='V.b.t.c.;.j.(+k.v. #.$8'M$I&T#N$,*I&o$,*U$C.N!D.b.S X m.).` '.` R+W V Z ` @.t.f$U$K$z*/%.$.$.$C..$C! $b k.@.p 3.Z l J%z 1$!*i-:@1$R 0.m B ;$R =$K&R+*.W#/@k.k.7*k.!+k..#;.;.j.*.o.*+[.U@%.p k j :@|@D D *%2@E%g }@}@-$=$R K :@o ;. #f) #f#c.o.i.U ^.&.*+c..#c.c.*.).n Q*J&9.C <&F ]#]#z$H L 2@7@g 4+($J%:@~+p.k 2.b..#)+[.h;*.*.;.[.[.&.n t@7@a@q#<&y%##H +#E /;L j*7.R R ~+~+m ^@;.9>b k#k#k#b k#k.8*o k k Z@@.J&i-}.0.x t@B t@!.3.&.g.F. $u%_&K.k#t.S V '.W l w x w j !.V n U n U p{V.g#z+h.+.J+^ q{5~                            ",
"                        r{h,>.%',*r+8-m+_'=)C%^~o+T#F.]+]+v..+t.b.;.;.b.c.D.|+.$I&I&,*M$M$8'p$I&I&p+#$J.l#*.%.'.p Z@p n '.'.!.k ~.'.@. #C.$$S$f$.$C.d&H.@$Y#d&.$ $f#[.).^@X@m f z 1$!*~+U&;$p.B B :@p.R <@m p W, #W#&% # # #&%X#c.)+b.s{W,T@y*[.2.%.)._@m B E%B@$#H i >$7@I%g <@!*p.($z |.b.k.h+]+.+.#o.j.[.S [.[.;.b.R@.#c.S 1.m z !*q#L $#H M@H [&2@2@}&>$4+<@~+:@:@~+m V@*.*.0>%.`@T@;.c.*.[.%.Q*U&-$6@7@<&H t$o#& F <&a@- ] 4@>+9.p.j Z@Y@t./@/@k# $l#R.S#j.o k !.%.|>j ~+B B p.~+B r=t x,O.t.R.J. $ $H.d$c.@.k '.k z#B x t@t j !.#.S n.h.V.i#V.h+j.4.J+p,A#1+                            ",
"                          6 >.C%Y'%'D#j+-!t'p+F.e;})K.D.v./@c.k.b.;.j.^+W,v.W#Z#r+I&8'q$M$o$I&I&r+$*U)H.R.f+&.G~o  .o  .n '.-~l ~.Z %.D.#$$$G.U$G.z*d&/%H.+$Z#/% $S#T ].%.o A*B ~+($R r=f J%J%t@:@U&1&=$($B G~)+S#D.S#X#X# #X#f)t~*.y*[.c.y*`@`@V@@.o A*6*($g a@+#]#L 4@g S+<@-$A ($~+p.V 4.c. #7*k.c.W,;.Y@j.8*Y@t.v.k.k.%+T ` m B ;$g 1@+#H M@0#[&L U.|@I%a@p.p.9.z ($A*%.W,y*%.2.2.*+[.)+y*`@J>k B <@a@I%i p#M@]#$#[&2@2@*%- 2@a@p.K&j &.j.a$+ k#/@R.b R.S#c.n k _@@.'.w c&B B ~+i-c&z l ` @.u.7-F. $J. $b g.U V '.l !.z c&w W k k ` ^.u o.y+g#v.I.h.S.M~3>f!l{                            ",
"                          t{v+q+Y'$*J.j+=)=)q+R.z*})&-V.u.&%)+t.o.U j.h.m#.+W#H.W$++o$M$o$q$T#r+r+p+z*K.R.c.p V Z Z Z o n '.!._@'.o [.]+.$z*z*C.#$.$Y#+$Z#Z#.$H.U#+ j.m.3.o k c&z f ($c&:@J&K&z f ($:@R -$B p m#&%&%]+ #&%X# #X#7*o.N.[.c.T@[.T U %.V A*m ($1=C L u{+#4@g R ($p.A =$p.t@X %.c.t..+.+t.b.*.;.[.*.h.]+B.S#t.b.%.X B K&i-g 2@B@$#H [&[&r#q#a@a@g 9.f U&c&f V %.)+o.*.8**.o.Y@c.b.*.Z@#.m E%>$g 2@y%]#F H p#L m@E*+#a@g ~+z =.^.[.u.l#K.b J.b /@ #8*V k 0.o o (;t@z c&($~+t@}.V ).%.u.k#R.#* $b D.b.S =.'._@j z z ($=.V j #.6./ g.+ V.Q.z+N.S.v{A#U*w{                            ",
"                          x{v+G-t+G'D#n+<;)%q+k#'+r+J.v. #v.m#]+*+j.o.*.t..++ K.I&o$I&M$M$,*I&r+j$p+S$.$R.g.%.'.'.Z n |>X@!.j !.|.#.]. #z*G.#$S$z*C.+$H.Z#:.+$:.H.v.y*p ].o k B :@;$($J%y,U&c&:@f :@J%=$=$6*^@b.R.D. #D.B.]+='V# #]+c.T@*.y*T@*+T U@o Q*Q*B 1$E%4@F E a@R g <@9.A 4+($B #.j.o.t.f#o.*.t.c.j.8*U b.t.t..+)+*.m.X B :@:@a@{ $#H c@D F L 2@-$1=g :@~+9.:@:@k %.c..+*.[.*+Y@c.g.b.c.%.s B ]%a@7.<&c@D ]#H H - <&L U.4+!*:@~+'.S j.]+R. $k# $b /@t.T W k Q*` ).}.}.%~w !-:@0.j =.p m.]+k#F.H.+$b /@b.%.'.#.k m x p.p.W =.!.1.@.Y g.V.Q.g+z+h.+.I~s.( }+                            ",
"                          e=>.G-Y'q+n+8-7'-!B-R.'+I&u%h+u.t.t.k.j.w.0>;.b.%+I.c$r+r+o$o$q$,*o$o$T#T#G.H.D..+U #.o p ` o '.k =.A*Q*).U@7*z*z*l'#$Z#:.:..$Z#Z#d&Z#Y# #[.X@'.'.k c&f :@($:@:@i-:@;$U&:@=$<@<@z#%.='R.B.+ 7*k.v.&%V#A)B..+W,W,c.W,T@U@%.).R+t r=($E%4@+#+#r#|@|@K S+($!*A :@k %.b.v.k.b.o.R@c.%.[.[.o.o.u.k.k.c.p k m ($R 2@*%##I H  =@#E 2@g }@E%($:@i-U&<'m @.b.k.%+%+b.Y@h;b.!+k.[.#.J&E%a@L D H H ##M@D L L <&k~4+($~+:@~.&.S h+R.l#R.b b R.k.`@k '.V '.W B c&&~0.z t@m }.R+p ^.k.l#U#+$c$b b c.T Z #.m !.z t@&~j j H+p;q =.u.Q.D.V.V.1;1+q.-{D%_{                            ",
"                          y{{{(!~~%'.$F-$')%r+K.o+Y'H.+ ]+ #u.u.;.N.T@o.%+u.O!K.r+I&I&,*p$o$j$o$T#T#z* $V.r %.n |.3.` ` '.!.j j k 3.].c.f$C.G.#$b,C.H..$Z##$.$.$.$]+%.^@o '.k :@:@:@1$-$=$A 1&S+R =$g C g f X@.#D.D. # #7* #/@l#k# #k.c.c.W,*.*.y*%.|.m }.t@S+7.*%D D r#a@|@g -$g >$X,($j 2..#v.v..+b.*.*.;.*.t.;.b.b.S#k.Y@|>j K&U&g +#D ##n#s#b+u#6#L q#~*1$~+r=;$J%($K&p b.&%c.o.[.*+W,*.*.c.U Q*t@:@g 2@E*E E $#]#E*L L L - U.E%($z '.` U + k#R.l# $c$/@k.[.#.X o R+!.(;t@f t@t@~+}.0.m p 1+V./@K.K.R.k# #c.S V ` ~.k w }.}.k !.H+n $.=.t.Q.+ y+t.m#h.r.*!z{A{                            ",
"                          o*B{(!t+5&F-k+7')%G'^~m+G'8-V.u.]+t.t.b.U ;.j.o.t./@H.T#,*o$o$M$,*})j$p+7)G.F.D.*+$.#.` ` ` #.d.n ~.W W Z &.*.f$z*.$#$Z#S$.$:.:..$f$+$Z#B.%.p o X@A*($U&:@R K E%E%-$K |@A ($R -$c&o o.B.+ &%O!+ D.+ t!#!/@f#.#*.;.*.;.[.).G~W !.z S+]@- L 1@i a@a@a@-$4+a@>$~+W @.R@.+k.c.b.Y@j.h.;.g.h.t.g.a$.+(+%.0.U&R 7.L D ##I u#S&b+t$L 4@7.R ($:@:@r=:@B m.N.]+k.;._,T *.M.c.Y@%.~.p.o)7@7.*%E*L D k*k*D E - *%a@C k,:@k |>@.!++ /@R.b b R.)+U #.n '.u #._@B :@J&}.:@J&m m ).U ]+k#k#k#K.F.v.t.@.#.1.v t !.m w }.j j #.&.!..+V.I.V.u.E.1+v{..C{D{                            ",
"                          9 a l+t+q+k+n+`'_'d'7-k+Y':.]+h+]+^+E.b.;.N.h.m#!+I. $})M$,*o$,*++I&o$Y&$*8>b D..+@.#.` 1.o o Z s =.k '.o p o.#$U$z*#$.$C!.$.$$$C.Z#H.Z# #[.p  .n k B B J%!*S+R ($($9.;$($z ;$($B X b.+  #/@+ +  # #k#b X#v.c.h;8*8*j.m.m.p Z A*z g 4@i - q#m@1@6@7.A R K A :@Q*@.Y@.+t.c.b.g.o.;.;.*.*.b.m#.+k.*.Z@m i-R /~E{]# =I I u#####m@7@g g 1$:@t@z ~+0.&.g.k.b.;.h.%.[.%+k.Y@%.m p.!*-$7.L F 2@E*t$t$- E /;c@a@a@R :@W ).S S#R.+ R.b b L.t.;.` ).#.#.'.w B B B B z z#m !.p U D.k#k#u%J.K.+ o.U #.).k Y m t@w H+j j n.&.H+u.P.I.V.h+g.+.v{..P!a)                            ",
"                          F{G{k+(#5&|;n+s!.%s+7-m+I&J. #u.]+]+c.b.h.b.o.*+g.V.k#T#p$M$M$I&o$r+l$o+p+o+b ]+c.%.#.e.).#.).o '.!.o,W R+p Y@U)K$C.#$m+.$H./%.$m+C.f$/%+ 8*p p #.J&:@f ~+($R =$U&<@1$f i-t@;$;$A*n j..+k.S# #]+t.D./@A)X#7*h#c.*.Y@h.y*[.m.'.5*J%g {%0@L 2@*%i }@|@=$A K 2=J%H{[.c.!+.+o.c.h#b.;.*.g.b..+v. #S#)+%.k ;$f g b@& ##S&n#x%H@0#2@}@C g J%m t@($($0.S g..+o.[.j.T *.*.*.;.o k :@;$R a@D E <&c@]#& D E*<&L U.>+A ($V p U k.D./@L.k#b W#k.y*&.|>V n j B w z t@w B }.t _@J>8*S#F._&K.k#R.V.t.U n n k k }.}.}.j B$H+ .).j ]+t%D.|)V.g.S.r.| I{J{                            ",
"                          K{L{C,G'q+z*:.<;/#s+ $:.++6-v.g.]+!+(+;.;.o.o.o.g.D.H.$*o$N$L$++T#I&p+p+C%#$F..+;.&.n W n ` &.o #.W l W '.p )+d&G.z*~!~!C./%Z#/%Z#Z#.$K.X#T Z |.k 0.6*:@J%;$f ;$:@r=z J%c&U&U&9.t@X@;.c. #B.]+.+!+ #v./@k.h#%+W,T@[.*.M{`@].Z r=($7.|@E%a@2@+#- q#a@9.E%g R ($j m.)+c.;.*.R@o.c.o.c.b.*.o.c.b..+*.` t@S+K 1@E M@I u#H@##0#+#2@7.g R z :@9.R p.j p *.Y@8*2.S S T ;.*.[.p R+z#!*-$7@r#- c@[&M@]#/;*%L *%a@K !*z '.&.S g. #/@R.R.I.D.h#;.Z@|>'.k m t@~+p.:@p.w }.j j  .[.]+k#K.N!K.R.]+0!).'.X V Y B$:@B (;w m o o j z+P.D.g#g+h.| ~-+.N{O{                            ",
"                          K{P{k+G'r+m+8-`'_'Y'D#:.s+:.h+u. #u.h.h.h.b.h.[.h.]+ $$*r+s+j$o$T#r+s+$*U$$$d$u.T@S n V ` p Z o R+W l l '.p *.d&G.G.#$C.m+Z#.$Z#Z#U#H.c$ #T o e.Q*0.:@B U&($1$U&($c&:@:@9.i-($p.:@k *.v. #W# #k.c. #O!&% #.+c.*.y*V,o.j.`@^@'.K&S+]@i >$2@D +#- 2@1@R R R A =$l T c.o.c.k.k.g.b.b.j.*.;.Y@!+v.S#b.A.B 4+R a@b@D % H M@[&- 2@6@-$-$4+p.($R R B k V@W,^+b.*.;.M.*.b.c.*+U@^@6*<@g a@2@- L F & <&2@<&Z~L a@<@p.B s p %.t.+ R.k#l#l#/@k.b.p #.~.0.0.z i-:@U&f B B }.j ` j.v.b J.F./@K. #;.` '.` W k t@B$B$H+t@=.q d.t,v.y+I.V.V.w+^.G=X.Q{R{                            ",
"                          M+}+P+Y'I&k+8-u+=)s+8-:.,*:.]+]+ #9>(+Y@j.o.o.;.b.]+u%C%I&s+r+I&7)$*,*U$U$b,k#]+c.[.).X@o  .o ].o W '.V '.p ;.U#G.l'U$C.8>.$.$C.j+.$#$U#+ *.3.'.j m :@W&B B p.($:@:@:@($($f R R f k U  #D. #k.k.c.]+D.v.S#%+c.y**+[.*+y*`@` k U&4+2@+#6@L ]#D L 2@4@K R R g ($l S )+u.f#.+c.c.c.Z!8*;.b.t.k.D.+ o.` B ;$!*I%L D D $#c@L E*<&g E%}@7.<@($($($:@~.%.b.b.c.j.[.h.*.;.*.8*%.W r=R g C <&D L E D - 2@U.|@U.K R i-w W ).T o.D.k#R./@K.B..+[.p V '.0.m t p.($($:@A-B k !.).t)+ b u%K.F.R.v.h.` k |>V V B B$z !.y !.q ..t,I.y+P.V.y+b.$.< ^+S{5>                            ",
"                          I)T{k+Y'G'k+D#Z)`)t+H.m+s+6-!+]+D.v.b.j.j.j.h.*+b.]+K.$*o$I&o$T#q$o$8'o$U$'+K.k.c.y*n '.~.Z o @.o X '.R+d.%.T `#U{K$G.z*C.+$.$+$@$Z#g$V{v.2.p O,~.m f J%B :@;$A ($;$:@($1$<@R R ($k j.f#+ D.&%&%v. #D.v.&% #%+T@c.h#t.%.o ].k B 4+a@D L L D D L 1@|@R i-9.R i-k %.c..#]+^+o.%+.+c.*.Y@c.;.*.S#S#W,%.m ($S+K m@E F H D & c@$#*%2@a@|@R ($1$U&p._@%.*.T@c.o.T *+T@;.8*[.p t p.1$a@2@m@D E F & ]@7.|@U.S=g !*z w V ).U ;.B.R.g*R.b + k.[.X@V ~.}.:@z 9.($($z m c&t m &.h.9>b c$U#K.u%v.0>o V n '.t w x B }.x =.x,q w 7-y+P.V.P.g.q r.E.W{X{                            ",
"                          Y)Y{k+I'B-k+n+0)c'-):.:.p$:.u.k.+ V.g+o.j.W,U *+1;]+K.r+,*M$++T#T#l!,*r+T#z*&-m#;.T@p W Z Z ` Z #.Z #.'.#.%.c.+$$$0*K$z*f$H.Z#Z#.$Z#:.b k.`@@.X@k 6*:@:@1&i-($4;;$<'J%<@R R K R =$t [. #D. #7*]+k.='W#v.f#7*b.*.Y@T@j.V@m.'.]{c&R }@i i 1@a@L B@i a@}@S+A =$z l [.)+.#.+)+R@c.;.W,.#!+Y@o..#H~%+[.V@6*=$k,=$/~2@L 6#]###t$I H E 6@C A i-~+:@U&_@%.*.)+t.*.[.[.y*8*[.%.p _@i-S+U.a@2@E L D k@E ]@}@7@r#a@R K&m =.p [.k. #D./@R.I.W#f#U ).'.'.j B ~+=$-$($K&t }.!.l A.o.v.k#u%b b b ]+o.q s,n k '.B w H+H+z W U ).j R.I.I.v.V.E.V)T.E.Z{`{                            ",
"                          T,]-G-M!%'k+8--)=)M$s)s)u!B!<~A+Q.V.g+o.N.o.+.*.o.]+/@U$T#,*o$I&j)r+r+p+o+#$7-t.+.2.o Z  .p o n '.Z '.|.Z &.c.+$#$C.G.z*f$+$.$d&.$.$H. $v.T  .~.m J%U&f :@:@($($:@:@A*B =$-$4+g K w ;..+ #+  #k.c.]+W# #7*!+.#;.*+[.2.U p o k c&R }@2@r#a@1@b@i 2@]@K R 9.($:@k &.c.c.k.*.*.b.o.Y@*.*.[.[.*.t.k.Y@S !.!*R g <&i & t$t$##I n#y%L 6@a@A ($($:@t@'.U ;.o.%+;.T [.*.2.U j.%.v :@R a@6@i L L *%& E - U.a@<&a@9.c&z#c,q [.t.v.+ R. #+ K.7*j.p R+Q*!.B r=<@A ($t@w B$t k J>;.v.F.u%k#K.k#]+;.|>3.~.=.W B z w w f W +.1.V-+ + y+9>|)w+s.q.E. ].]                            ",
"                          [$H>F-t+5&F-:.0)t'0):.:.-).$]+t.=']+M.o.h.o.U j.h.u.R.})Y'0),*s+j$,*})p+K$8>/@t.N.U@o #.` A.p Z n '.V '.Z &.c.:.m+G.z*'+G.C.C.f$d$B!d&.$+ [.^@^@}.:@;$:@<':@i-F%:@f B B :@<@-$E%R 6*U f#D.+  #&%!+t.B.&%k.c.W,*.T `@O*[.Z@3.X c&1$E%2@2@a@1@b@- ]@2@g <@i-i-:@v S )+D.&%!+o.+.;.o.;.*.T ^.o..+c.*.S !.1$p.R ]@{ D & D ##I I t$<&q#4@R ($9.c&z#'.2.[.b.*._,[.j.j.[.^.@.S '.J%1$R U.2@L m@E*E D 2@>$q#|@K ~+B w W ^.;.%+h++ t%/@#*c$='8*p o V V z ~+9.2=9.t@c&z l W ).N.I.F. $ $H.H.h+j.&.@.o '.'.t@r=B z x Y ^.s.!.k#|+F.z+h+t.-{+](+@]#]                            ",
"                          '*$]'+t+5&F-.$0))%t+Z#H.0)m+]+t.^+u.t.b.;.8*S i.*.)+t%U$Y'o$,*M$I&o$++$*o+G.H.]+(+^.m.o o @.` o Z W $)Q*'.].!+.$$$G.~!b,+$j+Z#.$:.+$.$.$k#[.o X _@:@($($!*($1$;$r=c&J%J%;$R 7@}@!-0.[.v.R./@X#J~k.S#k.k.k.k.W,T@T@8*[.*.;.p |.B 9.}@i 2@2@U.i 2@6@U.g E%R :@c&k U c.&%f#k.o.j.W,k.W,T@[.M..+&%k.U p 0.($($=$a@<&L D $#I &$I t$i 6@]@K =$9.B B '.2.;.;.*+;.*.*.;.[.[.[.V@K>r=!*a@i <&L m@]@2@a@1@]@a@a@g p.t@w o,@.;.k.+  #k#R.U#R.u.*.%.'.Q*k B i-R R 9.t@c&J&W j ).*+W#K.U#c$b F.D.N.q o n #.V r.~+z Y,z =.^.n.V-+ I.I.A+v.A+,+) w+%]                              ",
"                          &]*]i,d'G'n+D#,*`)0).$ $o$f$P.u.]+k.b.*.S +.S [.*+)+R.h$o$M$o$o$o$r+I&$*C%o+8-.+j.2.m. .e.#.o |>W V '.#.G~m..+.$K$K$z*z*.$.$m+z*.$C.:.c$/@*.Z '.l B :@f :@B ($U&B J%B :@;$R K I%1$3=S k.D.X#f)k.t.*.t. #c.)+b.T@*.*.*+8*[.p Q*t@K a@]@]@a@4@2@2@a@z%R K I%R :@k i.c.&%S#h#)+c.b.*.*.;.j.j.k.k.c.[.p !.:@i-($a@U.i c@*%y%##M@D E*E 2@U&~+p.t@m j~U ;.*.[.[.%.*.8*[.[.U@p k :@p.4+6@b@L L ]@i ]@a@4@4+U.I%($B t ~.@.;.v.k# $b b  $F. #%+p Z #.W w 9.A 4+9.B w H+c,k p +.k#/@K.F.F.F.v.;.p Z #.V W t@z B$t@z / U #.p;R.F.I.h+I.w+s.+]g.b;=]                            ",
"                          -];]2{G'G'n+8-,*-!Z)8> $o$G.V.]+D.]+h.;.b.j.+.S ;.o.+ U$r+M$o$M$o$r+r+e;o+'+H.]+j.@.&.` n '.3.^@V '.k '.o ].t.H.K$K$U$K$m+g$:.C.Z#H.N! $ #[.n ).!.B ~+($c&;$p.($:@2&i-:@($($7.g :@A*S ]+S#]+]+.+c.[.o..+c.*.[.8**.*.j.T@[.p _@:@/=a@2@- ]@{%<&i 7.|@#-S+K S+($m @.c. # #v..+b.b.;.;.h.0>*.k.t.%+;.S V t@:@A >$g 0@m@F H H M@]#E E q#=$($p.t@!.n [.*.o.h.;.@.*+8**+;._,2.W B R 6@i i <&G#<&2@]@7.|@K G#a@~+t@t n j.;.D.g*K.b  $+$ $/@.+^.'.!._@w r=;$g t@}.B !.V-c,@.;.k#k#b b k#k# #_,p ~.#.X }.z z B$A-B$W 4.u n I.I.I.P.D.1 p;T.g.P!                              ",
"                          >],]n+I'r+n+8-M!t'`'z*H.r+o+P.u.V.u.o.U N.w.6.@.*+o.D.K$,*I&,*s+I&Y&I&p+o+G.J.k.j.p &.o o #.` m.V W v v X@%.!+#$U$U$$$U$U$z*f$C..$+$U#b + *.'.Z v J&=$($U&:@c&U&f t@c&J&r=p.g K =$v S  #i#]+k.h#o.*.c..#!+*.R@b.j.*.o.W,;.Z@B :@<@>$2@a@a@]@8@a@a@7@2>g >$|@($!.U k.D.l#v.k.k.c.c.b.o.o.t. # #k.8*V@!.3=U&R g |@a@L ]#]#D F D H E*a@A p.:@J&W o [.b.c.c.*.;.W,c.R@*.*.`@'.J%K a@a@<&E*2@- L m@2@L C ]@K :@w m V S o.I.7- $ $H.Y#U#b c.@.W W k J&r=($!*r=z#B$!.W V @.j.I.F.R.R.K.R.v.8*@.'.#.'.W p.t@-~B$(;V +._;/.I.I.k#z+V.1 p,M~X.%]                              ",
"                          ']K!I>d'Y'<$8-s+)%$'o+:.r+Q@V.h+h+.+t.!+t.j.[.%.U *.h+$$,*,*p$M$T#I&I&T#$$z*N!u.i.6.p ` n #.n ^@X@o l k R+ .k..$F!T$$$G.#$z*z*S$C..$Z#Y#W#%>X Z Q*B 1&<@($<@U&J%($c&|~k w t@S+7@A z#j.k.v. #k.c.o.k.f#!+b.o.c.c.c.!+!+W,[.p Q*0.R }@4@g U.4@2@a@>$g R >$S+R <@c,8*.+B.A)9>v.k.c.o.Y@Y@c.%+O!S#%+*+@.k z#B <@g >$q#E* =H [&[&E o#r#a@g S+~+t@W |>j.*.u.!+*.*.c.Y@y*8*c.%.k r=7@K 7@L E*<&- F F E E*)]a@g ;$z m '.@.b. #R. $#!U#U#U#k#R@%.!.~.k r=r=p.($:@}.t@m k #.&.o./@#!k#7-k#k#v.j.R*#. .'.Q*B$y t@z =;Y ;.Y 1.I.K.I.z+V.g.^ B$1 !]                              ",
"                          M,s@<$%'s+j+i,r+w)%*$$:.M$K$v.V.V.]+]+.+k.(+T S *.1;D.K$M$M$M$,*I&o$I&T#U$K$ $V.;.T p @.#.~.#.).o |.W e.X ` b.d&j$i$K$G.C.#$G.S$z*#$+$Y#V#h;o ].'.c&B 1$($;$t@J%f c&c&t 6*J%-$g f  ~[.]++  #k.;.*+c.v.S#%+R@%+`!h#c.t..+R@`@#.t J%S+g g ]@i 2@q#>$4@R R !-($c&o *.k.+ + ]+!+.+c.b.t.b.8*b.k.+ S#.#V@'.}.0.U&7.2@D D F H ##H b@q#2@a@S+g z-B #.p ;.%+t.b.*.*+t.c.U@%.h.[.W J%A a@]@<&E*<&- D - c@q#a@]@|@~+w k '.S %+I.U#d$b s)Y# $W#%+m.'._@'.J&B J%p.B z r=}.V ` @.%+k#c$k#F.b R. #o.` ` o n c,a;z B$B$z W N.=.1.K.P L.P.g#W.C$J+^+~]                              ",
"                          w!{][+q+t+|;:.r+t'<;K$:.,*p+D.S#h+V.u.c.k.o.j.S ;.o.V.z*++,*,*p$,*I&j)7)p+e;J.u.[.m.&.p #.k #.p p ~.l W X |>)+H.j$U$$$K$K$z*.$C.z*#$H.Y#R.o.).p o A*t@:@:@f :@:@:@B t@k w U&R =$f ~.*.v.k.k.t.t.%+)+t.c.;.*.k.k.f#.+k.c.*.@.k m :@-$g a@2@2@m@]@g S+9.A <@f k 3.;..+D. #]+]+b.c.b.k.h.U t.f#&% #h#2.k B :@($g 7@E ,$t$H t$& E*L i a@($A t@0.W &.Y@u.]+g.;.*.t.c.T@y**.%.'.:@4+]@<&2@/;L *%M@F E*<&2@/~g z m t #.;.k.+ R.K.U#k# $b f#0>@.V V W w :@i-a;H+6*B A-#.).p c.k# $t!t! $k# #*.A.Z Z #.W x z B w t@#.j.=...R.F.|+P.D.E.^ B+E.]]                              ",
"                          ^]s@<$%'(#k+:.})t'=)U$8-r+$*t%D.D.V.I.t..+b.;.[.[.)+]+K$q$M$o$M$,*})s+k!p+o+H.O!;.p ` |> .Q*Z H,). .k ~.o Z !+/%U$C%K$K$$$G.G.#$#$.$C.Z#/@;.).V@^@j t@B z ~+z B B B j  ~m f -$k,;$'.j. # # #]+ #v.k..#c.R@R@ # #f#Y@%+*.T@V@'.B p.R 7.a@2@i q#a@g g p.~+p.t@}.&.b.k.v.D.B.D.9>k.k.k.h.;..+D.]+k.h#%.k t@($R a@G#D ##$#& ##H D E m@4@<@p.K&m '.S T@b.]+o.U *.k.!+8*S ;.S W ($g 2@<&<&{ L D t$F 2@- m@r#R :@}.m d.2.%+/@7-F.K.K. $ $v.b. .k k W r=p.i-J&6*B B B n n q g.u%b F.F.K.R.V.j.` d.Z 1.0.:@K&z w t@n +.Y p R.F.F.y+V.w+/ /]E.(]                              ",
"                          _]:](,L!.'k+8-r+.%s!o+H.p+q+O!D.V.D. #u.t.o.j.S o.t. #G.o$M$M$o$I&s+T#p+U$K$:.S#*.@.p o o V #.n n.#.'.'.o o .#Z#e;o+$$K$z*z*z*.$j+.$H.Z#b 0>^@p Z@W 0.B J%:@B 6*J%K&J%k j p.K R J%'.*.g*/@/@ #k.c.S#k.!+*.*.v.f) #%+c.W,*.2.'.0.F%($g 7@a@a@2@]@>$($f p.p.:@m %.c.]+/@D. # #c.Y@.+k.h.;.k. #k.S#c.@.z#B R 4+- F 0#t$ =##@#H o#E r#a@K K p.j W p j.c.c.%+o.*.c..+*.[.[.V@!.~+K a@2@q#E D *%H F L - m@- K ($z W n w.g.D. $b K.K.F./@v.8*).V #.k t@~+:@A-J&(;w w V ` S o.L. $u%g* $R.V.[.p ` &.n }.B }.z c&:@d.j.!.q I.F.K.I.V.b.^ 2-E.q{                              ",
"                          <]v,<$q+G'n+8-%'w)=)K$ $T#C%t.g+h+V.&%t.W.(+o.[.;.)+D.z*q$M$M$p$s+})I&p+K$z*+$D.t.T &.).o ~.e.1.#.W '.'.W o *++$G.G.e;$$G.z*b, $7>+$_&+$R.j.o |>^@k w J%p.B J&B J%c&B m 6*:@1$R p.v *.B.+  #&%g.)+W,D. #f#k. #b /@ #k.R@[.m.R+J&r=}@C 7@]@- b@]@|@=$~+I,4+=$A*S k.&%X#+ D.k..#b..+)+*.+.c. #k.S#c.S B 9.R -$2@D D o#]#H p#D 1@1@I%S+9.($r=m '.@.;.[.*.b.8*T@c.%+W,[.8*%.j 9.K g q#2@- D D D D E - L a@g =$}.X @.;.c.+ c$v%R. $F. $R.t...Z |.W w t@:@B t t@w }.k ^@S c.k#F.R.u%U#b B.j.1.` &.#.}.w w w B$z o h.W f.I.^~F.|+z+u.^ 2-1+@~                              ",
"                          []}]n+U,|]j+n+p+w%-!}$J.I&Q~g+.++ V.v..+W.b.j.r *.t.I.6-I&,*s+o$M$I&r+r+C%z*&-v.c.U &.` ` W '.#.X@'.'.o V n b. $G.G.G.#$C.G.G.C.j+d&U)+$k#*+n  .o l K&($($R i-c&B J&}.m _@B 1$R f k ;.D.D.W#V..+c.%++ D.u.k. #k#l# #7*c.[.&.V B ($R g 7@4@i m@U.g R =$A =$c&k ^..#]+v.P.u.t..+t..+t.o.;.u. #H~k.*.` J&9.<@7@- E D D H ##H *%1@i |@I%1$K U&B '.p 8*;.b.Y@;.c..+.+b.;.U p m A K 7.<&L D D F L c@E E*2@>+A f 0.#.%.j.Y@V.k#K.k#K. $ $g*t.q o k v !.B t@t@m w m &~v ).[.b.7-K.K.K.H.K.W#*+` ` S d.!.j -~Y,w w 1.M.%;^.I.^~^~I.h+^+=.J+V=e=                              ",
"                          1]q,<$q+G'n+:.$*o@-!$*H.%'})D..+V.v.z+h+t.g.;.[.N.t.I.'+I&,*T#M$o$I&I&T#U$z* $f#c.%. .A.&.Z ~.o X@'.#.'.'.#.b.d$U$o+z*G.+$z*G.P+C.C.C..$U#*.|. .n t :@=$($($i-z#m B t@B J%S+S+<@($_@j.v.+ D.k.t..+u.+  #]+&%&%W#D.v..+c.*.).'.c&($I%a@6@6@- L 4@7@($:@($:@t@k [..+J~f)W# #u.t..+v.k.*.)+.+v.v. #y*&.}.p.2=A - D D l,t$]#H E L i >$!*:@i-:@B A*U@T'c.*.c.8*b.f#!+c.[.2.S W ($R a@E*c@$#H c@L /;E*m@2@7.k,p.m v ^.2.8*k#F. $ $U#d$H./@o.p X W k !.t@~+z m m m `*'.).j.o.K.u%Y#k# $b  #j.R*p @.=.j !.w z t,w ` t)Y | I.k#F.y+g+W.V-J+| 2]                              ",
"                            7 <$$*|]|;:.p+-!-!C%D#})r+V.O!g#v.V.]+g.g.*.U 8*t./@.$I&,*o$q$p$M$I&r+p+$$ $V.b.T ^@Z@%.n '.X ` d.'.o X o o.K.l'o+$$z*d&'+:'o+C.C.C.C.K.1;Z ^@X@m f p.($i-($B 0.m :@:@t@=$=$=$:@k T k.g#v.]+h#S#u.X# #a$S# #+  #v.D.t.j.&.k :@R g a@1@- i L 1@R p.f ~+;$m k m..+k.v. #v.h+D..+.+c.*.*.c.k.v.k.S ` B r=9.7.o###H M@y%0###H L 2@a@1$W&($r=z V 8*c.*.b.b.b.c.!+!+c.b.U@p k z R a@<&L ]#y%D E F D q#<&|@4+($j #.&.U g./@K. $H.H.U#U#l#h.o V j V w t@:@t@}.m A=m W ).[.*.b  $ $F. $K.R.;.3.p @.=.W W w z B$B$).j.!.S.R.F.I.g#u.E.J+5+/.e=                              ",
"                            7 P+q+I'o+8-q+t'_'r+8-r+o$+ D.g#V.]+^+h.h.[.@.j.c.b m+s+M$M$I&,*s+M$T#h$z* $ #b.j.%.J>&.).&.#.Z ~.#.V '.Z j.c$$$$$G.E!.$.$K$:'Z#.$+$+$K.c.'.o '.6*:@($;$;$A t@B 6*B U&=$=$:@J%K&R+j.k.7*S#D.k.]+&%S#h#b.S#D. # #]+f)t.Y@p m ($($g - L *%L b@4@7@z,4;R =$z V S t..#k.k.u.]+S#k.a$.#t.o.b.k.v..+h.`@m c&R a@r#& D o#H D & & B@U.7@<@f p.c&0.|>w.*.*.;.Y@h.k.S#)+%+W,()Z@k ($g q#2@q#<&E D D L L r#E*C A ~+k n @.U g.#!F.J.U#H.Y#U# #b.` W k '.%~K&J%x t@}.B m W ` %.W.#!K.H.b &- $R.*.@. .p V W W w B$B$w &.U V-S R.F.y+V.h+g.3]x./ 4]                              ",
"                            T{<$U,t+G-8-$*t'r;q+};}~s+g#v.V.k.V.f+^+^++.+.o.W,B..$q$,*s+o$,*G',*T#U$z*H.D.Y@U &.` &. .&.&.` '.` d.'.'.@.O!z*K$K$z*G.b$b,C.H.Z#+$H.k#T@X@o #.J%:@R A ;$($t@m A*w :@($1$<@=$($t *./@/@W#+ D.O!]+]+t.k. # #k. #f#S#b.[.3.}.:@i-g L D L r#7.-$=$($1$-$R p.v U b.h#V.v. #V.9>v..+.+0>h.b.!+k..+;.p m f R 4@D & H $#H & F $#D 4@a@7.p.B r=B V [.T@[.U *.*+*.h#c.*+[.[.p }.($7.q#q#]@5]<&L 2@U.L L L /~A :@k n @.w.u.D.R.+$ $F. $K. #b.o W k R+B ($B ~+w J&}.}.W ` 4.g. $ $K.K.J.d$k#*.).).|>V !.}.w &~H+y 6.| H+j.F.I.y+V.u.(+~-: t,B{                              ",
"                            h,2{L!5&G-D#Q~-!/#p+8-$*(#V.]+V.u..+ #^+u.o.o.b..++ j+,*M$s+t+I&I&I&U$'+z*F.D.b.j.&.` &.). .#.o #.p ).o o S b z*h$K$K$S$C.m+K$.$.$7>Y#b c.|>'.Q*r=~+!*($p.c&B m j m <@<@($p.:@z k j.D.c$k#+ &% #D.7*]+k.v.k.&%v.f#S#c.`@o _@Y,-=C B@L L i a@<@($($($A 9.f #.[.g.%+ #]+&%v.u.k.b..+!+t.S#&%]+k.8*p A*($4+C D 0### = =]#H ]#D m@U.E%;$f ;$c&#.*+Y@;.U *+;.c.Z!b.*.)+b.p !.R a@g a@i E*a@U.R >$L L m@|@A .>l n ^.^.t.+ ^~E-F.U#H.k#+ c.Z@X v k m ($i-t@j t@}.j W ` &.g.H. $ $l#J. $F.[.p x,` !.V H+j j w =;^.^.x.+.7-I.|+V.]+h.r.^ q.g{                              ",
"                            e=I>q+Y'k+D#C%<;/#p+J.G-t+R.]+h+]+g.u.g.t.Y@k.^+.+R.:.r+,*M$G',*s+I&p+}$.$d$+ o.;.).` &...&.p |>u 3.p o o T  $G.o+z*z*C.m+z*G..$8-/%#*K.]+3.X@Q*w R I%R ($:@~+t@t 0.($R :@f <@z '.*.v.W#D.+  #v.v.W#&%c.v.f)+ W#B. #%+[.).z#<'R |@E D D L 2@>$R =$R 4+R ~+l S .+]+ #O!/@g#v.c.c.^+9>k.v. #X#v.c.%.B f R a@D $#t$&$'$y% =y%F c@E q#!*!*i-B$o T@b.;.&.U j.b.t.k.*.*.*+Z@V x R g A 4@- <&7.>+2@]#E m@2@K ~+!.#.).&.E.V.+  $K.+$+$g*v..+&.V v k m =$w K&B :@A-A*k o ).o.t!d$u%A)J.:.k#;.&.o V j =.}.H+m z x ^.4.H+1+7-R.D.V.k.j.T.p;U=c'                              ",
"                            6]r,U,5&C%D-o+-!-!I&H.o+0)I.O!V.]+t.o.c.;.g.c.c.]+D.7>Y&-)p$j)++I&I&T#G.f$K.V.g.j.%.).@.n o '. .'.Z ` ` |>j.K.T$K$K$G.K$$$h$K$#$_&H.U#f)h#o n '.z#-$>$-$R r=J&6*m _@:@:@;$9.j,B R+c. #k.k.v.k.!+.#k. #!+k. # #]+k.b.b.[.` m B ($g r#H M@L ]@a@A -$($A !*U&m %.g.)+]+k.V..+f#k.k. #v.t.t.7*D. #c.].0.i-R g L y%t$H@t$,$y%7#*%B@L a@($($B W&Z *.c.W,;.j.;.*.c.h#[.U@8*p R+r=1$-$E%2@D - - +#<&L *%<&U.|@~+'...p ;.]++ b +$/%H. $k#.+t. .'.k v j t@:@r=t@w B j '.` ).u.K.F.d$Y# $J.b t.x,` V u j -~H+y 2-w &.| 7](+F.k#Q.V.^++.2-/ t,8]                              ",
"                            L{9]G-q+l+i,o+=)t'$*K.o+0)I.D.i#v.h+o.g.o.o.[.Y@]+R..$T#M$p$I&I&r+o$r+K$m+J.u.c.;.j. .m.p o ` ^@#.p p U@3.j.k#U$U$K$G.z*C!z*G..$H.H.c$B.W,#.X '.6*($S+g E%K&B j B m B p.($=$9.:@X R@ # #7* #]++ =']+k.c.c.k.X#&%k.u.)+p '.m B f R <&]#]#b@2@}@R ;$z r=f B !.%..+c.v.9>v.k.a$]+v.S#t.b.v.+ V. #c.p !.i-I%q#[&o###I &$I  =H G E <&1@R U&J&m X *.%+t.t.*.;.c.!+Y@T@;.*+|>j U&($9.g b@t$O)D & L L L 0]a@g T.W |>).U g.+ F.J.s) $g*F.u.b.o #.t !.w r=a;z ~+t@m V n 1.#.^+b k#F.K.K.&-l#;.^.` Z !.}.j j w t@m S $.a]g.R.I.h+V.^+| 2-=.r.b]                              ",
"                            4]}+o*B-v+D#Q@<;t'r+E-m+Z)F.g+V.Q.]+t.o.h.o.h.o..+g##$I&0)I&M$T#%'o$I&}~m+K.h+*+h.j.&.&.&.).` '.'.&.V@%.@.r H.h$h$o+G.K$m+o+K$m+C.C.U#R.b.o  .k }.g K R =$:@m J&:@t@J%t@f ($<@z Z t.b b R.B. #D.]+ # #v.k.k.]+ #k.k.t.S p _@6*:@g L F y%D 2@|@I,($:@t@:@B V i.o.t.t.&%+ v.i#]+]+u.g.v.+ D.+ ]+b.` }.J%R |@L F H I I u#,$####]#i a@9.:@B m X *.c.t.c.b..+Y@c.t.o.j.`@q }.($($A a@E*H 1@- i a@G#2@a@K K p.V n ).;..+v.R.K.7-K.K.F.v.*.` #.W W B t@p.9.c&J&j W #.).).]+U# $ $U#U#U#R.;.6.p #.j !.j j c&z w ^.S B$t.|+L.I.C~g+$.I+3>, c]                              ",
"                            d]5-L!q+G-8-m+%*t'I&J.m+(#k#D.R.+ /@v..+;.o.o.b.v.D..$r+(#M$o$,*r+o$p+C%'+K.P.(+h.S @.).&.p ^@#.'. .].q ).j.F.j$I&h$K$o+U$l'$$z*C.Z#U#l#%+|>O,^@k ($R !*=$c&A*w B 6*J%:@i-:@($:@#.!+l#K.W#]+ #]+D. #S#k.%+7*.#7*f#f#R@@.` z#w :@R ]@D H D b@4@A :@:@K&z B j S t.v.&%v.W#D..+S# #a$D.S#v. #v.c.T@).k ;$R 7.L ]#H I J n#n# =&$y%E*2@;$c&%~}.'.T@c.t.k.Y@*+*+.#c.*.;.`@o }.i-A K a@<&D i 1@Z~i E ]@]@g >$p.=.'.p *..+v.c$K.F. $K.R.D.%+|>X m !.%~:@!-p.r=z !.!._;s,|>a$K.U#E-d$U#_&(%Y@^@` u v !.j j B ~+}.^.6.w W.7-^~V.z+g+5~r.d.e]f]                              ",
"                            g{}+v+B-C%8-G._'q@,*J.j+Z)&-V.V.k#k#.+t.;.b.(++..+g*+$p+M$M$r+o$T#I&l$$*#$k#D.c.;.2.%.q ).` 3.V W '.p %.T b.+$U$K$G.K$K$G.z*z*.$f$Z#+$b R@n X Z k 9.u~R R K&B t@U&m B :@i-=$K :@~.!+b b + D.R./@+ /@W#B. #v.c.k.f#t.W,;.o :@f :@4+]@E*M@+#L <&R :@B r=p.f J&@.c.c.a$h+ #k. #&%t.]+u.%+]+]+%+b.b.%.v !*K ]@D y%,$n#n#b+I I ,$[&E*q#R r=B B o [.S#Y@k.[.j.*.*.*.j.[.T R*k p.:@!*C r#]#E E*b@i D - 1@>+4+z !.n ].Y@D.v.b k#l#J.U#k#h#c.o '.k !.z !-f f r=t@}.!._;n @..+ $K.v%U#J.K./@o.n  .#.W k H+B B ~+t@ .j.H+k.R.|+V.g#v~s.3]$.=+g]                              ",
"                            h]5-q+B-^#+$n+<;F'Y'J.m+Z)E-v./@R.k#9>^+j.h.g.o.t.R.+$Y&s+p$,*I&I&M$I&$*z*d$D.c.h.*+[.@.Z@#.).` V W ` m.&.*.K.p+K$U$z*K$K$l'z*.$z*+$Z#c$o.p X X k .>R 1$p.($c&J%($:@J%B ($<@X,;$~.*. # #v.k. #/@W#D.D.&%W,)+Y@c..#b.b.[.` z B :@R 7.- L L 7.a@R p.:@B$B B k 2.*.t.k.]+D.D..+t.]+]+b..+!+n~&%.+*.m.k A 7.L & ]#&$u#J s#####]#*%i g R x B 0.` [.*.o.o.*.*.o.b.h#c.*.[.n W :@:@A >$c@H & D 2@2@b@<&g K R ~+}.#.).b.V.v.k#k#b +$K. # #*.).n k V c&~+~+x B %~k !.v #.^.u.U#J.H.K.&- $f)j.` ` #.!.k z#B c&p.w $.^.t,%+R.7-Q.V.v~(.3]| @+5!                              ",
"                            i]i+q+G'v+8-m+$'t',*H.n+j!H.]+R.F.k#v.u.h.%+Y@;.g.R.Z#T#p$,*,*,*I&N$I&7)$$H.+ c.u.o.j.%.p n &. .#.'.Z ` p *+U#W$T#U$$*G.$$z*G.C.Q@d&C.K.m#p n v v J%($R R p.K&K&:@f :@r=R R A :@Q*;./@ #+ ]+ #k.k.&% #v.g.%+Y@c.c.c.b.[.#.t@0.t@($A;2@2@a@a@C ($p.0.}.t@B$}.p y*c.k.W#+  #.+v.v.]+v.h#v.]+v..#[. .m ($g ]@E [&7###D$s#{#@#D L 2@|@R p.K&}.o [.Y@b.*.(+b.h#c.k.*.j.%.&.o :@=$}@2@L D D E*E*G +#b@E%|@R ($m n.x,c.v.+ R.b R.&-b g#v.o.p '._;k B R r=i-w H+k k X n.S V.H.+$J.K.H.c$+ *.|>3.#.!.'.w w t,z j &.U H+.+I.I.Q.g+(+..y r j]k]                              ",
"                            6'|)q+G'v+:.P+$'w)M$:.8-7'8-V.z+k#K.V.]+t.!+b.;.g.O!H.T#0)M$p$o$,*,*j)})K$H.D.t.c.*.j.&.&.p ` %.` #.#.p p *. $T#T#$*h$h$z*#$z*.$f$Z#U#R.%+D,p ^@'.B <@H%($($~+K&B :@U&J%($A =$:@W j. #B.D.I.W#&%v.v. #k.%+!+R@R@c.c.R@U  .c&0.B U&K L 2@4@4@a@A U&c&m w w j &.*.c.t..+]+ #D.]+ #&%]+h#S#k.]+!+8*&.`*U&R g b@>@I l]-#{*{# =D - q#U.E%t@r=}.Z Y@c.)+;.[.T j.*.*.T@8*%.%.o }.~+E%a@]@B@m@L L $#D 2@R A ($r=c,u o b.D.R.g*k# $k# $k#.+j.|>'.'.k r=i-w A t@}.c,A*W #.j. #H.H.s) $H.b + |$o ` #.'.j t H+w z j &.U j k.P.O&g+g+(+..~-^.{                                 ",
"                            H=r }$G'q+:.j+$'c;(#P+J.Z)+$V.Q.K.F.u..+t.k.;.b.o.D.+$}){@-){@q$I&,*j$j$T#Z#h+.+o.N.[.p ).6. .).n p ` ).S T b U$p+j$h$K$#$K$K$:.+$.$U#b k.U |>Z ~.w U&g R ($z z J%i-R i-J%p.:@f Q*o. #(% #R. # #H~k.B.v.c.!+T'c.W,c.2.%.o B :@:@<@|@2@2@a@a@g R :@w :@;$f l &.Y@c.v.i#D./@f)+ S#S#v.S#v.k.v.k.*.@.B 9.4+|@6@D H I x%M&@#M@h <&2@6@R ~+~+z#o Y@Y@T@b.[.o.c.)+[.T@[.*+[.n m p.g g z%6@i 2@m@E*F *%}@:@p.6*A*X@&.b.]+L.k# $J.H.K.+ c.j.n '.'.!.c&U&c&t@x K&v !.V n j.9>s)+$ $&- $J.+ r ` ` Z '.j }.m r=&~j m.+.w g#D.I.Q.h+o.*!I+$.r.                                ",
"                            m]F+o+G'q+:.j+W'c;++n+i,p$6-V.V.7-F.]+g.g.b.o.b.c. #Z#T#p$-)-)M$I&++l!r+K$Z#+ c.o.h.[.@.` @.). .Z o q o p U b $*o$I&o$p+o+$$K$o+z*C.C.b c.[.p ` '.B :@A ~+U&t@J%J%:@;$r=6*~+:@c&|.%+D.D.W# # #D.&%v.V.+ k.t.*.)+R@b.*.S '.m c&f K a@<&<&>$>+R ($~+B B z c&v %.*.)+]+]++ ]+t.]+k.]+S#S#]+.#v.S#8*n z 4+a@]@L L E ##,$,$##H D 2@]@U.R :@p.r=o o.g.g.t.c.Y@Y@*.8**.*+%.@.o m 9.a@7.a@- E*2@- m@*%- g ($~+w j X ).Y@v.R.F.J.K. $K.R.g._,p V R+j t@:@:@~+a;m n]j W ).+.h+s)H.E-J. $b  #_,1.n '.#.t }.}.t@w j ^.+.]~V.V.^~V.V.b./.B$q t,                                ",
"                            b{1.G-G'q+.$i,-)z.p$.$:.M$j+z+Q.I.P..+g.o.*.;.o.)+V.Z#$*-)p$-)p$p$M$q$T#G.H.I.^+;.o.o.+.S p p o #.k o o  .S R.o+7)j$p+h$e;G.U$$$z*C./%R.t.[.%.3.n J&:@f 9.($w B B }.B }.w c&t@w V g.+ D. #B.W#&%k. #D.D.k..+.+ #h#.+%+%.'._@z#r=X,7@a@<&a@u~A A i-:@:@<@z k U *.b.k. #l#S#v. #v. #a$k.k.k.7*.#*+|>J&($C U.& $###,$##,$o]y%[&D 2@a@g z p.m o *.o.t.k.W,T@U ;.[.U [.U [.|>m ($g a@a@U.L L L m@q#2@|@($f w W n U .+v.V.I. $ $ $H.v.b.8*#.k ~.'.B :@:@;$r=(;(;J&v q U D.C.s)E- $ $k# #Z@#.n o #.!.0.-~c&w !.@.^.%;Q.V.I.V.g+g./.t,q W                                 ",
"                            k]/ ^#})q+P+r,0)t'p$m+p]t+z*u.V.V.]+g.g.t.t.;.N.M.='Z#p+u+B'u+M$,*N$o$r+$*.$J..+*.;.;.U [.@.&.R*V Z ^@o p [./@$*r+o$T#p+U$K$8>z*o+C.H.R.t.2.3.^@X 6*J%p.:@f U&:@z K&:@B c&J%B A*n m{ #v. #D. #v. #f) # #V.]+k.!+h#k.T@ .k A*}.c&k,a@b@D E a@!*!-:@&~($4+p.k %.o.b.]+ #D..+.+v..+.+a$k.v. #k.o.%.'.J&($g 7.D p#t$,$7#y%y%]#D [&L U.=$:@w '.X [.[.*.c.c.c.b.*.*.*.;.*.[.@.!.;$7@4@4@4@m@D D L c@a@g 9.f J&k o J>o.v./@k# $ $K.F.t.b.*+X k '.o t@p.t@:@~+m j m X ).U + 6-_&J.d$J.R.+ @.u #.n V m w }.-~w =.@.@.x.V.+ L.9>h+t)/.x.f.`                                 ",
"                            ${_ ^#G'U,n+:.-)r$`'7>.$t+m+h+u.+ .+b.b.m{c.b.N.*.q]H.p+{@`'-)N$P$o$T#T#$*.$k#='j.o.o.@.%.$.%.` '.#.p m.%.;./@p+j$o$7)K$h$K$z*z*T$G.B!K.c.%.p t;'.z#B :@1$p.p.B K&t@~+f J%B :@B X@g.v.V# #+  #S#k.]+g#v.k.k..+t.W,c.[.p v A*t :@E%2@]###r#7@9.~+U&m c&;$:@l p [.c. #]+7*k.]+S#v.f#t.c.t.k.%+*.*.^@m ($E%E%]@D H t$0#F F *%+#y%D g =$i-J&~.|>0>*.*.Z!.+k.c.c.c.h#U~y*%.X B -$q#2@- 7.q#$#E*L D q#<@:@z w '.p Z@c.v.I.R. $Y#J.k# #!+8*'.~.|>'.w t@K&r=z w m !.X ).[.K.+$s)d$J. $k#+ p n o  .'.B w }.w }.!.&.&.j V.V.Q.E.u.+.=.2-+.s.                                ",
"                            r]]~C,G'})k+8-t+c;Z)7>n+,*m++ z++ ^+b.1 o.o.(+h.b.]+#!$*M${+{+++++-)8'r+7)j+K.D.b.N.*.U S ^.S @.#.#.` %.T *./@$*q$M$T#I&7)$*$$G.G.o+.$H.%+%.` ).'.m c&;$f :@:@B c&z ($f :@:@:@t@Z k.R.R. #R.+ D. # #v.+  #v.t~c.b.*.[.3.Q*t S~z K G#]#]#r#K ($;$:@B K&p.:@m &.b.k.]+B.v.S#.+.+v.k.^+g.t.]+v.b.U '.t p.4+R a@L E*H & H D *%- E*u*6@p.i-K&'.@.b.8*[.*.!+.+c..+Y@.#c.[.%.Z i-!*<&2@E L m@D 1@L <&C 4+~+z }.v p @.c.a$D.L.U#K. $u%B.k.;.).#.R+k m z#f x m m W !.n ).j.K.s)Y#Z#J.K.k#]+` V |>&.n B t@%~z A-_;U q H+y+V.I.g..+^./ 2-+.|                                 ",
"                            s]x.(,|]B-m++$G'q@7'k+D#(#G.O!D.R.t.!+b.+.U *.4.o.V.J.p+-)-)+*Z)-)M$o$r+})m+K.O!h.o.t.;.@.U T U x,~.o p U s{b o+q$M$o$o$})h$$$z*o+C..$F.c.V@%.p '.z#6*K&r=:@:@m 6*c&f :@f f J&}.n %+K.g*R.g*+ + B./@t%R.B.k.]+S#c.%+T p k k A*:@4+2@D E*U.a@4+;$~+r=r=A ($l m.o.c.v. #!+]+k.]+S# #c.c.k.&%k.c.S o k :@R #-a@i D ##t$F L q#a@7.U.>+z w J&V %.*.[.j.*.b.*.c.*.;.%+R@%.p '.:@;$4@- E*L i - 1@a@C |@R x z w V ).@.;.u.+ P.K.H.K. $B..+[.R*#.k W B t@i-w k H+m !.o n +.k#H.H.:.s)H.K.t.1.#.n ).` j B J&z H+u S ).w V.D.I.u.t.q ^ H+1 V=                                ",
"                            t]t,k+G'B-F-:.G'w)7'P+J.t+'+I.V.+ u..+k.;.;.[.;.h.!+U#U$u+u+u+u+u+M$I&p+p+b,K.I.b.[.*.;.S &.@.j.`@n o o Z@o.u]h$o$o$T#q+p+K$e;m+#$G.+$l#%+V@p  .v t 6*J%r=r=6*z#l :@U&($($:@W~_@` )+v%K. $K.l#+ k#+  #v.v.&%h#7*k.%+j.Z@K>W j J%A 2@L - a@E%-$($($;$;$<@f k @.*.b. #l#k.Z!k.S#v.v. #]+k.W#.+c.;.&.W 4)=$4+4@E*H t$H E*q#a@R <@($($~+J%B '.J>;.;.*.U o.8*c.*.;.c.R@S p R+r=($>$- D *%2@L U.U.a@C R z z H+s ).Z@b.S#W#b K. $k#L.D.]+[.o '.~.t J&i-J%B m J&!.W ` 1.0> $+$H.7>+$J.K.k. .V '.o '.w z }.:@B W %.J>j  #D.P.g.u.q /.H++.X.                                ",
"                            v]( '+B-G'k+6-o$q@7'7>8-,*z*R.V.+ I.u.t.o.[.o.[.*.h+N!K$p${@u+0)o$p$o$T#h$o+K.V.b.8*;.;.r m.%.i.j.U %.[.m.;./@$*j$j$p+$*G.T$K$G.G.G.#$Y#h#p 3.n a.j 6*:@J%K&K&B 6*B -=z K&t@B m  ..+K.v%B.W# # #]+/@ #k. #]+f#v.S#]+*.%.X@n m :@($K a@a@E%<@g g ;$K&A ($B k p ;.)+7*/@9>S#D.S#.+.+t.c.%+&% #k.c.`@n _@:@K a@4@L D *%L 2@1@g !*1$1$t@J%:@W p ;.j.%.U ;.[.8*R@W,c.c.*.`@o m ($}@2@+#- m@C 6@a@/;2@E%B m m X ).@..+&%R.K.K.K.K.K.W#c.p '.W l t B :@B :@B k '.n {.o 8*u%H./%.$:.U#k#o.p !.V '.W z m }.~+w !.[.Z W + + Q.t.g.q B+J,r N.                                ",
"                            w]x]m+B-G'k+D#d'w)j!6-H.M$o+k#u.D.I.v.g+%+U ;.;.h.]+K.K$++-)u+-)s+,*T#r+K$m+H.+ t.k.;.;.j.q Z@V@S S @.2.%.[./@j$I&I&j)p+$*U$U$h$K$z*C.U#c.p p ` R+W t m W&B B c&B r=:@:@f :@:@2&X Y@k#b + D.v./@ #S#]+]+&%t..+S# #%+8*])X !.t :@:@:@9.I%E%R I%g k,:@~+f 4)V %.R@c..+B. #v.V.D.]+u.t.%+B.W#v.g.*.&.V m ($|@U.a@L F E*m@r#i I%4+R 9.t@:@B k %.Y@;.j.*.b.b.c.c.R@b.R@T@])|>0.($I%4@i U.q#C }@4@2@>$i-m m m n q 2.b. #R.b  $d$J.U#/@)+S '.V k k c&r=B B t@'.'.n n ).o.J.+$_&:.Y#H.D.b.1.W ~.'.k t@}.:@c&B$u t)n _;I.I.g#u.g.q 5+/.f.h+                                ",
"                            y][ k+B-Y'o+n+r+w)7'.$&-s+z*I.9>v.D. #g.)+T o.*.c.g+8-K$M$u++*{@M$z]{@j)h$m+P D.g.o.j.U [.O.2.%.[.U %.).%.[.b h$I&l$I&r+T#p+T#U$K$$$#$H.k.%.`@ .|.m m m J%B W&:@w B K&K&:@U&f B '.R@A)U#F.R.K.+ + + /@ #S# # #S#+ k.8*].~.V z#<'H%<@4+|@g R -$C |@K <@R z '.U c.c..++ .+.+f)&%!+!+='k./@+ f)]+*.p W B 9.g a@a@- D G m@L m@C S+:@z :@B m '.2.b.*.b.o.c.8*R@Y@c.k.W,*.2.3.k f ($A 7@k~a@C g E%7.4+r=V !.!.n @.[.b.]++ H.d&Z# $+$ $k.T s,k !.=.t@B r=}.t V X '.).o M.s) $ $H.U# $+ %+|>!.u V o,B J&a;t@w V +.u =.+ I.g#t.v~).t,/.*!8-                                ",
"                            A][ I>L!Y'k+i,$*t'u+m+J.t+C%I.^+ #I.]+9>c.S S h.b.h+ $o+-)M$p$p$8',*&!j)p+m+_&v.o.1;T ;.U S Z@%.[.S %.U 2.;.K.U$I&l!T#p+I&Y&T$U$$$G.C.H. #m.p 3.'.B ($~+f ;$U&p.:@J&B B m J%B c,'.1;/@b K.g*b R.D.W#f) #v..+]+k..+.#[.p Z _@J&($=$R S+a@C 7@E%R >+9.=$=$B m 2.o..+D. #v.+ D.S#k.B]&%v.g# # #.+0>).~.z i-E%2@U.*%]#H D - a@R i;:@K&:@:@t o [..+.+o.j.*.*.*.*.o.b.b.8*%.).m :@S+7@]@L - q#g I%|@!*K&W V-t '.Z@+.b.f#k#J.s)s) $Z#k#t.8*#.k k m ~+U&B }.m !.!.'.u #.g.J.+$7>s)U#b /@.+` c,V V j t@}.!-:@m e.;.'.=.I.P.t%h.1 #.B+[ J,o+                                ",
"                              : n+q+G'Q@v)$*c;%*m+F.G'}$g#.+]++ k..+g.o.%.+.R@+ K.G.s+{+u+u+M$0)I&o$p+z* $D.c.b.[.;.[.&.).@.%.S O.8*T [.R.h$c*k$l!h$p+p+U$e;K$G.Z#Y#v.].3.^@R+6*($($1&;$($($J%}.B B z#0.B l |.h.R./@b /@K.R. #D.v. #k.]+B. #B..+U ^@Q*!.}.:@;$p.-$}@-$K a@S+;$:@:@f w #.Z@*.R@D.v.v.+ R.(% #S#k.v. #D. #v.c.%.#.z R E%] ; - ]#H E*L Z~R z j 6*K&r=}.])%+h#b.T@)+g.*.c.b.Y@c.c.[.U 3.'.9.}@a@6@2@<&2@a@U.K ~+m B$B$w o S j.b..+F.U#J. $k#H.l#b.w.d.n V W t r=m W m H+!.s u p )+K.C.U)H.+$g*l#h#Z u V W 0.B$r=:@B t@u +.d.#.^~+ P.1 g.1.*!x.^ q$                                ",
"                              -{I>%'D)8>n+q+['=)|;D#r+$*F.D.g++ u.v.k.c.N.*+b.P.F.o+M$u+u+z]M$,*,*I&T#n+F.P.^+*.1;Y@j.m.q &.%.U +.[.[.S R.h$I&j$j$n$T#p+U$$$o+F!G.d& #T p o n@m :@:@U&;$~+:@c&c&t@t@B B 0.j '.c.K.@$K.k#b /@+ R./@ # #k.S#B.t~W.%.^@W w c&i-R R g g 7.K 7.R 1$;$c&($t@#.S Y@t.D.+ v.i#D.]+u.c.t..+v.v.D.v.k.*+|>t@A g |@2@D & D ]#*%]@p.}.t :@i-J&m o c.0!b.t..+*.;.c.c.o.c.c.j.S ` m :@>$U.q#a@U.a@1@S=U.i-B t@J&j n ^.U b.]+R.d$ $ $ $Z#+ Y@[.` n u W k J&J&!.!.t k {.&.).]+ $+$d&s)+$ $7-c.n '.'.W }.t@t@y B ~+=.r u /.k#D.P.1 ^+d...( Y w%                                ",
"                              1+r,5&t+k+v)$*c;-!G-F.j)U$I.k#I.V.u.u.u.t.o.j.t.]+K.8>o$u+u+p$o$-)M$r+T#z*:.+ (+;.M.*.8*@.&.&.Z@%.S [.[.[.b p+p+q$j$n$T#T#n$$$K$G.z*m+l#[.%.3.k z#K&J%J%($c&J%t@B B w z m 0.!.o u.U#Z#b b K.k#R.g*b l#/@X#S#v.7*.+U o W -~J&i-E%>$g g >$4+K ($~+($($:@z#n [.t.a$&%D.+ .+u.]+]+]+u.t.]+&%k.]+c.[.o m p.R /~- G E E F D <&($B 5*:@:@}.}.#.*.k.%+v.Y@*.T@.+!+k.Z!%+U `@Z@k J&I%5)2@<&U.g >$A;|@($w %~A-j &.@.+.b. #F. $+$ $U#+$L.g.*.p #.V c,!.%~t k w t _@#.A.` v. $:.+$+$+$u%b g.` Z V u }.w x t@~+a;u +.=.1.g#+ D.g.1 /.(.( J+*)                                ",
"                              E.r,%'.'^#n+C%/#d)K$K.r+k!R. #+ R.u.g.t.b.c.0>t.u.l#C.-)0)-)M$M$-)p$p+r+b, $/@u.o.o.o.;.Z@p @.p &.Z@[.2.;.K.T#T#U$T#T#T#p+T$o+K$G.C.:./@U@%.X V m 1>:@:@:@:@:@B J%}.t@r=}.k !.o b.#*/% $c$K.K.b B.g*/@/@/@f)D. #b.>~X k B :@-$4+g K !*-$E%A ~+~+p.i-r=!.k m.b..+k.X#+ + + /@B.]+u.%+.+ #S# #t.;.o _@($!*a@2@m@i D H F q#9.B }.:@r=d-t |>c.H~v..+c..+T'c..#%+c.%+U@%.` V J%|@|@a@2@<&]@a@m@U.9.t@t@~+B$` Z@U b.O!g*J.c$c$U# $/@Y@j.).W !.m J&w J&t@}.V R+n |>).i# $C.+$7>H.u%k#o.` ~.#.u B ~+:@x ~+U&u +.j {.y+I.V.%+h.1.d.x.B+j%                                ",
"                              (+I>U,C]'+:.$*w)_'e;J.M$G'I.P.9{]+u..+%+Y@*.b..+W#I.z*M$7'++-)q$[),*r+r+G.+$D.t.Y@*.*.;.%.p &.p ).n ].%.T@/@j$q$N$p+T#T#o$h$G.#$K$z*+$+ U@`@ .Q*:@i-:@J%m w 0.B 6*B J&J&k l B a.c.+$f$Z#b R.g*B.+ b k#b d$/@ # #%+[.v z#%~B =$k,9.($($1&!*=$U&x z t@B k o T c.k.v.v.l#D. # # #.#t.t.]+h+.+Z!t.[.o }.:@~+g q#2@*%F c@L a@~+:@;$;$J%J&m n ;.S#%+t.b.t.c.c.k..+o.*+*.[.%.|.z 1$4+7.7.]@q#2@i a@~+($t@:@6*@.+.[.b.]+I.U#U#N!U# $F.o.S ` '.'.Y j W B t@m k V ).X p v.s)D]H.H.U# $ $b.&.X '.Q*B z p.w x ~+V j.!.^.+ I.Q.E.h.5~: 3>E+){                                ",
"                              y.r,L!.'o+n+q+-!s!o+E-G',*|+P.I.v.9>D.g.h.o.M.(+D.+ C.q$u+-)-)p$u+q$r+p+z*8-+ u.c.*.[.S %.&.%.[.p d.o p t.+ p+q$q$I&T#T#7)e;$$G.G.#$Z#I.*+%.m.|.m ~+:@B }.}.t 0.}.B z#B l k m |.*.k#Y#H.K.u%b R./@g*k#b b D.B.E].#[.|>k !.z#K&($($R !*-$($J%:@!-x c&&~k  .[.c..+I./@/@R.D.]+.+]+ #v. #D. #t..+j.'.B J%f R C 2@L *%*%E a@~+:@i-:@B }.0.#.8*v.k..+o.t.Y@b.k.k.]+k.*.c.[.X@t@($9.I%C ]@q#2@|@<@:@p.t@J&m ).@.+.c.v.I.U#H. $K.&-k#b.@.` '.W X k }.z B$!.!.'.p ` %.+  $+$+$:.K. $F.)+m.W '.Q*B :@i-t@:@p.'.j.V-+.I.R.V.A+h.q [ [ F#A!                                ",
"                              Q.J.}$(#F-i,U,/#<;C%&-G'Y'F.D.P.u.f+R. #(+)+b.W.D.R.z*M$7'B'p$p${@0)I&p+G.H.O!t.t.t.*.*.%.p &.%.&.^.p ` *.D.U$,*I&I&p+r+T#p+:'$$C!f$C.b T@*+%.X k w ~+J&0.m m z#m m 6*c&J&W !.o *.K..$.$ $b R.R.R./@k#k#v%b k#v.!+%.n W z#6*B ($p.<@g -$R ($p.!-~+:@z !.o *+.+v. #t% #D. # #W#H~+  # #+ ]+]+.+%.a.k m :@!*|@<&E*D E U.g c&f ~+~+($z t o *.]+&%v.t.t.;.b.7*&%t.!+o.*.S !.~+($R |@A;2@L 4@]@E%i-~+:@w k @.%.T g.k.b N!J.J.K.H.K.*.@.%.1.X@X '.m t@m l V-W n u ^. #J.U):.Z#+$F.b ^+ .'.u _;t@z t@z p.x #.+.V-h.I.I.z+^+t)d.: /.:;i]                                ",
"                              L.};v+s+G-j+U,/#s!o+F.%'q$t!P.I.v.]+k#]+b.c.b.o. #U#'+M$u+{+u+M$B'M$r+I&K$.$D..+%+c.(+o.%.p &.&.` @.@.^.T@v.G.l!I&,*p+}~p+K$C%z*b$C.+$7-R@[.%.V 6*:@;$:@B w z#w z#w 0.w B _@m R+s{/@H.+$/%c$R.+ b /@k#b b A)c$R. #U@3.'.z#B J&U&A A 4+R A p.($R ;$:@B !.n 8*t..+v.&%v.v.D.f) #v. #f) #D.+ v.c.U Q*j w ~+a@<&E*L E - <&2@!*($=$:@f 0.k ` *.k.k.v.S#c.c.c.k.%+%+c.T S p '.~+($($|@L m@L L 4@g ($:@J%t@v x,&.[.c.v.b J.H.s)U# $k#Z!S %.o n V l }.t@k t }.k '.V S k#s)U)+$+$H.b U#h.o V n '.t@B t@B :@:@W ;.w o.+ ^~V.W.j.u / [ F]G]                                ",
"                              w+n+*{C]o+z*p+)%)%$*U#T#M$F.7-J.D.]+/@V.g.*.b.t.]+K.z*&!7'{+M$u+M$M$o$})G.8-+ g.S#o.g.*.U@j.m.J>Z %.[.*+h.+ o+j$o$q$j$h$j$p+K$F!G.z*.$b ;.[.U '.0.:@:@U&:@l W l W 6*0.m j l l  .c.R.b b g*b b  #I.b R.R./@t%/@b  #[.|>o m B c&<@4+g r#a@g K -$4+f c&c&l #.[..+!+.+ #/@7*D.k#/@l# #D. #D. #a$;.V@c,0.w r=E%6@c@*%E *%F i |@A !*-=z !.k p o.k. #S#c.t.t.o.R@Y@;.*.;.h. .j A }@R a@/;- E*2@a@4@7@U&~+B$k q @.;.W.]+k#H.Y# $U#J.+ b.U@[.o n |>!.B J%K&m =.R+X '.S b :.:.U#:.H.H.7-o.n V ~.j }.}.w z x x u j.J+u.I.k#V.E.g.u *!: U=H]                                ",
"                              (+n+U,I'k+n+U,G)s!}$J.r+s+7-7- $+ g++ v.o.(+b.t.D.K.K$q$u+p$-)Z)-)M$M$p+G.C.R..+.+j.j.;.S i.&.q o &.@.[.o.k.$$j$I&Y&j$h$l!j$$*K$#$z*f$b U T 2. .k w :@:@B m l !.!.J&c&J%c&t k %.)+7-H.J.K. $b R.U#c$b #*k#b b b  #2.p o l z ;$-$-$; m@4@g g p.t@B :@z j ` y*!+v.]+l#/@/@+ D.D.+ V.V. #/@ #7*c.U@k :@K&~+S+U.L E*b@E L 2@|@R ($U&:@z#t o *+.+.+.+o.t.*+y**+Y@;.b.*.8*).t R 4@R 7@- D E q#a@a@g f f y l n ].j.o.i#k#H.H.K.F.R./@t.U &.^@o '.!.B :@B j W n '.n [.k#J.H.H.+$&-F.K.m#o / '.'.0.w }.:@B$r.n j.t,A+y+R.V.W.o.3>!{J,C+I]                                ",
"                              |)r,L!I'G-j+G-`)_'$*&-})s+K.I.K.D.u.V.V.W..+o..+V.&-$*Z)u+u+u+P$M$M$M$r+z*m+P.k.t.;.*.h.[.*.&.).p S S %.;.u.C.})j$q$T#h$T#I&C%o+G.z*C!U#8*S S ).'.k k c&B 0.m m 0.m J&t@:@w !.p !+K.U#K. $J. $V#g*R.A)g*b K./@#!+ b.%.3.l J&K&R A S+2@1@}@>$R !-~+:@~+w Z *.]+R./@K.g*A)R.R.(%g*/@D.D.+ + D.b.2.~.B z k,7.2@E E**%E D ]@7@R 1$<@z w k o *.&%]+!+*.!+;.*.R@*.%+k.Z!W,S j 4+>$g a@2@*%/;] g g 4+($p.c&!.n O.j.b. #k#N!K.F.u% $k#.+2.o n k !.t }.:@t@H+!.#.V #.U I. $8-J.:.K.b I.b.o u W !.z B z z B$t@n S H+u.B.k#V.u.w+/ : U*' J]                                ",
"                              &-i,v+G'G-n+C%`))%r+F.q+C]J.R.U#+ v.v.u..+o.h.W.+ K.U$0){@u+u+M$0)M$,*p+b,z*P.!+k.c.h.j.*+*.p  .].p @.U b.k..$p+I&q$,*M$N$j$r+U$S$#$#$U#T %.%.p '.R+j ;$H%|~J&B 6*w J&&~c&m l @.t.b  $k#d$+$ $b b l#K.b /@l#c$v%g*c.2.o R+B :@R S+<@g 4@g A =$($p.:@~+}.o [.]+D. #/@R.b /@D.v.X# #V.S#D.k.%+*.U Q*:@p.9.1@L E*E D F <&U.R ($;$K&J&j k o *.7* #]+t.!+c.m#c.h#v.+ k.*.%.j ($u~a@4@0&- m@/~|@C A <@B z#!.` [.j.c.D.B.k#g* $Z# $k#.+%.o #.k v z#}.:@t@t '.'.k !.^.R.k#Y#+$K. $b + k.o '.#.W 6*B B$p.c&:@1.U A=v.g#I.P.Z!M.u d.[ F#                                  ",
"                              :.D#L!G'C%:.C%r;-!q+K.})I&u%I.&-R.V.D.i#!+(+o.t.g#H.U$`'u+{+u+-)++{@s+p+z*.$k#D.h#t.j.[.V@%.T m.U p p ].j. #$$p+I&Q$I&T#I&T#r+(~K$K$$$ $*+m.%.Z ~.R+A*z#U&:@w 0.0.k m m }.j l %.f#9*H. $ $U# $A)c$K.b v%U#g* $#*U#X#*.&.!.J&r=J%R g K w*-$R g -$6*B B j &.*.f# #V.+ V.R.f)W#S#+ /@(%+ D.9>k.c.[.X z#B ($7.1@2@m@D H L <&g <@B c&B w l ` t.v./@.+k.k.t.c.%+7*v.k..+b.S W 1$E%|@1@b@Z~a@7.]@|@i-($B m m o 2.j.!+]+g#U#U#/%.$+$R.b.[.V@o o #.j z#B j '.` X k '.j.b J.7>+$N!J.K.k#k.o Z V v 6*z B$=;y w q U H+V.R.L.I.g.(+/ F+f.)                                   ",
"                              %'};v+G'U,j+v+r;t'U,K.d'k!F.R.J.L.h+v. #g.;.o.u.V.`#:'u+u+u+`'p$(#,*q$}):'8-R. #c.*.[.;.6.$.%.A.@.m.`@m.U  #G.I&M$q$I&p+I&o$h$K$z*$$#$d$U [.Z@^@k !.m c&c&:@z#m !.m j B B z A* .f# $s)U#.$:.`#b U#v%U#R.b  $+$H.H.k.2. .W J&J&J%R >$g g 9.1$:@:@A*w c&w Z@W,k. #B./@W#+  # #v.+ l#/@R.+ /@7*.#[.|>k K&K 7.1@a@4@/;& D - g =$:@w J&`*t ).)+ # #.+k.k.]+t.f)/@v.!+!+Y@%.l p.g g 4@]@a@7.a@/~|@:@i-:@z !.n @.o.]+k.+ d$+$.$C! $I.k.W,p n ` |.~.c&B _@'.X@R+k |>;.b J.H.H. $s)K.k#g.o ` #.j w :@}.:@($B$).i.B$D.R.k#V.^+h.%;-{} J,                                  ",
"                              7'&-G-5&^#i,^#)%=)q+K.q+I&J.R.u%I.k#V.]+t.*+t.]++ &-Q@u+u+u++*u+`'u+s+p+K$z*F.]+t.)+j.+.*+S &.p p i.[.%.r R.$$,*0)M$q$I&o$p$I&G.d&$$$$U#j.&.%.o m '.X j w 0.m w t !.}.z J&w j n u.b Z# $ $U#H.K. $ $b R.k# $J. $ $c.Z@'.k w %~w =$S+|@I%=$z B z m 6*J&m ).g.k.v.+ /@R./@v. # #I.K.l#L.+ G!k.%+*.p v :@($7.6@]@- D D F E*g ($:@t@B }.W p b.B. #k.k.]+u..+v. # #+ v.K]%.j z-9.4+>$- 7.|@2@g 9.i-($z B !.n @.g.S#v.R.K.H.+$.$Z# $v.;.p o  .^@v B t R+n =.o '.` *+K.+$.$:.s)J.K.K..+1.n n V w t@6*z p.A-).+.H+P.g#k#V.]+1 %;!{5~q{                                  ",
"                              c;i+v+G'^#&-G-/#/#})P d's+P R.J./@P.v.u.t.o.t..+ #k#'+Z)0)M$B'{+u+0)o$p+:'G.K.V.t.o.[.U U Z@@.p L]m.%.S s{ #G.I&o$q$N$I&o$I&I&$*S$$$$$H.c.2.p ` '.v '.!.z#B A*B A*l m t@m m H+2.V.d$+$d$U# $J. $U# $K. $k#l#b c$Y#%+3.l m J%K&:@:@I%g R f t@6*B j }.B k @.t..+k. #/@k#D.W#f) #B./@7*B.+ + c.)+*.p t :@=$-$]@]@L D 0#H +#6@T=($J&c&:@V-|>S#/@ #Z!.+h#v. #S# #X#+  #)+U |.K&:@i-K 7.C a@q#S+I%A p.B B u 1.r h.t. #b U#:.m+S$Z#b v..#p o n o 0.J&k v !.c,'.'.o j.c$c$+$H.+$H.c$R.b.` '.#.W }.t@:@f p.=;q +.J+D.+ t!D..+o.5+*!5~-{                                  ",
"                              C#|)q+,*C%6-U,-!t'p+t!r+M$K.K.R.D.k.&%]+m#;.o.k. #g*G.M${+M${+{+u+M$q$p+K$o+J.D.h+t.b.8*[.*+%.].%.^@V@%.*.k#$$j$M$N$8'Y&o$k!p+}~h$C.z*b c.U@].~.v _@k k R+m A*_@k ~.t m m w 0.`@P.H.Z#@$U#+$Z#Z#Z#+$#*U# $d$U#`#H.)+o k H+:@m 6*J%($=$B j J&B c&0.k j k @.(+c..#v.+ /@K.D.X# # # #v.D./@B.h#b.*._~A*:@($R >$1@L D D & D q#7@=$K&B :@J&Z v.B.B.k.k.k.v..#7*7* #/@k.)+[.'.z i-U&R K |@a@6@R I%2>($J%B m #.x,j.c.W#K..$C.Z#M]H.K.X#S#@.).X n W l m '.v n n n q ;. $H.C.+$+$J.&-R.*.).'.k k w J&~+~+t@B$&.+.B$D.D.R.V.A+M.j 3>-{5~                                  ",
"                              f*|)q+I'G-8-U,)%t'%'&-$*,*J.k#R.I.V.h+]+b.*.)+]+ ##!o+{@u+-)[)0){+p$s+I&K$z*K.D.]+c.)+8*%.U T p q  .m.T o.I.$$o$M$j$N$I&o$r+j$:'p+h$#$b W,U@L]^@l m _@z#m w 4)m W v !.j m j k @.+ H. $K.U#H./%H.f$+$U#U#K.b #*R.W#o.Z t t c&z#:@K ($:@6*j k !.B w m m m &.c..+t.k.+ R.R.D.v.B.v.+ g#g*D.+ 7*R@U@|>j B p.A R 4@/;L D D <&a@-$p.B B K&k p %+v.v.k.W.k.v.='B.D.t%+ v..+S v B :@:@!*|@|@g -$g 4+A x ~+.>j n.q j.v./@F.H.:.Z#+$+$b /@Z!&.@.'.o v m 0.k j o o n q (+F.K..$Z#U)K.k#R.s{|>#.'._@0.B A :@t@M~q S y y++ k#V.y.h.}.3>s.5.                                  ",
"                              x&E.G-G'G-I>G-)%-!})&-G-(#&-7-t!I.]+u.W.g.;.c.]+O!7-#$u+-)-)[){@z]{+p$p+C%o++$ #&%.#h.U &.^.j.%.].].].%.h.t%z*r+I&o$p+Y&I&T#T#p+:'(~z*F.c.i.p ^@'.l w m B B m t ~.'.k j m k V %.u.d$N!K.Y#H.H.J.U)H.U# $u%b g*+  #8*3.v _@z#B :@=$1$~+t@w !.H+w 0.m }.k S c.k.t.k.D.R.b D.D. # #W#R.U#g*I.+ S#[.X _@J&z =$4+2@L 2@D E 2@7@g <@}.w B m o m#k.&%k.v.+ )*B./@+ l#k#l#t.%.W B B ~+1$7.7.I%a@U.>$=$9.9.t@t '.` [.u.V.u%H.J.8-C.H.U#/@Z!S ).R+|>t }.}.}.m '.o / n *. $F.m+7>s)_&K.+ t.` '.k }.j w i-t@z w @.&.A-I.+ |+z+]+U x.: -{L+                                  ",
"                              j&1 G-5&})};l+=)t'r+8-G-q$H.t%Q.k#D.v.^+!+N..+v.D.k#z*P$B'0)`'Z)-)u+o$7)}~K$/%D.]+t.j.[.U %.T @.p o ` S [./@$$Y&j$q$T#p+T#T#T#I&p+:'8>I.R@[.p o ~.Q*~.k j B c&m Q*W j B m j !.p ]+b N!R.K. $U#U#U# $ $J.U#c$b V#k.2.&.o '.m l w ($($($c&}.m w ~+0.!.!.W S ]+]+k.]+g#+ k#B.B.+ + W#k#b R.b A) #*.3.Q*j t@<@R i F b@E*E ]@g |@R J&c&0.t ].)+ #S#k.D. #v.&%R.v.l#k#/@c.Z@k 0.B =$C C a@a@2@4@>$K A B 0.}.#.A.[..++ b J.+$b,C._&A)B.*.^.o o 2.m A*m 6*j '.o ~.n b.U# $.$:.:. $k#7-t.` V !.j _@m p.x p.t@@.S j k#D.k#]+1 U j /.5~1                                   ",
"                              N]O]G-I'}):.C%t'-!r+J.K$M$H./@I.D.]+]+]+t.o..+ #D.I.o+u+u+u++*u+`'M$q$j$C%$$K.+ D.]+t.*.W,[.&.%.S ` &.;.j.l#l'r+o$p$o$j$o$j$j$h$U$j$S$A)b.`@x*o k t m B J&A*z#_@m t }.m k '.'.3.D.d$#*K. $K.U#d$ $c$ $c$K.R./@X#h#U@%.O,|>k l 6*f A p.:@(;0.B B m !.!.V 2..+ #7*k#+ + b b /@g*W#/@R.K.b  $ $D.*+).k m :@g 1@2@a@<&]@1@a@p.9.;$J&B t@t &.b.]+ #f#+ + +  #D.D.B.k#(%c.V@'.m B ($C |@g U.4@}@/~>+E%p.($}.o q S .+W#F./%.$g$.$ $ $+ b.Z@'.n %.m m B H+~.V n n @..+g*H.:.d&+$K.k#+ c.o #.k m }.!.z ~+Y,B$S @.H+k#g#+ V.g.h.W U*P]5                                   ",
"                              Q]K+x!R]r+6-e;/#w)r+J.G-Z):.k#R.P.h+D.t.t.1;.+]+D.R.z*-)z]-)+*-)[)p$M$M$C%o+H.R.+ k..+*.*+b.U S r &.` S j.k#U$k!p+L$M$0)r+Y&q$j$$$n$$$c$o.8*%.X B 0.A*A*}.l m V W m m m w m l Z D.&-H.d$H.U#+$d$U# $Y#g*K.b R. #.+T p p o '.k k f R p.=$B c&c&m j l t k @..+W#v.I.I.+  #+ k#k#/@+ /@b k#R.+ f#T o e.v B <@g E%7.2@a@|@R :@:@:@w :@:@t Z@N.v.W#k.k.v.v.!+a$v.D.k#R.*.A.k B f R I%K g a@U.7.6@C ($:@~+A-#.` U k./@ $Z#Z#Z#.$H.Y#b b.m.|.o ).k l 0.l R+v '.n p t.c$J.6-j+U) $k#D.o.&.1.~.}.w w J&:@=;x ^.).x.u%+ k#z+w++.H+_ ,+$=                                  ",
"                              R~S]G-I'G'r,|;/#q@I&J.k+u+B!I.V.P.v.D.]+b.o.t.)++ R.z*-){++*7'u+Z)-),*r+U$l'H.k#/@!+t.o.*+*.[.%.j.m.@.j.*.R.$$Y&r+M$o$o$I&j$o$T#p+n$U$l#[.[.m.k B :@m B }.W `*~.W l Y l !.0.m  .+ H./% $H.U#U#K.H.`# $ $d$U#k#B. #*.%.3.).Z v m ($=$S+K :@4)m m t k v m @.t.='V.D.7-b D.I.+ k#/@R.t!R./@W#O!k.*+@.|.X@}.=$K |@A;L - |@4+=$j,K&m m J&!.|>b.B.S#.+V.+ + D. #S#v.+ + b.%._@z ($S+|@U.U.a@7.4@]@/~($Y,~+}.V ).&.t.L.H.H.H.+$#$B! $+ *.&.` o n '.m z#Z v V X #. .i#u% $.$C.C.J.F.D.)+).n !.}.}.w B z r.x 4.1.H+F.+ R.u.(+V=t,D%[ I>                                  ",
"                              T]x]G-B-%':.|;=)q@G'J.o+-)+$I.I.+ ]+]+.+o.o.t.^+ #g*z*++[)-){+[)%*u+M$q$C%o++$P.+ ]+b.8*h;0>j.U 6.@.` S o.W#h$I&r+r+I&j$})o+$*j$U]U$f$b T U@V@k B J%m l 6*k !.m k !.!.l W k k &.]+ $H.Z#/%H.H.U#b v%H.U#U#U#b + S#Y@%.&. .n k m K&;$9.A c&m }.m A*j (;k |>*..++ K. $k#R.+ D.+ /@k#c$R.b l#R.k.)+].W W t@p.-$g U.m@]@a@g R !*:@6*B 0.}.).c.a$k.u..+k.a$ # #h# #f)7*R@%.k B r=R g a@a@i m@- - a@p.p.=;!.n ` ).!+k#K.H.Z#f$/%J.K.B..#2.` Z '.'.}.}.A*k W X '.s,t.F.J..$:.C.+$k#v.t.` '.!.}.J&0.:@z Y,z w.V)W k#v.D.9>g.+.B$J,V]d]                                  ",
"                              8~W]^#d'q+i,k+_'r$G'&-'+0)8-R.R.I.O!='.+c.c.t.k.P.R.b,0)O+u+7'{+{@u+P$q$U$f$K.+  #g.t.j.i.+.T T [.m.&.m.y*+ :'I&o$o$8'p+I&j$7)h$$*C.H./@T@%.`@_@B B K&0.k m k l k j t '.).o '.&. #U#Z#Z#Z#.$ $U#U# $`#U# $b K.g*v.;.@.%.p #.m B :@;$E%g y !.j B j k _@m o Y@h#v.R.b k#R./@D.g*b  $b /@b  $b  #c.2.'.l J%f g g g a@<&4@R ($:@:@z#H+w !.p .+S#v. #W# # #]+c.c.!+S#k.*.p m B ~+=$=$K a@L - E*i K =$p.t@j #.@.%.t.I.J..$.$b,8-+$U#/@='S &.Z ` H+m m j k V v o n t.F._&+$Z#.$H.k#+ k.#.#.m j j z z B t@x U 1.=.k#I.V.z+h.+.y [ %{X]                                  ",
"                              Y]%{C,R]q+I>'+)%w)r+J.'+-)+$R.I.V.P.u.9>g.b.o.u.+ /@8>-)u+-)7'3~j!p$p$I&h$f$U#+ D.k.o.U@j.[.U S S %.%.T [.B.$$j$o$l$I&7)I&I&T#$*$*K$#$b U@%.T o m :@B B _@m k A*v A*!.k W V W &..+ $C.:.+$7>8-H.&-H.Z#+$J.H. $k#X#o.%.@.@.Q*m :@:@R -$g t@Q*A*B k k }.j  .b.k.B. $K.K.I.k#R.D.k#c$R.W#b k#+ .+*.x,t J&:@9.A g g a@6@/~|@;$c&r.B$m t !.p 9>v.v.c.W.v.v.S#v. #+ v.k.c.p z#:@z#~+9.g a@2@<&m@U.K ($z r=w #.s,%..+I.u%Z#j+.$C. $H.R.b.@.%.X@#.k k m }.c,j !.1.o g.K.s)+$+$+$ $F.v.S#n n '.j V-=;z w z }.U ` V F.7-+ h+(++.r.[ C$|;                                  ",
"                              Z]`]C,I'B-P+k+)%q@G'J.k+-)s)F.L.P. #v.k.o.b.b.]+I.K.G.0){@3~{+u+u+0)-)Y&$*.$K.+ u.b.;.[.^.j.y*U m.%.%.U 1+&%G.r+,*N$@!o$j)j$T#h$h$U$o+b *+%.%.` J&t@($:@!.!.'.A*m l k k m V '.@.t.H.+$Z#Z#.$H.J.+$.$.$Z#d&Y#Y#c$+ c.m.p p k B i-:@A R R K&Q*j m m j j !.o j..+L.D.g*k#F.I./@k#k#K.g*K.R./@(%B.!+[.'.V k U&A 7.|@|@7.<&A;R :@:@%~W !.!.).o.7*k.t.v.]+v.v.k.t..+]+k.c.).m z f ~+z-|@a@|@|@a@|@A ~+B }.j ` p U .++ F.H.:.:.s)K.k#B.*.@.p p ~.P*A*B m m !.W ` ` g.u%J.C..$:.&-7-u.W.n o k m B z t@B$z B$S.1./. $I.+ 9>E.+.2-P]U*.'                                  ",
"                              )&X.^#B-B-k+m+<;w)j)D-P+`'+$7-L.c$V.u.]+t.o.M.b.D.g*m+M$u+3~{+7'+*M$I&r+p+.$K.D.D.t.*.T [.[.j.m.].Z@U %.*.]+S$j$I&o$I&I&T#I&j$n$p+p+#$R.*.T %.).6*:@z f }.z#k 0.c&k ~.l _@k '.m.(+V# $Z#Z#+$H.+$+$+$/%H.H.Y#H.H.b b.p ` o k r=~+ ^1$I%!*J%j j 2&m l m m o 1;.+ #/@K. $k#/@/@b F.K.b  $K.k#k# #o.U@X z#B ;$9.-$7.a@2@i |@R S+U&B m J&m ).*..+%+W.b..+a$.+.+S#W#k.k.;.).v t@p.z z-K a@a@6@K 4+9.p.y w =.n n @.g.F.&-H. $ $ $b c$k#*.&.p p k m J&B }.m t !.n {..+ $:.7>Z#.$H./@v.b.G~).W 0.B :@z t@:@t@U u d.k#R.g#]+g.x,B$} p!7'                                  ",
"                              G&O]C,.^B-P+P+$'t's+P .$-)H.b k#k#v.t.t.D.t.g.S#k#H.K${@u+{@{+u+{+u+p$I&o+m+7-O!D.m#)+s{T S 8*[.m.p %.[.*.&%#$j$z],*I&I&j$N$N$Y&U$$*G.g*)+U %.p k 0.&~J%j m k j B Q*Q*P*k ~.W t;t.7-H.U#H.Z#U#b U#d&.$U#H.U#+$U#b c.p o n '.m B c&($>$u~($w t@B k m w m Z T@k.v.b  $v%/@l#+ /@/@7-I.+ R.k#b  #%+%.o !.m :@($K >$R a@2@E%($t@w 0.w w k V@k.%+ #v.7*%+ #f)D. # #k..++.o ~.m z J%($=$K g >$-$|@A :@x B _@#.&.h.t.R.H./%Z#Z#U#u%H.R.1;&.m.3.k V m J%!.m V #.o )..+b :.H.Z#d&K.I./@*.).n k 6*j c&B$z r.H++.#.` k#+ + z+t.q B$-{+^{)                                  ",
"                              H&s~[+I'G'F-:.7'/#r+J.:.j!:.k#&-F./@v.%+]+&%k.]+R.K.h$-){@-){@++u+{+u+N$p+G./%D.v.Y@b.*.w.$.S %.p  .%.8**+&%$$q$q$,*o$q$@^p$o$T#$*U$G.b o.[.%.^@'.m 0.6*l t k }.w R+~.k k A*m o !+k#.$.$.$C.+$ $d$+$+$/%+$U#U#U# #k.Z@o #.!.m J&z R a@a@=$t@W&B w H+c&c&` [.!+]+b b R./@D.R.k#K.K.K.K.b b l#B..+j.3.o l J&:@g E%9.U.a@=$($z }.B B w k @.k..+]+u.v.V.I. #D.B./@i#.+[.).k B :@:@!*R ]@C g g C 9.f I,t@k #.&.U t./@c$_&H._&+$ $ $R.o.6.p ^@'.j J&w k k n.~.Z &.v._&H.H.+$+$K.u%v.g.q ).!.m }.y :@z !-}.;.#.q F.P.R.u.E...B$%{#^!'                                  ",
"                                5 $^I'd'F-n+`'-!G'J.8--)j+k#F.R.D.v.v.P. #.+&%R.K.U$`'u+z]z]p$p$u+,*M$p+z*N!D.]+*.b.h.S 2.j.j.&.@.@.T *.]+$$o$N$o$I&o$M$M$r+p+U$T#$$b *.j.`@m.^@|.k 0.W k k m m l }.m k '.o,]..+&-H.f$/%C..$+$ $/%K. $Z#+$U#K.D.c.S n 1.W m c&K&=$o;>$K ~+r=B z#B z 0.).*+.+/@k#g*I.R.R.b /@k#+ k# $#!Y#b  #%+j.p '.v m r=!-9.9.7.g 9.!*c&t@B z 0.c,@.%+&%v.v.D.P./@l#V#R.D.v.%+*.@.'.m U&a;9.g a@g C g A 9.i-:@z !.o U [..+(%Y#:.+$.$H.U#d$/@%+8*%.n '.!.!.K&t A*}.V-V &.u.+$J.+$C.+$H.F.k.;.n ` k z#m t@t@~+A H++.u ^.u%|+R.u.^+1.B$[ Z{T,                                  ",
"                                D-G{R]k!k+I>''t',*D#D#-)j+F.K.I.V.9>k.V.v.k.v.D.I.G.u+{!-)u+-)-)-)M$j)}~j++$V.W#b.[._,%.%.j.;.%.%.^.j.[..+.$I&I&o$M$M$q$o$p+k!T#h$e;u%R@[.2.%.` '.l m k '.X '.0.W m m R+'.'.].k.U#+$.$Z#C..$H.+$U#H.+$+$Z#U#H.l#%+j.p '.!.m t@K&c&R K R i-:@6*z#6*c&j ^@*..+D.b &-K. $k#X#R./@R.#!b /@b + .#c.[.V@X@V '.j z 9.=$7@g 9.($U&:@t@c&J&!.@..#k.%+k.]++ /@X#&%k. #]+c.W,Z@X 6*U&($=$g g g >$a@K 9.($c&z m q @.@.o.+ U# $U#.$Z# $/@v.Y@S %.o v t !.B t B V-!.Q*` v. $H.:.:.C.U#k#S#o.` n m B t@~+t@p.R k +.u S k#F.R.V.g.V H+[ C+%^                                  ",
"                                x+G{X)I'|;6-j!q),*8-H.`'m+u%g*R.I.S# #h+t.t.k.k#k#C.M$7'[)W'-)`'u+p$z]$*m++$R.]+k.)+T@@.U o.j.j.m.@.*+o.]+#$Q$M$I&,*r+p$q$T#T#T#U$$$ $.+j.&.^@Z A*B w k '.R+Q*j W ~.Q*'.X o p v.R..$/%+$U# $U#Y#U#U#U#H..$Z#v%R.h#[.Z ` k w z w J&($R 9.r=r=:@B B$m }.).%+k. #K.J.K.R.+ ]+k#d$&-K.k#/@k#l# #*+b.Y@S ` '.m f p.R C a@($:@:@J&6*B }._@o t.R@t.%+]+B.W#K.v.v.+ f)k.;.m.k B p.=$R =$K 4+>$R 9.($f S~}.W S &.S o.R.K.+$+$+$J. $k#a$g.[.).W R+P*t 0.}.t@m k '.p v.U#+$C.Z#.$J.P..+;.1.W j }.t,r=}.:@p.W ^.p;h.F.R.W#D.E./.x.!{&^*^                                  ",
"                                5-=^v+L!k+8-.{w).'H.H.7'm+H.F.I.k#V.]+^+(+b..+R.R..${@u+{+{+M$p$u+M$8'})m+J.R.u.]+Y@y*S 4.j.j.`@2.m.[.m#]++$p+N$r+s+r+,*N$p+U$}~h$G.U#c.[.[.()3.m c&:@B '.v _@k '.m _@m k Z ^@b.K./%.$z*C.H.H.+$J.+$U# $U#+$d$R.t.%.^@1.u j J&:@z ($g ($p.~+p.t@w y B ).Y@]+D.t!F.b b + v./@I.K.K.g*P.I.+  #m#*.8*S ` ~.m :@9.A U.g f f :@B$B }.%~!.p ]+v.t..+D./@/@k#/@ #+ D..+;.Z@_@t@~+z 1$($R 4+|@z-9.R p.B t@m p @.S c.R.F.J.H.H.J. $&-!+b.[.'.X '.Q*j j }.t@z }.W {.v.F.J.C.m++$K.k#k.h.#.k 0.0.}.B w z r.%;| =.t)F.K.I.V.E.=.5+g~Z{-^                                  ",
"                                9]d]v+})k+D#`'c;t+:.&-j!z*F.7-Q.D.u.]+u.t.*.t.h+t%m+p$u+u+{+M$-)P$o$s+})$$K.D.V.v.b.j.T o.;.U@T &.&.%.o.k.+$p+o$o$,*I&T#o$o$r+U$h$K$d$R@;.%.p o k 6*m k #.o V ~.V c,A*0.j ~.Z o./@H.C.z*.$U#H./%.$K.U#+$d&@$U#f))+%.o o n j t@:@B ~+I,j,p.t@:@}.H+t@=.&.o.^+ #k#K.U# $R.R.c$l# $+$ $l#+ 7- #b.8*2.&.` m B :@9.#-|@g K 4+~+t@z :@r=(;q ]+V..+S#v.+ + I.+ V.V.k.%+;.).j t@z p.S+($($A K !*9.A !*r=t@!.).&.S t.+  $B!j++$ $ $/@k.c.`@n n ~.~.}.J&w %~:@t V &.9>u%:.8>C.+$ $I.!+;.~.k B$}.J&B :@B$p.#.4.!.g.7-L.V.V.g+=.x.s.&^b!                                  ",
"                                r,=^v+d'L!D#-).%0)8-&-7'^#F.&-R.+ .+9>]+b.b.b.&%k#m+M${@p$u+8'-)u+P$t+p+U$8-I. #]+b.Z!j.*+*.U %.%.p @.%+k. $p+I&,*T#T#I&I&U$T#n$j$h$+$c.U@V@q o X A*z#l #.'.~.Z Q*k k o,m R+'.o.k#+$z*z*#$j+.$Z#+$U#+$+$Z#d&C.c$h#U 3.#.n W }.B :@A R c&;$}.K&z#m B !.p *+v.I.d$J.+$+$g*b v%b F.U#K.W# #/@]+c.*.@.p o k :@($R R g g R ($B V-%~t j }.).]+V.]+v. #R./@W#R. # # #k.c.3.t K&m ($A :@1$R 4+I%R 4+($:@z j X %.j.c.+  $+$.$s);^U#R.]+*.p '.V |.R+m 0.&~t@}.!.X q ]+u%+$+$m+D#K.D.u.[.'.m m B B w y x 9./ ^.}..+(%I.+ V.A+=.( !{>^,^                                  ",
"                                E~[+B-d'|;D#s+w)t+8-D-7'o+&-F. $F.v.D. #!+t.t.]+k#z*0){@{+-)M$u+{@M$M$})K$+$D.&%c.c.*.o.)+*.[.`@U m.%.v.S#Z#j$I&o$N$o$s+r+T#n$o$h$h$c$b.[.%.m.o '.k k v o X@o n W W v m =.'.#.;.K..$(~U$0*+$H.+$/%H.H.Z#H..$U#b b.Z@k ~.#.!.B m B ($!*:@($r=J&k j J&k %.W,k.+ H.J. $ $+ k#l#A)k#7-R.W#/@f)/@h#;.p ).|>(;:@J%;$:@9.i-U&w 0.m m ~.!._@ .v.D.g#]+ #V#(%l#D.D.l#/@k.h.).V m t@ >($J&($4+K g g g ;$:@~+k X@S T g.+ J.C..$f$b$H.g*k.;.&.).#.` k m J%:@t@t@k X n v. $7>P+Z#J. $+ ]+[.R+m }.K&j t t@t@x W U j u.I.R.I.V.g.=.%;%{7{'^                                  ",
"                                9]d]g{})k+D#Y'/#t+n+&-Z)C%P F.k#R.V.v.I.k.m#g.u./@j+p${@{+u+M!u+M$M$M$p+K$.$+ u.c.)+W,j.b.8**.[.[.%.[.!+D.b$n$M$q$I&I&s+,*h$h$})U$$$U#)+D,p p #.'.W Q*k |.X@Z k l V !.k j #.o )+K.+$Z#Z#:.Z#H.g$+$+$`#Y#+$H.U#k#t.S #.W !.k }.}.t@;$R g 9.B 0.t@c&}.v %.*.c..+b H.H.k#k#R.+ k# $J.J.K.k#+ k.!+[.@.@.n m B w B ~+A r=:@t@J&m k k k o,&..+l#v.k.+ /@R.+ B.)*g#/@]+o.)._@k J&B ~+($R a@K q#q#g !*:@t@!.X &.[.b.+  $J.:.d&H.U# $v.Y@m.p o '.0.J&:@:@t@c&m n ` v.J.8-+$/% $k#D.S#m.t k m !.H+A*t@B$f V ^.t,9>k#k#g#9>g.H+=.q{C+a%                                  ",
"                                F-I>U,%'k+P })=).{n+D-u+$*&-F.P K.V.V.+ k.t.k.+ F.C.0)-)7'{+M$p$-)8'I&d'o+:.R.c.t.o.[.j.b.y*8**.;.8**.c.u.C.})o$p$o$I&q$,*p+K$o$U$$$ $h#T  .Z@o o V z#!.X 3.~.!.k j t,m -~/  .o.R.Z#Z#C.Z#+$K.Y#H.H.U#.$Z#+$#* $k.y*o v &~z :@:@r==$($~+c&J&0.0.m m =.S ;.o..+u%H.J.K.I.R.D./@ $J.U#b /@ #c.c.[.p ).o B m t@:@p.($a;:@w k V W o,H+k Z@c.W#D.+ /@k#+ I.+ /@/@f).+b.).!.z#m J&i-9.C /~/~2@2@a@R ~+t@t ^@S S b.+ s)J.+$H.H.H./@D.Y@p o n k k }.A :@:@:@m W q g.u%J.:.K. $I.+ ]+m.k l j m -~m z t@x #.^.B$v.P.R.V.u.g.A=p;: '                                     ",
"                                |;r,X)G'l+P %'_'y!8-F.p$$*P &-K.K.+ D.D.k.g.]+D.k#+$M$M$3~7'u+{@{@M$M!Y&o+8-+ t.b.*.*+i.y*[.8*T [.j.*..+&%.$p+o$&!q$o$I&I&:'U$h$U$T$+$.+T ^@n Z ~.o #.!.X o #.k Q*k W j l W X@*.k#H.z*f$U#:./%U#U#d$.$`#U#+$H.K. #[.&.k K&K&:@($:@($=$R 9.:@w Y m m W U *.c.k.R.H.H.&-/@/@D.R. $H. $K./@B.k.o.U@).|>n j B z :@;$!*~+i-K&k k m B !.'.%.S#k#b  #+ /@b D.v.(%l#D.S#*+&.!.m }.:@9.4+C a@U.L 2@|@9.i-t@c,).&.^.o.+ Y# $J.+$K.c$g*+ j.@.X W k m B ($t@r==;k e.&..+ $U)+$Y# $g*V.V. .W !.}.m }.w x :@z n ^.H+V.R.b D.]+h.w _;_ 3]                                    ",
"                                q+i,U,I'o+D#C%p&)^j+|+,*r+H.J.R.R./@/@/@ #g.V.D.F.:.I&p$p$-)P$u+p${@I&h$$$#$R.k.m#W,W,j.T i.T [.j.W,R@.#]+Z#Y&I&q$p$q$o$o$l$j$h$U$G.+$ #*+p p 3.n  ~|.n o o o e.W '.o W ~.3.^@*.b .$$$G.C.+$ $U)H.U#U#+$U##$H./@k.[.` m j m 6*r=:@9.R 1$($r=6*l j 0.R+[.U j.*./@ $U#U#R.l#A)/@Z#+$+$k#b v./@f#o.&.Z X V J&:@U&($R :@f :@k l t k k k p c. #/@ #D./@/@ #/@/@ #k.Z!8*&.V m B ($R g 2@U.+#D *%4+;$($B k p Z@&.h.+ k#F.&-H. $U#R.k.o.%.X '.V m m ($p.B -~A*u S t.`#:..$Y#g*k#+ c.o #.}.w m j }.B :@r=p @.!.(%L.k#k.&%;.H+j -{!^                                    ",
"                                G'9]v+,*^#J.C%)%{+j+7-Y'$*J.8-I.V.+ + v..+c.]++ 7-+$N$P${@u+M$u+u+p$r+p+U$#$t!k.*.*+*.S 2.%.Z@S [.[.j.*.k.Z#h$h$j$N$r+j$l$I&h$p+W$$$Z#h#[.p n 3.Z l l K>'.~.|.V W o ~.'.n X@p S V#.$#$C.Z#b U#Z#H.U#H.+$U#.$+$K.k.;.).'.t t m r=i-R R =$i-z 0.m B :@k %.;.)+!++ K.U#K.+ V#/@R.k#s):.H.U#+ + ]+c. .o W _@m r=p.($($~+($R B k R+k V V Z@b.i#+ R. #/@/@(%+ + R.D.k.*.Z@'.}.r=($!*q#2@2@D G <&R z p.B W o X ).*.+ R.b 8-7>Z#H. $k.c.T o '.W H+}.:@($z k !.#.^.k.U# $ $K.R.+ v.k.@.'.w t t }.J&B t@x ~^@.H+g#+ ^~i#.+;.=.x.5~,~                                    ",
"                                /#}+U,t+C%&-z*_'$'k+O&r+Y'J. $F.k#I./@D.k.o.!++ t%J.M$O+7'-)p$-)z]u!N$:'}~f$R.&%*.*.j.[.[.%.@.%.m.U [.t.k.f$U$p+I&o$I&j$q$T#p+(~h$G. $R@[.@.V 3.'.V V R+Q*W '.k '.'.'.^@X@'. .[.R.+$j+C.C!H.H.Z#.$:.K.:.f$Z# $/@k.y*).X k m 6*i-i-($R A ($z B 0.0.0.V $.j.o.v./@ $J.K.k#/@R.R.g* $H.d$U#K.+ k.*.p n k J&w t@($9.~+($R g U&m t '.Z u &.c. #/@/@ #/@B./@k#K.c$/@t.o.).l A-($i-A C g c@O)E*U.2=r=B j W #.).&.o.+ k#H.H..$+$d$ $t.;.m.o '.=.!.}.:@~+:@m !.'.+.]+H.u%+$J.R.D.+ c.&.` j }.H+m -~t@A-t@..@.=.R.I.+ v.v.+.x.x.!{e+                                    ",
"                                l%6 >.t+q+E-|;d)=)k+|+I&s+J.&-K.k#+ y+ #O!g.t. #g*8-P$Z${+u+-)z]z]0)++I&C%j+P.k.t.*.+.;.*+m.^.&.p [.[.c.]+C.j$Y&M$o$j)p+o$T#p+$$K$z* $T@[.%.n o ^@'.k n '.'.^@'.'.~.W P*W '.o T /@H.Z#.$S$C./%Z#/% $+$H..$Z#U# $k.y*@.Z '.v J&!*i-($K <@=$9.t@6*B B '. .[.o.S#/@U#J. $f)X# #/@R.H.+$J.k# $/@ #*+V@o Q*0.A*B i-1$K -$9.1$t@m m Z '._;` c.{^ # #v.+ R.+ f)b /@+ c.*.p t z ;$9.9.7.U.<&b@i g !-z }.w !.X@).%.*.R.K.H.U#C.U# $K..+W,).X@o k k m B$a;U&0.j n Z@t._& $ $F.k#W#/@.+S  .!.0.w 0.w m t@~+).q j I.+ k#v.k.S x.t,[ I=                                    ",
"                                K'6 v+s+%'D#j+t'=)m+k#r+o$H.7-R.k# #]+k.v.t. #v.R./%P$%*u!-)M${+p$p$q$p+p+#$R.]+o.*.8*c.U %.S &.&.U@y*c.&%Z#h$n$I&I&q$o$q$W$h$U$h$z*U#*.%.Z@|>o o Q*A*~.'.'.^@` X R+#.#.W #.@{j.b #$Z#C.Z#+$H.+$/%/%Z#H..$C.v%b k.j.%.p n W t r=U&($1$R -$9.1$t@t@B X U o.k.&% $ $K./@ # #7*E]/@b  $b #!c$b k.b.U &.'.k m c&J%f 9.($K&:@!.X Q*W k Z Z@t.t.+ +  #B.+ + k#b b b !+*.U V@A*J%:@($U.r#2@6@7.g 9.~+}.t@t V @.U o.v.K.H.Z#b$Y#Y#k#%+j.o n s '.j V _@B B j l |>@.k.d$H.K. $b + R.k.*.o }.j m 0.}.w ~+B ).q k R.R.R.k.u.^.=.j q{}*                                    ",
"                                }'5 v+d'$*D#k+G)W'm+K.}$,*J.L.D.+  #v..+g.)+!+ #+ U#M$+*n){+u+{+M$p$8's+:'#$R.]+b.*.j.*+U T S $.&.Q+8*T m#.$k!T#r+N$I&N$q$o$j$j)p+G.H.b.U@p 3.o ]^'.Q*A*v '.'.o o X o ` W A*o *+k#d&.$C.H./%+$H. $H.Z#U#Z##$Z#k#k.U@^@'.R+#.l :@S+($1$A I%!*R :@z j #.S 8*.+D.g*U#b R.v.S#v.v.I.(% $K.b c$b k.h.+.p Z k c&w B J%;$i-($~+!.!.W V o |.p c..+B./@V. # #+  $k#b k#]+;.m.o m 0.^^:@K U.b@- a@7.R :@J&t@_@u n +.Y@v. $Z#H.U#+$U#b !+*.@.o Z  ~}.Q*!.V-B$m !.n %..+&-H.u% $k#+ D.t.[.V (;t 0.w !.0.z t@).&.W L.I.|+t.t.q %;x.p!:$                                    ",
"                                A'<~v+r+s+s)P+O+7'^#P $*M$:.I.P.R. #v.k.(+o.t.g+ $H.M$O+<;%*3~u+{@-)M$Y&K$.$R.!+*.*.U [.T S %.T %.T j.y*c.C.p+T#q$l$o$Y&q$Y&p+p+K$G.U#[.%.@.s,W a.k '.j ~.k R+u '.V #.#.n k o [.g*Z#.$K$G.C.+$.$Z#Z#Z# $/%Z#H./@b.%.` '.'._@J&U&-$R 1$;$X,g R :@B m V  .o.m# #b U#U#b D.v.v. #R.U#K. $K.U#/@.+*.[.p Z v m &~:@t@:@9.4+~+m m j '.X '.p c.]+W#I.+ /@+ /@R./@b I.k.o.2.|>V 6*B :@R U.m@L a@K R t@c&}.k #.q h.b.v.d$N!J.H..$Y#b o.V@` |>V i*!.W w 0.k W V n S ]+K.K. $L./@ #V.b.S '.'.m t m !.J&z x q {.p;7-7-+ ]+='^.=.u .~5                                     ",
"                                /^:$^#G'})&-n+=)`)e;P K$p$8-F.R.L.I. #k.;.h.g.!+ $J.,*7'-){+`'{@-),*M$p+$$:.R.k.*.1;+.%.j.%.S %.T T U _,)+H.l!j$h$j$j$I&j$T#l!n$U$G.b [.[.Z@|>R+_@m V&H+v k '.'.k j W R+v #.V S /@7>G.l'#$H.+$H.Z#+$+$U#Y#@$U#v%7*y*|>#.Q*!.B <@9.A 9.=$|@R <@z B m V [.t.]++ b :.U#u%]+ #S#i#R.K.b  $ $Y#k#.+T 2.|>V 0.:@p.B z ($!*K ($:@}.}.'.o '.p o.V. #D.D. #/@R.k#k#k#+ v.T@'.X@'.z J%:@R i 2@2@U.g R t@B z#R+n &.;.o. # $+$Z#Z#/% $b c.%.p o k V k ~.j 0.t A*j ).@..+K.k#k#L.I.D.v.o.&.Z k }.}.w !.z x t@).o 1.R.I.l#.+g.&.H+d.p!|+                                    ",
"                                9~v,B-t+})n+8-=))%q+J.o+0).$7-R.h+v.k.]+!+o.)+='R.J.M$%*7'O+O+u+M$0)q$V$K$.$K.v.b.y**.i.S %.%.[.[.;.U b.c.Z#q$T#p+h$$*%'T#$*p+j$T#U$U#j.@.%.p X R+m B B }.W X@n '.v _@k w k v p /@F!G.$$C.+$`#@$Z#+$Z#Y#H.Z#Z#k# #8*3.n k m t@w B z c&:@f :@c&P*!.j W S .++ b Y#U# $b /@ #I. #I.7-F.b  $c$R.v.*.`@m.R+K&w :@~+f ~+=$R 1$B k  ~'.W u U b.v.]+a$k.v.+ k#R.R.+ R.l#.+@.o }.t@t@($4+1@]@b@a@R 4+B V-0.u V %.;.h.O! $+$H..$.$H.b  #].).s v X n v z#m B m W ).^.]+ $b R.k#/@D..+b.Z@o v }.m }._@t@B t@).u #.F.k#I.]+g.q W R*!^_{                                    ",
"                                (^_^B-I'r+n+D#<;)%$*D#k+-):.R.^~P.S#h++ t.g.o.D.R.k#N$3~7'%*j!{+++u+-)I&p+l'K.]+b.S [.;.S %.%.*.[.[.[..#.#Z#L$M$o$I&T#T#j$I&p+p+T#U$d$[.%.).3.X@v =.j }.}.!.n ` ` G~'.Q*j ~.'.m.+ m+K$o+z*z*#$#$.$Z#g$+$C.#$f$c$u.U@@.n k m B B m B 0.B ~+($t@m t m k ^.t.D.&-H.H. $R.I.I.R.I.R./@F.F.F.R.+  #;.%.).Q*m l t@($=$($S+K 9.t X@o V k #.%..+7*k.]+v.+ /@U#/@/@/@k#v.Y@@.o }.c&p.9.4+U.]@- |@4+|@z V-W W o @.U ;.+ K.J.H.C..$H.U#k.m.&...'.k '.m m J&t@m k o ^.v.K.k#b k#l#]+v.g.&.n !.}.w }.m B t@}.x,n Z K.k#I.t.g...^ ` W]r,                                    ",
"                                :^<^X)I'q+m+:.$'_'}$J.'+.{+$|+K.+ ]+]+v.v..+%+S# $K.M$_'%*O+%*[)-)u+{@p+:'z*F.k.c.*+[.[.m.&.m.j.S %.8*c..#Z#I&M$M$r+I&j$k!I&j$$*h$:'Y#U %.Z o  ~o '.W m !.V o 3.p '.k '.l k '.m.I..$l'G.#$.$U#+$Z#Z#U#Z#Z#Z#d$b B.*.%. .Q*A*B J&m J&m :@:@($i-B w J&W %.k.D.k# $b  $k#g*I.l#/@k#R.R.&- $b k#+ Y@T ).#.t !.z#:@t@($4+T=9.B m V ~.'.'.U b.]+]+]+D.D.F.b D.D.+ I.]+b.@.v B 9.!*!*1$E%U.2@7.K g t@j k _;o S j.o.V.K.K.Z#H.U#/%g*]+%.p q V '.'.m m B w j W ` S  #k#k#k#k#+ D.D.o.@.).!.w !.B 0.z x m @.n.q #!R.g#g.b...=./.[^&{                                    ",
"                                }^|^v+G'q+j+D#7't'r+D#m+-)j+7-K.D.(+v.&%k.t.c.]+t! $s+<;%*d)+*%*p$-)-)r+p+z*K. #c.;.U U %.%.8*b.S %.S *+*.c$o$8'p$&!q$I&I&p+h$p+p+:'_&_,V@X@n X@X n '.m A*'.~.n n V l V k '.#.m./@f$S$Z#f$H.+$C.Z#+$U)Z#Y#+$U#l#7**.V@#.t _@m 6*6*a;t@=$;$:@r=B B B #.[.S#V.u%H./% $R.+ O!D.D.R.b  $H.U#U#U# #Y@%.o Q*k _@c&p.4;A g 2=i-i-F%}.W v n %.b.k. #R./@+ /@R.D.g*b k#+ b.Z@@.m :@p.4+k,g a@2@|@]@K w H+m V ).U +.b. # $:.J.U#H.U#/@v.Z@p ).'.X V j w m }.m k o @.v.u% $D.+ /@+ V.b.@.` W t !.B m w t@m @.n ).u%v.v.b.(+).k d..~x!                                    ",
"                                1^2^B-s+r+k+n+`'w)s+J.j+u+C.F.H.D..+n~O!t.b.k.!+R.d$q$%*7'7'{+_'+*-)M$T#$*z*g*D.o.*.j.;.8*S [.o.j.j.*.*.c.K.q$M$T#s+Q$o$r+r+p+j)})K$@$[.@.&.'.|.n |>R+j V Q*W ` ~.k m 3^k k |.j.B.C.#$#$$$C.U#g$#$Z#U#H.s)Z#U#b v.T@3.o !.w :@z#~+:@:@:@:@w A*m m B W j.v.W#b U# $b /@R.R./@V#W#+ R.Y#+$+$ $7*c.&.o o '.k :@=$p.9.u~R ~+i-B m '.V '.)..+ #+ S#+ + k#f)+ /@+ /@f)c.%. .m :@;$S+9.|@7.a@7.>+j,m k _;X o ;.b.c. #:.H.H.+$.$+$K. #%.o |>X@{.V t K&w t@k W J>S + K.K.v.k# #+ 9>*.%.%.V m j j m }.B !.^.#.^.u%+ V.c.(+^.V #..~1~                                    ",
"                                j{4^o*G'r+(,i,Z)=)t+D#:.p$z*K.s)+ .+t.='k.g.c.v.I.J.,*u+7'u+u+7'7'`'M$k!p+o+t!.+o.*+[.j.[.[.;.)+j.;.o.1;.+Y#N$M$o$o$q$o$o$j$h$T#T#U$Z#S %.@.n V '.'.k m k '.'.o '.~.k ` '.'.V S + .$z*K$K$l'.$z*#$+$Y#+$Z#U#U#b c.S p u ~.6*:@B x K&:@c&J%6*}.t m z#k [.S#+ k#J.+$F.k#R./@7-R.b  $_&U#u%+$g*v.t.@.).#.t J&:@j,=$A K K :@($w m #.W n |>b.i#D.]+v.&%7*H~V.v. #+ + b.T ` j p.($g 9.g |@|@g K :@w !.'.'.p 4.;.t.+ +$+$:..$j+.$b 7*Z@..).p n k J&B w }.t n &.^.(%K.K.I.u%g#v..+1;].@.t J&J&H+j m :@!.$.u ^.k#I.]+u.1 f.u /.#~5^                                    ",
"                                6^7^g{G'G'm+n+Z)-!G'6-.$u+z*k#s)R.9>t.o..+b.)+v.R. $s+7'7'p$-)-)`'-)o$})}~z*t!t.t.j.T T T j.*.b.*++.*.;.!+H.,*q$-)o$o$q$l$I&p+p+T#K$+$%.%.Z@X !.k '.'.t m !.|.Z |.v k ~.'.V |.[.b z*S$o+T$$$G.G.b$Y#@$Z#Z#Z#b /@c.[.).~.|.'.m 0.A !*1$($:@B w (;w }.k %..+P.K.H.+$J. $U#K.b K.H.U# $K.U#H.K.D.b.S ` X m &~t@p.i-p.A R f z w m '.'.n Z@8*S#v.k.u.O!.+k.V./@b b + k.[.).k J%i-C R }@a@g g I%A w V-W v o +.;.b.v.+$B!J.H.U) $I.f#p %.p Z '.!.0.}.}.}.}.|.).r +  $F.F.k#g# #S#c.U ).l m 6*m k }.B$W ^._;+.b I.v.u.h.A.d.s.#^8^                                    ",
"                                9^_^v+G'r+k+:.-)F',*:.8-u+k+J.:.k#V..+u.t.b.^+]+/@U#I&O+%*7'j!u+u+-)o$I&7)U$&-]+c.*.j.;.[.;.;.W,8*j.*.j.m#.$o$p$q$M$I&I&I&I&j$T#T#U$+$o.T@@.|>'.m -~k k A*Q*'.|.o #.!.'.X k X S /@.$G.:'h$U$$$z*+$d$+$Y#C.C.#*R..+2.p #.k k A*J%!*i-i-=$B k v m K&z 0.%.t.+ u%C..$Y#H.Z# $b K.U#c$ $H.v%U#b  #W,Z@&.o m K&B 1$=$p.9.9.f J&r=A*'.Q*n @.W, #D.k.V#/@ #/@v.+ k#k#k#k.[.).5*B i-2=|@2@q#g 7@S+z-J&J&!.V |>S U Y@B./%.$:./%Z#Y#/@v.U p X@o '.v 0.j w 6*w o  .&.D.k# $k#k#D.&%!+Y@p o k j B }.t k A=l %.V j.K.+ V.u.h.).d.f.0^5>                                    ",
"                                a^b^C,G'G'G-8-$'w%++c^8-,*j+7-J.k#g# #g+t.c.!+]+/@d$T#7'%*7'{@u+-)-),*,*$*K$g*D.t.o.i.1;*+1;*+*.*.W,*.o.t./%o$O$M$M$q$q$r+r+h$p+p+U$U#*.[.U@3.o !.m k R+~.'.X@n #.X k W '.~.|.S g*.$T$z*z*$*l'#$+$J.U#U#Z#_&d$R.!+2.m.'.m 0.6*B J%($U&R m ~.V m B c&-~S k.(%K./%H. $ $ $b K. $/@/@l#H.b b c$W#b.[.q Z@j m t w S+7.7.<@1$R :@m V V '.3.8*i#W#k.k#F.+  #t. #+ b + .+2.` X B :@($I%a@2@}@K A =$J%J&!.#.p 2.U Y@b J.8- $H.U#k#b ='[.V p ^@k }.m B w m !.'.).@.+  $ $K.R.D.V.='j. .o }.t@p.!.m m t@t %.j +./@+ v..+N.q u &.y=d^                                    ",
"                                  e^[+G'G'G-r,Z)F'-):.6-(#z*&-P D.D./@D.]+k.]+z+R. $p+{+%*u+3~`'u+u+p$,*T#S$K.O!.+;.j.+.[.)+R@o.*.[.*.W,='/%r+r+o$l$o$I&o$I&r+U$K$z*g**.Z@|>|.W m m k m B m |.` o V Q*'.X@^@Z j.b $$:'z*$$U$G.+$U#H.d$+$+$+$/@ #t.[.@.V j }.~+:@U&U&:@p.6*}.m H+0.c&j [.k./@ $K.+$H. $_&U#c$+ /@R.k#K.K.b  $W#R@S Z |.Q*j l f 9.R g 9.p.=$z 0.'.V n 3.[..++  #R.k#b l#9> #I.W#V.`!;.o t :@U&:@g ]@r#a@T=4+#-J%}.R+#.).U [.b.l#s)H.U#/%/%&- $]+&.'.).R+v }.:@U&t@t !.k n.4.L.J.J.K.l#R.h+t.*+p V z#w x u m B 6*j &.!.b.k#D.V.u.+.1.u ..f^g^                                    ",
"                                  h,[+G'M!C%n+-)q@-)8-J.M$e;P 7-+ 9>P.u.O!v.D.v.k#H.%'u+{+`'`'u+B'M${@q$j$Q@K.]+!+j.;.*.j.T@j.j.W,;.[.j.^++$o$o$q$q$I&I&M$I&p+U$U$K$K.*.T p o #.k B c&B w }.V X X '.'.o X e.o b.&-m+e;#$o+U$m++$U#:.Z#U#H./%K.f)v.*+p o W !.0.B }.B :@z m 0.%~m 0.}.#.S k.R. $U#+$Z#b  $J.c$K.b U#K.J.b b  $+ c.T  .o k w t@~+p.($R ($<@=$~+J&k #.` p [.%+.+v./@I. # #B.+ + k#(%k.U n t@:@z 1$a@|@2@1@I%=$9.J%m k X Z@Z@U b.k#s)H. $:..$H./@k.3.o n s s w B ~+}.j !.o q S + H.&-R.#*L.v.%+T@^@~.j }.t@o }.w w W q !.g.L.I.V..+j.s.u (@y=`{                                    ",
"                                  I>_{G'.'G-n+-)w)Z)6-J.0)o+K.K.R.D.]+&%]+ #t!]+k#K.p+%*7'%*-)u+&+-)M$N$p+K$d$]+='i.T o.*.8*j.j.j.;.o.T *++$T#M$,*M$})N$o$I&l!h$K$G.k#8*%.p o !._@k 0.z#m !.V u '.X@n 3.X@'.o o.K.K$Q@'+o+G.8>Y##*+$Z#.$f$#$K.B.f#o.8*V@'.W !._@z#B :@:@:@B }.0.m }.'.+..+I.I.H.H.H. $b U#K.k#k#k#k#J.b b d$+ Y@p ` n t ($~+:@p.4+g 9.<@R ~+}.k '.s @.;.c.t.a$ # #h^X#S#g#+ + B.h#S u B r=a;1$4+7.U.U.g <@9.B$V '.n ).m.S g./@Y#:.+$s)H. $/@%+3.X@n '.Q*z :@B$H+m t s,).&.B._&K.K.+$k# #]+*. .l !.m t@'.(;&~z k &.H+b.F.+ D..+[.d.%;^.W{`,                                    ",
"                                  G{G{B-9 U,j+8't't+j+&-I&m+&-k#+ D.W#]+t.='R.&%F.J.Y&+*`'3~0)`'z]7'p$q$p+o+U#k#Q.]+*.*+)+c.*+[.[.t.[.*.*./%Y&l$q$I&I&M$,*l$n$h$h$G.c$*+[.p o o Q*l m }.B m R+$)W #.o o ~.'.).*+g*Z#.$H..$z*l'.$+$ $U#K.H./%V# #S#*.%.o Q*k m -~m B f =$!*w 0.m k R+o [.]+k#u%H.J. $K.c$ $b b  $K.U#U#k#b K. #;.&.t;Z =.:@~+J%9.9.U&R R R J%k '.n ).%.o..+u.S#/@W#k#O!D.I.W#t%k.*+R*j :@:@|~E%C U.]@|@|@4+($K&_@#.).&.@.%..+K..$+$H.d$ $R./@o.%.Z #.X@Q*K&B z#z k ]{W x,T R.K. $ $d$W#+ S#;.o k j 0.&~j k w z !.q o,u.F.+ D. #j.d.^ q i^I]                                    ",
"                                  j^6]B-I'q+j+t+-!0)<$7-o$m+k#7-I.V.v..+o.]+]+]+W#_&p+B'%*B'u+0)u+M$p$Y'p+z*b ]+ #V.*.+.j.c.)+r S j.*+o.t.U#Y&N$M$I&I&Y&})T#T#}~$*G.b *.[.[. .V k t k w w t Q*|.#.n ~.o e.o Z *+K.#$b$6-.$#$z*.$.$U#d$d$H.f$U#D.b.U  .~.l A*`*k z :@J%;$f m w w k A*'.[.k^b  $+$J.U#U#F.U#K.K.b k#K.b b #*K.D.[.&.Z@` j c&Y,:@R i-~+k,7.R f m c,#.).m.b. #D.&%D.D.u]g*R./@+ /@t.j.p k w z ($}@U.2@q#7.|@A B B k u n ` @.U u.F.8-+$B!.$+$ $k#o.&.o X V l B B B w m m s q [./@K. $J. $R.B..+U n j H+m &~H+W w :@!.^.H+]+R.I.V.h+1+/./ &.l^m^                                    ",
"                                  g{G{B-s+$*(,s+q@3~n+P M$'+^~R.R.v.&%(+o.]+!+.+/@K.})3~3~7'u+{@p$M$u+})k!l'B!V.]+.+o.h.j.(+*.T %.j.j.*.!+H.T#&!M$r+o$I&I&j)p+$*j$U$K.c..#[.&.k l k W }.j k ~.V ^@#.'.n Z n o %.R.f$z*o+$$:'G.C.U#.$/%+$/%d&#*D.h#U ` #.#.Q*B W &~:@f i-:@w :@}.w }.~.[.k.+ L. $+$.$H. $K.b t!R.I.R.b b d$b &%h.m.p '.n j t@:@A p.i-R K 1$w W Z ).p [.t.]+X#v.(%g*F.k#k#V#k#+ .+)+@.!.r=U&($g 2@a@7.U.U.#-f r=m R*` Z@%.S .+k#C.H.:.8-C.H.R.*.).` n V m m J&K&!.k v W ).T I.K.&- $K./@ #k.^.1.W o,0.:@}.W 0.w V ^.H+v.R.l#v.u.j.e.^ ..n^                                      ",
"                                  o*o^G'G'$*k+M!-!{+k+R.s+|; $R.7-D.V.t.c.t.v.]+/@d$}~7'7'{@`'{+p$,*u+I&I&z*H.&%!+k.o.*.j.o.o.*.b.b.!+c.)+N!j$q$p${@$*k$++o$j$p+Y&K$K.[.[.6.@.~.'.k W ~.k l k 3^'.'.X@Z k '.X@[.R.C.z*S$.$o+o+l'#$z*m++$Z#Z#/%l#c.U Z@o o Q*0.k l m J%;$r=J&B B z B v Z@W, #b  $+$Z#/%b c$R.K.g*U#U#U#d$Y#U#/@Y@Z@p X@'.B ~+;$~+R R 4+R ~+w l X@).&.j.t.v. #v. #I.u%R.F.v%+ /@ #t.p t A*B :@R 2@]@|@i }@1$x z A*W n.p S *.]+U#Z#+$@$.$+$K.R.b.U n '.V n k B w 6*W !.~.&.[./@ $H.K. $+ &%]+%.#.W W j :@k k m w ` S B$y+I.R.v.]+j.u / &.u,                                      ",
"                                  p^G{q+5&B-F-t+w%`'j+P 0)o+K.I./@V.]+u.O!c.t.]+g*N!p+`'7'u+N$-)7'M${@q$o$o+J./@t.t.*.!+;.o.*.o.j.o.c.W,k.U#Y&p$,*M$,*O$M$o$N$T#T#G.d$c.b.;.p m B v '.v k Q*a.#.'.'.k V '.'.'.j.b +$z*$$C.C.g$.$C..$Z#C.C.S$/%b B.*+^@o n v _@V k B c&f :@B c&z :@B #.S u.W#F.J. $d$b ^{/@/@k# $#*H.U#+$U#+$/@%+&. .|>n 6*:@f >$a@4+g K J%w k o ).3.T c.v.+  #D./@K./@b W#g*A)f)o.m.Q*U&9.R 7@]@G#7@a@g ~+:@w _@k |>p [.;..+d$+$7>+$H.Z#F./@j.S ` ` X X t j m w j !.e.m.;.F. $H._&K.R.t%k.@.~.l m B B j -~0.w ` @.t,I.k#I.v.V.+.=.u q .~                                      ",
"                                  q^L{L!5&})k+G'-!7'F-B#s+m+B#R.t%]+]+c.]+.+]+u.D.g*:'B'+*u+M$0)p$-)z]N$p+G.H.V.]+c.*+m#*+*.*.*+*.*.c.m#t.b $$M$P$M$s+M$M${@o$r+T#e;H.o.Y@[.p l :@k k t !.!.k k !.k z#~.W #.n O*P..$Z#.$Z##$/%B!.$m+Z#.$d&C./%l#]+8*m. .o k m R+k 0.B c&w B c&z ~+w '.U@.+/@g*Z#+$H.t!b + + R. $_& $U#U#J.Y#/@c.@.` V W K&e):@R g I%4+!-z m k '.).&.S b. #S#]+D.k#L.R.g*k#l##! #;.q l B t@($K a@o;a@7.=$~+~+c&k #.X ).&.T k.N!J.C.H.H.J.k#/@o.&.{.#.W ` k m z#m A-j #.%.[. $K.&-U#k#7-+ .#6.R+A*k j j B t@m w n @.j R.y+I.]+h++.Y j (@U*                                      ",
"                                  F{h,C%})G'P+j)t'j!m+F.,*o+|+R.V.g# #o.t..+v.^+h+R.o+u+`'7'{@u+u+{@u+8'8'o+J.v.='o.j.t.b.j.)+*+*.*.o.m#t. $G.p+q$j)q${@M$,*o$r+j$e;c$*.)+*. .=.B c&}.m !.!.B ~.W m B$W l k ^@j.t!:.#$.$/%.$Z#.$.$+$+$Z#.$#$.$/@&%c.2.X@k m B k W !.:@t@z :@B A-w j n S ]+R.K..$H.K.F.g*R.b b k#b c$U#/%U#c$B.1;].Z@|.!.c&t@B 9.K K 4+($J%z#!.o ).).2.b.u.B.]+v.b c$J.&-R.R.7-v.o.` v B B ~+($K >$A;a@4+:@i-K&!.#.'.).U S k.U#J.p] $_&U#7- #o.o o s,'.o k t@:@B w k #.$.j.F.J.J.+$k#K.R.t.@.V l W m w t@B B }.d.@.B$k#g#7-9>h+S 5+Y &.U*                                      ",
"                                  y!h,})q+r+n+s+w)=)G.R.o$C%R.K.R.v.v.h..+b.t.]+]+F.'+u+%*7'u+P$M$P$u+M$I&K$/%D.v.u.;.o.)+[.o.S T o.c.)+f#k#z*I&q$o$I&o$N$,*,*p+T#h$c$)+W,*.p W '.!.k k k k k k l z#J&k j l X *+g*o+G.j+Z#H.Z#f$~!.$#$#$Z#Z#/%/@k.*.Z@X@k K&J%-~m r=:@J%B z#w t@w l ` %.]+/@K.U#k#7-L.U#U#R.l#R.b +$U#`#U#b + o.m.^@o 0.r=t@~+R }@|@C ($B k '.).).).`@R@ #D. #&%R.R.F.b /@l#K.X#Y@&.V m B <'A -$7@|@g !*($9.=;H+V '.).2.S !+ $ $U#H.+$_&K.W#*. .%.` #.'.6*z ($:@t@j #.@.;.R.s)J. $K.k#(%b.&.v k k m z r.w z w ` q w k#P.D.E.g++.B$=.f.A#                                      ",
"                                  9)~{q+C%d'm+,*t'$'o+7-Y'C%k#K.D.O!+ ]+9>]+!+k.D.R.z*u+O+%*{!+*M$M$M$P$I&(~U#D.k.*.o..+U j.W,o.*+*+*.t. #K.K$I&q$o$I&N$M$p${@T#T#U$b Y@[.[.` ~.k l |.v k _@k Q*k j k |.~.~.^@[.k#C.C.f$d&H.Z##$z*.$#$l'S$z*#$k#v.c.U@^@|.m 6*j m :@;$c&B m J&B j v |>*.&%g*v%Z#H.F.K.v%J.b U#8-_&6-U#H. $+ &%t.U p n j B :@:@<@K R S+~+B j n p ).Z@[.t. #v. #S# #R.g*b l#A)v%&%%+p k 0.B R -$}@|@9.S+E%A p.z l _;` ` ^.%.^+b :.+$H.d$ $/@D.[.S ).p n '.m m 1$B B j Q*^.o.b U#H.K.F.d$k#.+2.'.!.j m w z z r.J&&.&.!.l#I.+ O!&%i.J+^ $.v,                                      ",
"                                  M+r^%'G-r+m+Y'/#=)o+ $I&}$K.^~y+D. #u.k.m#u.v.D.I.C.P$O+d+{+j!{+p$z]-)k!C%Y#D.!+o.j.o.;.*+;.j.j.0>)+]+7*k#U$M$q$I&M$-)M$M$M$I&r+$*b b.*+h;p '.k v #.V !.c,j W ~.W W ~.#.V o i.k#$$z*#$$$d&U)z*.$/%.$C.f$~!/%U#D.[.S o ` k }.l W B r=:@:@B B m k V o *.]+R. $.$+$b #!L.k#b  $H.+$+$.$J.R.+ ]+*.%.` '.w B J%:@p.($A 4+~+0.j Z &.` q [.!+/@R./@ #+ K.l#k#/@b #*/@%+)._@0.:@A 4+T=R g g g A :@B m V X o @.U .+J..$/%8-@$#!/@k.U q p ^@^@V 0.}.B B B j #.p R@U#H.K.H.K.R.l#c.%.'.}.m w B w B r=m ` ).u L.k#+ ]+h+S J+u ..{-                                      ",
"                                  J'T{q+q+%'o+G'r;$'o+F.r+$*E-P.I..+]+t.t.^+(+ #D./@#$p$<;B'{+7'%*u+P$u+q$:'Z#V.t.o.Y@;.*+o.;.*.1;*.*+t./@ $C%q$o$&!I&o$M$,*u+o$I&U$Y#c.o.*.&.k '.V V e.Q*A*}.A*Z '.'.'.'.'.` o.K.$$G.C.z*#$.$#$.$+$.$:.m+G./%b ]+8*` o Z k B m j B :@J%0.B K&}.k ~.).[.]+k#+$Z#b,j+ $g*R./@A)H.S$C.C.#$H.F. #c.%.o v 6*z !-p.p.($1$9.:@0.B '.p ).Z@*.)+s^ #+  #k#b K.v%t!b  $V.o.&.o 0.z 2=K g g g K 4+($:@B t V o 1.^.j..+K.H.H.H.H.K.b v.[.Z@p d~n !.J&J&B m m !.` &.E.J.J.J.H. $t%v.o.S k j m 0.m w t@t@}.J>..V R.I.+ V.V.+.y u d.X=                                      ",
"                                  g']-$*q+})k+})-!$'G-F.r+G-F./@/@v.t.*.(+]+(+!+D.t%b,M$7'%*7'u+u+u+M$s+I&C%/%D.c.W,h.j.Y@o.j.j.j.+.*.c.+ H.U$Y&o$o$p$L$[)o$M$M$r+K$U#c.*.c.%.'.k k #.~.k m m k ~.A*k ~.Q*R+o j.U#K$o+G.C..$Z#Z#Z#:..$#$K$$$d&K.7**.%.#.k B 0.l l c&c&0.j m B 0.k j ` *. #R.K.S$l'z*H./@k#t!k#H..$d&#$z*H.K. #*.].` V 0.J%i-R -$R g 9.:@}.!.u ` q @.y*)+k./@k#b k# $K.b k#b H.D.*.%.X@B p.R 4+}@g g a@K R r.t@0.k X {.U +.t.b H.H.H.J.d$k#W#*.&.o #.V W B r=J&m z#W ~...k.H.&-J.8-t!R.D..+S #.l J&j m z t@c&B q n u 7-+  #]+u.$.x u Y t^                                      ",
"                                  u^6 B-r+G''+G't's!C%F.r+'+I.R.+ ^+.+W,b.v.&%^+R.g*f$u+7'%*u+M$u+{+{@p$j$'+U#W#t.*.1;)+c.c.*.j.[.*.m{.#k.H.T#q$M$j$I&p$o$o$k!p$q$K$ $.#*.*.`@X@W #.'.R+k t m !.W j l #.!.W o )+Z#:'U$K$$$G.d&U#C.H.g$m+C.G.b$d$v.;.%.o '.j k '.k 6*B m m m B _@m j ` *+ #c$.$S$U$z*H.b t!K.+$$$z*G.#$#$#$k#&%j.@.p '.}.:@;$4;R 4+R p.B m m '.o U %.*..++  $ $c$/@H.U#t!k#+$Z#F.Z!@.#.m ($R E%g g A 4+=$($($z#}.W #.3.S S t.c$K.J.:.H. $/@]+S &.o Z V j t@B B }.j W Z &.v.s)U#U#C.K.+ k.k.&.~.m B k :@:@w ($B q 1.u c$R.D.D.]+S B$u e.[+                                      ",
"                                  v^$]d'B-})&{5&t')%q+7-p+$*K.D.P.u.t.+.*+b.h+]+V.R.z*u+%*=)u+-)u+u+M$8'M$l'U#t%]+)+j.*.t.!+j.S [.;.b..+v.H.j$M$-)M$N$M$M$I&Q$I&8'h$ $o.T@Q+U@Z V '.~._@m k l !.V X@'.!.W W o h.d$U$p+C%:'G.j+.$C.#$#$#$z*$$#$U#V.[.@.` #.V '.` W m J%w w m w j m A*|.b.+ K./%+$S$G.+$k#g*c$H. $H.#$$$#$Z#b S#U @.Z@X }.:@($;$($w$}@~+t@B &~W Z @.@.N..+f)F.R.R.t% $Z#U#J.U#H.(%*.n !.c&A 4+-$7.7.g 7.4+9.!*z t,=.n  .&.4.k. $ $+$Z#+$K.k#v.[.S '.V W }.B c&z }.m k X m.v.U)H. $+$R.v.]+.+].#.-~j k :@t@t@x 0.o u n &-k#I.R.9>^.2-^ =.(!                                      ",
"                                  ('w^B-I'5&F-G'-!p&d'K.r+o+F./@O!V.t.o.;.o.]+.+P.F.m+0)%*O+{+{+u+u+M$&!q$p+N!R.]+*.*.;.o.b.b.8*[.[.*.t.k.H.r+,*s+M$,*p$-)M$o$o$s+p+U#o.y*m.].|.o '.'.l _@k W k Q*'.|.k k '.o U d$z*U$$$K$G..$Z#f$z*z*z*K$G.S$U#v.*.^.p Z V u #.'.m :@f J%c&0.m B m ` ;.+ d$+$#$z*G.U#k#k#b  $J.z*e;$*b,d&#!f)j.&.p n m :@($($G+I%C 9.($t@B =.` j.U o.c.7*l#L./@b  $J.K.F.b K.(%o.` W z K K 7.- U.q#U.4+K I%:@w V ` %.@.S .+k#F.B!Z#.$E-K.v.j.p ~.W Q*w B :@z }.z v ` %.]+_&H.c$:.F.I. #.+p u z#W m t@t@:@z }.q #.n F.I.I.g#u.^.2-p;J+x!                                      ",
"                                  x^:$Y'M!})k+})t'_'q+K.})p+F.D.R.D.]+)+;.Y@]+t.]+P.j+o${++*`'{+-)u+I&8'M$K$F.R.k.*.j.*+*+t.b.y*;.;.W,;.g.+$T#N$M$q$j$N$-)p$o$I&I&p+Z#*.[.`@p k Q*k #.W l k k #.#.'.Q*m k '.n +.R.m+U$$$z*G.#$$$~!z*#$$$$$K$z*`#v.b.;.T Z '.n v '.m B z B m j 0.B A*).N.S#K. $Z#z*z*.$F./@k# $f$.$z*$$#$C.U)/@;.@.o '.w ;$!*A >$C ]@>+-$r=J&k Z S U c.t.v.R.c$k#+ K.+$/% $R. $+ [.Z V w R g U.2@<&a@a@g U.|@!-B$o,o &.Z@S c.R.d$+$Z#Z#J.b X#j.&.#.l W m z#t@t@w }.c,1.@. # $H. $J.k#v. #%+&.e.l !.m z :@:@z w d._;q V~7-D.V.u.+..>d.y z!                                      ",
"                                  y^:]G't+d'i,})r$t'G'&-})$*P.+ I.O!!+!+!+k.t..#{^R./%r+{+%*%*%*B'{+u+M$N$p+K.W#!+o.%.T ;.g.c.[.[.j.*+)+t..$I&X$M$I&j$T#q$p$N$M$o$p+U#!+y*`@3.'.~.Q*A*'.'.W _@l #.Z l A*j _@Z *.b C.K$$$l'l'g$#$.$.$b$G.G.h$K$b 7*j.*.i. .X@~.Q*k k 6*&~B m 0.t m o |>o.R.N!H.C.#$f$H.k#/@c$d$b U#U#/%Z#Z# $G!y*` ~.!._@6*x ($A |@g -$($=$:@6* .U@2.o.t.k.F.U#K.d$d$H. $g*d$U# #T ^@k r=A !*4+2@]@C g >$a@L*1$:@B Z p ` T &%R.U#.$Z#.$:.s)&%y*p o A*'.k m Y,K&z }.V o O./@+$U#:.J.k#O!]+h.S e.m j 0.z &~B z#z#).Y ^.+ k#R.k#c.| r.` w z^                                      ",
"                                  ^]{]q+G'G'v)C%-!-!s+E-T#p+K.I.I.h+c.t.]+t..+k.D.+ N!r+{+%*`'{+%*+*z]0)r+U$R./@u.t.;.[.S [.)+*.[.j.[.*.c.N!p+q$M$s+Y&I&q$q$l$N$P$j$.$.+U@T V@W |.|.k k  ~Q*A*j ~.o X@k }.~.o o.+$G.(~K$l'0*f$#$K$f$Z##$#$0*U$+$k.M.Z@%.'.R+'.R+k z#U&-~k k l m !.#.&.b.+ H.Z#z*#$C.+$k# #/@k#A)+$.$C.C.Z#U#&%j.%.|.!.z c&($($E%g R R 4+p.c&k @.%.j.c.%+v.b R.b H.U#Z#U#R.H.K.D.T@'.J%~+R -$g 7.>$a@7@!*I%g =$:@k n ).&.S k./@H.+$#$.$H.R.k.[.%.Z l '._@z z c&z }.W o @./@Z#H.H.K.R.='t.b.U e.}.k c&p.w w B m ` A=+.I.I.P.D.b.^.T.` ~-K,                                      ",
"                                  A^s@r+s+r+n+$*t't'G'B^C%$*7-P.7- #.+c.]+v.u..+l#R.H.I&%*%*%*7'+*7'-)-)j$K$F.]+u.m#o.*.U [.b.j.S [.%.j.c.`#I&8'p$M$I&T#p$&!q$,*q$o$Z#b.[.2.&.~.R+'.k ~.X |.~.m k #.Z k k Z p o.K.S$K$K$$$z*.$z*z*f$H.H..$#$G..$f)R@y*m.o '.R+W A*t m j W k 0.w W #.@.o.R./%b H.C.0*Y#K.R.R.k#+$/%Z#@$Z#/%R. #*+%.o ~.B r=p.R k,g g K g ($4)R+` [.U *.]+/@+ + /@ $ $K.K.b U#Z#D.*.` B ($A S+4+|@7.a@g g R K ~+x v u p p i.k.k# $Z#Z#+$H.U#v.*.&.o '.W B f :@B B J&'.#.S /@+$/%H. $k#!+]+M.[.'.}.!.t@z &~m B j @.}.b.I.+ I.V.1 $.r.*!I,b]                                      ",
"                                  C^:#r+t+I&P+p+/#.%G'&-$*$*K.q]t%&%]+c.c.]+h+!+V.F.8-N$B'%*d+`'3~u+-)P$r+K$&-]+='j.N.o.*.j.j.*.T S T ;.k.+$p+I&o$&!-)M$-)M$,*q$,*l!#$Y@U %.Z@'.~.V j k ~.R+j 0.6*'. .'.Q*O,p (+k#8>p+K$G.o+K$l'z*z*z*/%T$T$$$+$+ *.S V@p |>Z X Q*j w j Q*~.'.j '.Z &.o./@#$K$~!z*o+.$v%b R.b d$+$+$Z#f$H.B.f#*.J>|>V J%:@B p.K |@g I%!*~+m W ` 8*8*c.W#R.I.L.K.c$ $U#K.U#Y#/%B.b.n m =$9.g a@q#a@6@7.E%!*K A J&k V o @.%.%+R.K.+$C.d&Z#b v.[.o #.!.W _@U&B :@z }.W #.S W#Y#+$H.H.k#V.X#b.[.u A*k z B w 6*0.l q w g.P.I.+ h+(+f.!-1._$B,                                      ",
"                                  ^]}]G't+G'k+$*t'=)r+&-}~})7-D.V.&% #k.t.t.f#!+ #/@/%M$O+_'%*%*`'`'z]0)I&K$K. #.+o.[.)+*.T T o.j.T T *.c.H.Y&N$j$I&k${@q$p$N$I&o$p+Z#!+;.2.Z v V V m 0.k k k k m k X@V m k |.o./@G.p+K$K$G.G.#$#$.$f$C..$G.T$:.]+*.`@@.p o k ~._@w 0.c&c&}.m k #.p p k.K.C.C.T$l''+f$U# $g*#*U#s)+$/%H.K.b X#;.p p '.B f p.X,K |@g <@p.x t ~.Z [.*..#D. # #+  $k#b Z#U#U#@$f$R.b.o Q*f =$|@6@]@G#U.7.g g g R :@j W  .S %.t.v%J.C.d&#$H.l#]+`@` W !.l A*r=t B B }.!.u j.(%+$Z#:.+$R.D.k.c.j.Z k 0.z w -~j w !.&.2-t.+ y+k#]+c.x,v{..Z~D^                                      ",
"                                  o~<^d't+s+k+G-t't's+N!o+})J.D.h+='t..+]+='!+u.P./@N!k!u+d+%*7'%*`'`'z]8':'K. #!+c.y*o.j.6.%.y*S |$T y*o.H.j$q$s+I&I&M$p$M$p$M$q$Y&Z#*.j.&.Q*l k k _@l !.l v '.v W ~.k m o,#.j.I.C.p+K$K$$$G.z*.$.$.$H.K.d&#$+$v.*.[.%.%. .W W k m }.c&B m v k ~.Z &.!+b H.+$z*b,C. $_&F. $K.u%K.U#/%H.K.#*/@*.q #.o,j z p.=$u~7.K 9.a;t@W ~.n S [.Y@u.v.]+D. $K.:.+$J.U#@$c$+ 8*o k B ($9.|@>$2@U.g |@7.R ($&~v V p %.O..+K.+$H..$Z# $K.D.U ^.W !.=.t@z }.z w !.W ~.1+L.:.J.J.D#+ ]+t.m#S ~.j t@c&c&j H+}.k f.B$]++ ^~R.]+c.E^T.$.= F,                                      ",
"                                  F^}]d'0)Y'C,G-w)t'r+J.|;$*F.V.]+='o.g. #]+t.^+v.D.F.I&%*W'%*%*%*7'B'{@M$h$ $]+ #]+h.c..+j.[.;.[.*.[.i..#+$I&M$M${@M$u+u+{@p$++o$p+.$b.*.%.V !.l k t -~}.l m k '.'.k j 0.m k S b C.K$K$U$K$G.$$S$z*C..$.$Z#m+z*g*k.@.%.p 3.k n ~.t m }.&~m v !.V X@%.^+F.Z#:.:.z*7> $U#Z##*c$+$+$C.m+H. $b X#*.p '.W w z :@($|@|@g 7@I%:@B j n %.[.*..+ #+ + +$Y# $U# $K.c$R.D.c.p k W J&z R >$g 2@]@I%4+A 9.t@}.!.n S +..+#!+$C.U)C..$H.v.[.U n V c,%~z %~p.z t m '.+.R.+$ $J.:.+ ]+]+.+T 0.0.m B c&w m (;!.&.H+V.P.I.7-u.o...G=f.]#g]                                      ",
"                                  a^v,5&(#,*+'$*t't's+H.m+r+J.W# #]+g.b.]+.+ #!+/@R.K.p+%*O+p&+*7'7'3~u+-)p+J.X# #D.g.j.c.*.j.[.)+*.8*j.*. $o$M$o$,*&+M$p$o$o$8'o$h$C.W,y*2.o #.v j l P*l j k R+'.#.k ~.m V o *+g*$$U$K$#$z*K$l'G.#$z*Z##$S$$$z*b c.@.m.p o '.'.Q*m m l _@J&v W R+X $.m#g* $/%f$z*s)s) $U# $d$U#Z#H.&-K.#*V# #*.p '.k m w :@A C U.C 4+K i-B k Z U *.t.a$v.+ R..$/%+$+$U#/% $H. #T'Z@V m f ($9.=$I%<&L*g |@!*9.:@}.!.` &.@.t.F.H.Z#C!G.+$b &%U %.#.k k B z =;!-f m j #.o.7-J.D#U#H.v. #='b.&.}.w t t@t@0.j }.k &.A-V.Q.I.R.t.h.1.2-f.* I]                                      ",
"                                  G^l{d'(#t+U,C%t'w)s+j+m+G'&-D.D.]+b.c.u.c. #D.+ W#K.r+O+O+_'{+-)%*{+u+M$h$U#X# # #c.*+j.)+[.U [.[.*+o.)+v%N$u+p$p$M$M$,*o$++-)o$p+Z#*.U@%.Z Z l k k '.k n V m w j t '.W #.o b.b o+U$Q@z*#$(~$$$$z*Z#Z#C.C.l'.$ #h#[.%.q q '.l k A*k k v j 0.k #.v p ='v%C.Z#l'.$Z#K.K.c$b b U#P K./%U#Z#U#/@*.Z n X j A -$-$>$g |@E%9.r=6*!.).w.o.b. #I.+ k#+$U#H.c$Z##$Z#U#k#b.u !.m r=($-$R g 7.|@7.C R ($y j m s &.x,.+ $:.C.C.G.+$k#f#U $.'.v v t J&J&:@w m !.o .+b +$+$H.U#k#k#k.o.p W w m 0.&~t@j W W &.H+y+I.R.R.t.b.u J+s.o;)&                                      ",
"                                    @~R]Z)s+C%G-/#t't+.$j+I& $Q.V.]+t..+t.*+t.D.P.D.t!C%u+`'`'7'`'7'u+M$,*K$b  #v.v.&%(+*.j.+.i.S j.*.c.g. $I&M$-)7'-)Z)M$[),*0)M$l$.$!+*+S ` k k V W #.k k W l k '.V W W '.` i.t!o+$*U$T$K$z*$*U$K$#$.$C.G.$$S$l#W,U U @.|>'.k l k t l !.w }.~.#.V &.h+Z##$Z#.$.$.$H. $ $k#+$H.H..$.$H.U#Z#b h.` 3.'.m p.R K u~|@K R :@z w !.).j.j.b. #R.k#k#K.J. $ $ $H.H.K.R.b.#.m B i-9.g g 2@2@]@<&a@T=<@:@J&m W o U %+J.J.+$C!G.j+F.t.S ).V k ~.(;m B p.&~w j ` t. $:.C.H.K.k#v.k.o.3.l w }.B :@r==.W W $.%;I.I.+ I.u.h.3>J+q j,                                        ",
"                                    t{d'0)s+})o+_'t't+n+j+I&D#R.u.9>t.h..+b.]+]+P./@H.})3~3~C'7'-)u+`',*8'C%g*+  #D.v.b.!+c.j.[.j.*.c.u.t.K.j$++q${+u+-)0)p$L$M${@o$d&!+[.*.p n W '._@V W W #.!.l }.m k _@j ` i.R.G.C%G.U$z*o+G.#$C.d&b,z*$$U{S$k#c.[.).o d~R+-~m t 6*l ~.B w u #.'.@.k.Y#:.+$H..$Z#K.K.b K. $J.8-#$+$Z##$d&g*8*m.Z@W w ($-$g K A R 4+($r.}.j n [.[.b.S#/@l#D.K.H.s)K.Z#C.:.&-+ c.@.'.:@1&4+a@>$u~)]]@2@a@!*R ~+w }.W ).S .+7-H.Z#z*#$:.K.S#U ).#.k !.r=J&t@~+w m !.o W.K.+$+$6-N!k#D.t.*+#.Y j }.z B$:@!.!.'.S j ^~I.P.D.%+h.%;B$f.!-                                        ",
"                                    5-})0)G'p+o+/#t't+n+:.r+J.P.^+.+.+g.u.)+]+]+ #/@H.$*{+d+%*3~`'P$-)H^,*$*b 7-D.+ u.t.!+o.*.j.U U Y@t.t.b T#{+{@u+-)+*u+M$,*p$p$Y'/%!+o.;.m.^@v '.~.'.Z W #.V W t m l j l Z [.D.H.K$'+$$G.z*K$z*#$m+B!#$z*G.#$K.t.8*`@m.o '.l A*m m -~0.w J%k =.=.%. #;^H.U).$C.:.F./@F.K. $+$H.H.H.U#/%Z#K.Y@U p '.B R =$9.K E%($4+-$r.w j ` U ;.Y@k. #/@R.K.+$U#K.d$Y#8-H.R..+o A*B U&4+I%g ]@]@- a@|@p.($z w w !.n &.]+k#H.7>C.C.Z#b !+[.p X V w z z#r=t@w m m X@%+F.+$7>H.F.F.]+*.%.~.j j B t@z p.}.W V &.H+I.+ I.V.Z!+.J+J+..I+                                        ",
"                                    [+^#.{,*d'p+t'w%.{:.:.r+H.D.u.u.v.t.]+t.k.t.!+v.U#$*{++*7'u+u+0)u+`'I&7)b R.v.k.^+m#b.o.T *+T ;.*.c.k.H.I&{@M$p$-)-)M$p${@{@M$I&g$v.b.[.T ).p o |.m W W '.k l R+m m -~m t;Y@k#$$T#p+p+G.$$o+$$S$#$.$.$#$z*C./@.#[.S %.p '.!.m 0.m m m w z#k W k &. #t!Y#/%J.Y#d$b R.b b t!F. $Z#H.H.+$J.K.b.%.p Q*r=p.i-9.R K K ($($f B k |>U ;.t.u.+  $K.t%+ b U#U#.$7>H.R.!+` Q*'.~+:@=$4+7.<&r#4+R ($f t@z w '. .U f#d$H.C..$B!H.k#i#[.q n k }.}.!.J&c&w j j n .+J.+$U#J.F.^~t.w.S 1.o,!.}.z t@t@j u ~.^.!.R.P.I.V.w++.B+^ d.t,                                        ",
"                                    I^o+~~,*q+G-t'w)-)C.m+k!H.P.u.t.!+m#v.]+t.o.]+S#&-C%%*3~%*3~u+u+[)M$N$h$H.R. #k.t.o.b.Y@U w.1;h.)+o.t.K.j$-)p$o$M$M$M$M$M$-)u+q$'+v.*.%.].o o |>o !.$)'.n =.k k j m j Q*m.*.d$l'h$T#$*o+z*Q@z*#$Z#z*z*K$z*G. $c.%.m.%.o #.H+!.l j m j l !.W ~.'.S ]+K.H.U#H.z*C.Y#K.k#k#k#H.:.C.C.J.&- $R.j.T Z@k :@p.p.=$!-9.1$i-p.z 6*l &.U j.m#V.+ u% $R.F.s)+$ $C.C./%g#*.` ~.m ~+($I%]@m@2@]@>+I%4+4+9.z k '.` %.+  $8-7>H.+$N!b )+%.&.#.v m H+k w B t,V-V ` .+ $J.&-J.F.R.o.h.+.).k w w z w z }.'./ f.^ 7-+ R.v.g.+.G=/.` #.                                        ",
"                                    x!^#t+t+})C%)%w)`'n+:.I&H.I.]+t..+(+t.]+u.c. #+  $p+7'O+7'%*`'u+{+-)N$}~J.v.]+u.g.Y@1;)+[.j.i.;.*+b.]+ $j$M$-)p$,*M$u!p$-),*u+I&$$D.1;&.o n n |>n '.Q*'.'.V W k !.!.W ~.p *.k#z*h$K$K$l''+C.z*C.#$m+#$G.G.#$b *.o o S n 1.W 0.0.t@w m w 0.m |.V Z@D.K.H.+$:.z*Z# $u%k#k#K.H.#$#$$$d&f$+$R.Y@T @.'.t@J^f R p.K -$R ($z B !.).U +.Z!v.R.F.K. $8-s) $7-f$+$ $g#b.#.'.A*}.A |@r#1@U.|@I%R 7.K 9.B j o @.j.t.F.s):.+$.$H.d$k.^.).W '.!.(;}.}.B j l j '..+K.&-H.u%K.+ 9>h.S ` W (;w B B$t@W #.d.f.u F.I.R.O!E.S J+/./...                                        ",
"                                    D)$*~~,*q+T#p&w)$'k+7>M$H./@P.u.v.c.^+u.h+t.v.g#b U$-)%*<;u+`'u+0)0)s+K$ $V..+t.)+o.*.j.j.*+j.j.*.o.c.R.r+q$M$q$u+,*,*M$-)p$-)N$e;b *.T o '.'.'.o Z ^@n #.R+w j k k k ~.p j.b b,T#p+K$K$:'z*$$z*$$C.#$C.C.#$/@t.%.Z &.|>X@Q*l }.B t@c&c&j A*'.n @.D.K. $U#.$d&H.U# $_&k#g*+$C./%C.d&Z#+$k#b.;.p ~.J%($4+4+S+g g R U&}.m Q*).@.;.b.S#R.&-I.d$J.:.Z#Y#d&6-U# #*.'.k m r=4+U.m@u*]@g R R g #-:@0.W ` S %.k.U#+$U)Z#Z#@$K.]+%.o W u 0.}.w t@x m !.v n A+F.H.H.s) $I..+j.S ` v m B B w t@W n.1.` 1.I.I.P.9>g.$.B$d.1.q                                         ",
"                                    K^C%`'t+})r+O+q@d+k+.$M$H.+ h+h+D. #D.='k.!+D./@H.r+j!d)%*O++*u+u+0)p$r+Z#/@.+t.o.*.;.[.[.[.j.[.W,)+)+g*p+u+M$M$M${++*p$B'{@M$T#z*R.*.&.^@V Q*'.R+e.|.'.v o o V k m }.k o [.W#m+j$j$})z*d&$$U$$$#$#$#$.$#$.$/@k.[.p p p Z k j B J%r=c&c&6*n ` #.%.D. $U#`#Z#C.H.U#b b l#v%:.#$.$Z#m+C.H. #R@%. .m r=p.:@U&A K I%<@K&B t '.&.U ;.b.D.l#b b H. $:..$Z#H.H.U#B.*.).k 6*z E%a@0&L g }@-$S+7.($z B '.` O.@.+ d$Y#+$Z#Z#+$k#v.@. .n Z k W }.B J&!.!.V ` ]+J. $ $J._&/@t.o.j.p A*m c&}.m 0.W #.n s.s.|+D.t%t.b.@.B$1.1.^.                                        ",
"                                    L^U,Z)-)G',*p&q@s!'+:.8'j++ V.V.]+]+ #]+]+ #W#k#K.r+u+=)%*=)7'`'M$u+s+p+H.k#.+t.)+)+o.o.[.*.[.T *.1;b.K.p+P$M$M$M$M${@`'u+{+P$I&:'b *.2.o n R+X@~.k '.~.l X ^@'.A*B }.Q*3.+.W#~!N$o$U$K$#$Q@Q@$$z*K$z*S$z*f$V.b.[.&.o o Z '.k m K&B w B B ~.o '.S &%d$N!d$f$/%Y#H. $k#b K.:.:.+$Z#+$Z# $g*m#T $.W 0.($($($($g ($f w j m '.S ;.o.t.+ R.R. $d&/%Z#J.+$C.G.Z#R.8*o l 0.z R 4+i ]@a@; 4+g g ($t@m '.Z q 2. #J.H.+$+$/%8-k#]+@.p '.'.v j w w B !.l W &.9> $ $+$J.K.k#k.o.j.%.j m &~0.w j k u ` R*..k#f)I.g.h...2-V)u N.                                        ",
"                                    M^q+z!7'Y'G'=)t'=)K$B!8'j+R.h+V.O!]+D. #]+a$t%k#H.T#u+O+%*=)_'7'p$u+,*s+H.L. #t.*.b.m#*.[.8**+N.*.*.m# $p+{@M$M$M$p${@p$u+{+u+o$K$b c.U@^@#.'.'.o ` ^@o '.V p ]^k A*m '.p [.R.#$T#p+Y&p+G.$$l'$$$$z*G.S$G..$V#b.`@` ` ^@'.m 6*%~J%c&B B |~m k V U v.K.U##*Z#.$H. $u%R.R.g*K.H.H..$.$d&/%R.t.U@2.n k B B$:@4+-$R ($:@m !.n %.o.*.]+L.R.k# $+$k#R.R.+$H.b K.W#o.o }.t@:@($p.S+g C >$I%7@4+p.p.j '.|>&.6.]+J..$.$7>Z#+$F.u.&.).W '.!.k B w B t !.V q ]+&- $ $H.J.t!u.c.*+p k j &~j t@t,W / s.Z &.R.I.V.E.h.d.B$$.Y u.                                        ",
"                                  r!N^$*j!Z),*s+<;q@)%K$D#s+z*R.V.D.R.&%v.v.v.]++ + U#K$P$B'<;u+%*%*{++*q$j$ $k#]+c.b.*+t.)+W,b.j.j.o.o.*.F.U$P$I&,*u+,*&!{@++p$o$o$U$#*c.[.J>~.Q*k !.'.X@'.'.o m.|>v _@k #.p T@R.F!j)$*U$K$'+i$G.'+#$.$d&8>#$#$g*b.T@].).^@k w B :@f c&t@w B -~l W 2.9>b U#U#f$G.:.Z#/% $ $K.b U#H.#$f$U#/@/@k.8*&.o '.t J&t@!*9.<@9.B k W n S j.j..+/@R.k#F.K.d$U# $/%U#g$Y#R.o.o (;m z c&p.C a@g -$<@g !-!-($j o ).m.S D.J..$Y#/%:.U#/@]+@.p V o Q*V B t@t@w }.V-@.h+ $ $U#U#J.F.t.c.j.` j w t@z B$H+!.'.1.#.^.R.V.V.b.M.=.A=f.H+Q.                                        ",
"                                  0 '+U,Z)`',*u+)%F'.%r+J.,*'+R.V.]+]+^+v.V.k. #k#F.H.K$M$+*+*{+u++*{+{@N$p+U#b K.c.c.o.o.o.*+o.j.S *+;.)+/@U$M$j$j$p$-)p${@q$7'{@j$$$g*.#T@].'.R+Q*'.R+W / k p p ` ~.l k ~.p s{b $$j$j$h$U$S$i$h$z*$$z*#$G.$$:.k#]+T@S ).^@|.]{m m z#6*z m t Q*'.#.%.S#U#Z#/%C.#$C.H.d$b b b U# $+$d&Z#g*U#V#Y@p 3.n V }.t@($;$9.($i-m !.v |>S [.;.b.]+l#c$U#J.+$H. $H.H.+$H.k#u.o m z#t@U&R U.]@U.-$4+<@r=:@z !.q V@S U v.U#K.U#Z#/%K.u%k.y*S o n Q*m J&t@m m !.V _,u.u%+$Z#+$&- $D.u.i.Z _@t A-B B j W V o u | + ]+]+h.h.w ^ /.B$o+O^                                      ",
"                                =!}*U,p+j!C't+7't'q@-!Y'8-I&o+P.h+h+D.t.u.]+]+!+/@k#+$o+-)%*<;%*+*+*7'u+,*I&H.D.R.k.o.[.h.!+R@o.*.S [.o.o.D.(~N$,*M$M$o$u+{+{@u+{@j$F!/@Y@[.Z@o '.R+'.|.k k ~.'.#.k l A*W j p $>+ #$j$T#T#T#$$K$o+z*G.+$C.#$l'.$b k.y*U p o '.j m m 6*B z t@k k ` ` %.&% $Z#H..$U)+$8-b k#g*K.&-J.j+#$U)Z# $/@c.Z@n o V t@B z f p.:@0.}.m #.).U *.*.b.]++ H.J.H.H.+$ $U#+$ $ $U#.+).z#:@p.($g }@a@|@R 4+9.i-i-c&!.` p S.U D.K.K._&.$H.H.K..+*.j.|>n _@j 0.v 0.}.m W 8*v._&J.U#s)J.k#]+]+;.` W j B$m }.=.W W 1.p;+./@]+.+N.N.B$=.u J+M$P^                                      ",
"                                4 [ ^#G'z!`'0)`'-!t'=),*&-I&o+L..+D.P.]+v.]+ #]+v.k#H.z*M$$'<;%*%*_'%*P$I&p+ $R.V..+o.;.o.b..+W,*+U ;.*.j.k#C%o$I&,*u+{@z]u+p$p$&+o$n$A).#2.U |>v v '.'.'.Q*k t |.m m !.!.X ].j./@Z#T#p+Y&p+G.U$:'U$$*f$~!#$#$H.K.f#S S O*3.X@~.A*B :@f d,t@i*v #.#.U  #/%C.Z#S$z*S$d&Y# $U#K.+$.$.$#$.$/%J.W#c.%.p '.k t@t@!-f p.:@:@~+m '.).i.;.;.b.+ F.E-u% $K.u%U#K.K. $J.l#g.1.B :@($-$}@7.K |@E%>+#-9.4+r=W J>@.r ;.i#k# $U#+$&-+$K.v.c.U o n V m 0.}.0.B }.V j.&% $ $H.U#H.F.V.]+r p W m m H+H+j W k #./ r h+h+(+;.+.y 3>(.p,u%Q^!{                                    ",
"                              .'( f.I>`'`'`',*$'-!q))%o$H.k!$*b ]+O!h+.+]+t.]+]+ #k#H.z*M$3~7'd+u+7'7'{@I&:'d$R.]+k.;.;.c.t.k.o.[.[.*.o.;.b K$I&I&o$,*P${@u+{@{@p$q$h$A)k.y*%.o n]v =.#.Q*k k _@#.k m Q*R+'.` j.R.#$I&j$j)h$G.h$:'K$U$$$0*.$.$+$/@k.*.y*m.3.o Q*R+0.J%z c&B 3=R+X ).U t.d$Z#b$$$l'z*m++$ $K.H.H.Z##$j+:.Z#U#+ *.@.Z k 0.z :@p.p.($p.t@m t k n T o.h.g.]+B.k#7-J.&-H..$H.U#Z#Z#b c.J>%~:@<@w$a@7.|@/~|@K ($~+4+:@k p ].S U .+k# $F.U# $H.k# #c.`@|>Z V j m j }.z }.V T  #+$k#s):.B!K.+ t.S m.!.k w H+j Y X l d.W ;.u.V.g.h.+.t@#.p;R^z+S^T^U^                                  ",
"                              1+N.V^i,b'u+$'-)=)q)q)_'8':.,*K$R.h+h+O!S#h+]+&%]+D.k#Z#K$P$%*7'%*3~u+&+z]8'h$U#D.v. #;.j.)+o..#t.j.[.[.*.*+b j${@M${@p$u+P${@u!+*+*j$n$k#c.*+].p k k k X #.k A*'.R+!.}.v k #.` o.R.K$I&T#T#U$$$$$z*#$$$z*S$S$G.#$b )+`@[.%.p X@R+k m 6*B :@;$B ~.#.@.[.&%b Z#Z#l'#$l'@$U#K./%Z#+$.$.$+$/%/%R. #c.%.o k k B w B |~($J%;$j X o o +.;.b.%++ k#k#U#H.J.Z#/%+$`#Z#g$b ]+@.j ($:@=$g R R >$7@($U&($p.z W ).).[.[.S#k#&-K.+$+$:.b + R@[.^@o k k w w m w j n ;.I.8-J.:.:.D#d$]+]+[.p !.j }.w j o,Z Z 1.Y (+]+9>g.w.S l /.=.%;t.j]W^X^                                  ",
"                            Y^..X.r y.a'2)$'C't't'w)`)0)+$I&o+P P.I.V.X#h+v.!+9>+ R.Z#'+p$=)7'=)%*{+`'u+&!p+/%D.v.D.o.;.b.c.c.b.j.S [.*+b.k#V$M$0)p$z]+*p${@{+{++*q$(~/@!+*.@.o l k k '.V #.!.V k m B m l ~.p o.b $$o$j$j$$*$$G.G.G.#$~!z*0*S$G.V#f#*.U@3.m.o '.V l t c&:@B 6*j #.p U ]+b +$Z#C.C.Z#Z#d$d$H.Z#H..$z*b,+$N!U#v.;.%.o ~._@z#B 6*:@i-:@R B X V o U o.*.c.v.+ l#c$+$+$U#d$b +$7>Z#H.k.@.B f ($($<@g K |@g p.f ~+($t@!.#.A.+.r I.F.K. $/%B!H.k# #k.[.p '._@m w k l w u n *.I.:.J.:.H.D#H.v..+%.Z@=.}.V-w !.'.#.o 1.Y g+u.='g.N.&.j W W x 2@k*W^Z^o%                                ",
"                            `^s.S.5.| p&-!<;=)t'w%t'<;M$i,G'C%7-7-I./@q]D.v.7*&%+  $Z#'+M$%*%*3~3~O++*M$I&K$+$+ &%&%c.8*c.)+*.o.[.U [.[.$>R.j$M$p$p${@-)p$u++*u+u+s+$$k.b.U p o W _@v v '.i*V Z m m 0.0.m Q*p c.b i$q$j$Y&h$#$$$G.#$S$#$#$$$G.#$v%k.)+p 3.p o ~.k m t t@c&B 0.j '.^@;.S#Z#Z#z*o+$$$$g$k#K.Y#.$H.:.+$Z#B!+$b  #c.T X R+V 6*U&F%U&:@:@S+z t v o j.o.h.b. #+ k#K.Z#:.J. $U#+$+$+$b )+p A*:@R S+!*R g R S+~+f ($;$~+!.'.^.@.N.+ K.H.U#H.U# $K. #u.i.p k V !.j !.m _@#.n *.k#:.8-.$&-.$u%h+(+&.m._;}.w 0.!.W #.R*#.t,h+v.]+t.[.&.W u %;]### /k*b+H+                                ",
"                            ./e~+.f.q J.*)d)=)c;r$t'<;0)j+})'+g*t%P.D.g* #t.&%]++ #!H.z*u++*%*+*7'%*7'u+q$:'7>R.+ B.t.*.*.c.)+o.j.m.j.*.o.R.T#u+P${@M${@&!p$u+u+{@q$i$ #h#*.%.'.'.!.v v X k '.Z i*m t@}.B m s b.k##$T#7)p+U$o+U$z*#$T$T$G.$$$$G.c$c.;.` |>V@o '.n v A*c&J%:@m k '.` +.+ Y#G.$$$$$$G.+$ $U#U#.$H.C!U).$.$Z#K.v.c.2.Q*'.'.z#r=:@R 1$f ($0.t u  .r *.0>Y@t.]++ L.d&+$+$Y#`#Z#f$.$H.c.3.m c&A u~!*4+7@4+K R -$!*!*t@!.{.^.| b.+ c$b b H.+$ $ $]+%+j.o V V _;J&w }.W V 1.;.P.U#J.:. $J.R.v.g.%.A.e.l m m W u n #.W j ]+h+^+g.S @.s.Y U.u#y%D$t$b+=                                 ",
"                            9);.V `  .j.w%-!t'q&q&c;_'-)j+o$o+&-t%P.D.+ D.]+&%D.I.W#K.C.{+3~3~%*{+B'p${@M$K$f$b D.D.c.o.j.)+8*;.U [.y*;.*.R.:'M$M$P$&!p$u+M$B'{+-)I&z*f#)+U@p o V k l '.'.'.~.#.W m 6*t 0.w '.;.k#z*W$T#n$U$$$U$G.S$G.G.C.S$T$z*b k.y*|>'.3.|.V '.j B c&~+B 6*e.o p j.D.H.z*o+T$S$#$.$H.b U#U#&-:.m+C.+$K./@ #b.).X@o k f f ($A T=R :@w !.l ` %.;.*.*.k.R.R.k#+$+$.$Z#Z#H.U#+$u%g.U k B :@-$R 4+R A R ~+R ; A t@V ` ` @.*+O!W#7-l#+$Z#j+t!D.)++.n '.R+!.w l j k k n U R. $:.H.:.7>I.v.h.).).k j t w !.#.).1.o,Y V.u.t.b.S +.&.z ,$u#%#u{+/M*|=                                ",
"                            ~~C%B$$.d.(@J.v')%c;['Q't'0)m+})$*&-t!7-/@V.V.O!|)D./@g*s)G.++7'`'%*+*%*u+{@q$Q@H.R.h+I.^+h.h.1;N.[.S S T t.o.R.U$M$p$P$P$p$p$u+{@u+0)q$$$h+c.[.p o R+k k '.V V e.#.l A*B m w m '.;.R.'+U$I&p+U$$$:'z*C.z*#$(~h$$$#$R.t.[.o R+Z Z W W 6*:@t@w z#t@|.` m.*+/@+$o+'+Q@G.l'C!Y#b k#d$&-+$.$H.U#U#g*]+.+p o '.m t@B :@f R ($p.}.k '.` ;.o.b..+9>g#R.F.H.C.:.+$U#U#+$g$K.%+p !.j t@z ($K |@($9.($R A c&B V ` 1.^.;.V.V.l#c$U#+$K./@D.g.U n o V !.j }.k !.k 1.[.I.J. $J.n++$+ o.S ).u j H+j 0.=.W ).1.u W v.u.t.u.^.j.=.F _.b+l*E n*b-1.                                ",
"                            $'%'&.^ &...1;w%w%I){)c;s't+z*})$*K.g*7-R.R.t%D.D.+ g*t!H.K$u+7'3~3~3~%*-)0)I&K$B!t%O!D.k.o.o.o.j.U 2.T T o.m#b Y&M$u+o$M$P$`'u++*+*u+M$T$S#t.T %.o X '.~.X V n j j '.!.w }.l k V U R.G.I&T#:'$$$$0*z*C.#$Q@T$K$$$:.b k.U &.Z Z W m m B ($p.c&w !.'.#.o 8*i#J.j+j+G.~!+$U#K.b b U#C.8-f$C..$/% $D..+S ` V j -~B z B ($!*9.H+W n p U o.Y@.+V.W#/@g*H.Z#Z#+$+$.$+$`#k#c.).W w m 2&1$7.7.K A =$A K R x W n n @.o.]+P.D.K.K.Z#H.g*D.m#^.#.|>'.t o,!.k W V 1.[.k#J. $H.J.K..+^.@.o k t y j w j #.m.R*u ^ D.t.m#g.+.N.L*c+,$|=u#b+,=x#T#                                ",
"                            C#P I&p.p R*S H.|'J':+c;F'M$o+U,p+7-I.K.k#R.g*/@D.v.D.@/K.#$u+s!`'B'u+7'7'M$k!C%H.R.+ W#t.t.*.)+o.j.)'[.@.[.)+k#p+u+u+q$p$u+{@M$&+{@{+M$G.7*R@[.%.'.Q*~.'.|.|.Q*A*m !.m B w j t '.s{/@#$T$T#m$K$z*$$l'z*z*z*$$$$#$K.k.R@T o W ~.m :@6*B U&f |~B J&k X ^@+.t%#/f$.$S$Z# $ $/@b F.H..$/%.$+$H.+$b v.*.p Z '.!.m }.c&&~($I%:@B '.n Z U *.b.%+u.D.b K..$#$f$Y#U#K. $H.U#S#@.u B m B !*|@E%K R ($g R p.J&W '.n q )+k.D./@ $ $H.K.D.]+o.).u ` W l k j w V '. .j./@F. $H.F.B.+.@.` l }.0.&~j -~H+V A...u (.D..+t.b.;...- E S&~#y%x#,=j m!                                ",
"                            1{8)`'&~m.#.m.]+t'N+:+J':+-)C%})p+H.R.K.k#u%R.I.D.+ W#t!d$$${@%*u+%*d+7'u+u+I&K$H.I.l#v.c.K]m#)+*+[.U [.y*j.o./@U]p${@N$M$o$p$M$u+p$u+I&U$!+*.T `@|.!.m m t k v _@k m j B m k k '.j.D.C.h$h$n$U$$$$$l'#$$$'+#$~!0*K..+[. .'.k W }.B t@-~B J%($K&J%`*~. .S O!U##$l'S$+$d$N!b c$U#N!+$U)H.H.+$.$ $ #j.p '.!.W m B 4)A*z :@m A*v n  .U b.b.f#D.k#U#J./%Z#C.Z#_&Z#+$;^k#.+n B m c&J%4+I%R g g =$4@g ;$0.V #.|.%.t.]+ #/@t!t!K.b R.o.`@n ). .V k k j k u '.p o.D. $u%U#F.Y@&.n W j c&4)c&w -~k W &.&.V 1.v.E..+h.+.W +#I 1#l*8+W*y%&~]+                                ",
"                            P~{-q+='#.).q o.o+K'|'J'J'Z)o+$*p+8-K.k#l#R.t% #v.V.&%b  $f$M$%*%*<;O+`'M$p$k!:'f$/@&%k.!+c.b.b.*+r m.@.y*U *.B.K$p$-)q$M${@o$u+&+{+p$&!p+&%8**+T X k z#z#k V !.m W }.A*m k V k X@;./@#$p+7)U$h$$$z*z*l'$$0*G.#$b$b &%j.m.'.W k 0.m m B B B f z B k X@o %. ##*g$#$d&+$H. $c$K.d$Z#+$8-C..$/%+$b + U o '.k k B t@B j f :@B m '.).n U )+M.0>.+I.I.R.N!H.U#b  $b d$b R.t.q J&}.z ($!*4+g 7.R 4+g 1$B }.u ).` @.Y@`!v.+ (%K.b P.]+j.T ` ` ` |.l m m '.n =.p *+V.F./@/@t.o k '.J&:@f j B$B$H+W e.x,).!.q h+t.g.g.&.4+J f@|#H %$$/^.p.z*                                ",
"                            b]y.k+p$e.` ..T ]+J'l%V'J')^G-q+7)H. $ $R.R.k#W#]+]+]+R.N!.$I&%*%*_'Z$7'p$I&r+o+C.R.X#v.b.o.o.o.*.[.U j.;.[.*+D.p+-)%*p$o$p${@M$M$p${@o$h$ #W,T [.3.|._@z#j '.v !.!.k m w j '.|.^@1;U#z*h$p+n$K$#$z*h$o+U$$$$$G..$b 7**+S ).'.R+0.0.B z#t@c&6*K&m k o p %.D.H..$b,C.@$Y#b K.H.Y#Z#Z#C..$Z# $.$g*/@o.%.|>'.k t@B$:@w =$9.($w |.o  .j.g.W.b..+&%R.b Z#H.Z#+$+$U#u% $+ .+&.W m z#i-4+9.R C g R 4+9.t@j '.q #.4.c..+t.D.R.b t%P.k.Y@%.` &.` #.V V k V n.1.@.g.D./@h+h.&.0.=.0.($f B j Y,B !.W n ` ` j r ]+t.t.b.w H s#1#b+S&3#N*).^^p+                                ",
"                            i'^+F-s+=''.` &.[.K$,'C#v'_'p+Q~}).$H.H.l#k#d$P.]+D.D.v.R.Z#r+7'{+#)%*7'{@P$p+z*#$K./@+ .+b.o.o.[.O*m.%.U %.o.W#p+q$u+P$I&{@{+-){@+*{@N$(~f)*.[.V@3.a.k m A*$)A*k l _@!.j o,~.#.o S l##$U$Y&h$U$:'l'z*C.#$f$S$S$d&+ c.j.U '.X@t W&c&B 6*r=c&z#z m #.` #.U W#/%Z#H..$U# $ $ $c$U#+$H.Y#:.Z#d$ $K.k#*.].o Z W B B J%z ($K R m v o |>Z@U c.b.v.D.k# $G.C!:. $c$ $ $H.X#.+2.k B K&R R ($g 7.E%R R :@w l '.n n i.)+o.k.W#I.I.V# #t.o.[.&.p Z / #.W v W n '.q b.v.v.t.).t@p.w f -$:@0.m B z W l d.` n j +.9>w+^+&.7.J b+|#_.u@G;&.k Y m+                                ",
"                            %/7-o+$*C%c&{.$.*.t.n&f'6)I)r+U,K$C.J.H.R.R.k#K.u.]+R.t%R.U)p+p$u+=)_'O+u+p$I&K$f$k#B.&%k.c.)+;.[.%.p S T j.*./@j$p$u++*M$7'+*-)+*+*%)p$j$V#T [.p X@Q*k k V !.'.m v k !.m ~.V #.p *+f)G.T#T#p+U$T$z*C.C.#$S$G.F!+$ $7*;.%.^@o W 0.m 0.m 0.m m c&}.#.o o 2.]+l#Y#b Z#/%H.U#c$Y#+$Z#.$+$ $U#:.+$U#R.*.m.|.#.v w B x B ($!-:@}.k '.` S ;.b.b.9>I.u%U#.$C.+$H.c$ $Z#U#b k.` m c&r=;$K |@4+K R ($i-~+r=-~d.1.p j.*.Z!v.D.R.+ R. #]+g.T@%.o o #.V u V k n |>@..+W.%+;.'.~+p.:@k,I,t@w B t@}.W W #.d.1.!.W.u.u.g.~+k*M@u#f@1#~@j@1+1.Y C%                                ",
"                            #]|+|;$*-)k #.S S u.H.j%|':+,*G-h$z*H..$K.&- $k#R.]+D.D.P.H.z*o$-)W'O+%*u+(#k!h$.$K.D.D.&%.+g.*.[.S &.&.S U o.I.p+-)+*P)o$-)+*u+Y$O+m!{@h$b W,U@|>` V k k W !.'.k l W k m k V V X@S D.z*T#j$U$U$z*z*d&#$z*b$z*S$f$+$+ *.V@n Z R+Q*m }.k J&j }.m R+).o ).S v.k#Y#Y#+$ $H.U#+$d&+$U#H. $+$+$H.J.c$D.W.Z@X |.k w :@($:@9.A ~+t@k o #.&.o.h.b.V.+ L.#!H.H.K.J. $_&+$c$W#b.o B :@F%6*<@|@g I%A ($~+~+z z / p p [.*.c.&%D.+ l#W#+ k.!+[.&.|>o V =._;!.!.'.#.%.%+E.M.&.}.($B c&:@p.B :@:@2-!.W V u u #.V .+z+u.o.K S&##u#q=Q @-~+f.1.x.,*                                ",
"                            &/D.o+G-s+ $f 1.&.;.]+t'D'*)`'U$G-'+:.G.K.H.H.b 7-I.K./@D.7-:.h$s+u+%*$'{+u+I&'+Z#R./@v..+t.c.%+o.*+[.S %.j.*./@K$,*u+{+P$B'u+u+%*7'O+{+h$k#o.`@@.o Z k !.'.R+'.'.Z ~.V 0.!._@V o %. #m+p+I&I&p+$$o+$$$$0*$$K$G.m+H.b *.2.o o R+j j m l B j m c,_@`  .p U  #c$ $U#Z#Z##$Y#U#d$+$:.H.U#U# $K.b k#k.*.2.p V W !.~+A !-($($:@B '.'.n @.;.b.W.V.I.(%k#.$H. $ $k#k#U# $W#t. .m t@z %~I%7.g G+9.($r.9.:@}.u 1.1.8*b.Y@%+D.R.+ D.W# #c._,@.&.o V !.V B j W #.@.b.t.+.V j B$l B =$z J&&~w t@j ~.W V #.u u P.V.(+^.E */,$n#N =-O@).1.*!5+Z)                                ",
"                            [;^+C%$*p+u+}.m &.j.]+D.]'v'O+K$p+z*:.m+K.+$U#F.&-D./@k#t%g*R.d$z*q$B'{+p$P$s+C%b,k#+ D.u.t.t.t.o.*+*+T +.o.c.k#r+u+P$++p$3~u+-)%*O+%*N$$*b *.U@Z@#.'.!.v |.X@#.V '.'.k z#k t k X@S  #Z#U$p+T#U$o+~!!!8>h$h$T$G.C./%l#Y@`@|>3.'.k V m 6*z#0.A*!.'.'.o p j.]+A)b J.+$Z#.$+$Z#.$Z#.$ $#*#! $U#U#K. #;.@.X@X k B ~+;$($i-R !-B t s o U U@*.u. #+ + K..$U# $ $l#b K.H./@)+X }.U&;$($g 4+A p.($;$~+9.c&B _;n ).j.;.*.9>D./@ #V.B.7*c.[.).@.n n v }.J&A-V V &.b.o.).W !.r=!..>p.B r=H+t@m m #.V V n V 1.+  #r !.S&I %#6=,=@-K /.s.s.y j!                                ",
"                            =/1 '+K$C%z!&%A ` [.j.o.$*D't'o$o+K$m+z*:.H.H.R./%R.+ W#q]V#g*t!W##$K$&!p$,*p+Q@f$H.V.+ c.t.)+c.o.*.[.j.T j.t.W#h${@u+{@%*%*u+u++*{+{+M$T$k#;.%.V@p ^@X@'.'.Z o |.'.o Q*m m A*k '.S  #:.K$h$h$K$K$T$G.U$T$T$T$z*Z#+$k#.+%.1.o |.R+W }.}.B 0.m m A*'.p  .*+&% $H..$C.C..$+$.$b$/%+$J. $+$Y#U#Y#b D.Y@2.o R*'.m w 0.~+($p.~+w k n o 4.U j.t.I.l#k#H.m+Z#H.H.K.U# $U#/@b.^@m S+R B :@9.R z :@p.i-;$B w _;n &.U [.h.!+h++ V.D.P..+h#*.p n #.o #.!.}.!.W j @.;.S u ~.z#&~c&:@c&w w c&l :@}.'.!.W 1._;` I.W.@.4+{*n#*$%$=--/=.j 3>/ E+G'                                ",
"                            ;/N.G-'+G-G'%*9.-~r S *+(+6)t'-)C%C%j+z*.$+$.$ $8-U#R.b /@ #]+R.]+R.:.j$o$j)p+.$C.j+t%R.%+t.]+.+c.c.*.[.[.*+*+/@h$p${@M${@%*u!M$u+%*{+&!T$k#c.`@%.^@p o o ).X@S*X@'.k !.t !.k W #.&.v.H.$$F!U$G.m+G.$$0*$$o+G.+$H..$ $*.@.&.p 3.V W _@m r=w B l m =.o p j.]+_&U#H.z*.$H.+$.$.$U)+$H.U)C.+$+$U#b u.j.%.p n X B 6*J%:@R !*~+t@k W #.@.h.!+D.g#(%7-k#.$+$H.K. $K.K.k#+ o.).j 4+1$z :@9.g ($;$f ($~+0.m k n &.[.+.b.k.+ I.R.v.D.c.)+*.1.W k n.=.j t@j V j &.;.@.'.j z z w j y w }.A*m z #.#.k !.#.u &.D.j.1.n#*$u#*$M*>/2>=./ 3>p,o;H'                                ",
"                            ;/1+k+o+U,I&=)b.j, .%.$.r .$6!+*T#r+m+Q@z*:..$H.J.+$h+I.k#V.R.R.k.&%K.U$I&o$I&l'f$C.R.+ V.]+&%]+b.)+o.j.j.;.)+D.}~p$p$M${@{+u+P$u+-)u+u+U$A)h#[.%.o ).{.n X@|>o X X '.V 0.!.m j #.@.]+ $o+G.h$K$z*$$U$h$h$p+z*.$C.+$R.c.[.p %.n k R+_@m B B c&w m !.`  .w.]+H..$.$z*Z#Z#Z#Z#Z#+$_&H./%d&.$H.U#R.]+[.U %.o |.m B x 9.9.~+:@}.k '.o @.j.c.k.v.g*+ k#+$H.U#K.K.K.b k#v.j.).}.r=($:@z 4+R i-($~+<@:@j j '.n p U j.t.S#/@h+D.R.+ )+;.].m k V n V-w }.}.!.!.n j.x,W H+w &~}.w =;H+W l k w './ =.W 1.!.S ]+f.x u#M@l*f@=>1#u =.^ p;Y ,/'/                                ",
"                            )/i.'+|;C%s+,*-)f ($S n ).&.c;<;s+t+$*p+o+o+#$.$&-H.+ v.I.&%h+R.t%!+.+B!h$I&$*K$m+z*t!/@h+v.]+u.t.)+*.j.j.[.o.D.Q@I&{@&!&+%*+*z]u+{@{+,*U$l#*.y*S  .p |>'.'.'.'.'.X@o X@'.l k V ` S v.J.U$U$:'K$$$!/T$K$:'T$#$d&+$U#X#c.[.p p ` '.R+R+m t@c&c&J&A*'.@.@.j.c.b Z#b$#$C.d&.$Z#+$U#U#U#+$.$:.Z#+$A)v.*.%.o |>'.t t@R A p.($=;J&k '.'.&.U ;.t.v.v.D.k#H.+$+$ $b +$H./@X#)+%.!.B ($~+:@($~+:@($4+=$0.W W #.` q ;.[.k.i#t% #D.V.o.o }.}.w !.k W j z }.-~k !.'.&.#.~.m j }.!.0.H+!.#.n u k / u u #.j =.;..+!.4+&$u#f@8=Z-($W W ^ /.( > ~/                                ",
"                            {/]/C%^#$*d'(#=)6.($j W j Z t.q@{+-)r+p+K$#$8>C.b H. $W#R.k#W#t!g*]+D.K.z*p+p+U$$$z*W#W#D.]+g. #t.o.o.[.*.*+1;!+H.N$M$P$[){+%*%*7'7'{+o$z*R.*.U ].^@m.p 3. .o o '.'.'.o '.o '.'. .*.V.C.h$h$p+p+U$U$$$$$z*Q@$$C.`#H.K.c.U@&.&.).A*W '.3)B B m A*Q* .%.).[.7*U#C.#$K$C..$:..$U#U#U#J.+$+$+$H.d$b k.+.m. .o !.z J%<@A p.($B }.m o o @.[.*..+D.D.R. $Z#+$_&U#Y#4~c$V#.+N.%.~.t,:@c&:@9.=$9.A R ;$m l =.).` ).U c.]+]+v. #+ j.X :@x B j,B _@'.w }.w :@W H+W d.d.X@~.j W W }.!.#.'.V V #.#.n 1.W }.W j.h.l - I |=<*w@O@=.H+_;H+3>: > H]                                ",
"                            C^(+v+G-U,q+,*.{s+K H+m w W #.z*<;j!,*T#K$'+K$C.N! $ $t!R.R.D.D.+ t.o.W#.$C%$*}~K$o+K.+ O!='!+]+!+*+w.&.[.j.|$c.b l'l$Y&I&u+O++*7'7'-)o$h$g*.#U p |.1.p o #.` |>'.W '.` '.n n #.#.r D.$$p+K$U$h$$$K$K$l'G.K$$$C.f$+$ $.+S &.` Z ~.W ~.k z z B m k #.).p [.g.F.Z##$f$+$.$C.+$J.K.b U#H.+$+$+$U# $X#j.S p o W B W~($g 9.~+:@B k V W ^.S b.]+]+g#(%R.J.s) $g*k# $D.]+b.o.&.#.t@:@:@:@A p.~+p.#-U&j W k n ).).h.t.t.!+k..+;.W :@a@9.:@($B k V &~j :@w W =.W V V W u j W '.m =.n |>q 1.1.` ^.` !.w V ^.1.z & t$|=b=:*4+Y -~u =.{~J,E+^/                                ",
"                            *;1 G-}$e;G-s+t+`'+.k,!.-~=.j &.$'j)-),*I&p+})K$b,J.H.U#N!b K.R.P.(+)+v.J.o+Q@U$K$#$H.b D.9>]+k.t.(+j.6.S j.o.*.D.@/Z#z*})o$p$u+B'{++*q$h$U#!+U@m.n ` #.'.X ` o Z #.e.|>~.#.o ` ).^.]+C.m$G.T#h$U$G.~!.$G.#$.$Z#U#U# $o.%.p #.t t m v }.J&t@0.k '.o S J>[.c.K.U)+$G.K$m+G.Z#K.b F.U#Z#.$_& $d$k#B]U &.p &.V z f <@4+p.:@a;_@'.#.1.U j.;.o.D.R.l#(%u%N!F.g*K.Y#F.]+;.[.` V J&0.w :@9.~+~+z ~+:@m _@u q n o ;.b.o.+.r @.w R ]@- a@4+g K&V k z B B 0.!.k W _;=.W V !.#.#.V n ` @.$.` ^.S U _;!.W #.W !-2@H l*(=>#w#V //H+_;=.3>W-G=                                  ",
"                            ${o.G-o+^#K$r+s+,*j$=$-~j w &~0.R.p+}),*Y'++o$r+$*f$+$C.j++$.$H.H.D.m#/@k#Z#o+o+C.G.K.K.D.&%h#]+)+c.j.%.@.S *.T@b.*.c.+ z*Y&j)M$++%*O+M$h$g$.+2.p |.|.'.V V o '.n o '.|.~.'.'.X o m.k./%G.G.S$G.o+$$$$F!G.G.f$+$+$U#U#k.i.p #.k !.m 6*:@:@B B k '. .m.).%.]+ $C.C.#$#$.$+$+$`#U#+$U#Z#Y#K.H.F./@]+[.&.@.&.~.6*:@=$A ($f 6*A*v '.).^.j.b.g.]+v.]+ #J.H. $V#g*b b l#k.S o V m k l m :@f f t@z :@}.W Z ).s,#.;.Y@2.&.~.9.U.L o#E ]#-$4+B m j }.0.:@r=!.}.Y W V u W #.'.#...Z@%.%.x,@.h.U q / m B$w !*D I ,$Q N )-7.%;^ V-u x.R*W-3-                                  ",
"                            (/j.%'G-}$o+r+@^,*-)]+-$0.w w W u b 7>k+r+r+o$I&h$T$z*z*z*f$$$.$.$H.D.R.g* $C.K$C.C. $K.g*&%(+D.m#i.T S S S S  .` j.K]o.D.m+o$P$u+&+{+p$h$#$k.&.m.^@_@k '.k '.~.o Z #.~.~.k '.o @{[.+ +$o+$$G.#$z*K$K$C.d&$$$$Z#Z#+$b ]+j.Z@'.'.k j 0.m _@A*6*X@o q p ).%.v. $z*f$z*7>C.+$+$Z#U)Z#:.U):.v%.$ $K.S#;.A.4.&.#.k c&p.-$9.c&w v v #.3.;.U b.t.v.I./@g*:. $F. $U#k#/@+ b.$.` V v X@X k w B w B c&z !.#.o |>o ` *.2.%.~.w R - & ##M@i f z w -~k l t@B t@j m m l #.X `  ...@.&.%.S 6.U [.U @.#.Y A 7.t$H n#_.~#_/R=<*1.}.=.^ 1.H+3>3>o;                                  ",
"                              j.r+v+l+G-q+})s+Y'o$` K H+w j }.` V.R.:.C%$*I&})K$U$$*Q@z*m+l'Q@.$8-.$8-H..$G.z*m+H.K.K.R.(+u.^+;.[.j.S ^.S R*#.o T o.t./@b,Y&X$M${@L$U$#$ #@.S p #.l |.'.'.n ~.k Q*~.W k #.o p [. # $#$.$.$.$#$.$#$#$#$z*#$f$J.#!l#h#*+&.o #.k }.m m m l W '.o n ` S S k.V#Z#.$G.C.#$.$H.s)H.H.+$+$H.K./%Y#k#D.o.S @.` =.W J&:@c&z B }.V o n p U c.b.W.v.v.I.R.U# $+$J.k#D. #S#+.` '.l '.o V m B }.0.j }.m V o '.n 1.o ;.[.X@m z 4@E t$u{D <&<@p.6*l j m w J%t@0.w m l u #.&.@.S S r +.^.S [.&.@.).}.-$E |=l*%#x#y#x#w#,;-$V H+Y _;(.Y / ^ E+                                  ",
"                              h.5&}$C%K$})})r+,*++.$0.&~0.K -$&~d.=']+k#z*T#h$$$j$p+$*7)h$G.p+C%z*#$f$C.C.l'.$f$H.K.&-K.*+.+k.Y@o.j.U ` &.` W o &.p j.o./@#$M$q${@L$h$#$v%%.%.Z X (;v R+o S*R+!.W j k !.'.o |>j.k. # $ $+$/% $U#U#s)Z#.$Z#c$U#Y#/@c.[.Z@n o !.B m t J&l W Q*'.n p %.;.v.b H.Z#m+8>C.+$H.H. $J.:.c$b b &-R./@]+S ^.$.` j -~B B$z z J&t@'.^@` %.U o.t.k.g#O!v.l#K.K.l#k#D.O!.+o.@.` k !.t ` !.t@~+:@~+B z 0.!.X V n V n %.Z@W R+~+2@- *%2@i 1@p.=$f j Q*!.w z H+H+=.c,l !.n &.@.@.&.S U j.S %.Z H+z /~b+a+E$<*Q 1#x#b='%*>!.(;H+j / d.H+Y x.)                                   ",
"                              ^+})C%G-'+C%q+r+8'0)r+='z >+A K 2@7.B &.o.]+K.n+z*h$})}~p+K$C%p+p+G.z*l'f$.$K$8-.$+$g*F..$]+='!+Y@*+%.S [.2.&.=.o,V &.N.;.[.D.K$z]P$T#h$#$v%T %.` ~.k j k o o X@k k l W k '.n W  .c.Y@k.+ + k#t!Y#U#H.8-:.Y#K.b b f)t.;.V@X '.k j 0.B m k m '.~.p p %.h.k.b F.U#+$Z#Z#/%K.V#+ l#b k#k#F.U#b W#]+%.@.&.` l B B B ~+B }.}.k o ` %.S *.o.g.v. #a$]+k#k#k# #Y@o.@. .V o s B o J&J&B :@i-:@:@B B X o !.k }.W %.` W w >$m@D E*c@L 4+f p.c&}.j =.w p.l 6*t A*k j ).&.` &...%.&.` n !.A |@G 1#O==-b=x#N @-@-'%'#]@}.=.}.u u u H+o,5+2-                                  ",
"                              |+})U,k+G-U,C%U$$*u+,*r+-~E ]#- 7.]@|@z ` j.^+W#B!z*G.:'r+j$$*j$k!$$K$h$K$o+z*z*C.f$ $d$H.d$+ W#v.t.j.&.j.j.T p #.~.` &.N.t.D.H.p+o$o$o+$$A)[.V@o |.'.'.o  .Z ~.j 0.m v n 3.p p U b.o.R@8*;.b.k.k#H..$/%+$/% $k#R.S#*.*.%.u #.R+m c&t@m l !.!.k 1.).%.j.t.D.R./@ $H.H.d$b K./@k#k#b &-R./@ # #%+2.).o c,m B ($R ($x 0.0.R+).{.m.S t.t.b..+.+k.D.L.D.t.T R*W m 6*t@#.W 0.A*t@}.z#w ~+a;:@c&B W #.!.w z X Z@` o,B K i H & D 2@X,($:@!.m !.'.w B$}.m w m z#V d.1.'.1.#.n u B$x a@*%l*7=3#N O=O@O@,=:/T-L#t=A=H+!.H+u / ^ j 3-G=J,                                  ",
"                              n+})}$^#o+q+G-C%$*,*Z)0)D##-u{_.D 7.7.R A n &.N.v.K.:..$h$p+j$})j$p+$*:'p+K$$$.$z*b,+$/%J.F.F.g*V.t.i.`@T q ).` ` o p S j.c.='A)b,G.p+h$o+A)[.p o o s,o n '.R+j k m j Q*o $.@.p `@o.;.S #.).).@.o.+ c$8-J.K.g*D.D.]+;.%.` u X B }.z }.j m w k m V n S ^.b.D.R.+ /@k#R./@f)B.b.]+v.]+D.D..+c.h#T %.o k t m B :@($:@z B 0.!.#.p p U b.o.b.9>W.S#h+S#[.o V ~+g 2@2@/~i-~+:@a;r=~+:@p.!-~+c&z J&!.k H+!.w '.p Y H+K ]@ =&$D % ]#i ($z m t v !.z z m }.'.!.t V m u !.!.B$~+9.4@h ##-#f@[=t=f@,=k;R&)-<,l*/;9.W }.x.V j ^ u =.D%</-{                                  ",
"                              ^#q+G-G-$*p+o+G-q+o$0)0)o+7-I,]=+/*%u~]@K A j n  .6.9>I.&-m+U$K$h$}~$*p+K$p+z*f$C.C.:.J.+$K. $R.f)W#*.j.j.&.` Z #.&.&.6.T *.;..+b z*U$$$#$g*%.p ` o p o o V t k W $)k '.Z @.].|>).S o }.c&-~m v p *+.+]++ R.A)S#h#c.;.&.` v k 0.B z :@}.j j l j W o %.[.b.h+!+t..+!+%+b.%.U 2.Y@)+)+c.%+j.*+8*U@@.#.m w j w B ($t@c&w !.'...o Z@[.c.Y@E..+S#.+.++.o m 9.<&H ##t$D ; ($~+p.A !*~+i-A ($9.($6*0.j w B j =.B Y,:@a@4@h ]#- - H >$p.c&l n s }.t@B }.W &.!.}.!.t@}.x A 7.U.2@H u#q=b=N 3#%$O@R=J=8=%$k*t,}.B$=.t@x.#.B$1./ Y _ /{L+                                  ",
"                              G'$*G-^#U,$*o+|;$*r+,*-)$*G.V.u ]#F M@/~7.]@!-w w o p S ]++ J.:.z*l'K$p+$$:'z*C.m+.$C.+$f$b 7-k#K.+ f#*+T j.2.p o o Z o Z %.%.t.l##$G.G.S$b S 3.o n 2.%.3.#.k k ~.~.'.n ^@p Z@'.}.t 2=g j,A :@w ~.^@%.*.t.!+%+R@c.;.j.Z@^@k z#l m B m m !.m !.W o o ` ^.*.k.u.c.*.p V !.t@~.o p &.T S @.o 2.%.p  .X@V j B r=c&f z :@B m X o s, .&.;.;.g.b.c.h.S #.j A & S&%#~#E*g ; I%g R R 4+4+-$o;9.R :@B r=t@}.z#m m :@($K |@}@L b@L <&1@($k k #.'.!.!.w j '.W X }.}.}.($($K E*####x#%#~$b=R=E$R&4#M*=-u@H B H+}.}.z V w u ).t,u n.p;3>> C~                                  ",
"                              ''^#C,C,G'Y'G-o+U$}),*q$s+o+H.7-q q U.U.W^L o;p.g K z W 1.[.9>R. $E-H.d&z*C%m+#$z*z*.$#$z*.$H.N!C. $&%k.]+]+c.1;@.p S o.@.^.^..+k#z*#$g$:._&c.p &.).V@].).o u t k k k Z p &.@.k :@p.9.-$g u~A c&0.c,~.).j.*.*.[.[.T j.%.p j t@W~m }.B 6*m t l Q*|>X o S *.k.!+%.&.u m ($:@k W #.'.k u V V X %.].o o '.z#k `*B :@t@t@}.l W X ).).^.j.;.c.b.*.S '.}.R *%&$##,$t$*%G - E%C |@>$K !*R 4+=$f w B B 0.j j 6*z w p.A x 9.9.f A p.~+t@k Y ` V R+W !.!._@}.V j B B$#-K i m,@#[/4#Q [=)-F*3#b=b=b=L ~+V V w J&x w p;!.W ).%;u x,(.: U!'+                                  ",
"                              a'<$G-(!q+5&%''+}$$*,*G'd'K$J.K.^+h+g.S #-]#2@K U.o;A w 0.!. .w.Z!g.]+K.:.m+'+j+m+C.#$.$B!.$.$J..$H.R.D.D.+  #u.U .+k.)+M.%.U o.R.G.$$#$U#P@c.&.` ).p Z X #.W A*m k #.o o ].p m j,p.($o;|@g R :@B$~+:@=.1.` p  .m.m.2.m.` !.B z r=B J&}.m j m =.#.'.o $.2.;.*.).W K&R K !*J&t@l W t w y 0.!.^@#.n '.m :@m w B z w B m V X Z o p ;.*.;.*.o.+.p w x p.D n#@#% 7#M@]@2@U.<&- g j,4+($($A J%0.z ~+z H+}.z t,t@=$:@B$x }.m p.z m !.!.W ` X '.j Y m j }.!.B ($4+<&E F x%1#%$f@,=m-D>}/7=+/y%K o,}._;W t@H+9.!./ /.u 1.J+1.1.d.U*C+/'                                  ",
"                              |/D-G-v+q+G'q+o+$*$*Y',*$*G.u%K.]+P.R.|+K.;.($L ,${ 7.p.9.z j #.p &.m.j.g+H.m++$.$m+m+.$8-v)+$.$H.H.K.R.]+R.l#D.!+u.t.]+t.m#*.v.H.K$K$g$#*U#c.6.n o 3.Z V Y v k j ~.n X #.o Q*w 1/p.4+K >$a@7.7.9.f p.x l '.o n ).@.&.m.'.B m w :@t@B B w !.k v #.=.V Z ).S 2.'.<@]@2@2@1@=$~+t@t@B B ($:@V X n ` ~.o,m V-=.A-y !.B J&l n ^@p p y*j.j.j.[.o k t@z f 2@t$##& &$##a#,$H t$- ($:@~+A 9.($B B 0.J%z }.}.w t B j '.B w '.!.w j W '.v V d.n Q*}.}.w t@z A |@E*y%2/S&_.H*E$ ;8=H;H;w#_.q#t@m B B !.!.k p.}.!-/ / d.=.#.x.1.(.u p!.~                                    ",
"                              c%^~G-v+r+G'$*l+$*$*%'t+})G.7-K.V.V.I.E-B^+$I.S i k*E*U.u~-$p.j k #.V n R*6.]+I.c^f$Z#:./%H.+$#$.$H.+$K. #D.I.P. # #`!]+c.c.c.v./%:'K$C.d$b c.S o X@ .` R+k V o J&l '.'.'.k }.:@2>|@q#|@K L L E*b@2@4+j,B k '.#.).p @.o _@B :@i-=$r=B 6*w _@'.V k (;}.'.#.%.Z@V !*a@7.g A;U.L & D B@]@]@R !.W k ).V m Q*k m !.w }.t@w j ~.@.%.S [.%.&.p |.:@i-f <@7.F S&I &$x%-#d@u###E 7.U&i-g g A :@m 0.Y,z w j j k Z |.~.#.o,j V #.'.'.v V !.!.#.k w p.t@r=K 7.I h=x%*$f@8=w#=-*>R=b>~@x%I%w k t m t@B }.B }.9.~+9.#.#./ _;=.Y / u p;3/4/                                    ",
"                                G)&{_+s+q+r+$*%'r+}),*r+o+R.R.]+V.V.k#K.s)s)d$+.B$0&]#& U.U.p.W p.f z j W n S =']+I.R.^{ $ $.$b,H./%Z#R.k#/@/@t!V#V#b D.]+&%&%:'h$h$0*U#/@b.U@^@X '.'.V X '.k m v '.'.'.k 0.($-$a@2@C K K q#o#D D -$B m k v k X@#.p V k m z r=A ($:@:@w =.Q*'.'.k v |>%.S &._@i-K >$7.7.U.L ,$H@D L L !*t l m l m }.V m }.y 0.j z#m !.o @.Z@|>).o n #.m 9.R E%L L M@n#%#%#I $#D t$@#i K U&<@R :@~+m W j B :@B m u '.Q*'.#.'.k =.V W #.V !.t :@t@x z z ($i-4+]@n#t=1#N <*k;*>=-b>>#7=7#9.V k z#t }.:@z J%p.w B !-~+9.#.(.j s H+=.u =.=.5/                                      ",
"                                6/t{7/s+s+s+q+%'r+v+,*r+o+7-L.u.]+]+v.R.u%s)K.]++ w.H+- *%M@= #-K w Y,!.~.!.k )'j.t.c.D.W#D.R.U#+$Z#C.7>K.F.k#U#H.K.d$/@W#f)R.U$T#j$$$d$ #t.8*&.o '.V '.n Z k k #.~.o V j }.($-$/~- x$6@a@a@i U.]@E%z k #.X@R+k v '.'.'._@p.~+9.=$f !*:@t '.V k j V ).).T X@B -$K 4+g g I%A;c@D 8/H ]@4+B K&w m m w !.c,}.B t@}.B }.V Z ).X ` n.X ).n w =$4+i L 2@- ]#H@n#d@n#y%r#9.:@:@:@J%~+w t@m !.c&:@K&m j o '.W ` '.'.V u '.W l t }.z R !*A z 9.m@- u#l*q=t=[=E$%$7=E$7=%$S&I%W k j B B m t@~+B ($($J&r=($x 9.#.u W j !._;u %;x 9/                                      ",
"                                  G)X)t+G'q+q+G'r+G-G'I&G.F.^~V.v.v.u.v.u% $t%V.F.F.k#k.|>9.L [&t$a@=$K ~+Y,:@p.y W #.@.*.h.)+&%g*Y#Z#Z#H.b g*b .$Z#.$N! $b `#T$N$I&p+@$V#*.U p o '.R+'.Z ~.'.W o V ` '.V l ($9.4+i & E <&U.7.]@1@S+A :@l Q*k m m R+W k t B :@A z f A z }.m !.!.v v '.X #.-~:@S+R 4+6@6@]@6@E*D ]#L i a@g U&:@J%m t j !.j w m m m j k v  .o #.'.W V j }.p.9.g 1@- 2@- D <&<&q#i-m j t H+_@B x K&0.k k B c&B j w e.Z #.#.o '.o p #.w :@($p.p.a@K R A K F _/f@_.t=v#0/b=8=}/7=q=g }.k V t 0.B J&K&z B c&4+($m z ($i-4+(.W u W _;^ u j Y +{                                      ",
"                                  -'a/Z)Y'Y'r+s+o$K$}),*G.F.F.E.v.g.t.^+k#k#I.v.t.I.&-H.:.V.n >+<&i C 1@7.z 9.-$K k,:@k c,1.@.j.o.k.]+/@b H.J.H..$.$Z##/H.d$B!T#j$j$U$d&/@.+[.].|>'.V '.n #.X@ .&.S T o R+W }.p.:@A R a@a@2@}@1@4@7.!*c&B m t B m k '.Q*m f p.R ($f :@:@z B m j z#J&l m k j J&i-p.4+g >$2@L $#- C g g a@1$a;:@B }.w W v '.W W R+t m '.n o V V W !.!.t m w t@($9.g q#a@g ~+B m l m !.v W l H+}.6*m j m t c&}._@m o ` ).).q ).n '.}.f 4+1$A a@c@<&U.L F ##*$(=~#t=*$b==-,%F@E 4+m m k R+m _@r=B r=:@r=:@R ($J&:@9.9.K u W V !.u 1./ x m+                                        ",
"                                    b/~~(#t+,*t+r+})$*G''+&-t%u.W.j.c..+/@/@B.D.b.t.t%N!C.j+U#;.&~u~]@F ]@R A K ]@]@0&-$A p.B #.n R*` 2.;.t. #K.U##$.$z*#$C.C.p+q$q$h$+$+ t.*+%.p o Z '.'.o p %.&.U@m.m. .` o R+c&!*($z B !*($z K&z 6*~.|.3.Z k '.o Z n k B f :@U&:@=$:@B z#W W m j k k R+A*m m H+~+i--$q#2@2@U.R ($S+E%R ;$i-c&r=}.R+'.Q*m }.'._;k v W v V k 0.p.r=k }.B J&c&w 9.g 4;;$B 0.Q*'.!.t !.m z#0.A*k j '.0.}.}.K&m R+'.V p q u n V H+4+g a@I%|@*%& H n#,$y%S&6=4#u@<*H$w#h@]#A;R ;$0.(;m !.R+J&B :@($($p.i--$($B f A A j,#.u d.=.o /.( c/d/                                        ",
"                                    e/C%z!t+t+t+G'q+})G'o+ $k#9>]+[.;.b.D.D.R.u.t..+k.b G.m+.$n+V.b.~./~- 7.K L*L*L*K >+7.>$4@A w k H+Y ).%.*+t.]+l#+$Z#S$#$$$V$f/j$h$N!D.o.[.@.%.Z@o o o |>n @.).U T &.%.U S G~S '.#.` n ).` p @.). .&.%.%.%.o o n n n m m K&z B :@f c&z z#X |.l l l #.o o '.o k B t@t@=;z-R p.~+($7.K ($J%t@m k W v '.X m m k V X X X X s,'.j p.}.`*t@t@r=p.z B B 6*j n o p X@k k j w m m k m m k B B B 6*l v V '.|.V !.'.w 9.L E *%G &$I ##q=N x#x#!#H*v#%$4#b=y%K A 1$~+c&m _@m m k :@:@I,A A ($<@K ($($A 9.o;x #./ ,+u d./.: k#                                          ",
"                                      `'`'-)0)t+M$$*G'})o+&-F.V.]+h.b.h.S#+ D.t.o.*.9>R..$:.8-:. $F./@U V z |@{ 7.a@4@K 7.-$g/4@- - A 7.p.u ` U b.c.]+v.k#:.G.U$I&T#:'`#/@o.*+%.`@&.).o Z p |>&.].S [.&.U 2.%.S *.U U j.%.Z@U *..#Y@*.*.c.Z!S ).].p o ^@'.}.m j m B r=0.m v o p ` p ).%.`@2.U [.%.` S*Z k !.m B$6*B B c&_@R+o Z@p #.#.o V m !.V n |>'.V |>J>n.n '.'.m B t@w t@k n |.W '.p ).` Q*l %~}.m m z#3=!.t w j J&}.J&~.c,V c,!.j 0.K&-$E ,$t$E ##b+|=3#E$h=[=O@a>7=5#O=S&|@r=($9.;$t@J&v m t k B ($U&=$($($<@9.g R <@R ($o;t@V =.(.^ s.[ G=z'                                          ",
"                                      8.C%Z)(#(#(#q+q+})'+F.J.D.W.b.g.o.k.V.+ o.j.*.u.b U#H.+$H.u%I.t!D.v.t.q !-] ]@D D E i L L 4@E U.B@L -$z B !.|>U *.v.+ J.#$T#T#U$@$X#*.y*%.%.&.).o s$'.n o ).m.%.%.j.j.[.*+*.b.Y@Y@*.U 2.y*c..+S#&%k.k.c.U d~|>p p '.R+k k '.m m t !.v Z &.X ^@U S 2.[.j.b.*.;.;.*.2.Z@V@].o '.Z o 2.V@@.).p ).Z '.V k k k K>'.'.'.).|>'.'.R+k k l j k _;'.W n X X@p o X Q*z :@B 6*J&B }.m _@(;m 6*B w '.m l m B ($4+a@E u#J H h J x#h/c M*8==-.;,;'#~#>{:@i-z :@U&K&w m K>c,t 2&K&!*:@9.R S+<@I%a@R R 4+A K }.W =.#.n.V)[ w+                                            ",
"                                      i/o*~~_+-)t+%'q+})C.J. $z+u.(+t.A+D..++ g.T ;.k.R.7>+$H.K.L.V.I..+.++  #v.[.W 7.&$u#s#H E /;F E E E <&U.2=A r=n @.%.8**.B.+$U$$$b .+U W Q*A.o |>).n #.#.o o n ` &.h.c.;.o.j.;.w.[.[.U U ;.*.c.k.k.%+Y@R@o.;.8*j.@.|>p '.'.^@#.'.V v !.'.o '.Z@%.*.8*%.[.*.8*[.8*`@Z@|>p 2.2.U %.%.8*m.p 3.].S*p p m m m 5*v W v s n ^@V m t !.t j c,s,k V B m k k ~.k _@(;($!*($:@J%;$A p.($:@i-z m !.Z W t@j,U.y%s#,$I u#H +#t$b+l*b==->#L#0;`=[=F t@i-B :@f p.B t }.}.V k l B t@|@i-!*;$($!*C I%g |@g R 4+^ u {.1.1.q U*j/                                            ",
"                                        ]'g{_+t+t+G'q+d'z*J.J.g+u.j.g.u.y.9>.+t._,+.k.I.:.:.H.&-D.9>u.j.1;k.V.]+D.k#]+V - x%8+b+b+I t$H G x$2@7.7.a@K ($m n %.b.D.Z#+$!+[.).6*z m B m m k j 0.V-v '.V o &.&.`  .@.U %.[.`@&.A.%.%.*.)+c.R@*.Z!*.b.*.y*U @.%.p o |>n X Q*V '.n p {.o ].8*4.@.2.U@j.*.*+[.S 2.p |>%.Z@&.T p o #.V n '.).'.m m 0.}.j W !.t V '.v c,m }.J&(;k }.w J&~+9.R A t@t@B z g U.q#a@2@2@- <&E*L a@R t@j W t@/~D S&x%|=f@*$|=x%S&n#*$O@K=`==-k/Q *%i-($r=J&t@a;p.r=B J&B 6*'.t t@B U&2@=$R R R R a@4+g a@g g 4+=.n.#.d.` d.q~l/                                            ",
"                                        m^>.M!-)t+G'q+q+j+D#8-V.t.+.b.a$.+.+b.b.j.;.t.I.:.:.J.R.P..+g.S 1+W.V.]+ #g#R.+ u.V ]@u#d@1#x###E F F H F *%|@-$:@t@=.` j.&% #c.%.n K&f :@~+9.($($9.9.9.}.0.}.k }.t j }.j W '.).S o #. .T U S U U@U *.c.c.h;T@[.].%.p ).X@v '.'.'.o o o ].|>@.[.S U &.;.T@;.O.U p X v W o X@'.'.'.m _@k m w V '.!.v m k j m }.J&k k !.m ($4+g 9.:@9.($|@a@a@U.- i <&a@4+- y%y%H L E*y%n#u# =i G L r#7.E*]#F b+l*u@[=O@f@c+_.}=O@J=,#O@$#b@7.~+U&r=J&~+r=f R t@r=m }.B t z#t@r=E%i <@S+1$p.!*7@4+g |@I%7.p.#.n 1.d.n j m/                                              ",
"                                          ,'d'-)p$r+7)r+n+&-H.I.u.+.;.v.S#.+g.b.;.;.t.P.s):.+$V.v.%+o.@.4.*..+!+.+V.v.u./@R.c.n I%S&q=l*##H F h E [&- a@!*k,($J&p c.S#c.U@'.!*-$K K L L U.a@7.g |@7.9.-$U.K ($I,A z p.t !.!.k ~.o o &.^@o %.`@`@T@*.[.])3.o o '.Q*Z R+k !.!.V n |>|>o Z #.` p @.p Z@` ^@s _@!.0.l k R+R+Q*Q*J&:@:@:@w m B t@B w :@~+t@t@B t@i-I%U.D 2@}@2@6@m@c@E D D H H 0#L 4+L S&|=H@-#*$*$t=*$8+b+ =##D +#H H I 1#x#O@R&%$u@u@R=M*.;=-F q#K 7.!*B J&z#i-:@r=R ($J&F%K&J%}.B m i-B E%C i-S+:@!*A I%I%g g 4+7.:@V R**!#.{.-~n/                                              ",
"                                          o/(!Z)0)Y'})r+j+j+:.F.g+h.h.!+]+u.g.b.;.U t.P.s):.+$D..+g.T@S @.j.*.b.o.b.c.u.+ R.+ R.+ U i-]#S&S&|=b+E D L K R 1$j,U&#.p ).q ).H+4+R q#F H p/t$##H M@]#i G#]@D ]@|@]@<&7.K g K :@c&m B$j '.'.j V X@` ` Z@).|>_;k j m m m B m m c&z#'.k }.w k s,p ` #.V v V '.!.m t@B t@($:@t@}.k J&r=p.B p.p.i-p.R 1$C <&X,G+!*U.L p#b+y#D E E*y%]=n#x%l*x#s#%#*$d@u#+/t=N !$*$1#7=E=E=j=1#%#*$h@i@%#M&=#b+Q k;Y=b==-S-'#F*,=0#R !*R !*B m k B ($1&($1$9.r=:@J&z B k w &~m A 9.:@-$=$R E%E%g E%|@g >+~+u ..J,3>/.P                                                 ",
"                                            i]5&,*t+$*5&P+n+:.F.D..+u.!+k.v.g.g.h.U t.P.K..$+$]+b.Y@T T %.S t.*.j.j.j.o.v.D.v.]+b c$b w.l 2@s#q=%#x%y%L q#a@K 9.r=k '.j m ~+2@D E*]#H N*##I N*y%u#,$H p#H % y%,$H G E u{- <&E ]@K 9.K R R :@t =.W k w t }.J&c&~+R 1$U&~+=$i-r=R+~.m j u n '.W R+k W j m K&t@z ~+~+:@p.Y,J%z 9.R R 7.2@<&a@i D H S& =- <&q#k*x#q=%#S&H ####%#O l*t=u@u@|=Q [=O@Q f@%$%$|#*$N E$)-v@v#N 4#8=+=!$%#f@*$Q ,=q/@-}/Y-M*<*S&*%($t@f ($B B B B U&R R <@S+S+z r=t@:@B }.B B :@~+B :@g R =$9.g 7.>$C g K !-u 1.u 1.G=z'                                                ",
"                                            r/r+0)G'r+p+z*P+D#F.D.u.u.]+R.v.m#0>*.Y@t.V.b +$H. #b.o.U %.;.N.)+*.[.S S b.b.h+t.%+W#I. $ $c$b.m q#& b+S&,$H L q#7.+#i >$($t@|@U.y%H  =S&n# =,$t$t$H M@,$n#S&u#u#S&]#D t$I u#u#]=D E L L U.a@U.#-B B I%q#4+:@i-1$|@]@U.2@2@2@g g t@m !.k '.n v k t@w w :@=;f R ($!*R S+a@a@4@2@E  =,$n###E*O)p#x%x%_.n#p#]#& ,$l*M&S&%#m,{*!$M&|=x#Q Q 1#h=O@M*R&R&k;7=b=3#,=,=8=b=!@O@!#F@N %$%$f@|=Q ,=E='%*>8=-.D >+!*i-($B a;U&:@i-r=U&!*S+C g R 4+;$t@J%:@z 0.c&:@B r=B ($I%K R g 6@a@g a@>$R x n.1.^ s.E.                                                  ",
"                                              _%B-Y'r+q+G.j+H.k#V.]+.+B.+ D.W.o.j.;.]+D.R.+$J. #h.o.[.S *.(+c.[.*.j.p *.a$!+!+*.k.v.+ b .$z* $*.Z@p.E*S&-#I M@& 2@B@p#I%R 7.2@t*=#|=N F@%#x%_.~#*$~#_.n#n#S&,$x#b+H t$@###n#&$H@u#n#@###H 0#D 4@7.F t$;@D L F  = =S& =##n###D E a@A f 6*m 0.B !*($($R ($U&R T=U.L H F [&[&H %#!$f@t=x#%#*$=%d@x#~#n#I )$n#Q N *$~#<*f@N x#l]~#s/~$N 1#!#8=8=v#R&E$,%,=,=8=7=4#D*v@`=>#*>>#F*H$j@N 8=j==-=-*$b@R i-($t@i-i-f B U&:@($~+U&4+g g R ]%S+i-r=K&f 0.B c&i-B :@:@i-=$<@K 4@a@7.a@a@]@1$~+#.1./.]~]'                                                  ",
"                                              t/H>q+U,$*|;j+J.L.I.V.g#V.u.V..+(+T j. #k#+ J. $i#w.;.[.+.b.t.t.p U ;.2.g..+.+c.t.v. #+ (%R.H.+$#$s)b !+k 7.H I ~#_.4@I S&<&i D u#x%%#!$l*1#|=O [=N |#t$ =x%+/l*_.m,S&p#H W^,$u#n#A$1#<**$m,x%n#D F I |=q=1#%#q= ;0/q=_.~#4#8=~$f@{=y%]#k~|@R 4+U./;D ]#c@2@E M@I ,$t$ =]#H I s/*>`=M*.=O@q=|=-.~#n#d@M&%#|**$y$x#x#O@O@f@|#*$f@s/!#Q t=<*7=O@!#j@R=,%E$*>U-L#L#L#m-~,H;=>u/w#)-J=v/L#O@M&c@1>~+p.x ($z 9.1$1$w w i-K&1$($7@E%S+g R I%($%~%~B B :@~+w y,z ~+r=;$:@E%q#E%g I%a@U..>z n 1.w/x/                                                    ",
"                                                y/C,X)G-o+m+&-v.I.V.V.D.^+u.!+*.[.;..++ k#J.J.I.h.o.+.o.t.t.g.&.`@h.@.Y@k.t.g.c. #g#v.D.f)F.J..$#$+$J.v.g.n 9.]#O M&##<*I L @#u@[=z/t=Q O=1#1#N b=4#%#y#8+f@,=H*{=|=b+y%I I _.t=6==%-.S&p#####$#p#m,*$l*+/d@~#q=q=x%I a+b=,=<*Q !$~#x%I *%2@L y%H ## =y%##%#l*M=y%M@ =,$,$~#N R=M*E$O@O=!#a>7=1#d@x#S&[&y%<*8=Q !#,=b=s/%$j@E$=-k=h=3#A/k/>#w@G*<,'%S-|-=>9;h-N>);(-_-m-L#a-+;)-!#n#m@g g ($U&:@:@9.~+($=$f 6*}.-$!*9.g g S+R ]@4+R ($r=J&z m :@r=B :@t@J&($($=$E%}@E%|@2@4@]@p.H+(.d.B/C/                                                    ",
"                                                -*5-q+}$^#8>F.9>V.V.V.k#D.u.^+U 1+*+t.v.R. $ $g#h.+.x,c.]+m#E.%.i.+.4.o.k.t.b.*.t.9>v.]+D.I.k# $.$+$K.+ R.g#]+n g = [&n#l*@ x%%$,= ;%$E$Q&Q z/8=g=[=1#_/_/%$p=p= ;Q O=t=b+l*1#N F@1#x#_.%#*$l*I E ,$=%*$*$q=~#l*I *$6=f@7=,=c O=l*x%D/@#]#F l,##&$b+l*1#N +=Q e@_.q=@#{#d@|*q=O@q/T*c O@M*>#g=[=Q h=x#*$N a>>#@-H;E/J-*>E$j=*>Y-E=M*@-Y-|-F/M><,G/S-b->#=-*>b>>#)->#=-8=M*v@%$-#2@U.K 1$($~+B z c&:@i-R f r=J&m X,R ($}@g I%R C <@S+i-:@B r=:@:@J%B K&:@z ($<@R R <&g g ]@4+]@a;t,u ..H/                                                      ",
"                                                I/l+^#}$8>8>k#v.9>v.i#D.v.t.%+)+U o..+u./@F.k#!+S ;.Z@o.u.h+.+o.j.i.j.g.f#t.b.o.t..+S#k.]+v.7*g#+ + + ]+v.I.+ b.).W :@R - /;E*d@Q O@>%t#N t=*$O@E$s*,=q/}=J/*$x#f@%$N Q |=l*-/%$f@O=N !#*$O@f@-#%#~#x#d@~#u@[/4#>%=-@-G$9;L#@-E$O@Q 1#Q f@~#1#h@!#<* ;O@+==-R&k=1#q=%#n*F@N [=F*#;9;.;b>)-@-S-J=@-U-M*5#b>G$Y-'%G$H;>#@-,;w@9;=>S->#'%K#,%8=%$*$~#n#{#J n#S&k*>@##I p#D ;@H r#6@I%4+R ($U&t@B c&;$U&($1$U&K&m K&g ($S+g S+!*K E%!*($($:@z#:@~+K&J%K&=$f p.9.!*A g a@K }@6@|@K t@!.=.1.(#                                                      ",
"                                                  K/L!$*o+o+V.E.P./@V.V.u.u. #g.U t.!+I.+ F.k#u.b.;.@.(+V.]+R@j.j.[.b.!+v.b.o.Z!v.+ X#]+S# #X#k.g#u.t..+v.V.f)k#]+o.p n t R g E%~*2@2@B@H ####l],$_.x%x%l*y$f@~#~#b+*$f@=%~#t=q=*$<*H$M*7=4#*$x#*$G%N l*q=f@N O@E=b-Y-:*L#G;'%M*4#'%=-R&[=_.q={*f@b=b=7=M*=>(-E=R=s*3#7=O@b=O@R='=`-u/,%k;v@q-(-:*b-M*'%h-Z-F$Y-'%'=,%E=F=3#8=v#~#J +#}@b@>$g a@i-:@x ($g i-($<@a@I%E%g >$a@<@I%-$=$1$x U&3=B K&:@:@!*~+($6*z#~+($($S+g 1$1$;$<@($~+:@:@!.t@B J&($f R p.($($-$I%7.a@g E%|@4+=$J+%;=./ +{                                                      ",
"                                                  L/M/G-G.l+g+(+D.k#+ ]+]+]+!+c.j.b.u.D.]+v.+ ]+o.N.&.t.R.]+b.*+r j.[.)+v.t.;.*.t.V.D.g.S#&%S#k.B..++.j.t..+]+v.+ a$Y@%.|>!.3=t t@J&z#W m :@m }.!.B t@j t U&R ; u*- F ## = =n#x%x#x#N N [=4#b=k=[=b=N/,=4#8=3#<,0;S-L#9;`=>-<,q/g=,%1#h=x#{*1#v#c O/[='%=>@;=>'%R=k;R&%$1#f@4#%$k;E=,%M*E$=-@-=-R=k;u/)-,;=-4#N ~#{#D H m@7@q#}@r=B z#w r=B m m k !.k m B }.U&<@g T=E%[@R g X,g S+R !*:@J&J&B ~+($($R p.J%B 6*i-<@1$7@S+1&A =$R U&:@;$U&j B J%J&9.i-R :@9.U&7@a@a@2@R R K K 9.x.x.J+I>                                                        ",
"                                                    P/n+G-K$P.]+]+F.g#]+v.D..+g.o.t..+v.]+v.]+c.o.j.T b.O!D.%+;.T +.8*b.&%o.Y@b.)+k.]+t.!+b..+.++ v.N.j.o.M.t.t. #u.S#[.&.#.s X k !.n]V #.v X@{.p '.|>).p o u !.0.}.B B B ($g C q#E*##p#t$I =#M&s#-.O=Q/O=c E=h-h-9;Y-H;'%=>(-0;}-=>R/R=w#R&E$<,J=E=J=`=#;H;J=R&5#N f@f@f@<*k;c j=,%S/b=O@t=M&T/I p#I n###U.!*9.~+r=B }.k J&J&j 0.B J&B B z m J&!.Y m A*6*:@!*S+S+>$E%S+S+I%}@a@C 7.p.t@B B B ($($($9.;$W~z#J&:@($R 6@9.:@1$($:@:@J%($:@m w ($r=R !*;$;$($<@>$1@a@E%<@9.-$#-:@x./ U/N]                                                        ",
"                                                    6^J.o+k+P.v.9>g#Q.D. #I.u.o.o..+.+v..+V.k.c.b.[.j.)+v.]+a$c.[.j._,t.]+b.Y@o..#=' #k.b.]+v..+g#.+o.j.[.j.[.b..+.+%+*.p X v _@m m _@k V !.X n ).).p @.D,J>).` ).x,).].n '.'.}.m !.!.k k t !.B :@R K A a@2@L H 0#@#x#Q 1#O@O@8=E=E=V/,%R&O@7=T*E$w#8=R&R&=-F*F*<*f@*$f@~#-#W/x%I 7#E*i b@7.R R 2=($~+J%:@t@}.J&w J&t !.}.J&J&c&B B :@i-:@r=B m w B r=9.<@<@7@6@b@g/}@C }@U.a@r#a@($:@J&J&m K&:@($($($($K&z#:@U&9.R K ;$1$!*9.:@($~+($~+t@m ($K&=$9.p.i-($R g 2@|@9.9.I%-$A t@/ / N.                                                          ",
"                                                      ['};r,P.V.s~V.P.D.g#F.v.o.w+^+t.]+u.v..+c.h.*.*.b.I.V..+b.j.;.Y@t.v.o.;.b.t.a$k.v.u.t..+D.h+k.k.t.j.8*U *.b.Y@.#c.p '.k l }.B }.W V k W V n ` ` Z@p X R+X@o |>J>p ).Z@o V '.o X '.X v X n ~.!.m J&J&K&}._@m B r=I%R !*q#D H  =o###]#2@B@L <&a@<@2@6@6@z%R ($B t@~+r=}.J&J&}.t v z#p.K&;$($~+~+B J&r=F%K&J%K&r=r=($!*($!*($;$S+S+!*p.($K&m t@:@R K g <@I%r#i b@6@}@1@2@a@7@<@<@K&B }.z#W~;$p.f U&f }.K&U&F%4+z-<@r=($R i;1&!*f ;$t@J&w ($B ($R :@=$R S+R g g g 7@K A ($}.^ X/Y/                                                          ",
"                                                      -'7 D#|+y+g+h+|+V.P.D.]+b.;.(+b.g..+t.t..+*.o.h.o.I.I..+g.+.;.b.9>v.b.[.o.t.z+%+b.0>u.u.v.D.]+u.b.*.[.m.[.w.Y@c.*.Z@'.k J&m t k _@k W W W #.#.o |>`  .o '.#.n '.n.1.|>'.j !.c,v W }.m j _@V-m :@w m J&t ~.k t !.J&J&r=($R 9.r=t@j x K&m t m V v '.V v !.}.V |>V '.3.X Q*!.!.X #.k m B R 4+R Z/($i-($i-~+($($9.($~+!*i-S+7@!*g S+g I%g R U&($:@!*S+g R 7@b@L *%q#2@2@m@C R 9.9.B$w J&z#F%:@z B U&f B :@($;$($:@U&r=9.($:@~+~+i-K&w !.~+t@f g !*A /=1$}@g >$|@a@R |@!-!-H+x.`/                                                            ",
"                                                        t+C~Q.I.V.V.y+V.R.+ V.u..+u.t.g.u.g.h..+)+b.8*o.+ ]+g.o.r M.h.t.&%b.y*)+t.V.b.o.o.u.u.]+R.]+t.g.b.U@@.S *.b.c.*.3.!.t m t V !._@l m k !.'.#.#.o o o '.W V V k o Z X !.J&m c,m B  >2&m }.%~m U&B m J&B }.z#z#(;m m B U&9..>r=r=~+R U&r=v k W X v t t m J&V V&V X@X k t k m t m t@t@9.R C |@g 4+|@}@g |@L*S+R =$($R !*7@I%7@r#}&a@}@7.4+($~+!*9.9.-$R z%2@b@b@2@1@1@r#z%4+9.1$r=}.B }.e)%~:@B ;$($K&r=;$9.~+:@r=:@p.K&~+B B i-B 6*B ($B R A i-K -$E%]@6@a@R K 9.4+~+($H+ (.(                                                            ",
"                                                        #].'N.V.9>u.y+V.V.+ u.v.v.g..+V.W..+h.t.b.o.b.c.D.u.W.*.j.8*;.Y@%+*.b.*.[.%+c.*.c.t..+S#D. #9>o.j.`@&.p 8*m#.+b.o A*J&}.!.'.W t _@J&!.m k v '.X@n ]^V k t V V n |.v }.6*K&}.r=K&U&K&J&B B t@:@i-K&~+i-J%:@w J&z#B z J%R =$i-i-!*g i-t@_@m m k t t z#r=F%r=r=K&_@z#3=t@K&F%i--=p.z-!*g 6@r#r#q#4@m@q#5@2@6@2=S+R R E%I%g L b@2@6@a@g R I%E%<@S+I%g R R 4@3@1@2@z%B@i ($R ($U&J&z#z 0.}.B B W&($f K&:@($S+;$:@t@:@:@i-:@:@U&B t@B f ;$:@R R ($g 7@2@2@6@]@g -$A R z G+G P                                                               ",
"                                                            +(};;+Q.Q.Q.Q.g+g+h+u.z+u.R.v.v.o..+u.Z!^+.+]+]+*.c.[.;.;.j..+.+*.j.h.%+o.;.%+c.h# #I.D.t.b.R@Y@p @.[.v.h#W,^@m A*A*v _@_@m J&m m }.!.W X '.|.Z _@k V&m _@k t _@A*t _@}.B w :@J&A*m }.J&K&r=m t@t@w B J%U&m m :@1$($;$($9.E%R ($K&/)B J&}.J&J&i-($~+:@J&:@6*m U&U&U&i-($-$4+($R }@- <&3@6@6@*%q#2@]@U.6@7@2=E%!*R -$U.7@S+}@a@a@/=<@($($<@S+I%1$S+}@3@a@a@3@R#}&<@:@r=m A*m }.m z#}.m K&i-r=!.:@U&U&z B K&t@~+t@B r=t@i-m B A i-;$K =$4+a@]@]@|@g ] o;A A y 4>, c'                                                                ",
"                                                                . Q.:#|)g+g+g+v.u.V.v.v.+ u.g.g.u..+.+o.g..+t.g.0>h.0>*.b.g.o.o.o.t.b.)+o.c.t.v.k#+ k.h.;.U m.S [.S#.+N.o k A*z#A*k j 0._@3=m }.!.k '.'.V '.A*}.v m w 6*m B m m m B B t@:@J&!.m }.z#c&}.m w m m t@:@i-z ~+R g ($p.($~+($9.R U&:@r=K&($($i-F%U&:@p.r=R i-i-^)R I%g =$a@a@R 9.g 2@3*7@>$1@E*c@E u*q#q#~*C }@g 7@($S+!*4+I%6@~*1$R ($($S+g R -$S+E%>$4@1@1@1@0@R J%J&c&}.t m m J&B :@J%1$t@A*J&U&z B B ($K&|~K&t@U&U&($B 1$9.p.<@g K 7.a@|@|@4+g u~k,#-]@/~d]                                                                    ",
"                                                                    '/T!^.g+g+u.V.g+I.D.g#9>b.u.u.t.t.o.h.b.b.b.h.;._,*.m#o.b.c.b..+R@)+*+Y@t.v.K.l#]+w.;.[.%.@.;..+ #[.^@m m J&m K>k J&z#m J&t v k k k v k _@m k (;m }.B B z#K&z#t@B z#m _@!.m _@_@B 6*A*l c&B w ~+f <'($R R A R I%t@=$4+R !*i-:@U&~+i-:@F%i-9.i-9.9.<@<@!*($S+R A q#D 7.S+1$!*:@($7@7@L - r#r#q#k~~*7@7@4@g 1>g !*!*I%R R S+1$<@R <@1$A -$S+<@6@L m@}@6@2@!*K&}.}.z#m m m m :@:@K&($i-m t@t@m :@p.;$1>K&p.r=r=($($B$g 4+R R C >$E%2=g 4+A :@A ] @(2.                                                                        ",
"                                                                        t'T!+.t.u.h+h+]+]+O!t.o.k..+t.;.;.b.g.c.o.o.;.o.t.o.o.c.%+t.%+o.[.M.t.='/@ #v.*+[.+.S S [.!+k.[.Z@R+B 0.t _@k B m J&J&6*_@k _@v v }.B m _@}._@J&:@B t@:@W&j (;6*v v k l z#m m m t z#j _@K&U&U&;$($4+R S+E%2=($i-1$R ($:@($z B r=r=r=~+($($!*g R g ($($:@R !*K a@}@S+9.i-F%;$!*>$a@q#<&r#r#2@C g a@q#-$R I%~+7@}@>$S+R <@1$g I%}@S+S+1$<@r#]@g g }@}@=$J%J&t@t J&m }.c&:@z#J%U&U&B B m B :@J%~+!*:@:@t@:@1$~+:@7.I%g R g K A ~+($R ($-$t$-~r%                                                                          ",
"                                                                            #($(K+g+%(|)V.g+u.g.t.g.o.o.;.g.g.c.b.*.*.*+)+b.W,Z!t.t.o.*.8**+.+P.k#7-v.o.*.*.T 0>c.%+k.*.).v }.6*0.}.B z#J&%~z#_@j~k '.R+c,m 0.t k (;d-J&:@r=1$r=J%z#t J&m k '.A*m m k m 2&_@z#w U&($J%f 1$I%<@9.1$K&z ($!*i;($($!*U&K&($i-a;!*!*!*9.S+=$1$K&U&1$R A !*!*S+($<@;$S+i-;$4@}@b@b@2@B@6@g E%7@a@7@S+h*I%-$E%R 1$<@;$1$<@R 7@R ;$1&z%1@}&7@}@2@}@;$W~}.z#m J&J&k p.p.B ;$;$9.:@0._@z#t@($R ($:@($K&!-($i-E%4+R g ($I,r.p.p.< G=, C~i{                                                                              ",
"                                                                              0,''S.1+I.P.V.g+u.^+o.o.;.b.o.g.]+]+;.Y@;.h.b.b.g.t.c.o.+.+.*+u.+ K.I.u.h.o.;.8*;..#%+k.*+` j B B J&B _@m m }.m k W !.j m _@B K&!.'.Q*m m ~+:@#-A r=/)6*z#Q*k t }.}.J&!.J&z#m K&r=r=U&U&z A R 9.A :@K&($($1$R 9.U&i-U&:@i-:@R I%9.9.9.:@4+R ($($<@I%1$($~*7@!*<@h*1$r=i-a@7@1@*%L m@2@2@7@R |@C }@~*g E%1$-$;$($($!*($($<@i;($R r#b@6@C 2@2@S+B t@U&K&J&}.J&t@($($c&f ;$9.6*Q*3)J&($i-($($~+U&:@($!*!*i-($p.($($j,~+f A q;&(*(                                                                                  ",
"                                                                                  j-t'/.1+I.D.u.I.u.g.h.c.h.t.t.&%o.;.*.h.j.*.*.j._,U U M.*. #P.R.(%v.t.1;w.*.b.k.k.c.[.o _@B K&B B B J&J&J&B m 0.z#c,!.B K&B !.!.k z#_@:@1&I%A ;$($i-m m K&S~!.}.J&z#A*m }.B ($!*i-U&($9.R !*($i-~+a;t@1$S+9.K&^):@i-:@U&!*!*9.i-9.!*I%R i-!*S+=$($($I%S+S+i;E%!*~+U&g g a@z%}&q#6@2@7@S+I%C a@}@I%h*1$=$i-1$1$($r=B =$($i-9@1@1@2@a@r#7.!*($c&B t@m k 6*U&;$;$:@~+R ($-~k m  ^f r=R !*4+a;i-!*g ~+:@($p.~+z !-A c+W =(                                                                                      ",
"                                                                                      -(p&^.| t.v.D.g+o.o.b.g.u..+c.c.b.8*;.b.)+[.[.[.[.8**.t.]+/@+ k.g.*+r )+b. #k.g.y*Z@A*z }.B r=B z#t@S~t m w A*k l J&B t v R+t }.m U&1$9.($($~+:@B t J&m B m }.J&z#K&m z#($/=1$!*U&i-1$($i-($~+t@;$<@a@S+U&!*!*R /=!*4+!*f 1$S+S+U&1$($R ;$($($($g T=S+7@a@!*~+;$R g >$g 2@7@7@C g E%g 7@=$<@!*a@a@S+S+S+<@($U&:@U&($g 2@r#m@6@E%2@}@!*;$K&($K&_@z#J&2&:@<'f 1$J%K&z#}.m c&f R }@C R i-1$R 9.r=f :@($:@t@L ($j%                                                                                          ",
"                                                                                          6^;(g~Q,h+|)h+V.g+]+g#u.^+k.t.b.m#*.o.*.j.[.b.b.c.t.k.V.+ v.t.b.;.*.%+ #k.W,T ].R+6*c&K&t@c&m :@B J&A*}.B B :@U&r=k X '.!.r=U&r=K&f B J&:@B J&J&t R+m B K&($($r=B B t@J%9.i-:@f ($;$z i-:@6*K&:@R ;$K&/=!*g g I%a@E%($9.($~+U&U&U&I%9.9.R R g I%S+E%K&U&U&R R -$g C g g I%E%g 7.1$1$1@q#S+a@a@b@i ($I%A c&:@J%i-g 6@E%}@z%6@3@R R ;$F%f z#_@_@t B f B U&U&6*z#m 6*K&}.($1=|@A 1$f ($p.x :@~+2-3-q.s.j/                                                                                              ",
"                                                                                              6^t+d.5.h+V.h+&%]+v.g..+g.(+o.j.o.o.j.S *.h..#t.]+D./@]+.+t.b.*.k. #v.*.[.3.'.m K&:@p.U&f z J&B B m B w K&:@J%m k X !.t@p.:@B :@B m m }.}.m t '.k j J&z B %~r=K&($:@:@:@z :@B K&:@~+:@c&B B :@:@r=~+($7@U.a@U.|@R R i-i-4;1$!*g 9.1$g a@|@-$1$U&i-1$!*S+g >$|@E%<@S+C 7@7@E%!*S+<&2@g ~*6@}@R 1$|@($K&;$($R 4@r#g }@b@r#2@1$S+;$R f :@Q*j w :@:@4)z f t@B w A*U&9.R g >$~+f 6*p.~+y f 1$K~!{>(                                                                                                  ",
"                                                                                                  ,(=)u o.D.V.u.V.t..+u.m#o.;.j.1;U S [.o..+t.t.I.k#v.g.o.*.b.t.f)v.c.T ^@W m K&U&($9.K&m B B }.l m z#K&B r=B j '.}.c&:@U&:@U&:@B w }.m t !.v V _@J&t@:@J%~+K&}.c&:@:@p.;$i-:@B :@J&t K&e)i-r=J&B f 9.g C 7@g 7@4+g <@-$I%R !*g 6@a@|@2=1>($!*I%<@!*S+C g g a@R 1&1$S+7@7@a@1@q#6@U.g 7@X,1$E%<@J%z =$<@/=a@6@6@z%2@b@q#R ($U&9.r=B !.j }.i-B B z ~+:@z k 6*g R ($A 4+~+B r=:@:@p.,$!*G)                                                                                                      ",
"                                                                                                      d%m+u g.u.u.9>u.u.*.c.j.;.[.U %.S j.b.t.t.]++ i#t.h.;.c.t. # #b.`@|.V !.J%:@~+($U&w }.w 0.}.m t z#K&K&z#J&z#e)J&c&;$($:@:@K&c&B A*V&k t _@t m m B K&U&/)c&r=:@i-($<@($r=w J&v _@A*B r=:@}.z ($9.}@7@C R I%I%g R E%($($R w$I%C |@S+S+!*R g I%7@I%g S+4+-$g S+I%7@E%q#}@a@g 1@6@E%S+<@<@9.1=1&1$<@<@g m@2@}@2@+#b@E%E%=$i-<@i-B t _@B z B 6*0.r=U&:@K&($9.R z,($=$f B }.:@<&-$w%                                                                                                          ",
"                                                                                                          '(2{f.1 y.^+y.^+t.b.b.h.N.j.6.U o.t.u.9>V.v..+;.o.o.t.]+]+)+2.X v m :@:@i-:@K&m m _@t t !.m z#K&<'_@J&K&t@K&:@~+~+B t@r=K&z#}.z#t B A*m z#B t w t@r=t@K&:@U&:@f i-($B z#}.!.!.3=_@w K&r=1$!*I%I%w$R I%g I%R 4+R ($S+A 4+K 4+a@a@g a@C 4+1=g g g I%a@|@-$S+4+~*g R S+7@4@6@7@E%I%;$R 1&;$1=1$E%C 7@}@r#b@b@b@1@a@<@<@p.r=K&z#m B B J&!.~+p.;$B$J&f :@!-j,f p.I+5+v{=.n=                                                                                                              ",
"                                                                                                              )(5&r N.u..+^+^+g.)+o.[.;.+.;.j.o..+ #]+u.g.h.o.]+ #.+o.U X@_@B :@p.($f J&_@m A*t Q*k m &~B J%K&m m }.B B w r=B$~+c&J&B }.m }.z#B K&B c&K&:@J%:@:@:@e)<@U&:@=$f r=r=z#k _@t 0.B r=:@i-($4+T=K K 4+K 4+K 7@g !*($($($R E%7@>$R -$a@E%7@a@2@4@4@6@g g R I%!*<@4+K 7.}@}@}@I%S+1$S+R <@R -$I%a@b@}@6@a@- L 2@4@S+<@($:@B J&}.m }.:@0.f J&c&}.c&B t@p.f p.f !(2-)%~(                                                                                                                ",
"                                                                                                                  I]r+u g.u.^+b.^+^+j.T w.;.w.8*k.v.^+b.*.{(;.g.='t.)+|>Z k m c&B B B j =.t m m k j B K&B B t }.t@J%B i-B r=r=t@0.j m A*m w r=:@m B z 0.U&i-1$~+r=r=U&U&f :@:@}.i-:@m m c&B K&:@U&r=($!*I%g R R R S+E%T=a@S+!*($R R R R R :@K a@S+7@z%a@6@a@7@g 4+4+4+1$/=E%2@a@}@g >$g E%<@g E%-$S+R E%a@2@2@L a@i L r#4@=$($p.r=:@W l k }.z#z#J%J&J&m B z B p.p.- *%e;](                                                                                                                    ",
"                                                                                                                      *&R.u g.]+g.g.W.;.2.;.j.S h.u.v.c.0>[.;.b..+b.*.p o l B :@:@w m m w }.!.z#0.}.}.:@K&K&J&t@U&f ~+:@B B$B :@6*B B w m K&U&:@J%r=($B B r=i-~+U&($!-U&i-i-($9.1$r=B r=B }.:@;$1$($($R S+7@E%E%9.A g a@}@S+Z/E%7@S+4+g R A 7@7@C g 7@z%a@z%S+7@g !*<@~*a@q#L 1@3@1@C R 7@g g g g E%4+7@1@2@b@{%1@2@L o#>$R K ($U&:@A*V l j B c&J%w w 6*w ;$f S+n#o.Y%                                                                                                                        ",
"                                                                                                                          -]^(-{s~E.E.g+W.^+h.+.;.g..+t.;.b.o.t.a$(+Y@%.#.l B p.K&B z#j z#z#m m w :@:@:@($U&J%B B z#r=i-:@c&c&:@B B B B U&t@U&U&:@U&U&}.r=J%($~+p.($U&:@1>U&R 9.($:@J%K&i-($($($R i-F%S+|@7@E%1$~+R g g U.~*S+|@g |@g I%R C 7@g g g g 6@2@7@E%C K !*<@S+g 7@a@g a@E%C g g S+E%g 6@}@}@g r#r#b@1@z%2@o#*%2@a@g A =$w J&W k :@c&w w B &~^ Y 3]=+5-/(                                                                                                                            ",
"                                                                                                                              d/w{/.m#Q.g+u.g.N.+.)+t.h.o.b.m#t.k.='*+S X ~.m i-:@K&6*m w m 3=t B f :@($1$R :@($p.:@($~+:@B B r=B 6*0.r=p.1$($U&U&J%B :@i-($!*!*9.i-($:@:@($9.~+p.:@f :@U&1&1$4+4+($i-~*g S+1$($R !*g C q#C R G+S+R E%R R E%g >$}@7.r#2@a@C a@6@K U&S+g a@a@>$g 6@}@4@C a@7@E%U.6@7@}@}@3@2@b@1@1@2@D +#]@}@g 9.:@B$m u j r=c&t@z w B J+((k)8.                                                                                                                                ",
"                                                                                                                                  `.J.V g+V.y.*.o.b.b.N.o..+t.k..+(+*.`@ .t 6*J%;$r=}.m m z#B j B$($p.I%R K 4+A -$R -$($p.($B :@B 6*c&~+U&o)~+($($U&~+i-9.R I%i-f i-<@i-R 9.1$:@~+~+i-($p.U&($($($i-!*!*K I%I%1=<@<@|@2@j*r#S+S+S+S+g I%E%I%C q#a@0@1@|@a@2@*%1@-$g 7@g a@2@7@7.4@a@q#z%>$a@a@a@E%I%6@i 6@z%U.2@1@R#+#L 1@a@R p.z c&l k B$0.z f &~p.M@} A'                                                                                                                                    ",
"                                                                                                                                      ')R.1.g.g.g.u.E.g.b.g..+.+t.o.;.)'^@~.A*K&<'K&:@6*6*z B K&J&($:@~+($E%R =$R 7@R <@K A U&<@i-6*J&U&1$($:@($:@r=:@i-($R I%($U&1$($=$S+R R ($S+9.E%/=($~+i-<@<@R <@S+1$1$S+g g 1@]@r#2@a@7@h*E%4+($g C K C }@2@]@q#7@6@r#a@a@a@g g E%g w$1$K }@4@a@1$a@]@0@1@a@2@4@3@a@a@a@1@C L 0&*%1@>$<@($f w !.m }.w x c&t$j,M%                                                                                                                                        ",
"                                                                                                                                          _(r,$.k)y.y.u.^+.+u.k.(+N.[.@.Z A*K&z :@:@f K&B :@($U&t@:@p.r=<@g R !*1$R R !*A A 1$!*i-K&J&;$;$:@t@p.B B c&U&i-!*R ($U&($:@r=R 1$i-1$!*R S+1$:@:@;$;$($($;$R I%E%/=I%2@6@- 6@9@}@U.a@|@R !*1$<@-$a@4@<&2@1@g g a@a@1@g R E%S+g a@a@r#L $#$#B@o#L 2@2@2@b@i q#2@b@i 1@w$6@i +#2@>$=$p.p.Y,B o,:(w u{*!<(                                                                                                                                            ",
"                                                                                                                                              [(k+..N.u.]+V.h+]+k.o.T S o V c&c&:@($;$r=B ($<@($:@A ($;$($R K !*4+S+=$p.($R 1$R !*!*U&U&U&B J%r=}.K&;$~+i-9.1$i-U&:@J%p.A ($=$1$($/=($i-U&:@f :@:@9.1$g S+R K g a@6@>$a@a@a@2@>$I%R -$R g 2@i b@L a@1@7@>$6@2@c@6@g >$7@6@b@;@7#H H o#E c@m@1@i 2@b@L L m@i 2@2@>$L {%o#2@a@=$!-($f c&I+! r.['                                                                                                                                                ",
"                                                                                                                                                  }(j+%;N.u.g+w+N.+.^.%.&.X W w w r=t@U&c&t@B B B t@:@K&f R K 4+R !*9.9.R !*!-p.($9.($!*($:@<@1$=$1$($;$U&!*K ($($U&($R |@g -$1$p.;$($($=$($!*i-!*I%a@7@S+R I%S+6@|@7.6@2@r#6@7@g K g g 7@2@R#c@r#a@2@a@}@2@2@D 6@}@a@z%b@c@7###o#0#r#B@2@C 7@g K }@7.1@]@6@2@a@a@2@b@& 2@>$p.2=($z H c/o$                                                                                                                                                    ",
"                                                                                                                                                      |(K.u ^+o.h.+.q p S o #.l W '.W W k t l v _@k 0.z#m :@9.A a@|@a@!*!*R R w*($:@~+<@1>S+<@p.<@4+A ($;$S+g -$($($p.=$E%R S+R 1$<@R S+1$~+($1$S+R C C 9@S+9.g 6@6@2@r#b@]@g C a@a@a@}@4@+#& E L 1@r#o#B@m@L +#6@1@q#5$2@b@2@b@a@r#E%>$S+R S+g R E%g }@S+E%1@7@}@a@4@Z~2@g :@9.- k*1(                                                                                                                                                        ",
"                                                                                                                                                          2(X)P.| o.y*$.$...d./ / / ^ u j j j V u =.k }.0.w 0.f i-($<@A ($($A R :@:@<@1$1$!*<@1$($9.=$1$1$g }@!*9.p.B U&($R |@|@7@4+g ~*g 1$1$<@<@R a@g C 6@E%2@7@q#r#a@2@1@C 6@]@1@}@a@r#+#6#B@E*+#o#c@D }@r#b@2@b@b@B@r#U.a@R <@R R g -$<@<@7.u~[@-$R K K -$|@K -$=$#-T.z X^X/3(                                                                                                                                                            ",
"                                                                                                                                                              &/4(o.-~/ *!3>3>s.1.d.d.=.W j t,#.#.R*V !.j -~0.t@B B :@B$w B B }.m k B ;$1$<@1$:@i-1$1$!*!*R >$R R ~+:@($R 3*a@a@C E%S+g E%S+S+-$R R 7@|@C a@!*C I%U.i r#c@L 0#L r#i w$}@2@b@B@3@3@1@8#a@}@z%6@U.]@a@a@a@g S+1$($A :@:@=$($:@z,K K g g r.A #-K L*L*]@u{5(6(q;Q'                                                                                                                                                                ",
"                                                                                                                                                                    7(8(D#7-t.1.x K x p.w w H+#.n ` #.W V V j J&!.m m j l k k z#v k l z r=:@:@K&K&:@($K&($1$!*:@K&z#2&f R ~*g E%($!*R R ($($1$($;$U&K&1$/=R R a@g 6@a@B@B@B@+#B@1@a@}@r#C ~*a@I%4+S+C g S+<@g R 4+1$1&U&:@r=B  ^;$p.f :@U&z#B R -$E /$H*+//;x =.[.U#|'P~9(                                                                                                                                                                    ",
"                                                                                                                                                                                B&R~0(m%l'.+S k ~+C L*4@p.!.H+t@w }.!.n ~.X@'.m t V k m K&z#}.B z#m m B z#B J&K&z#l z#m B F%:@1$<@=$($U&1&~+U&A E%;$m U&E%;$<@7@C q#q#r#6@z%7@1@7@S+!*1$U&1>;$=$($($1>R U&U&J%($f U&;$;$J%t@B 0.A*g *%H ##F 7.E%'.U$M%H=a(                                                                                                                                                                                    ",
"                                                                                                                                                                                                  b(M,*(9 f{,~4 W]c(:;E+J+x.W t,/ Y #.W Y t,0.B$B$w z y B$d(Y,j 0.m A*0.t@f 9.1$($~+i-K&1>($($R =$A /)B :@i-!*g 7@E%<@=$S+E%;$j,p.:@6*f z :@;$w -~0.J%=$c&c&c&5+T.e(k*$ r.e.A.L+f(g(H=R~h(                                                                                                                                                                                                    ",
"                                                                                                                                                                                                                  i(g]B,)%7-E./ ) =+j({ > r.w y J+w H+Y }.y z }.j k k 6*~+=$($p.i-:@($($1$:@;$A :@:@r=J%:@U&r=K&z 6*m U&J%K&J%A*A*P*A*c&|~4;}@7.*%2/&$<#E+2-I,/ <$v^2('^                                                                                                                                                                                                                      ",
"                                                                                                                                                                                                                                    ](_(C#E-+.g.S Y,h H & 7.p.0.'.~.l m c&c&z p.z z .>i-r=B :@($:@J&r=:@f :@6*6*6*B z#J%6*1&}@}@& & {%A ` S !+++=*k(l(X%                                                                                                                                                                                                                                      ",
"                                                                                                                                                                                                                                                      /^/^}%A)|.6*j 0.a@K A !-I,A p.A R R p.t@0.w ($($($1$6@E D J u#B@1&Q*T S$m(T%;*n(                                                                                                                                                                                                                                                        ",
"                                                                                                                                                                                                                                                                      l(o(`^2)9{V-^^l.A X^/;{ e(K~F#A-A#2 k+C#p(*(-'                                                                                                                                                                                                                                                                          ",
"                                                                                                                                                                                                                                                                                        k{q(%/+{a^                                                                                                                                                                                                                                                                                            ",
"                                                                                                                                                                                                                                                                                                                                                                                                                                                                                                                                                                                              "};
