/* XPM */
static char * bullet_xpm[] = {
"227 189 11123 3",
"   	c None",
".  	c #988C7E",
"+  	c #988B7B",
"@  	c #968A79",
"#  	c #918574",
"$  	c #8C806D",
"%  	c #887B62",
"&  	c #837660",
"*  	c #7F7157",
"=  	c #7E7055",
"-  	c #7B6E56",
";  	c #7E7056",
">  	c #7E7157",
",  	c #7C6E55",
"'  	c #796C54",
")  	c #77694F",
"!  	c #796B51",
"~  	c #786A4E",
"{  	c #786B52",
"]  	c #796A4F",
"^  	c #7A6C52",
"/  	c #796C50",
"(  	c #7A6E54",
"_  	c #7A6E50",
":  	c #7B6F54",
"<  	c #7C7055",
"[  	c #7C7155",
"}  	c #7C725A",
"|  	c #968D81",
"1  	c #9C9283",
"2  	c #9D9182",
"3  	c #9F9383",
"4  	c #9F9382",
"5  	c #9E9280",
"6  	c #9C8F7C",
"7  	c #978B77",
"8  	c #948670",
"9  	c #8D7F65",
"0  	c #897B60",
"a  	c #847556",
"b  	c #827353",
"c  	c #827251",
"d  	c #807150",
"e  	c #7E6F4E",
"f  	c #7E6E50",
"g  	c #7C6C4D",
"h  	c #7B6B4D",
"i  	c #796A4B",
"j  	c #78694A",
"k  	c #796849",
"l  	c #786849",
"m  	c #79684A",
"n  	c #776749",
"o  	c #79694B",
"p  	c #79694A",
"q  	c #7B6A4C",
"r  	c #7A6B4C",
"s  	c #7C6D4E",
"t  	c #7D6F4F",
"u  	c #7E7051",
"v  	c #7C704F",
"w  	c #7E7050",
"x  	c #7D7153",
"y  	c #7E7152",
"z  	c #7F7358",
"A  	c #7F735A",
"B  	c #988E82",
"C  	c #998E83",
"D  	c #998E81",
"E  	c #968B7B",
"F  	c #948A78",
"G  	c #988C79",
"H  	c #9A8E7D",
"I  	c #9D9181",
"J  	c #A09383",
"K  	c #A19583",
"L  	c #A39684",
"M  	c #A49785",
"N  	c #A49885",
"O  	c #A39783",
"P  	c #A09380",
"Q  	c #9D907B",
"R  	c #998C74",
"S  	c #93856C",
"T  	c #8B7C5F",
"U  	c #887A5C",
"V  	c #857656",
"W  	c #857554",
"X  	c #847452",
"Y  	c #857453",
"Z  	c #847352",
"`  	c #867553",
" . 	c #867453",
".. 	c #8B7654",
"+. 	c #857252",
"@. 	c #8B7554",
"#. 	c #847150",
"$. 	c #877150",
"%. 	c #856F4F",
"&. 	c #897150",
"*. 	c #87704F",
"=. 	c #8C7251",
"-. 	c #877050",
";. 	c #8F7553",
">. 	c #8C7452",
",. 	c #927755",
"'. 	c #8E7754",
"). 	c #957B58",
"!. 	c #977C59",
"~. 	c #927B58",
"{. 	c #907A56",
"]. 	c #847553",
"^. 	c #807251",
"/. 	c #817252",
"(. 	c #817354",
"_. 	c #817455",
":. 	c #827556",
"<. 	c #827659",
"[. 	c #82765A",
"}. 	c #837558",
"|. 	c #827760",
"1. 	c #8D8577",
"2. 	c #908679",
"3. 	c #91867A",
"4. 	c #95897B",
"5. 	c #948A79",
"6. 	c #968C7B",
"7. 	c #988E7D",
"8. 	c #988D7D",
"9. 	c #9A8F7E",
"0. 	c #9C907F",
"a. 	c #9E9382",
"b. 	c #9F9583",
"c. 	c #A09584",
"d. 	c #A09483",
"e. 	c #A29685",
"f. 	c #A09484",
"g. 	c #A19685",
"h. 	c #A09485",
"i. 	c #A39887",
"j. 	c #A29786",
"k. 	c #A59988",
"l. 	c #A09586",
"m. 	c #A39786",
"n. 	c #A09585",
"o. 	c #A19586",
"p. 	c #A09685",
"q. 	c #A19585",
"r. 	c #A19584",
"s. 	c #A19686",
"t. 	c #9E9381",
"u. 	c #9E927E",
"v. 	c #9C907B",
"w. 	c #9D9179",
"x. 	c #9E927A",
"y. 	c #A1947A",
"z. 	c #A59982",
"A. 	c #A89B85",
"B. 	c #AA9C88",
"C. 	c #A99C87",
"D. 	c #A89A85",
"E. 	c #A59680",
"F. 	c #A4957E",
"G. 	c #9C8D74",
"H. 	c #96886D",
"I. 	c #908164",
"J. 	c #8C7D5D",
"K. 	c #897958",
"L. 	c #877655",
"M. 	c #877755",
"N. 	c #887756",
"O. 	c #897755",
"P. 	c #8E7A57",
"Q. 	c #A1845E",
"R. 	c #AE8A63",
"S. 	c #BF9369",
"T. 	c #C7986C",
"U. 	c #CB996D",
"V. 	c #C6966B",
"W. 	c #CF9B6E",
"X. 	c #C69569",
"Y. 	c #D0996D",
"Z. 	c #CC976B",
"`. 	c #D39B6E",
" + 	c #D0986C",
".+ 	c #D1996D",
"++ 	c #D29A6E",
"@+ 	c #CD976B",
"#+ 	c #CB976B",
"$+ 	c #D19B6E",
"%+ 	c #CE986C",
"&+ 	c #D59D6F",
"*+ 	c #C09367",
"=+ 	c #B88E65",
"-+ 	c #A8865F",
";+ 	c #9F825C",
">+ 	c #9D805C",
",+ 	c #917B58",
"'+ 	c #897856",
")+ 	c #8A7956",
"!+ 	c #847655",
"~+ 	c #867756",
"{+ 	c #857655",
"]+ 	c #837659",
"^+ 	c #837555",
"/+ 	c #82765F",
"(+ 	c #8F8375",
"_+ 	c #908475",
":+ 	c #938778",
"<+ 	c #938878",
"[+ 	c #968A7A",
"}+ 	c #978C7C",
"|+ 	c #988D7C",
"1+ 	c #998D7D",
"2+ 	c #9A8E7F",
"3+ 	c #9C8F7F",
"4+ 	c #9C9080",
"5+ 	c #9C9180",
"6+ 	c #9C9181",
"7+ 	c #A49887",
"8+ 	c #A49988",
"9+ 	c #A69A89",
"0+ 	c #A79B89",
"a+ 	c #A79B8A",
"b+ 	c #A89C8A",
"c+ 	c #A79B88",
"d+ 	c #A69A88",
"e+ 	c #A69A86",
"f+ 	c #A19580",
"g+ 	c #9E927B",
"h+ 	c #9B8F75",
"i+ 	c #9E9277",
"j+ 	c #A89D83",
"k+ 	c #ADA188",
"l+ 	c #B2A68F",
"m+ 	c #B3A790",
"n+ 	c #B5A994",
"o+ 	c #B4A893",
"p+ 	c #B1A48D",
"q+ 	c #A69880",
"r+ 	c #A09278",
"s+ 	c #98896D",
"t+ 	c #948466",
"u+ 	c #90805F",
"v+ 	c #8D7D5B",
"w+ 	c #8B7B59",
"x+ 	c #8A7A56",
"y+ 	c #8B7A57",
"z+ 	c #8B7956",
"A+ 	c #8B7957",
"B+ 	c #8D7B58",
"C+ 	c #98805B",
"D+ 	c #A48864",
"E+ 	c #B5926A",
"F+ 	c #C4986C",
"G+ 	c #D7A474",
"H+ 	c #E1AA79",
"I+ 	c #EBAF7C",
"J+ 	c #F2B27E",
"K+ 	c #F1B17E",
"L+ 	c #F2B17E",
"M+ 	c #F2B17D",
"N+ 	c #F3B07D",
"O+ 	c #F1AD7B",
"P+ 	c #F4AF7C",
"Q+ 	c #F0AC7A",
"R+ 	c #F1AC79",
"S+ 	c #EEAB79",
"T+ 	c #EAA877",
"U+ 	c #E7A676",
"V+ 	c #E5A675",
"W+ 	c #E3A474",
"X+ 	c #E0A373",
"Y+ 	c #DFA272",
"Z+ 	c #D9A070",
"`+ 	c #D39B6D",
" @ 	c #CC986B",
".@ 	c #C7966A",
"+@ 	c #B88D65",
"@@ 	c #B08A63",
"#@ 	c #AB8961",
"$@ 	c #9D825D",
"%@ 	c #957F5B",
"&@ 	c #937D59",
"*@ 	c #8A7957",
"=@ 	c #897957",
"-@ 	c #887857",
";@ 	c #847657",
">@ 	c #83775D",
",@ 	c #8E8375",
"'@ 	c #8F8376",
")@ 	c #8F8476",
"!@ 	c #908576",
"~@ 	c #938879",
"{@ 	c #9D9180",
"]@ 	c #9F9482",
"^@ 	c #9F9483",
"/@ 	c #A99D8B",
"(@ 	c #A99D8C",
"_@ 	c #AA9E8D",
":@ 	c #AA9E8C",
"<@ 	c #ACA08E",
"[@ 	c #ADA18F",
"}@ 	c #AFA390",
"|@ 	c #B0A38F",
"1@ 	c #B0A390",
"2@ 	c #AFA28F",
"3@ 	c #AEA18E",
"4@ 	c #AEA18D",
"5@ 	c #ADA08D",
"6@ 	c #AFA28E",
"7@ 	c #AC9F8C",
"8@ 	c #AB9E8A",
"9@ 	c #A49782",
"0@ 	c #9F9279",
"a@ 	c #9B8E73",
"b@ 	c #97896C",
"c@ 	c #998C6E",
"d@ 	c #A09477",
"e@ 	c #ACA086",
"f@ 	c #BAAF97",
"g@ 	c #C0B59E",
"h@ 	c #C0B69F",
"i@ 	c #C1B59F",
"j@ 	c #C0B49D",
"k@ 	c #BAAE96",
"l@ 	c #ADA187",
"m@ 	c #A09275",
"n@ 	c #948463",
"o@ 	c #8F7F5C",
"p@ 	c #8F7F5B",
"q@ 	c #8F7E5A",
"r@ 	c #8E7D59",
"s@ 	c #907E5A",
"t@ 	c #927F5B",
"u@ 	c #9A835D",
"v@ 	c #A98B62",
"w@ 	c #B6936A",
"x@ 	c #C9A074",
"y@ 	c #D5A575",
"z@ 	c #E6AF7D",
"A@ 	c #ECB27E",
"B@ 	c #F1B47F",
"C@ 	c #F3B681",
"D@ 	c #F4B681",
"E@ 	c #F4B581",
"F@ 	c #F4B480",
"G@ 	c #F4B37F",
"H@ 	c #F4B27E",
"I@ 	c #F4B17D",
"J@ 	c #F4B07C",
"K@ 	c #F3AE7B",
"L@ 	c #F2AE7B",
"M@ 	c #F1AD7A",
"N@ 	c #F0AD7A",
"O@ 	c #EDAB79",
"P@ 	c #EBA977",
"Q@ 	c #E9A876",
"R@ 	c #E6A676",
"S@ 	c #E4A575",
"T@ 	c #E1A473",
"U@ 	c #DBA171",
"V@ 	c #D89F70",
"W@ 	c #D69D6F",
"X@ 	c #D49C6F",
"Y@ 	c #D29B6F",
"Z@ 	c #CC986C",
"`@ 	c #CC996D",
" # 	c #C2956A",
".# 	c #BB9067",
"+# 	c #B88E66",
"@# 	c #A78761",
"## 	c #9E825D",
"$# 	c #9B815C",
"%# 	c #8E7B59",
"&# 	c #867758",
"*# 	c #84785B",
"=# 	c #8F8477",
"-# 	c #908577",
";# 	c #93887A",
"># 	c #918779",
",# 	c #958A7C",
"'# 	c #998E7E",
")# 	c #A59B89",
"!# 	c #A59A89",
"~# 	c #A59B8A",
"{# 	c #A69B8A",
"]# 	c #A79C8B",
"^# 	c #A79D8C",
"/# 	c #A99E8D",
"(# 	c #ACA08F",
"_# 	c #ACA290",
":# 	c #AEA392",
"<# 	c #AFA492",
"[# 	c #B0A594",
"}# 	c #B1A795",
"|# 	c #B2A796",
"1# 	c #B3A896",
"2# 	c #B4A997",
"3# 	c #B5A997",
"4# 	c #B6AA98",
"5# 	c #B6AB98",
"6# 	c #B7AB99",
"7# 	c #B8AC9A",
"8# 	c #B9AD9A",
"9# 	c #BAAE9A",
"0# 	c #B8AC98",
"a# 	c #B8AB97",
"b# 	c #B7AB98",
"c# 	c #B8AC99",
"d# 	c #B9AC99",
"e# 	c #B9AC98",
"f# 	c #B9AD99",
"g# 	c #B9AC97",
"h# 	c #B5A894",
"i# 	c #A99D86",
"j# 	c #A2957C",
"k# 	c #9C8E72",
"l# 	c #998B6D",
"m# 	c #948666",
"n# 	c #97896A",
"o# 	c #A19478",
"p# 	c #B2A58D",
"q# 	c #BFB39D",
"r# 	c #C5BAA4",
"s# 	c #C8BCA6",
"t# 	c #C6BAA3",
"u# 	c #BFB39C",
"v# 	c #B4A88E",
"w# 	c #A19375",
"x# 	c #958563",
"y# 	c #92825E",
"z# 	c #90805C",
"A# 	c #91815C",
"B# 	c #98845F",
"C# 	c #9F8761",
"D# 	c #AC8E65",
"E# 	c #BA946A",
"F# 	c #C89D71",
"G# 	c #DFAA79",
"H# 	c #E5AF7C",
"I# 	c #EDB581",
"J# 	c #F1B783",
"K# 	c #F5B882",
"L# 	c #F4B782",
"M# 	c #F4B781",
"N# 	c #F4B37E",
"O# 	c #F4B27D",
"P# 	c #F3AF7C",
"Q# 	c #EFAC7A",
"R# 	c #ECAA78",
"S# 	c #EAA977",
"T# 	c #E8A876",
"U# 	c #E4A574",
"V# 	c #E1A474",
"W# 	c #DAA071",
"X# 	c #DAA070",
"Y# 	c #D19A6E",
"Z# 	c #D59D70",
"`# 	c #D9A071",
" $ 	c #D39C6F",
".$ 	c #CA966B",
"+$ 	c #C5946A",
"@$ 	c #BC9167",
"#$ 	c #B38D64",
"$$ 	c #A4865F",
"%$ 	c #917D5A",
"&$ 	c #8A7A57",
"*$ 	c #897A58",
"=$ 	c #887957",
"-$ 	c #867857",
";$ 	c #928779",
">$ 	c #93897B",
",$ 	c #948B7C",
"'$ 	c #968C7E",
")$ 	c #978D7F",
"!$ 	c #978C7E",
"~$ 	c #9D9283",
"{$ 	c #A19787",
"]$ 	c #A69C8B",
"^$ 	c #A89F8D",
"/$ 	c #A99F8E",
"($ 	c #A9A08F",
"_$ 	c #AAA090",
":$ 	c #ABA191",
"<$ 	c #ACA391",
"[$ 	c #AEA493",
"}$ 	c #AFA593",
"|$ 	c #B0A694",
"1$ 	c #B1A896",
"2$ 	c #B3AA98",
"3$ 	c #B4AB99",
"4$ 	c #B4AA99",
"5$ 	c #B6AC9A",
"6$ 	c #B8AE9C",
"7$ 	c #B9AF9D",
"8$ 	c #BAB09E",
"9$ 	c #BAB19E",
"0$ 	c #BBB19F",
"a$ 	c #BCB29F",
"b$ 	c #BDB3A0",
"c$ 	c #BFB3A1",
"d$ 	c #BEB3A0",
"e$ 	c #BFB4A0",
"f$ 	c #BEB39F",
"g$ 	c #BEB29E",
"h$ 	c #BFB39F",
"i$ 	c #C0B4A1",
"j$ 	c #C1B5A2",
"k$ 	c #C2B6A2",
"l$ 	c #C1B5A0",
"m$ 	c #BBAF9B",
"n$ 	c #AFA38D",
"o$ 	c #928365",
"p$ 	c #908160",
"q$ 	c #918260",
"r$ 	c #928361",
"s$ 	c #958868",
"t$ 	c #A2967A",
"u$ 	c #B2A68E",
"v$ 	c #C9BDA8",
"w$ 	c #C8BCA7",
"x$ 	c #C7BDA6",
"y$ 	c #C7BBA4",
"z$ 	c #C1B59D",
"A$ 	c #B2A68B",
"B$ 	c #A39576",
"C$ 	c #988866",
"D$ 	c #93835E",
"E$ 	c #92825D",
"F$ 	c #92815C",
"G$ 	c #97845F",
"H$ 	c #A28A64",
"I$ 	c #BC986C",
"J$ 	c #CDA174",
"K$ 	c #DBA979",
"L$ 	c #E8B07E",
"M$ 	c #EEB480",
"N$ 	c #F2B782",
"O$ 	c #F4B983",
"P$ 	c #F5B983",
"Q$ 	c #F4B580",
"R$ 	c #F3B07C",
"S$ 	c #F0AD7B",
"T$ 	c #EDAB78",
"U$ 	c #E7A776",
"V$ 	c #E3A574",
"W$ 	c #E1A373",
"X$ 	c #DFA373",
"Y$ 	c #DCA172",
"Z$ 	c #DBA071",
"`$ 	c #D99F70",
" % 	c #D29B6E",
".% 	c #D79F70",
"+% 	c #D69E70",
"@% 	c #DBA272",
"#% 	c #D59E70",
"$% 	c #D09B6E",
"%% 	c #CF986C",
"&% 	c #CB976C",
"*% 	c #CC976C",
"=% 	c #C6956B",
"-% 	c #C4956A",
";% 	c #BE9368",
">% 	c #9A825D",
",% 	c #8F7D5A",
"'% 	c #8C7B59",
")% 	c #87795C",
"!% 	c #86795E",
"~% 	c #928679",
"{% 	c #93877A",
"]% 	c #988D7F",
"^% 	c #998E80",
"/% 	c #9A9082",
"(% 	c #9D9384",
"_% 	c #A09787",
":% 	c #A79E8D",
"<% 	c #A9A18F",
"[% 	c #AAA190",
"}% 	c #ACA392",
"|% 	c #ADA393",
"1% 	c #AEA694",
"2% 	c #B0A896",
"3% 	c #B2A997",
"4% 	c #B4AC9A",
"5% 	c #B5AD9B",
"6% 	c #B6AE9C",
"7% 	c #B7AE9D",
"8% 	c #B7AF9D",
"9% 	c #B8AF9D",
"0% 	c #B9B09E",
"a% 	c #BBB29F",
"b% 	c #BCB3A0",
"c% 	c #BDB4A1",
"d% 	c #BFB5A3",
"e% 	c #BFB6A4",
"f% 	c #BEB4A2",
"g% 	c #BEB3A1",
"h% 	c #BDB2A0",
"i% 	c #BEB4A0",
"j% 	c #C0B5A2",
"k% 	c #C1B6A2",
"l% 	c #C2B7A3",
"m% 	c #C3B7A4",
"n% 	c #C4B8A4",
"o% 	c #C5B9A5",
"p% 	c #ADA18D",
"q% 	c #958871",
"r% 	c #8A7C60",
"s% 	c #877758",
"t% 	c #887959",
"u% 	c #8D7E5E",
"v% 	c #958669",
"w% 	c #A09379",
"x% 	c #B3A78F",
"y% 	c #BEB49D",
"z% 	c #C2B8A2",
"A% 	c #C4BAA3",
"B% 	c #C2B9A2",
"C% 	c #C1B7A0",
"D% 	c #BBB199",
"E% 	c #B0A48A",
"F% 	c #A39677",
"G% 	c #988864",
"H% 	c #94845F",
"I% 	c #95855F",
"J% 	c #95845E",
"K% 	c #988560",
"L% 	c #AA8D64",
"M% 	c #C49E74",
"N% 	c #DCAC7D",
"O% 	c #EDB380",
"P% 	c #F2B682",
"Q% 	c #F5B984",
"R% 	c #F1AE7B",
"S% 	c #EFAD7A",
"T% 	c #E2A473",
"U% 	c #E2A474",
"V% 	c #DFA273",
"W% 	c #DCA071",
"X% 	c #DA9F70",
"Y% 	c #D79E70",
"Z% 	c #D89F71",
"`% 	c #DDA272",
" & 	c #CC986D",
".& 	c #CA976C",
"+& 	c #CB986C",
"@& 	c #CA986C",
"#& 	c #C8976B",
"$& 	c #B68E66",
"%& 	c #A28560",
"&& 	c #97805C",
"*& 	c #907D5A",
"=& 	c #8B7B5A",
"-& 	c #86795D",
";& 	c #93887B",
">& 	c #998F81",
",& 	c #9A9182",
"'& 	c #9D9484",
")& 	c #A09786",
"!& 	c #A29989",
"~& 	c #A49B8A",
"{& 	c #A59D8C",
"]& 	c #A69E8D",
"^& 	c #A79F8E",
"/& 	c #A8A08F",
"(& 	c #ABA291",
"_& 	c #ACA492",
":& 	c #ADA494",
"<& 	c #AEA795",
"[& 	c #B1A997",
"}& 	c #B3AB99",
"|& 	c #B5AC9B",
"1& 	c #B6AD9B",
"2& 	c #B7AE9C",
"3& 	c #B9B19F",
"4& 	c #BAB2A0",
"5& 	c #BBB2A0",
"6& 	c #BDB3A1",
"7& 	c #BDB4A2",
"8& 	c #BBB09E",
"9& 	c #B9AF9C",
"0& 	c #B8AD9B",
"a& 	c #B9AE9C",
"b& 	c #BBB09D",
"c& 	c #BBB19E",
"d& 	c #BDB29F",
"e& 	c #BFB3A0",
"f& 	c #C1B6A3",
"g& 	c #C1B7A2",
"h& 	c #A89C88",
"i& 	c #928571",
"j& 	c #7A6A4F",
"k& 	c #7D6E51",
"l& 	c #837456",
"m& 	c #9C8E74",
"n& 	c #ADA18A",
"o& 	c #B9AD98",
"p& 	c #BDB29C",
"q& 	c #BCB09A",
"r& 	c #B9AE97",
"s& 	c #B5AA92",
"t& 	c #AB9F83",
"u& 	c #9E8F6F",
"v& 	c #958560",
"w& 	c #998760",
"x& 	c #AE9169",
"y& 	c #C69D72",
"z& 	c #E2AC7A",
"A& 	c #F2B581",
"B& 	c #F3B683",
"C& 	c #F4B984",
"D& 	c #F5BA84",
"E& 	c #F5BA83",
"F& 	c #F5B883",
"G& 	c #F2AF7B",
"H& 	c #EFAD79",
"I& 	c #EEAC79",
"J& 	c #ECAB78",
"K& 	c #EBAA78",
"L& 	c #DFA172",
"M& 	c #DDA071",
"N& 	c #DB9F71",
"O& 	c #D8A071",
"P& 	c #CD986C",
"Q& 	c #CD996D",
"R& 	c #C9986C",
"S& 	c #BC9168",
"T& 	c #AA8A62",
"U& 	c #9B835E",
"V& 	c #94805C",
"W& 	c #8C7D5B",
"X& 	c #887A5B",
"Y& 	c #88795B",
"Z& 	c #988E80",
"`& 	c #9A8F81",
" * 	c #9B9183",
".* 	c #9E9584",
"+* 	c #A09686",
"@* 	c #A29888",
"#* 	c #A39A89",
"$* 	c #A49C8B",
"%* 	c #A59C8B",
"&* 	c #A69D8D",
"** 	c #AAA291",
"=* 	c #AEA594",
"-* 	c #AFA695",
";* 	c #B0A795",
">* 	c #B0A796",
",* 	c #B1A796",
"'* 	c #B2A897",
")* 	c #B3AA99",
"!* 	c #B6AC9B",
"~* 	c #B7AD9B",
"{* 	c #B5AB99",
"]* 	c #B2A896",
"^* 	c #B1A794",
"/* 	c #B5AB98",
"(* 	c #B7AD9A",
"_* 	c #B9AE9B",
":* 	c #BAAF9C",
"<* 	c #B9AE9A",
"[* 	c #BAB09B",
"}* 	c #BDB19D",
"|* 	c #BCB09D",
"1* 	c #B3A895",
"2* 	c #A39885",
"3* 	c #8A7E6B",
"4* 	c #746853",
"5* 	c #70634B",
"6* 	c #72644A",
"7* 	c #76674D",
"8* 	c #82755B",
"9* 	c #948770",
"0* 	c #A49780",
"a* 	c #B2A690",
"b* 	c #B5AA95",
"c* 	c #B5A993",
"d* 	c #B4A892",
"e* 	c #AFA289",
"f* 	c #A5977A",
"g* 	c #9C8E6D",
"h* 	c #978763",
"i* 	c #968660",
"j* 	c #978761",
"k* 	c #9A8862",
"l* 	c #A78D65",
"m* 	c #CDA072",
"n* 	c #E5AF7E",
"o* 	c #EFB482",
"p* 	c #F3B783",
"q* 	c #F4B883",
"r* 	c #F4B985",
"s* 	c #F4B882",
"t* 	c #F3B17D",
"u* 	c #F0AE7A",
"v* 	c #E6A776",
"w* 	c #E0A272",
"x* 	c #DDA172",
"y* 	c #DBA173",
"z* 	c #D49D70",
"A* 	c #D19C6F",
"B* 	c #D39B6F",
"C* 	c #CE996D",
"D* 	c #CD9A6E",
"E* 	c #CD9A6D",
"F* 	c #CE9B6E",
"G* 	c #C0946A",
"H* 	c #B28E66",
"I* 	c #A58863",
"J* 	c #99825F",
"K* 	c #8E7D5C",
"L* 	c #897A5A",
"M* 	c #897B5C",
"N* 	c #887B5F",
"O* 	c #90857A",
"P* 	c #968B7D",
"Q* 	c #9B9182",
"R* 	c #9B9180",
"S* 	c #9C9382",
"T* 	c #A29887",
"U* 	c #A19886",
"V* 	c #A19786",
"W* 	c #A39B8A",
"X* 	c #A79E8C",
"Y* 	c #A89E8D",
"Z* 	c #A9A08E",
"`* 	c #AEA595",
" = 	c #B1A897",
".= 	c #AEA492",
"+= 	c #AAA08E",
"@= 	c #A99F8D",
"#= 	c #AEA491",
"$= 	c #B3AA96",
"%= 	c #B5AA97",
"&= 	c #B3A995",
"*= 	c #B3A794",
"== 	c #B3A894",
"-= 	c #B3A996",
";= 	c #AEA490",
">= 	c #988E7C",
",= 	c #7E7462",
"'= 	c #6E6350",
")= 	c #665944",
"!= 	c #675A44",
"~= 	c #6D614A",
"{= 	c #7B6E58",
"]= 	c #8D816B",
"^= 	c #A19681",
"/= 	c #AB9F8B",
"(= 	c #AFA38E",
"_= 	c #AFA48E",
":= 	c #AEA28B",
"<= 	c #AB9E84",
"[= 	c #A6997B",
"}= 	c #9F906D",
"|= 	c #988862",
"1= 	c #978760",
"2= 	c #9D8962",
"3= 	c #AD9269",
"4= 	c #C09D72",
"5= 	c #D3A677",
"6= 	c #ECB280",
"7= 	c #F2B683",
"8= 	c #F1B784",
"9= 	c #F3BA85",
"0= 	c #F4BB86",
"a= 	c #F2B783",
"b= 	c #F4B17E",
"c= 	c #F4B27F",
"d= 	c #F2B07C",
"e= 	c #EEAD79",
"f= 	c #E4A675",
"g= 	c #E2A373",
"h= 	c #E0A273",
"i= 	c #DCA072",
"j= 	c #D9A172",
"k= 	c #D19A6D",
"l= 	c #CF9A6D",
"m= 	c #CF9A6E",
"n= 	c #CE9A6E",
"o= 	c #CF9C6E",
"p= 	c #CE9B6F",
"q= 	c #C6986C",
"r= 	c #BD936B",
"s= 	c #B38F67",
"t= 	c #A28661",
"u= 	c #907F5D",
"v= 	c #897C5E",
"w= 	c #91857A",
"x= 	c #94887B",
"y= 	c #95897C",
"z= 	c #968C7D",
"A= 	c #998F80",
"B= 	c #998F7F",
"C= 	c #988E7E",
"D= 	c #9C9282",
"E= 	c #9D9383",
"F= 	c #9E9483",
"G= 	c #9D9382",
"H= 	c #9F9584",
"I= 	c #A39A88",
"J= 	c #A29987",
"K= 	c #A09785",
"L= 	c #A09784",
"M= 	c #A49A89",
"N= 	c #A69D8B",
"O= 	c #A49B89",
"P= 	c #A49B88",
"Q= 	c #A39A87",
"R= 	c #A69D8A",
"S= 	c #A99F8C",
"T= 	c #ACA28F",
"U= 	c #B0A692",
"V= 	c #ADA38F",
"W= 	c #ACA18E",
"X= 	c #ACA18D",
"Y= 	c #ABA18D",
"Z= 	c #A39884",
"`= 	c #978D78",
" - 	c #7F7561",
".- 	c #69604D",
"+- 	c #655A46",
"@- 	c #645945",
"#- 	c #665A45",
"$- 	c #6A5E49",
"%- 	c #897D68",
"&- 	c #9E937E",
"*- 	c #A99D88",
"=- 	c #AEA28D",
"-- 	c #AEA38D",
";- 	c #AFA38C",
">- 	c #AFA38B",
",- 	c #ADA186",
"'- 	c #AA9C7B",
")- 	c #A59671",
"!- 	c #A1916A",
"~- 	c #9E8D67",
"{- 	c #9B8B64",
"]- 	c #9A8963",
"^- 	c #A18D65",
"/- 	c #AF946A",
"(- 	c #C39F73",
"_- 	c #D7AB7C",
":- 	c #E1B180",
"<- 	c #E0B07F",
"[- 	c #E1AF7E",
"}- 	c #ECB583",
"|- 	c #EFB683",
"1- 	c #F2B884",
"2- 	c #F4BA85",
"3- 	c #F3BB86",
"4- 	c #EEB784",
"5- 	c #DFAB7B",
"6- 	c #F0B683",
"7- 	c #F3B17E",
"8- 	c #F3B27E",
"9- 	c #F0AE7B",
"0- 	c #EBAB79",
"a- 	c #EAAA78",
"b- 	c #E7A876",
"c- 	c #E5A676",
"d- 	c #E1A273",
"e- 	c #DEA273",
"f- 	c #DA9F71",
"g- 	c #D9A072",
"h- 	c #D09A6D",
"i- 	c #CF9C6F",
"j- 	c #D09C70",
"k- 	c #D29D70",
"l- 	c #D19D70",
"m- 	c #CD9B6F",
"n- 	c #C7996D",
"o- 	c #BD9369",
"p- 	c #A68863",
"q- 	c #91805E",
"r- 	c #8B7E5F",
"s- 	c #897D64",
"t- 	c #94887A",
"u- 	c #94897B",
"v- 	c #968A7C",
"w- 	c #978C7D",
"x- 	c #988D7E",
"y- 	c #978D7D",
"z- 	c #968C7C",
"A- 	c #9A9080",
"B- 	c #9A907F",
"C- 	c #9C9281",
"D- 	c #9E9482",
"E- 	c #9D9381",
"F- 	c #9D9280",
"G- 	c #A49A88",
"H- 	c #A39986",
"I- 	c #A29985",
"J- 	c #A29885",
"K- 	c #A29884",
"L- 	c #A19884",
"M- 	c #A69D88",
"N- 	c #A89F8B",
"O- 	c #AAA08D",
"P- 	c #AAA08C",
"Q- 	c #A89E8B",
"R- 	c #A89E8A",
"S- 	c #A39984",
"T- 	c #958B77",
"U- 	c #807862",
"V- 	c #82795F",
"W- 	c #7D7459",
"X- 	c #6A614B",
"Y- 	c #645B47",
"Z- 	c #625944",
"`- 	c #776D59",
" ; 	c #908672",
".; 	c #AA9E89",
"+; 	c #AEA38C",
"@; 	c #AFA48D",
"#; 	c #B1A78F",
"$; 	c #B2A78F",
"%; 	c #B2A68C",
"&; 	c #B1A484",
"*; 	c #AFA07B",
"=; 	c #AB9C73",
"-; 	c #A8986F",
";; 	c #A4946C",
">; 	c #A39269",
",; 	c #A59169",
"'; 	c #B3966D",
"); 	c #C7A275",
"!; 	c #D5AA7C",
"~; 	c #DDAF7F",
"{; 	c #E1B281",
"]; 	c #DEB07F",
"^; 	c #DBAC7C",
"/; 	c #DDAE7D",
"(; 	c #EBB784",
"_; 	c #EFB784",
":; 	c #F3BB87",
"<; 	c #F3BC87",
"[; 	c #F4BC87",
"}; 	c #F2B985",
"|; 	c #E8B17F",
"1; 	c #EFB783",
"2; 	c #F5BA85",
"3; 	c #F3B27F",
"4; 	c #EFAE7B",
"5; 	c #ECAB79",
"6; 	c #E9A977",
"7; 	c #E8A977",
"8; 	c #E6A876",
"9; 	c #DEA172",
"0; 	c #D09C6F",
"a; 	c #D19D6F",
"b; 	c #D29D6F",
"c; 	c #D49E71",
"d; 	c #D59F71",
"e; 	c #D39E71",
"f; 	c #AC8E66",
"g; 	c #988461",
"h; 	c #91815F",
"i; 	c #8E7F61",
"j; 	c #938779",
"k; 	c #978B7D",
"l; 	c #968B7C",
"m; 	c #958A7B",
"n; 	c #978B7A",
"o; 	c #998F7E",
"p; 	c #9A8F7D",
"q; 	c #9B917E",
"r; 	c #A09583",
"s; 	c #A19684",
"t; 	c #A19683",
"u; 	c #A09682",
"v; 	c #A09683",
"w; 	c #A09783",
"x; 	c #A09782",
"y; 	c #A19782",
"z; 	c #A19883",
"A; 	c #A39A85",
"B; 	c #A69C88",
"C; 	c #A79D89",
"D; 	c #A99F8A",
"E; 	c #A79D88",
"F; 	c #A29983",
"G; 	c #8F8870",
"H; 	c #7F7860",
"I; 	c #746E57",
"J; 	c #726C54",
"K; 	c #797158",
"L; 	c #736A51",
"M; 	c #6D634F",
"N; 	c #7B725E",
"O; 	c #A19780",
"P; 	c #ACA28B",
"Q; 	c #B1A68E",
"R; 	c #B2A890",
"S; 	c #B2A991",
"T; 	c #B4AA90",
"U; 	c #B6AB8E",
"V; 	c #B7AA86",
"W; 	c #B6A67D",
"X; 	c #B3A379",
"Y; 	c #B0A076",
"Z; 	c #AC9C72",
"`; 	c #AF9A70",
" > 	c #BA9E72",
".> 	c #C8A577",
"+> 	c #D4AB7C",
"@> 	c #DCAF80",
"#> 	c #DFB181",
"$> 	c #E0B281",
"%> 	c #E2B381",
"&> 	c #E6B381",
"*> 	c #E9B582",
"=> 	c #EDB885",
"-> 	c #F1B986",
";> 	c #F5BA86",
">> 	c #F3BA86",
",> 	c #F2BB87",
"'> 	c #F2BC88",
")> 	c #F5BB85",
"!> 	c #F5BB86",
"~> 	c #F3B37F",
"{> 	c #F2B27F",
"]> 	c #F1B07E",
"^> 	c #EDAD7A",
"/> 	c #E5A776",
"(> 	c #DEA373",
"_> 	c #E0A474",
":> 	c #E0A374",
"<> 	c #D99F71",
"[> 	c #D89E70",
"}> 	c #D79F71",
"|> 	c #D29C6F",
"1> 	c #D39D70",
"2> 	c #D49F71",
"3> 	c #D69F71",
"4> 	c #D7A071",
"5> 	c #D8A172",
"6> 	c #D9A173",
"7> 	c #D09D71",
"8> 	c #B8926A",
"9> 	c #9D8663",
"0> 	c #938362",
"a> 	c #908264",
"b> 	c #8F8367",
"c> 	c #8F8377",
"d> 	c #908477",
"e> 	c #918578",
"f> 	c #928678",
"g> 	c #968A7B",
"h> 	c #95897A",
"i> 	c #948879",
"j> 	c #958979",
"k> 	c #958978",
"l> 	c #978B7B",
"m> 	c #978C7B",
"n> 	c #998E7D",
"o> 	c #998F7D",
"p> 	c #988D7B",
"q> 	c #9A907E",
"r> 	c #9E9481",
"s> 	c #9F9481",
"t> 	c #A09581",
"u> 	c #A09681",
"v> 	c #A29783",
"w> 	c #A59A86",
"x> 	c #A69C87",
"y> 	c #A89F8A",
"z> 	c #A9A089",
"A> 	c #ABA28A",
"B> 	c #A69E84",
"C> 	c #9A9477",
"D> 	c #8D876B",
"E> 	c #857F64",
"F> 	c #7C765C",
"G> 	c #756E56",
"H> 	c #766F56",
"I> 	c #8A7F64",
"J> 	c #9A8F76",
"K> 	c #A69C85",
"L> 	c #B3A991",
"M> 	c #B5AA91",
"N> 	c #B7AD93",
"O> 	c #B8AD92",
"P> 	c #BCB190",
"Q> 	c #C0B28A",
"R> 	c #BFB084",
"S> 	c #BAAB80",
"T> 	c #B6A67B",
"U> 	c #B6A479",
"V> 	c #BAA378",
"W> 	c #CAA678",
"X> 	c #D7AD7E",
"Y> 	c #DAAF80",
"Z> 	c #DDB080",
"`> 	c #DEB181",
" , 	c #DEB080",
"., 	c #DFB07F",
"+, 	c #D8AA7C",
"@, 	c #E5B281",
"#, 	c #EDB784",
"$, 	c #EEB986",
"%, 	c #F1BA86",
"&, 	c #F1BB87",
"*, 	c #F2BC87",
"=, 	c #F3BC88",
"-, 	c #F5BC87",
";, 	c #F4B783",
">, 	c #F4B682",
",, 	c #EEAF7C",
"', 	c #E9A978",
"), 	c #E2A574",
"!, 	c #E1A374",
"~, 	c #DBA172",
"{, 	c #D39D6F",
"], 	c #D59E71",
"^, 	c #D6A071",
"/, 	c #D8A072",
"(, 	c #DAA273",
"_, 	c #DAA274",
":, 	c #DBA374",
"<, 	c #DCA374",
"[, 	c #CA9C70",
"}, 	c #B09069",
"|, 	c #9A8764",
"1, 	c #918464",
"2, 	c #908476",
"3, 	c #8E8274",
"4, 	c #918576",
"5, 	c #928677",
"6, 	c #948878",
"7, 	c #958A7A",
"8, 	c #948777",
"9, 	c #978A7A",
"0, 	c #988C7B",
"a, 	c #978D7B",
"b, 	c #968C7A",
"c, 	c #978C7A",
"d, 	c #9B907E",
"e, 	c #9C917E",
"f, 	c #9C927F",
"g, 	c #9D927F",
"h, 	c #9E937F",
"i, 	c #A59B85",
"j, 	c #A89F89",
"k, 	c #ABA28C",
"l, 	c #AAA18B",
"m, 	c #B0A78F",
"n, 	c #B5AE92",
"o, 	c #C0B996",
"p, 	c #B4AE8B",
"q, 	c #A8A280",
"r, 	c #9B9676",
"s, 	c #8E886B",
"t, 	c #837D62",
"u, 	c #817A63",
"v, 	c #9F967E",
"w, 	c #B6AA92",
"x, 	c #B8AD94",
"y, 	c #B9AF95",
"z, 	c #C0B597",
"A, 	c #C4B993",
"B, 	c #C9BC8F",
"C, 	c #C7B98B",
"D, 	c #C3B487",
"E, 	c #BEAE83",
"F, 	c #BBAA7D",
"G, 	c #C6A87C",
"H, 	c #D1AA7C",
"I, 	c #D7AB7D",
"J, 	c #DAAE7F",
"K, 	c #DBB080",
"L, 	c #DDB181",
"M, 	c #E1B280",
"N, 	c #D8AA7B",
"O, 	c #E0B180",
"P, 	c #E8B783",
"Q, 	c #E9B784",
"R, 	c #EAB784",
"S, 	c #F0B985",
"T, 	c #F0BB87",
"U, 	c #F5B985",
"V, 	c #F3B581",
"W, 	c #F3B380",
"X, 	c #F2B37F",
"Y, 	c #EFB07C",
"Z, 	c #ECAD7A",
"`, 	c #E9AA79",
" ' 	c #E7A977",
".' 	c #E3A675",
"+' 	c #DCA171",
"@' 	c #DBA273",
"#' 	c #D49D6F",
"$' 	c #DDA474",
"%' 	c #DDA475",
"&' 	c #D5A173",
"*' 	c #BE976D",
"=' 	c #A38C67",
"-' 	c #978764",
";' 	c #938667",
">' 	c #8C7F70",
",' 	c #8E8271",
"'' 	c #8D8070",
")' 	c #8E8272",
"!' 	c #908474",
"~' 	c #908473",
"{' 	c #918575",
"]' 	c #928676",
"^' 	c #938777",
"/' 	c #938676",
"(' 	c #958878",
"_' 	c #948877",
":' 	c #958977",
"<' 	c #948977",
"[' 	c #958A77",
"}' 	c #968B78",
"|' 	c #998D7B",
"1' 	c #9A8E7C",
"2' 	c #9B907D",
"3' 	c #9C917D",
"4' 	c #9D927E",
"5' 	c #9F937F",
"6' 	c #A09580",
"7' 	c #A39883",
"8' 	c #A79D87",
"9' 	c #ABA18B",
"0' 	c #AEA58E",
"a' 	c #B2AA91",
"b' 	c #CDC8A9",
"c' 	c #E3DFB5",
"d' 	c #E4DFB2",
"e' 	c #CEC9A0",
"f' 	c #BCB691",
"g' 	c #ACA684",
"h' 	c #9B9576",
"i' 	c #8F896C",
"j' 	c #988F76",
"k' 	c #A89E86",
"l' 	c #B7AB93",
"m' 	c #B9AD94",
"n' 	c #BBAF95",
"o' 	c #BDB297",
"p' 	c #BEB398",
"q' 	c #C1B597",
"r' 	c #CBBF95",
"s' 	c #D1C496",
"t' 	c #CFC192",
"u' 	c #CABC8D",
"v' 	c #C7B789",
"w' 	c #C6B183",
"x' 	c #CAAA7E",
"y' 	c #D6AD7E",
"z' 	c #D7AE7F",
"A' 	c #D7AE7E",
"B' 	c #DAB080",
"C' 	c #DCB181",
"D' 	c #DDB281",
"E' 	c #DFB382",
"F' 	c #E6B684",
"G' 	c #E9B885",
"H' 	c #E6B280",
"I' 	c #EFB985",
"J' 	c #EFBB87",
"K' 	c #F5B884",
"L' 	c #F3B682",
"M' 	c #F2B480",
"N' 	c #F1B37F",
"O' 	c #F1B27F",
"P' 	c #F0B17D",
"Q' 	c #EBAC79",
"R' 	c #E8A978",
"S' 	c #E6A877",
"T' 	c #E4A676",
"U' 	c #E7A978",
"V' 	c #E7A877",
"W' 	c #E2A575",
"X' 	c #DAA172",
"Y' 	c #DEA575",
"Z' 	c #DFA575",
"`' 	c #DFA576",
" ) 	c #E1A676",
".) 	c #DFA676",
"+) 	c #C1996E",
"@) 	c #AB8F69",
"#) 	c #9C8B66",
"$) 	c #988967",
"%) 	c #968969",
"&) 	c #8C7E6F",
"*) 	c #8C806F",
"=) 	c #8D8170",
"-) 	c #8F8373",
";) 	c #908373",
">) 	c #928575",
",) 	c #928574",
"') 	c #928674",
")) 	c #918573",
"!) 	c #918572",
"~) 	c #928675",
"{) 	c #938775",
"]) 	c #928673",
"^) 	c #938773",
"/) 	c #938774",
"() 	c #948875",
"_) 	c #968A76",
":) 	c #978B78",
"<) 	c #9A8E7B",
"[) 	c #9A8F7B",
"}) 	c #9C907C",
"|) 	c #9D917D",
"1) 	c #9F937E",
"2) 	c #A29782",
"3) 	c #A49983",
"4) 	c #A79C86",
"5) 	c #A99F89",
"6) 	c #ACA28C",
"7) 	c #B0A790",
"8) 	c #BDB6A0",
"9) 	c #D9D5C0",
"0) 	c #F5F5D9",
"a) 	c #FBFBD4",
"b) 	c #F8F5C7",
"c) 	c #E7E2B4",
"d) 	c #D2CDA2",
"e) 	c #BFB992",
"f) 	c #ADA785",
"g) 	c #A79F82",
"h) 	c #B9AD93",
"i) 	c #BCB196",
"j) 	c #BEB297",
"k) 	c #C2B79A",
"l) 	c #D1C5A0",
"m) 	c #D8CA9E",
"n) 	c #D3C595",
"o) 	c #D2C494",
"p) 	c #CCBC8E",
"q) 	c #CCB486",
"r) 	c #CFAE81",
"s) 	c #D3AD7F",
"t) 	c #D8AF80",
"u) 	c #D9B080",
"v) 	c #DBB181",
"w) 	c #D9AF7F",
"x) 	c #E0B383",
"y) 	c #D9AE7E",
"z) 	c #E3B482",
"A) 	c #E8B885",
"B) 	c #E3B280",
"C) 	c #E2AF7E",
"D) 	c #EEB886",
"E) 	c #ECBA86",
"F) 	c #EBB885",
"G) 	c #F3BC86",
"H) 	c #F4B884",
"I) 	c #F2B481",
"J) 	c #F1B380",
"K) 	c #F1B480",
"L) 	c #F0AF7C",
"M) 	c #F0B17E",
"N) 	c #EFB07D",
"O) 	c #DDA273",
"P) 	c #DBA274",
"Q) 	c #DEA574",
"R) 	c #DFA675",
"S) 	c #E2A877",
"T) 	c #E1A776",
"U) 	c #DEA676",
"V) 	c #DEA576",
"W) 	c #D4A173",
"X) 	c #B9966D",
"Y) 	c #9F8D69",
"Z) 	c #988A6A",
"`) 	c #95896B",
" ! 	c #8D7F6F",
".! 	c #8E8070",
"+! 	c #8D806F",
"@! 	c #908372",
"#! 	c #918472",
"$! 	c #938675",
"%! 	c #938674",
"&! 	c #928572",
"*! 	c #928472",
"=! 	c #938573",
"-! 	c #938673",
";! 	c #918571",
">! 	c #908470",
",! 	c #90836F",
"'! 	c #918470",
")! 	c #928672",
"!! 	c #998D79",
"~! 	c #9A8E7A",
"{! 	c #9B8F7B",
"]! 	c #9D917C",
"^! 	c #A39781",
"/! 	c #A69A84",
"(! 	c #A99E87",
"_! 	c #ADA28D",
":! 	c #B0A690",
"<! 	c #C6C0AE",
"[! 	c #E3E0D7",
"}! 	c #F9F9EF",
"|! 	c #FFFFED",
"1! 	c #FFFFE2",
"2! 	c #FEFED8",
"3! 	c #F8F6C9",
"4! 	c #E5E0B3",
"5! 	c #CCC69E",
"6! 	c #BBB192",
"7! 	c #B7AB90",
"8! 	c #B8AC92",
"9! 	c #BCB095",
"0! 	c #C0B498",
"a! 	c #C8BC9C",
"b! 	c #DACEA4",
"c! 	c #ECDFAB",
"d! 	c #E9DBA7",
"e! 	c #DFD19E",
"f! 	c #D3C495",
"g! 	c #CFBE90",
"h! 	c #CEB486",
"i! 	c #D0AD7F",
"j! 	c #D4AD7E",
"k! 	c #D6AE7F",
"l! 	c #D8B080",
"m! 	c #D9B081",
"n! 	c #DBB182",
"o! 	c #DDB282",
"p! 	c #DCB281",
"q! 	c #DAAF7F",
"r! 	c #D5AB7C",
"s! 	c #D2A97B",
"t! 	c #E9B986",
"u! 	c #E9B985",
"v! 	c #E5B381",
"w! 	c #EFB986",
"x! 	c #ECB986",
"y! 	c #E6B481",
"z! 	c #F4BA86",
"A! 	c #F2B784",
"B! 	c #F3B884",
"C! 	c #F1B481",
"D! 	c #EFB27F",
"E! 	c #F2B380",
"F! 	c #F1B07D",
"G! 	c #E3A776",
"H! 	c #DAA173",
"I! 	c #D69E71",
"J! 	c #D6A072",
"K! 	c #BD9167",
"L! 	c #AD825D",
"M! 	c #AC815C",
"N! 	c #C39267",
"O! 	c #E0A575",
"P! 	c #E0A675",
"Q! 	c #E0A676",
"R! 	c #E2A776",
"S! 	c #E3A877",
"T! 	c #E3A978",
"U! 	c #E0A777",
"V! 	c #E0A776",
"W! 	c #E1A877",
"X! 	c #DCA576",
"Y! 	c #CA9E71",
"Z! 	c #AF936C",
"`! 	c #9E8E6A",
" ~ 	c #9A8C6A",
".~ 	c #8D7F72",
"+~ 	c #8F8170",
"@~ 	c #8F8171",
"#~ 	c #8F8271",
"$~ 	c #918372",
"%~ 	c #938473",
"&~ 	c #948572",
"*~ 	c #948573",
"=~ 	c #958674",
"-~ 	c #958673",
";~ 	c #958774",
">~ 	c #948674",
",~ 	c #948672",
"'~ 	c #938571",
")~ 	c #92846F",
"!~ 	c #91836E",
"~~ 	c #91836F",
"{~ 	c #90826E",
"]~ 	c #938672",
"^~ 	c #958874",
"/~ 	c #968975",
"(~ 	c #988C77",
"_~ 	c #988C78",
":~ 	c #9A8E78",
"<~ 	c #9B8F7A",
"[~ 	c #9E927D",
"}~ 	c #A0947F",
"|~ 	c #ABA089",
"1~ 	c #B7AD99",
"2~ 	c #C9C2B3",
"3~ 	c #F0EEE8",
"4~ 	c #FCFCFA",
"5~ 	c #FFFFFB",
"6~ 	c #FFFFF5",
"7~ 	c #FFFFEE",
"8~ 	c #FFFFE6",
"9~ 	c #F5F3D1",
"0~ 	c #DDD8B0",
"a~ 	c #BFB495",
"b~ 	c #B7AA90",
"c~ 	c #B6A98F",
"d~ 	c #B8AB90",
"e~ 	c #BBAF92",
"f~ 	c #BEB195",
"g~ 	c #D1C4A0",
"h~ 	c #E5D8A9",
"i~ 	c #F2E5AF",
"j~ 	c #F4E7B0",
"k~ 	c #EDE0AA",
"l~ 	c #E0D19E",
"m~ 	c #D4C191",
"n~ 	c #CDAF82",
"o~ 	c #CEAB7E",
"p~ 	c #D1AB7D",
"q~ 	c #D2AD7E",
"r~ 	c #D4AE7F",
"s~ 	c #D6AF7F",
"t~ 	c #DDB382",
"u~ 	c #DCB282",
"v~ 	c #D7AC7E",
"w~ 	c #E1B282",
"x~ 	c #EAB986",
"y~ 	c #E7B785",
"z~ 	c #E7B684",
"A~ 	c #EBB986",
"B~ 	c #EDBA87",
"C~ 	c #F2BA86",
"D~ 	c #F3B985",
"E~ 	c #F3B885",
"F~ 	c #F0B480",
"G~ 	c #EDB07D",
"H~ 	c #EEB17E",
"I~ 	c #F2B580",
"J~ 	c #E8AA78",
"K~ 	c #E2A675",
"L~ 	c #DFA474",
"M~ 	c #DCA272",
"N~ 	c #DBAD7D",
"O~ 	c #C1A074",
"P~ 	c #987755",
"Q~ 	c #88694A",
"R~ 	c #9E7A56",
"S~ 	c #DCA373",
"T~ 	c #E1A675",
"U~ 	c #E3A777",
"V~ 	c #E4A877",
"W~ 	c #E5A978",
"X~ 	c #E1A878",
"Y~ 	c #E2A978",
"Z~ 	c #DFA878",
"`~ 	c #D1A274",
" { 	c #BB986F",
".{ 	c #A6916B",
"+{ 	c #988A6C",
"@{ 	c #918272",
"#{ 	c #928473",
"${ 	c #938474",
"%{ 	c #978675",
"&{ 	c #978774",
"*{ 	c #968774",
"={ 	c #978775",
"-{ 	c #988875",
";{ 	c #998875",
">{ 	c #988975",
",{ 	c #998874",
"'{ 	c #988874",
"){ 	c #988873",
"!{ 	c #978773",
"~{ 	c #978771",
"{{ 	c #95856F",
"]{ 	c #93836E",
"^{ 	c #92836E",
"/{ 	c #93836F",
"({ 	c #92836F",
"_{ 	c #938671",
":{ 	c #958772",
"<{ 	c #958872",
"[{ 	c #968873",
"}{ 	c #968974",
"|{ 	c #988B75",
"1{ 	c #998D76",
"2{ 	c #9C907A",
"3{ 	c #9F937D",
"4{ 	c #A49882",
"5{ 	c #ABA18A",
"6{ 	c #B8AE99",
"7{ 	c #DFDBD2",
"8{ 	c #F4F2EF",
"9{ 	c #FFFFFF",
"0{ 	c #FFFFFD",
"a{ 	c #FDFDF7",
"b{ 	c #F8F7E9",
"c{ 	c #D7D2B8",
"d{ 	c #BDB498",
"e{ 	c #B3A68C",
"f{ 	c #B2A58B",
"g{ 	c #B6A98D",
"h{ 	c #C2B696",
"i{ 	c #D5C9A1",
"j{ 	c #EFE4B0",
"k{ 	c #F5E9B2",
"l{ 	c #F7EAB3",
"m{ 	c #F1E4AD",
"n{ 	c #EADBA6",
"o{ 	c #DAC594",
"p{ 	c #D1B384",
"q{ 	c #CDA97C",
"r{ 	c #CFAB7D",
"s{ 	c #D2AC7E",
"t{ 	c #D5AF7F",
"u{ 	c #D6AF80",
"v{ 	c #D9B181",
"w{ 	c #DBB282",
"x{ 	c #DCB383",
"y{ 	c #DAB182",
"z{ 	c #DAB181",
"A{ 	c #E8B785",
"B{ 	c #EABA87",
"C{ 	c #E9BA87",
"D{ 	c #EEBB87",
"E{ 	c #EFBC88",
"F{ 	c #ECBB87",
"G{ 	c #EEBB88",
"H{ 	c #EFBB88",
"I{ 	c #F0BA86",
"J{ 	c #F0B784",
"K{ 	c #F1B684",
"L{ 	c #F0B583",
"M{ 	c #EEB380",
"N{ 	c #ECB17E",
"O{ 	c #E6A977",
"P{ 	c #E7AA79",
"Q{ 	c #E4A776",
"R{ 	c #D49C6E",
"S{ 	c #DDA476",
"T{ 	c #ECC58F",
"U{ 	c #DDAF7E",
"V{ 	c #D09D70",
"W{ 	c #BB8F66",
"X{ 	c #927352",
"Y{ 	c #BA8F66",
"Z{ 	c #DDA473",
"`{ 	c #E5A877",
" ] 	c #E4A978",
".] 	c #E3AA78",
"+] 	c #E4AA79",
"@] 	c #E5AB7A",
"#] 	c #DDA778",
"$] 	c #C39D72",
"%] 	c #A6926C",
"&] 	c #9A8C6C",
"*] 	c #988A6F",
"=] 	c #8E7F70",
"-] 	c #968876",
";] 	c #948675",
">] 	c #978876",
",] 	c #9C8B78",
"'] 	c #9D8C79",
")] 	c #9A8A77",
"!] 	c #9A8977",
"~] 	c #9D8B78",
"{] 	c #9D8C78",
"]] 	c #9E8D78",
"^] 	c #9E8D77",
"/] 	c #9D8C76",
"(] 	c #9B8A74",
"_] 	c #9C8A75",
":] 	c #998772",
"<] 	c #988771",
"[] 	c #96856F",
"}] 	c #968570",
"|] 	c #968670",
"1] 	c #978670",
"2] 	c #94836D",
"3] 	c #93836D",
"4] 	c #94856F",
"5] 	c #958670",
"6] 	c #958770",
"7] 	c #988872",
"8] 	c #998A74",
"9] 	c #968871",
"0] 	c #988B74",
"a] 	c #9A8C75",
"b] 	c #9C8F77",
"c] 	c #9E9079",
"d] 	c #9D907A",
"e] 	c #A2967F",
"f] 	c #A99D85",
"g] 	c #C3BBA9",
"h] 	c #E2DED3",
"i] 	c #FBFBF9",
"j] 	c #FFFEFE",
"k] 	c #ECEAE5",
"l] 	c #D2CBBD",
"m] 	c #B5A991",
"n] 	c #AEA288",
"o] 	c #ADA085",
"p] 	c #B0A487",
"q] 	c #BFB393",
"r] 	c #E3DDAC",
"s] 	c #F4ECB5",
"t] 	c #F9F0B7",
"u] 	c #F7EBB4",
"v] 	c #F3E6B0",
"w] 	c #E7D8A4",
"x] 	c #DAC593",
"y] 	c #CEAB7D",
"z] 	c #CDAB7D",
"A] 	c #D0AC7D",
"B] 	c #D1AC7E",
"C] 	c #D5AE7F",
"D] 	c #D7B080",
"E] 	c #DAB282",
"F] 	c #D8AE7F",
"G] 	c #E0B382",
"H] 	c #E7B885",
"I] 	c #E7B986",
"J] 	c #E8BA87",
"K] 	c #E8B987",
"L] 	c #EBBB88",
"M] 	c #EBBB87",
"N] 	c #EDBB88",
"O] 	c #EFBA86",
"P] 	c #EFB884",
"Q] 	c #EEB683",
"R] 	c #EEB582",
"S] 	c #EEB482",
"T] 	c #ECB381",
"U] 	c #EAB17F",
"V] 	c #EBB17F",
"W] 	c #ECB07E",
"X] 	c #EBAF7D",
"Y] 	c #EDAF7D",
"Z] 	c #BD8E64",
"`] 	c #A17A57",
" ^ 	c #947150",
".^ 	c #9B7755",
"+^ 	c #A47B57",
"@^ 	c #B78A62",
"#^ 	c #E3A775",
"$^ 	c #DAA072",
"%^ 	c #E6B885",
"&^ 	c #EFC891",
"*^ 	c #E3AA7B",
"=^ 	c #D8A174",
"-^ 	c #CF9E71",
";^ 	c #9D7C59",
">^ 	c #C6996D",
",^ 	c #E5AA79",
"'^ 	c #E5AB79",
")^ 	c #E6AC79",
"!^ 	c #E6AC7A",
"~^ 	c #E7AD7B",
"{^ 	c #E8AD7B",
"]^ 	c #E9AE7C",
"^^ 	c #ECAF7C",
"/^ 	c #D3A476",
"(^ 	c #B1956E",
"_^ 	c #A08F6C",
":^ 	c #988B6F",
"<^ 	c #978777",
"[^ 	c #968776",
"}^ 	c #988B77",
"|^ 	c #998B77",
"1^ 	c #988A77",
"2^ 	c #9C8E7B",
"3^ 	c #A1907D",
"4^ 	c #A2917E",
"5^ 	c #A08F7C",
"6^ 	c #9F8E7B",
"7^ 	c #A4927E",
"8^ 	c #A4927D",
"9^ 	c #A3927D",
"0^ 	c #A5937D",
"a^ 	c #A7957E",
"b^ 	c #A8947D",
"c^ 	c #A7947C",
"d^ 	c #A6927C",
"e^ 	c #A6927B",
"f^ 	c #A5917A",
"g^ 	c #A49079",
"h^ 	c #A59079",
"i^ 	c #A38E76",
"j^ 	c #A28D75",
"k^ 	c #9E8972",
"l^ 	c #9F8A73",
"m^ 	c #9C8972",
"n^ 	c #9A8770",
"o^ 	c #96826C",
"p^ 	c #95826C",
"q^ 	c #96846F",
"r^ 	c #978671",
"s^ 	c #988770",
"t^ 	c #968771",
"u^ 	c #978872",
"v^ 	c #998B73",
"w^ 	c #9E9078",
"x^ 	c #A1937B",
"y^ 	c #AB9F87",
"z^ 	c #C2B9A3",
"A^ 	c #EDEBDE",
"B^ 	c #FDFCF6",
"C^ 	c #FDFDFC",
"D^ 	c #C2BAAB",
"E^ 	c #A79A82",
"F^ 	c #A69980",
"G^ 	c #A6997F",
"H^ 	c #AA9D82",
"I^ 	c #C8BE98",
"J^ 	c #E6E0AF",
"K^ 	c #FCF8BE",
"L^ 	c #FBF4BB",
"M^ 	c #F5EAB3",
"N^ 	c #F0E5AF",
"O^ 	c #EBD8A4",
"P^ 	c #D8BD8E",
"Q^ 	c #CCAC7F",
"R^ 	c #CBA97C",
"S^ 	c #CCAA7D",
"T^ 	c #CDAA7D",
"U^ 	c #CFAC7D",
"V^ 	c #D2AD7F",
"W^ 	c #D4AF80",
"X^ 	c #D6B080",
"Y^ 	c #D7B181",
"Z^ 	c #D8B181",
"`^ 	c #DBB383",
" / 	c #E2B685",
"./ 	c #E6B886",
"+/ 	c #E7B987",
"@/ 	c #E6B987",
"#/ 	c #EBBA87",
"$/ 	c #EEBA87",
"%/ 	c #ECB784",
"&/ 	c #EAB482",
"*/ 	c #EAB381",
"=/ 	c #EAB280",
"-/ 	c #E8AF7D",
";/ 	c #C99B6F",
">/ 	c #C3956A",
",/ 	c #AF8760",
"'/ 	c #A07F5A",
")/ 	c #B38B64",
"!/ 	c #C5986E",
"~/ 	c #AE8761",
"{/ 	c #9E7C58",
"]/ 	c #8D6F4F",
"^/ 	c #A6815C",
"// 	c #D9A171",
"(/ 	c #EFCD95",
"_/ 	c #D8A173",
":/ 	c #AB8760",
"</ 	c #D2A073",
"[/ 	c #E6AB79",
"}/ 	c #E6AB7A",
"|/ 	c #E7AC7A",
"1/ 	c #E8AD7A",
"2/ 	c #EAAE7B",
"3/ 	c #EBAE7C",
"4/ 	c #ECB07D",
"5/ 	c #D2A375",
"6/ 	c #AD9570",
"7/ 	c #9E8E6E",
"8/ 	c #978A6F",
"9/ 	c #988A78",
"0/ 	c #978977",
"a/ 	c #9B8E7A",
"b/ 	c #9E907D",
"c/ 	c #A1937F",
"d/ 	c #A59682",
"e/ 	c #A69682",
"f/ 	c #A49481",
"g/ 	c #A59481",
"h/ 	c #A99783",
"i/ 	c #AB9883",
"j/ 	c #AB9884",
"k/ 	c #AE9B85",
"l/ 	c #B19E87",
"m/ 	c #B29E86",
"n/ 	c #B39E86",
"o/ 	c #B29D85",
"p/ 	c #B09B83",
"q/ 	c #B19B82",
"r/ 	c #B19A82",
"s/ 	c #AF9880",
"t/ 	c #AE977D",
"u/ 	c #AB957B",
"v/ 	c #AA9379",
"w/ 	c #A89278",
"x/ 	c #A89177",
"y/ 	c #A79077",
"z/ 	c #A48E75",
"A/ 	c #A38E74",
"B/ 	c #A08B72",
"C/ 	c #9C8870",
"D/ 	c #99826C",
"E/ 	c #9A866F",
"F/ 	c #9E8A72",
"G/ 	c #9C8971",
"H/ 	c #9A8870",
"I/ 	c #97856E",
"J/ 	c #96846E",
"K/ 	c #94846E",
"L/ 	c #968770",
"M/ 	c #998A73",
"N/ 	c #9D8F77",
"O/ 	c #A1937A",
"P/ 	c #C7BFA7",
"Q/ 	c #ECEAD6",
"R/ 	c #FFFFF1",
"S/ 	c #FFFFF8",
"T/ 	c #EAE8E3",
"U/ 	c #CAC4B8",
"V/ 	c #A69A83",
"W/ 	c #A3967F",
"X/ 	c #A2947C",
"Y/ 	c #A2947A",
"Z/ 	c #A89B7F",
"`/ 	c #C4B994",
" ( 	c #F0EDB8",
".( 	c #FDFAC0",
"+( 	c #FEFBC1",
"@( 	c #FBF3BA",
"#( 	c #EDE0AB",
"$( 	c #DFCC9B",
"%( 	c #D5B688",
"&( 	c #CDAB7E",
"*( 	c #CAA97C",
"=( 	c #CCAA7C",
"-( 	c #D1AD7E",
";( 	c #D6B081",
">( 	c #D9B282",
",( 	c #E0B684",
"'( 	c #E3B786",
")( 	c #E8B986",
"!( 	c #EDBB87",
"~( 	c #EABB88",
"{( 	c #EABA86",
"]( 	c #EBBA86",
"^( 	c #EDB986",
"/( 	c #ECB885",
"(( 	c #E0AE7D",
"_( 	c #CC9E71",
":( 	c #CA9A6E",
"<( 	c #BB9066",
"[( 	c #9A7856",
"}( 	c #8D704F",
"|( 	c #8E6F4F",
"1( 	c #8E6E4E",
"2( 	c #9A7554",
"3( 	c #A0805C",
"4( 	c #B38D65",
"5( 	c #D2A274",
"6( 	c #E8B180",
"7( 	c #E6AF7E",
"8( 	c #DBA879",
"9( 	c #B38862",
"0( 	c #8A6B4C",
"a( 	c #A6805C",
"b( 	c #E7BA86",
"c( 	c #F1CF97",
"d( 	c #E5AD7C",
"e( 	c #DAA375",
"f( 	c #AB8761",
"g( 	c #C1966B",
"h( 	c #DEA474",
"i( 	c #E5A977",
"j( 	c #E6A978",
"k( 	c #E8AA79",
"l( 	c #E9AB79",
"m( 	c #EAAC7A",
"n( 	c #EAAD7B",
"o( 	c #EBAD7B",
"p( 	c #EBAE7B",
"q( 	c #EEB07D",
"r( 	c #EEB07E",
"s( 	c #EFB07E",
"t( 	c #EFB17E",
"u( 	c #ECAF7D",
"v( 	c #D4A477",
"w( 	c #AF976F",
"x( 	c #8A7869",
"y( 	c #958876",
"z( 	c #9F927E",
"A( 	c #A59783",
"B( 	c #A79985",
"C( 	c #A89985",
"D( 	c #AC9D87",
"E( 	c #AE9E88",
"F( 	c #AE9D87",
"G( 	c #B2A18B",
"H( 	c #B6A48E",
"I( 	c #BAA78F",
"J( 	c #BFAB92",
"K( 	c #C1AB93",
"L( 	c #C0AA90",
"M( 	c #BFA990",
"N( 	c #BEA78C",
"O( 	c #BBA389",
"P( 	c #BDA489",
"Q( 	c #BBA286",
"R( 	c #B79D81",
"S( 	c #B2997F",
"T( 	c #B39A7F",
"U( 	c #B29B80",
"V( 	c #B29A7E",
"W( 	c #AB9379",
"X( 	c #AB9479",
"Y( 	c #AB9478",
"Z( 	c #A79076",
"`( 	c #A18A71",
" _ 	c #A08870",
"._ 	c #A38D74",
"+_ 	c #A38C73",
"@_ 	c #A08B73",
"#_ 	c #9D8971",
"$_ 	c #9A876F",
"%_ 	c #99856E",
"&_ 	c #96846D",
"*_ 	c #95846C",
"=_ 	c #96856E",
"-_ 	c #998870",
";_ 	c #9C8C74",
">_ 	c #A4957B",
",_ 	c #B4A98E",
"'_ 	c #ECEAD2",
")_ 	c #FDFCE7",
"!_ 	c #FFFFFC",
"~_ 	c #FEFEFC",
"{_ 	c #F3F1EE",
"]_ 	c #C4BDAF",
"^_ 	c #AA9E8A",
"/_ 	c #A1947C",
"(_ 	c #9F9179",
"__ 	c #9F9177",
":_ 	c #C5BA94",
"<_ 	c #EBE4B0",
"[_ 	c #FEFAC0",
"}_ 	c #FBF7BE",
"|_ 	c #F4E9B2",
"1_ 	c #D8C393",
"2_ 	c #CBAF82",
"3_ 	c #C9A87B",
"4_ 	c #C8A67A",
"5_ 	c #C8A77A",
"6_ 	c #CBAA7C",
"7_ 	c #CEAC7E",
"8_ 	c #CEAC7D",
"9_ 	c #D1AE7F",
"0_ 	c #D3AE7F",
"a_ 	c #D5B081",
"b_ 	c #DAB383",
"c_ 	c #E1B685",
"d_ 	c #E7B887",
"e_ 	c #E5B887",
"f_ 	c #EFB885",
"g_ 	c #F0B885",
"h_ 	c #EAB885",
"i_ 	c #DCAB7B",
"j_ 	c #B78F67",
"k_ 	c #8F7251",
"l_ 	c #8E7050",
"m_ 	c #947453",
"n_ 	c #9F805C",
"o_ 	c #B89168",
"p_ 	c #C79D71",
"q_ 	c #C2986E",
"r_ 	c #AC8762",
"s_ 	c #A7845F",
"t_ 	c #EBB583",
"u_ 	c #E8B281",
"v_ 	c #E8B280",
"w_ 	c #E2AC7C",
"x_ 	c #BE936A",
"y_ 	c #8F7150",
"z_ 	c #B08963",
"A_ 	c #DDA373",
"B_ 	c #DEA677",
"C_ 	c #F1D098",
"D_ 	c #EDC08B",
"E_ 	c #DFA778",
"F_ 	c #D9A274",
"G_ 	c #C4976B",
"H_ 	c #AD8B63",
"I_ 	c #CE9E71",
"J_ 	c #E5A878",
"K_ 	c #E7AA78",
"L_ 	c #ECAE7C",
"M_ 	c #EFB17F",
"N_ 	c #F0B27F",
"O_ 	c #AA956F",
"P_ 	c #9D8F6F",
"Q_ 	c #958972",
"R_ 	c #827168",
"S_ 	c #8D7E6E",
"T_ 	c #998D7A",
"U_ 	c #9F9380",
"V_ 	c #AC9F8A",
"W_ 	c #B3A590",
"X_ 	c #AD9E8A",
"Y_ 	c #A99B87",
"Z_ 	c #A89A86",
"`_ 	c #AFA08B",
" : 	c #B5A58E",
".: 	c #B5A48D",
"+: 	c #B6A58E",
"@: 	c #C2B198",
"#: 	c #C3B198",
"$: 	c #CBB89E",
"%: 	c #D3BDA2",
"&: 	c #D1BA9F",
"*: 	c #CDB79C",
"=: 	c #CBB499",
"-: 	c #C9B195",
";: 	c #C9AF92",
">: 	c #CFB698",
",: 	c #CAB193",
"': 	c #C6AC8E",
"): 	c #C2A78A",
"!: 	c #BDA387",
"~: 	c #BEA589",
"{: 	c #BEA487",
"]: 	c #B79E81",
"^: 	c #B39A7E",
"/: 	c #AD9479",
"(: 	c #A99277",
"_: 	c #A99278",
":: 	c #AA9378",
"<: 	c #A48D74",
"[: 	c #A18B72",
"}: 	c #9E8970",
"|: 	c #9C886F",
"1: 	c #9A866E",
"2: 	c #99866D",
"3: 	c #99876E",
"4: 	c #99876F",
"5: 	c #9B8A72",
"6: 	c #9D8C73",
"7: 	c #B9AE8C",
"8: 	c #E0DBB7",
"9: 	c #FEFEE0",
"0: 	c #FFFFEF",
"a: 	c #FFFFF7",
"b: 	c #FEFEF9",
"c: 	c #F1F0EA",
"d: 	c #CDC7BB",
"e: 	c #9F927A",
"f: 	c #9C8E75",
"g: 	c #A19378",
"h: 	c #B3A787",
"i: 	c #E8DFAD",
"j: 	c #F9F0BA",
"k: 	c #FDF5BC",
"l: 	c #FCF5BC",
"m: 	c #EFE2AC",
"n: 	c #C4A77C",
"o: 	c #C5A67B",
"p: 	c #C5A57A",
"q: 	c #C5A579",
"r: 	c #C7A77A",
"s: 	c #CCAB7D",
"t: 	c #CFAD7E",
"u: 	c #D4B081",
"v: 	c #D6B181",
"w: 	c #DFB685",
"x: 	c #E1B785",
"y: 	c #E4B786",
"z: 	c #E5B886",
"A: 	c #E6B887",
"B: 	c #E7B886",
"C: 	c #EBB985",
"D: 	c #EEB985",
"E: 	c #EEB885",
"F: 	c #EDB785",
"G: 	c #EBB684",
"H: 	c #E7B482",
"I: 	c #E3B685",
"J: 	c #C19A70",
"K: 	c #B7936A",
"L: 	c #BF986E",
"M: 	c #B9926A",
"N: 	c #CDA175",
"O: 	c #E5B482",
"P: 	c #E8B684",
"Q: 	c #DDAB7C",
"R: 	c #E2AE7E",
"S: 	c #E9B482",
"T: 	c #E6B281",
"U: 	c #E8B685",
"V: 	c #E9B785",
"W: 	c #E7B180",
"X: 	c #E4AE7D",
"Y: 	c #DAA778",
"Z: 	c #A27E5A",
"`: 	c #907150",
" < 	c #CC9B6E",
".< 	c #DFA574",
"+< 	c #F3D299",
"@< 	c #E6B07E",
"#< 	c #DBA475",
"$< 	c #D7A073",
"%< 	c #B28D65",
"&< 	c #BD956A",
"*< 	c #E6AA79",
"=< 	c #E8AC7A",
"-< 	c #CEA275",
";< 	c #AC9670",
">< 	c #9F8F6F",
",< 	c #8B7B6E",
"'< 	c #948776",
")< 	c #9B8F7D",
"!< 	c #A39784",
"~< 	c #B6A993",
"{< 	c #AA9D88",
"]< 	c #B5A691",
"^< 	c #BBAC95",
"/< 	c #C3B29B",
"(< 	c #CCBBA2",
"_< 	c #D5C3A9",
":< 	c #D2BEA4",
"<< 	c #D7C3A7",
"[< 	c #D8C2A6",
"}< 	c #D8C2A5",
"|< 	c #D5BEA1",
"1< 	c #D1B99C",
"2< 	c #DAC3A5",
"3< 	c #DDC5A6",
"4< 	c #DBC3A3",
"5< 	c #D6BD9E",
"6< 	c #D4BB9C",
"7< 	c #D2B898",
"8< 	c #CDB395",
"9< 	c #CEB495",
"0< 	c #CAB091",
"a< 	c #C6AC8D",
"b< 	c #C0A587",
"c< 	c #BBA083",
"d< 	c #B89E81",
"e< 	c #B69D80",
"f< 	c #B2997D",
"g< 	c #AD9579",
"h< 	c #A99177",
"i< 	c #A89075",
"j< 	c #A58E73",
"k< 	c #A38C72",
"l< 	c #A08A70",
"m< 	c #9F8A70",
"n< 	c #9F8B71",
"o< 	c #9F8A71",
"p< 	c #9F8B72",
"q< 	c #A8987A",
"r< 	c #D9CFA3",
"s< 	c #F7F5C7",
"t< 	c #FEFED3",
"u< 	c #FEFED7",
"v< 	c #FFFFE0",
"w< 	c #FFFFEA",
"x< 	c #FFFFF2",
"y< 	c #F2F0E6",
"z< 	c #CDC6B7",
"A< 	c #AA9E87",
"B< 	c #A09279",
"C< 	c #9C8D73",
"D< 	c #9D8F74",
"E< 	c #B6AA87",
"F< 	c #D9CFA1",
"G< 	c #F6EDB7",
"H< 	c #F9EFB9",
"I< 	c #F7EDB7",
"J< 	c #EFE2AD",
"K< 	c #D2BA8C",
"L< 	c #C5A87D",
"M< 	c #C2A379",
"N< 	c #C3A379",
"O< 	c #C2A277",
"P< 	c #C3A378",
"Q< 	c #C8A87A",
"R< 	c #D2AF80",
"S< 	c #D2AE7F",
"T< 	c #CEAA7C",
"U< 	c #DBB382",
"V< 	c #DEB684",
"W< 	c #DEB685",
"X< 	c #E0B685",
"Y< 	c #E2B786",
"Z< 	c #E4B886",
"`< 	c #ECB683",
" [ 	c #E9BA88",
".[ 	c #E6B785",
"+[ 	c #E9B886",
"@[ 	c #EAB886",
"#[ 	c #E9B583",
"$[ 	c #E8B482",
"%[ 	c #E2B180",
"&[ 	c #CDA77A",
"*[ 	c #E4C597",
"=[ 	c #E4C293",
"-[ 	c #E3AE7D",
";[ 	c #E1AC7C",
">[ 	c #84684A",
",[ 	c #BF956B",
"'[ 	c #DCA375",
")[ 	c #EECC95",
"![ 	c #EDC08C",
"~[ 	c #C9996D",
"{[ 	c #B18E66",
"][ 	c #E8AB79",
"^[ 	c #E6AA78",
"/[ 	c #F1B17F",
"([ 	c #EEB07C",
"_[ 	c #EDAF7C",
":[ 	c #C99F74",
"<[ 	c #A8936E",
"[[ 	c #9D8E6F",
"}[ 	c #807165",
"|[ 	c #9C907E",
"1[ 	c #9D917F",
"2[ 	c #A39785",
"3[ 	c #AA9D89",
"4[ 	c #A79A86",
"5[ 	c #AEA08B",
"6[ 	c #B4A690",
"7[ 	c #BEAF98",
"8[ 	c #C5B59E",
"9[ 	c #D1C1A7",
"0[ 	c #D9C9AE",
"a[ 	c #DECCB1",
"b[ 	c #D5BEA4",
"c[ 	c #D3BBA0",
"d[ 	c #DEC8AB",
"e[ 	c #E8D2B3",
"f[ 	c #EAD4B5",
"g[ 	c #E5CEAE",
"h[ 	c #EED8B6",
"i[ 	c #E8D1B0",
"j[ 	c #E3CCAB",
"k[ 	c #E0C8A7",
"l[ 	c #E0C7A6",
"m[ 	c #DFC6A5",
"n[ 	c #DDC4A3",
"o[ 	c #D8BE9E",
"p[ 	c #D4B999",
"q[ 	c #CFB495",
"r[ 	c #C7AC8D",
"s[ 	c #C7AD8E",
"t[ 	c #C6AB8C",
"u[ 	c #C3A889",
"v[ 	c #C1A587",
"w[ 	c #B59A7E",
"x[ 	c #B2977C",
"y[ 	c #B0967A",
"z[ 	c #AC9377",
"A[ 	c #A99175",
"B[ 	c #A48D73",
"C[ 	c #A28B71",
"D[ 	c #A59174",
"E[ 	c #C7B891",
"F[ 	c #EEE4B2",
"G[ 	c #FCF8C3",
"H[ 	c #FEFCC8",
"I[ 	c #FEFDCD",
"J[ 	c #FEFED9",
"K[ 	c #FEFEE2",
"L[ 	c #F7F6E1",
"M[ 	c #D1CAB7",
"N[ 	c #AEA088",
"O[ 	c #A19277",
"P[ 	c #9D8E74",
"Q[ 	c #9C8C71",
"R[ 	c #9C8C70",
"S[ 	c #A7987A",
"T[ 	c #D1C79B",
"U[ 	c #E9E0AD",
"V[ 	c #F3EAB4",
"W[ 	c #F4EAB5",
"X[ 	c #EADBA9",
"Y[ 	c #D5C092",
"Z[ 	c #C0A379",
"`[ 	c #BFA178",
" } 	c #C0A177",
".} 	c #C0A176",
"+} 	c #BE9E74",
"@} 	c #C2A378",
"#} 	c #CDAC7D",
"$} 	c #D0AE7F",
"%} 	c #CBA77A",
"&} 	c #D3AD7E",
"*} 	c #DCB484",
"=} 	c #DDB585",
"-} 	c #E4B785",
";} 	c #EEB884",
">} 	c #E9C290",
",} 	c #EABD8B",
"'} 	c #E4B583",
")} 	c #DFB383",
"!} 	c #EBBE8E",
"~} 	c #E7B583",
"{} 	c #E6B482",
"]} 	c #E3B281",
"^} 	c #C69E73",
"/} 	c #AD956F",
"(} 	c #E6D5AA",
"_} 	c #EEE0B9",
":} 	c #E0BC8F",
"<} 	c #E1AE7E",
"[} 	c #E0AC7C",
"}} 	c #CEA174",
"|} 	c #957755",
"1} 	c #B18963",
"2} 	c #D8A273",
"3} 	c #E4B582",
"4} 	c #F2D097",
"5} 	c #DBA375",
"6} 	c #B79067",
"7} 	c #BB946A",
"8} 	c #F0B07D",
"9} 	c #F1B17D",
"0} 	c #CBA075",
"a} 	c #AC956F",
"b} 	c #A0906F",
"c} 	c #72635D",
"d} 	c #84776A",
"e} 	c #9C917F",
"f} 	c #A29684",
"g} 	c #A49886",
"h} 	c #AB9E8B",
"i} 	c #B1A48F",
"j} 	c #BBAE98",
"k} 	c #C4B59E",
"l} 	c #CABBA3",
"m} 	c #D4C5AB",
"n} 	c #DBCBB0",
"o} 	c #D8C2A7",
"p} 	c #E2CDB1",
"q} 	c #F2E0C0",
"r} 	c #F8E6C5",
"s} 	c #F8E6C4",
"t} 	c #F6E1BF",
"u} 	c #F4DEBC",
"v} 	c #EFD9B7",
"w} 	c #ECD6B4",
"x} 	c #EAD3B1",
"y} 	c #ECD4B3",
"z} 	c #EAD1AF",
"A} 	c #E5CCAB",
"B} 	c #E0C7A5",
"C} 	c #D9BF9F",
"D} 	c #D5BA9A",
"E} 	c #D4B898",
"F} 	c #D6BB9A",
"G} 	c #D3B796",
"H} 	c #CEB191",
"I} 	c #CBAE8E",
"J} 	c #C4A789",
"K} 	c #BEA284",
"L} 	c #BBA082",
"M} 	c #B69B7E",
"N} 	c #B4997C",
"O} 	c #B09579",
"P} 	c #A78F73",
"Q} 	c #A68F72",
"R} 	c #B2A17D",
"S} 	c #D3C699",
"T} 	c #E0D5A5",
"U} 	c #F0E8B4",
"V} 	c #F7F1BB",
"W} 	c #FAF5C0",
"X} 	c #FEFCCD",
"Y} 	c #F4F2CC",
"Z} 	c #D9D1B2",
"`} 	c #AE9F82",
" | 	c #A39176",
".| 	c #9F8E73",
"+| 	c #9D8C71",
"@| 	c #9D8B70",
"#| 	c #A89778",
"$| 	c #C4B78F",
"%| 	c #E1D7A6",
"&| 	c #EAE0AD",
"*| 	c #EEE4AF",
"=| 	c #E8DCAA",
"-| 	c #D1BB8E",
";| 	c #BFA177",
">| 	c #BEA076",
",| 	c #BE9F75",
"'| 	c #BE9F74",
")| 	c #C3A479",
"!| 	c #C6A679",
"~| 	c #CAA87B",
"{| 	c #CCAC7E",
"]| 	c #D1AF7F",
"^| 	c #D1AF80",
"/| 	c #CBA97A",
"(| 	c #CFAA7C",
"_| 	c #D8B281",
":| 	c #DBB483",
"<| 	c #DDB584",
"[| 	c #E1B584",
"}| 	c #E1B483",
"|| 	c #E5B583",
"1| 	c #E1B382",
"2| 	c #EFB684",
"3| 	c #EBB887",
"4| 	c #E7CC9B",
"5| 	c #E2BC8C",
"6| 	c #E9BB88",
"7| 	c #E5B786",
"8| 	c #E0B282",
"9| 	c #C9A275",
"0| 	c #CAB38B",
"a| 	c #E7D0A6",
"b| 	c #E2BA8B",
"c| 	c #E4B382",
"d| 	c #E4B281",
"e| 	c #A88660",
"f| 	c #B29068",
"g| 	c #DAB183",
"h| 	c #E9D1A6",
"i| 	c #E1C599",
"j| 	c #DEAF7F",
"k| 	c #DEAB7B",
"l| 	c #D5A576",
"m| 	c #957756",
"n| 	c #D29C6E",
"o| 	c #D39C6E",
"p| 	c #D29A6D",
"q| 	c #EECB94",
"r| 	c #EFC28D",
"s| 	c #E0A879",
"t| 	c #CB9A6F",
"u| 	c #C5996D",
"v| 	c #E1A575",
"w| 	c #E2A676",
"x| 	c #E4A876",
"y| 	c #E9AB7A",
"z| 	c #ECAD7B",
"A| 	c #EFAF7C",
"B| 	c #EFB17D",
"C| 	c #C99F73",
"D| 	c #A89470",
"E| 	c #9C8D70",
"F| 	c #74675E",
"G| 	c #897D6D",
"H| 	c #928776",
"I| 	c #998D7C",
"J| 	c #9B8F7E",
"K| 	c #A89C89",
"L| 	c #AFA38F",
"M| 	c #B7AB96",
"N| 	c #C0B39C",
"O| 	c #C4B69F",
"P| 	c #CCBFA7",
"Q| 	c #D7C9AE",
"R| 	c #DACBB0",
"S| 	c #DAC9AE",
"T| 	c #E4D2B5",
"U| 	c #F1E0C2",
"V| 	c #FAEACA",
"W| 	c #FBEBCA",
"X| 	c #FAEAC9",
"Y| 	c #F8E4C2",
"Z| 	c #F6E1BE",
"`| 	c #F2DDBB",
" 1 	c #F1DBB9",
".1 	c #F3DBB9",
"+1 	c #EED7B4",
"@1 	c #EBD3B1",
"#1 	c #E8CFAD",
"$1 	c #E1C7A6",
"%1 	c #E2C7A6",
"&1 	c #E1C7A5",
"*1 	c #E1C7A4",
"=1 	c #DCC19F",
"-1 	c #D8BC9B",
";1 	c #D4B897",
">1 	c #C7AB8B",
",1 	c #C4A788",
"'1 	c #BB9F81",
")1 	c #B69B7D",
"!1 	c #B3997B",
"~1 	c #AF9577",
"{1 	c #AB9073",
"]1 	c #AB9875",
"^1 	c #B4A57E",
"/1 	c #C1B48A",
"(1 	c #CBBE92",
"_1 	c #DBCE9F",
":1 	c #E4D7A7",
"<1 	c #EEE3B1",
"[1 	c #F8F2BE",
"}1 	c #D7CCA3",
"|1 	c #B7A685",
"11 	c #A59073",
"21 	c #A28D70",
"31 	c #A08B6F",
"41 	c #9F8B6F",
"51 	c #A59475",
"61 	c #BCAF89",
"71 	c #D5CB9D",
"81 	c #DFD5A4",
"91 	c #E4DAA8",
"01 	c #E0D4A3",
"a1 	c #CEBC8F",
"b1 	c #BEA178",
"c1 	c #C1A277",
"d1 	c #BC9F76",
"e1 	c #BE9F76",
"f1 	c #C1A177",
"g1 	c #C9A97B",
"h1 	c #C8A87B",
"i1 	c #CAAA7C",
"j1 	c #CBAB7D",
"k1 	c #CDAC7E",
"l1 	c #CFAE7F",
"m1 	c #CDAB7C",
"n1 	c #C1A174",
"o1 	c #CBA87A",
"p1 	c #D8B282",
"q1 	c #DFB584",
"r1 	c #E4B685",
"s1 	c #E0B585",
"t1 	c #DDB383",
"u1 	c #CBA275",
"v1 	c #BF976C",
"w1 	c #BC956B",
"x1 	c #C69B70",
"y1 	c #DEAC7C",
"z1 	c #E4B482",
"A1 	c #EBB582",
"B1 	c #EDB582",
"C1 	c #E9B483",
"D1 	c #E6C999",
"E1 	c #E3C293",
"F1 	c #9F825E",
"G1 	c #D3B791",
"H1 	c #E9D7AC",
"I1 	c #E3C899",
"J1 	c #E2B484",
"K1 	c #D9A97A",
"L1 	c #997C5A",
"M1 	c #B6926A",
"N1 	c #DFAC7D",
"O1 	c #E4C397",
"P1 	c #E2C697",
"Q1 	c #DEAA7B",
"R1 	c #D7A778",
"S1 	c #A5835E",
"T1 	c #9C7C59",
"U1 	c #D19F72",
"V1 	c #E2B380",
"W1 	c #E8B381",
"X1 	c #DAA475",
"Y1 	c #D5A072",
"Z1 	c #BA9269",
"`1 	c #D09D6F",
" 2 	c #EDAE7C",
".2 	c #F2B17C",
"+2 	c #F1B17C",
"@2 	c #E9AD7A",
"#2 	c #C8A075",
"$2 	c #A99470",
"%2 	c #9D8F71",
"&2 	c #6C5E57",
"*2 	c #7A6E61",
"=2 	c #887C6D",
"-2 	c #8B8070",
";2 	c #8D8172",
">2 	c #B3A792",
",2 	c #C4B8A0",
"'2 	c #CFC3AA",
")2 	c #D6C8AD",
"!2 	c #D5C5AA",
"~2 	c #D8C5AA",
"{2 	c #EEDEC0",
"]2 	c #F5E6C7",
"^2 	c #FBECCB",
"/2 	c #F8E8C7",
"(2 	c #F7E3C2",
"_2 	c #F1DCBA",
":2 	c #EDD7B4",
"<2 	c #F2DCB9",
"[2 	c #EDD6B4",
"}2 	c #ECD5B2",
"|2 	c #F0DAB6",
"12 	c #F1DAB6",
"22 	c #ECD4B0",
"32 	c #E9D0AD",
"42 	c #E6CCA9",
"52 	c #E4C8A6",
"62 	c #E0C5A3",
"72 	c #DBBF9D",
"82 	c #D4B796",
"92 	c #CFB291",
"02 	c #CAAD8D",
"a2 	c #C6A989",
"b2 	c #C2A585",
"c2 	c #BEA181",
"d2 	c #BA9D7D",
"e2 	c #B19575",
"f2 	c #A99170",
"g2 	c #A59570",
"h2 	c #AB9C76",
"i2 	c #B2A37D",
"j2 	c #BDAF85",
"k2 	c #C6B98E",
"l2 	c #D0C396",
"m2 	c #DBCEA0",
"n2 	c #DBCC9E",
"o2 	c #B8A07D",
"p2 	c #AD9374",
"q2 	c #A88E70",
"r2 	c #A68C6F",
"s2 	c #A28B6E",
"t2 	c #A38D70",
"u2 	c #B5A682",
"v2 	c #C7BD91",
"w2 	c #D2C89A",
"x2 	c #D6CD9E",
"y2 	c #D7CB9D",
"z2 	c #CBB98D",
"A2 	c #BBA178",
"B2 	c #B99C74",
"C2 	c #BC9E75",
"D2 	c #BB9E75",
"E2 	c #CDAA7C",
"F2 	c #C7A77B",
"G2 	c #C9A97C",
"H2 	c #CEAD7F",
"I2 	c #D0AF7F",
"J2 	c #CFAD7F",
"K2 	c #C9A87A",
"L2 	c #CAA879",
"M2 	c #CEAB7C",
"N2 	c #D7B282",
"O2 	c #D8B383",
"P2 	c #D9B483",
"Q2 	c #DEB584",
"R2 	c #DCB182",
"S2 	c #CEA779",
"T2 	c #917454",
"U2 	c #8A6F50",
"V2 	c #85694B",
"W2 	c #8E7150",
"X2 	c #A98660",
"Y2 	c #CCA275",
"Z2 	c #E3B180",
"`2 	c #EAB281",
" 3 	c #E8C697",
".3 	c #E2C292",
"+3 	c #E6B787",
"@3 	c #C69E72",
"#3 	c #9A7D59",
"$3 	c #D4A77A",
"%3 	c #E2BC8D",
"&3 	c #E6D0A0",
"*3 	c #DFB485",
"=3 	c #D5A87A",
"-3 	c #9B7D5B",
";3 	c #AF8B64",
">3 	c #DAA97A",
",3 	c #DDB98B",
"'3 	c #E4CF9F",
")3 	c #DCAE7F",
"!3 	c #D9A879",
"~3 	c #AB8862",
"{3 	c #CF996D",
"]3 	c #ECC690",
"^3 	c #EEC28D",
"/3 	c #E1AA7A",
"(3 	c #D7A173",
"_3 	c #CC9B6F",
":3 	c #B49168",
"<3 	c #C3986D",
"[3 	c #F2B07D",
"}3 	c #F1B07C",
"|3 	c #C49D73",
"13 	c #A69470",
"23 	c #9E8F72",
"33 	c #6F6359",
"43 	c #7D7264",
"53 	c #837868",
"63 	c #837768",
"73 	c #897D6E",
"83 	c #8B7F6F",
"93 	c #B1A590",
"03 	c #B2A692",
"a3 	c #B9AD97",
"b3 	c #C5B79D",
"c3 	c #CBBBA1",
"d3 	c #D3C3A8",
"e3 	c #E0D1B4",
"f3 	c #F0E2C4",
"g3 	c #F3E5C5",
"h3 	c #F7E8C7",
"i3 	c #F4E3C2",
"j3 	c #F6E6C3",
"k3 	c #F6E3C2",
"l3 	c #F4DFBD",
"m3 	c #EAD4B2",
"n3 	c #E7D0AE",
"o3 	c #EED8B5",
"p3 	c #F5E0BD",
"q3 	c #F5DFBB",
"r3 	c #F3DBB7",
"s3 	c #F4DDB9",
"t3 	c #EFD7B3",
"u3 	c #ECD2AF",
"v3 	c #E9CFAC",
"w3 	c #E5CAA7",
"x3 	c #DEC2A0",
"y3 	c #D7BA99",
"z3 	c #D5B896",
"A3 	c #D1B492",
"B3 	c #CDAF8E",
"C3 	c #C9AC8B",
"D3 	c #C4A686",
"E3 	c #BD9F7F",
"F3 	c #A99070",
"G3 	c #9C8967",
"H3 	c #9D8D69",
"I3 	c #A4946F",
"J3 	c #A79872",
"K3 	c #AFA079",
"L3 	c #B6A87F",
"M3 	c #C4B188",
"N3 	c #BFA27D",
"O3 	c #B49372",
"P3 	c #B19171",
"Q3 	c #AE8F70",
"R3 	c #AB8E6E",
"S3 	c #A89071",
"T3 	c #AC9B78",
"U3 	c #BEB48A",
"V3 	c #C3BA8E",
"W3 	c #C5BC90",
"X3 	c #CBC195",
"Y3 	c #C8B589",
"Z3 	c #C1A67C",
"`3 	c #BB9D75",
" 4 	c #BA9D74",
".4 	c #B89B72",
"+4 	c #CBA97B",
"@4 	c #C7A679",
"#4 	c #D6B282",
"$4 	c #D7B383",
"%4 	c #D8B483",
"&4 	c #D0A879",
"*4 	c #AE8E66",
"=4 	c #AB8C65",
"-4 	c #BE9A70",
";4 	c #C19D72",
">4 	c #A68560",
",4 	c #A5815D",
"'4 	c #E6B17F",
")4 	c #E4BE8E",
"!4 	c #E6CF9E",
"~4 	c #E1B484",
"{4 	c #E5B685",
"]4 	c #B7946B",
"^4 	c #957857",
"/4 	c #CDA275",
"(4 	c #E0B686",
"_4 	c #E5C998",
":4 	c #DEB485",
"<4 	c #D9AB7B",
"[4 	c #9B7E5B",
"}4 	c #9E7F5B",
"|4 	c #DEB687",
"14 	c #E5CB9D",
"24 	c #DCB486",
"34 	c #D9A878",
"44 	c #BC946A",
"54 	c #CB9C70",
"64 	c #CE996C",
"74 	c #CF996C",
"84 	c #D0996C",
"94 	c #D39A6E",
"04 	c #E1AE7D",
"a4 	c #F1CB94",
"b4 	c #E7B280",
"c4 	c #D9A375",
"d4 	c #BC926A",
"e4 	c #B39068",
"f4 	c #CC9C6F",
"g4 	c #E9AC7A",
"h4 	c #EAAC7B",
"i4 	c #F0B07B",
"j4 	c #C29E74",
"k4 	c #A99773",
"l4 	c #685B52",
"m4 	c #716659",
"n4 	c #786E5F",
"o4 	c #796F60",
"p4 	c #7D7163",
"q4 	c #847869",
"r4 	c #867A6B",
"s4 	c #968B7A",
"t4 	c #A99D89",
"u4 	c #AEA28E",
"v4 	c #B8AB95",
"w4 	c #BAAB93",
"x4 	c #CABCA3",
"y4 	c #DACEB3",
"z4 	c #E4D7BB",
"A4 	c #EADCBF",
"B4 	c #ECDDBF",
"C4 	c #EEDFBF",
"D4 	c #EEDEBD",
"E4 	c #F1E1BF",
"F4 	c #F2E1BF",
"G4 	c #F1DFBD",
"H4 	c #EAD5B4",
"I4 	c #E1CAA9",
"J4 	c #F8E3C0",
"K4 	c #FAE6C2",
"L4 	c #F7E2BF",
"M4 	c #F6E0BC",
"N4 	c #F1DBB6",
"O4 	c #EED5B1",
"P4 	c #E8CEAA",
"Q4 	c #E0C4A1",
"R4 	c #DEC29F",
"S4 	c #D9BC99",
"T4 	c #D5B693",
"U4 	c #D2B390",
"V4 	c #CFB08D",
"W4 	c #C4A684",
"X4 	c #B39676",
"Y4 	c #958160",
"Z4 	c #93815F",
"`4 	c #9B8B67",
" 5 	c #A3936F",
".5 	c #A89B75",
"+5 	c #B7A27B",
"@5 	c #BF9C77",
"#5 	c #BF9774",
"$5 	c #B99472",
"%5 	c #B79371",
"&5 	c #B59270",
"*5 	c #AF9070",
"=5 	c #AD9B78",
"-5 	c #B3A780",
";5 	c #BBB287",
">5 	c #BAB186",
",5 	c #BBB187",
"'5 	c #C2B388",
")5 	c #C4A67B",
"!5 	c #C4A478",
"~5 	c #B89B73",
"{5 	c #D5B080",
"]5 	c #CEAD7D",
"^5 	c #CAAA7D",
"/5 	c #CAA97B",
"(5 	c #C4A477",
"_5 	c #D9B283",
":5 	c #B69971",
"<5 	c #C4A175",
"[5 	c #D5AF80",
"}5 	c #D3AC7E",
"|5 	c #AA8C65",
"15 	c #83694B",
"25 	c #A07F5B",
"35 	c #D0A477",
"45 	c #E0B787",
"55 	c #E4C897",
"65 	c #E3B887",
"75 	c #E4B483",
"85 	c #896F50",
"95 	c #C89E72",
"05 	c #DCAE7E",
"a5 	c #E8CD9B",
"b5 	c #E0B888",
"c5 	c #DDAE7E",
"d5 	c #AB8963",
"e5 	c #C69B71",
"f5 	c #DBAE80",
"g5 	c #E8CFA0",
"h5 	c #DBB485",
"i5 	c #D9AA7B",
"j5 	c #BC936A",
"k5 	c #917453",
"l5 	c #CD996C",
"m5 	c #CD986B",
"n5 	c #E9BE8A",
"o5 	c #ECBF8B",
"p5 	c #DEA979",
"q5 	c #B39067",
"r5 	c #B79168",
"s5 	c #D79F72",
"t5 	c #EBAC7B",
"u5 	c #F2B27D",
"v5 	c #F1AF7B",
"w5 	c #F0AF7B",
"x5 	c #EDAE7A",
"y5 	c #E0A878",
"z5 	c #C09C73",
"A5 	c #A79673",
"B5 	c #9E9278",
"C5 	c #65584E",
"D5 	c #6D6255",
"E5 	c #716558",
"F5 	c #72675A",
"G5 	c #786D5F",
"H5 	c #7C7162",
"I5 	c #827667",
"J5 	c #938877",
"K5 	c #A19582",
"L5 	c #A69883",
"M5 	c #AD9F89",
"N5 	c #CEC2A9",
"O5 	c #D5C9AF",
"P5 	c #DBCFB4",
"Q5 	c #E0D4B7",
"R5 	c #E0D1B3",
"S5 	c #DFCFB0",
"T5 	c #E0D0B0",
"U5 	c #E6D6B5",
"V5 	c #EBDAB9",
"W5 	c #EFDFBD",
"X5 	c #E8D6B5",
"Y5 	c #DFCBAA",
"Z5 	c #E7D3B0",
"`5 	c #F7E4C1",
" 6 	c #F9E7C3",
".6 	c #F8E4C1",
"+6 	c #F5DFBD",
"@6 	c #F3DDB9",
"#6 	c #EED7B2",
"$6 	c #EFD6B2",
"%6 	c #E9CFAA",
"&6 	c #E3C7A3",
"*6 	c #E1C5A0",
"=6 	c #D9B995",
"-6 	c #D8B793",
";6 	c #D6B793",
">6 	c #D1B18D",
",6 	c #B49776",
"'6 	c #9A8262",
")6 	c #8D7958",
"!6 	c #907D5B",
"~6 	c #927F5D",
"{6 	c #93825F",
"]6 	c #958462",
"^6 	c #9A8A66",
"/6 	c #A7936E",
"(6 	c #C09A74",
"_6 	c #C59A75",
":6 	c #C49974",
"<6 	c #C29773",
"[6 	c #C09573",
"}6 	c #BA9472",
"|6 	c #B29473",
"16 	c #AA9E79",
"26 	c #AEA47D",
"36 	c #B4AA82",
"46 	c #B3A27B",
"56 	c #BDA379",
"66 	c #C3A277",
"76 	c #C0A076",
"86 	c #BB9D74",
"96 	c #BA9D73",
"06 	c #D3AF7F",
"a6 	c #C9AA7D",
"b6 	c #C8A97C",
"c6 	c #C6A67A",
"d6 	c #C5A578",
"e6 	c #C8A879",
"f6 	c #D4B181",
"g6 	c #D7AF7F",
"h6 	c #D3B281",
"i6 	c #D0B081",
"j6 	c #D7B283",
"k6 	c #E3B987",
"l6 	c #E0B786",
"m6 	c #806649",
"n6 	c #B38E66",
"o6 	c #DEAD7C",
"p6 	c #E3B484",
"q6 	c #E5CC9C",
"r6 	c #E0B989",
"s6 	c #E3B483",
"t6 	c #8E7353",
"u6 	c #C0976C",
"v6 	c #E4C898",
"w6 	c #DEB989",
"x6 	c #BF996F",
"y6 	c #886E4F",
"z6 	c #BE966C",
"A6 	c #E4C99A",
"B6 	c #E0BE8F",
"C6 	c #DAAB7C",
"D6 	c #CA9E72",
"E6 	c #886C4E",
"F6 	c #CB976A",
"G6 	c #DAA878",
"H6 	c #EEC590",
"I6 	c #E7B483",
"J6 	c #D6A274",
"K6 	c #D59F72",
"L6 	c #C4986D",
"M6 	c #E3A676",
"N6 	c #E4A777",
"O6 	c #EDAD7C",
"P6 	c #EDAD7B",
"Q6 	c #ECAC7B",
"R6 	c #F1AF7C",
"S6 	c #EEAE7A",
"T6 	c #DEA778",
"U6 	c #BA9D75",
"V6 	c #A89978",
"W6 	c #62554D",
"X6 	c #63574D",
"Y6 	c #665B4E",
"Z6 	c #695E51",
"`6 	c #6C6153",
" 7 	c #776B5D",
".7 	c #7E7263",
"+7 	c #857969",
"@7 	c #8D8171",
"#7 	c #938776",
"$7 	c #A1937D",
"%7 	c #AFA28D",
"&7 	c #BEB29B",
"*7 	c #C5B9A0",
"=7 	c #CBBFA5",
"-7 	c #D2C5AA",
";7 	c #D5C8AD",
">7 	c #D3C4A7",
",7 	c #D1C1A4",
"'7 	c #D5C5A7",
")7 	c #DBCBAB",
"!7 	c #E1D1B1",
"~7 	c #E9D9B8",
"{7 	c #DFCEAD",
"]7 	c #E0CEAD",
"^7 	c #F1E0BD",
"/7 	c #F7E5C2",
"(7 	c #F1DFBB",
"_7 	c #EFDBB8",
":7 	c #EFDAB7",
"<7 	c #EFDAB6",
"[7 	c #EDD7B3",
"}7 	c #EFD9B5",
"|7 	c #EED7B3",
"17 	c #ECD4AF",
"27 	c #E4C8A4",
"37 	c #E1C5A1",
"47 	c #DBBC98",
"57 	c #D9B793",
"67 	c #DBBB97",
"77 	c #CAA986",
"87 	c #9D8161",
"97 	c #8C7455",
"07 	c #8D7655",
"a7 	c #8C7656",
"b7 	c #8E7958",
"c7 	c #8E7B5A",
"d7 	c #A68A67",
"e7 	c #BF9872",
"f7 	c #CC9D76",
"g7 	c #C79B75",
"h7 	c #CA9B75",
"i7 	c #C79A74",
"j7 	c #C79974",
"k7 	c #B49370",
"l7 	c #A5936F",
"m7 	c #A29773",
"n7 	c #AA9F79",
"o7 	c #AEA37C",
"p7 	c #AD9E78",
"q7 	c #BD9E74",
"r7 	c #B49770",
"s7 	c #B1966F",
"t7 	c #B3976F",
"u7 	c #D3AF80",
"v7 	c #D4B080",
"w7 	c #C4A67A",
"x7 	c #C2A276",
"y7 	c #C8A779",
"z7 	c #C7A578",
"A7 	c #BE9C71",
"B7 	c #BB986E",
"C7 	c #B9966C",
"D7 	c #D8B785",
"E7 	c #D5B383",
"F7 	c #D5B182",
"G7 	c #C6A77B",
"H7 	c #DEBE91",
"I7 	c #E5BD8E",
"J7 	c #DFB686",
"K7 	c #CDA87A",
"L7 	c #8D7051",
"M7 	c #E2AE7D",
"N7 	c #E4C797",
"O7 	c #E2C190",
"P7 	c #E2B382",
"Q7 	c #CCA377",
"R7 	c #BD966D",
"S7 	c #D6A97A",
"T7 	c #E7CD9B",
"U7 	c #DFBE8E",
"V7 	c #E0AF7E",
"W7 	c #CCA276",
"X7 	c #B28F66",
"Y7 	c #DFBF90",
"Z7 	c #D6A97B",
"`7 	c #D8A879",
" 8 	c #C69C71",
".8 	c #947756",
"+8 	c #B58E66",
"@8 	c #CA966A",
"#8 	c #C9966A",
"$8 	c #CB966A",
"%8 	c #CE986B",
"&8 	c #EEC08C",
"*8 	c #DFAC7C",
"=8 	c #D29E71",
"-8 	c #CD9C70",
";8 	c #B9936A",
">8 	c #E9AC7B",
",8 	c #EAAB7A",
"'8 	c #EDAE7B",
")8 	c #EEAE7B",
"!8 	c #EFAE7C",
"~8 	c #ECAC79",
"{8 	c #EAAC79",
"]8 	c #D1A477",
"^8 	c #B19E79",
"/8 	c #A3977B",
"(8 	c #5F524B",
"_8 	c #5D5247",
":8 	c #605549",
"<8 	c #64594C",
"[8 	c #685D4F",
"}8 	c #6D6254",
"|8 	c #726659",
"18 	c #776B5E",
"28 	c #817565",
"38 	c #867A6A",
"48 	c #8B7F6E",
"58 	c #918473",
"68 	c #938572",
"78 	c #A19581",
"88 	c #AB9F8A",
"98 	c #B9AD95",
"08 	c #BFB39A",
"a8 	c #C5B89F",
"b8 	c #C8BBA1",
"c8 	c #C5B69B",
"d8 	c #C5B69A",
"e8 	c #CDBDA0",
"f8 	c #D6C6A9",
"g8 	c #DCCCAE",
"h8 	c #DECEAF",
"i8 	c #E4D3B2",
"j8 	c #EEDEBC",
"k8 	c #ECDCB9",
"l8 	c #E6D4B1",
"m8 	c #E8D4B1",
"n8 	c #E7D3AF",
"o8 	c #E7D2AE",
"p8 	c #E9D3AF",
"q8 	c #E9D2AE",
"r8 	c #E4CBA7",
"s8 	c #DCC09D",
"t8 	c #D9BA97",
"u8 	c #DABB97",
"v8 	c #DCBC98",
"w8 	c #DAB894",
"x8 	c #B69774",
"y8 	c #977A58",
"z8 	c #8D7253",
"A8 	c #8D7353",
"B8 	c #8C7353",
"C8 	c #8C7454",
"D8 	c #8D7757",
"E8 	c #977E5D",
"F8 	c #C39770",
"G8 	c #CE9D75",
"H8 	c #CF9E76",
"I8 	c #CE9E76",
"J8 	c #CD9C75",
"K8 	c #C09571",
"L8 	c #9A8866",
"M8 	c #968967",
"N8 	c #9A8F6B",
"O8 	c #A09470",
"P8 	c #A69872",
"Q8 	c #A8936D",
"R8 	c #AC916C",
"S8 	c #B59870",
"T8 	c #AF946D",
"U8 	c #B79A71",
"V8 	c #C6A77A",
"W8 	c #D0AE7E",
"X8 	c #CCAA7B",
"Y8 	c #CDAD7F",
"Z8 	c #C0A074",
"`8 	c #B6976D",
" 9 	c #937957",
".9 	c #846C4D",
"+9 	c #7D6548",
"@9 	c #81684B",
"#9 	c #A0835E",
"$9 	c #D6B283",
"%9 	c #B2966D",
"&9 	c #B19D74",
"*9 	c #DFCEA7",
"=9 	c #DBBE92",
"-9 	c #BD9B71",
";9 	c #846B4D",
">9 	c #D5A577",
",9 	c #E3AE7E",
"'9 	c #E0C090",
")9 	c #E2B483",
"!9 	c #D1A579",
"~9 	c #937756",
"{9 	c #AB8962",
"]9 	c #E2C192",
"^9 	c #E0C293",
"/9 	c #D9AB7C",
"(9 	c #D1A779",
"_9 	c #967957",
":9 	c #B38E67",
"<9 	c #D6A778",
"[9 	c #DBBA8D",
"}9 	c #E2CA9A",
"|9 	c #D8B082",
"19 	c #DBAC7D",
"29 	c #D4A779",
"39 	c #BC9369",
"49 	c #C9976B",
"59 	c #C8956A",
"69 	c #C89569",
"79 	c #CA956A",
"89 	c #C99569",
"99 	c #C99669",
"09 	c #CE976B",
"a9 	c #D8A576",
"b9 	c #ECC18D",
"c9 	c #D4A174",
"d9 	c #CF9D70",
"e9 	c #C69A6F",
"f9 	c #AA8862",
"g9 	c #BC9067",
"h9 	c #EBAC7A",
"i9 	c #EEAE7C",
"j9 	c #E5A876",
"k9 	c #EFAE7A",
"l9 	c #EDAD79",
"m9 	c #C8A47A",
"n9 	c #B0A07E",
"o9 	c #9D937E",
"p9 	c #635954",
"q9 	c #5B5046",
"r9 	c #584C41",
"s9 	c #5C5045",
"t9 	c #605448",
"u9 	c #63584B",
"v9 	c #6C6053",
"w9 	c #756A5B",
"x9 	c #7A6E5F",
"y9 	c #7F7363",
"z9 	c #837766",
"A9 	c #8B7E6D",
"B9 	c #908471",
"C9 	c #A09480",
"D9 	c #A69A85",
"E9 	c #ADA089",
"F9 	c #B1A58E",
"G9 	c #B7AB92",
"H9 	c #B9AC93",
"I9 	c #B7A88E",
"J9 	c #B9AA90",
"K9 	c #C2B398",
"L9 	c #CCBDA0",
"M9 	c #D0C0A3",
"N9 	c #D2C2A4",
"O9 	c #D6C6A8",
"P9 	c #DCCCAD",
"Q9 	c #DFCEAE",
"R9 	c #DECDAD",
"S9 	c #DECCAC",
"T9 	c #DFCDAB",
"U9 	c #E0CDAA",
"V9 	c #DECAA8",
"W9 	c #DEC9A6",
"X9 	c #DDC7A4",
"Y9 	c #DFC8A5",
"Z9 	c #DCC3A0",
"`9 	c #D9BD9B",
" 0 	c #D9BC9A",
".0 	c #D9BB99",
"+0 	c #DABC98",
"@0 	c #D9BA96",
"#0 	c #CCAC88",
"$0 	c #A38461",
"%0 	c #9B7D59",
"&0 	c #947655",
"*0 	c #927858",
"=0 	c #AD8864",
"-0 	c #CC9971",
";0 	c #CE9B73",
">0 	c #CF9E75",
",0 	c #D09F76",
"'0 	c #CE9C74",
")0 	c #9F8463",
"!0 	c #897D5D",
"~0 	c #8F8362",
"{0 	c #928665",
"]0 	c #9C8C69",
"^0 	c #A7916B",
"/0 	c #A88F6A",
"(0 	c #AA906B",
"_0 	c #B0946E",
":0 	c #AE936D",
"<0 	c #AF956E",
"[0 	c #B0966F",
"}0 	c #B79B72",
"|0 	c #BC9F75",
"10 	c #BB9E74",
"20 	c #BEA176",
"30 	c #C2A479",
"40 	c #C3A579",
"50 	c #CAA87A",
"60 	c #C3A478",
"70 	c #BC9E73",
"80 	c #C8A678",
"90 	c #AC8F68",
"00 	c #987F5C",
"a0 	c #8C7554",
"b0 	c #957C59",
"c0 	c #9E845F",
"d0 	c #BE9C72",
"e0 	c #D4B182",
"f0 	c #977F5C",
"g0 	c #B79B73",
"h0 	c #E0C89D",
"i0 	c #E1CD9C",
"j0 	c #D8B88A",
"k0 	c #D8B283",
"l0 	c #CFAC7E",
"m0 	c #A28460",
"n0 	c #82684A",
"o0 	c #BB936A",
"p0 	c #E0BD8E",
"q0 	c #E6CD9C",
"r0 	c #E2B280",
"s0 	c #D5AA7B",
"t0 	c #A4855F",
"u0 	c #CFA477",
"v0 	c #DFBE91",
"w0 	c #E2C89A",
"x0 	c #D7AC7D",
"y0 	c #CAA074",
"z0 	c #927756",
"A0 	c #BD986E",
"B0 	c #CFA173",
"C0 	c #D5B186",
"D0 	c #E4D1A2",
"E0 	c #ECD8B8",
"F0 	c #E2C198",
"G0 	c #A18762",
"H0 	c #C79F72",
"I0 	c #CA976B",
"J0 	c #C8966A",
"K0 	c #C79469",
"L0 	c #C79468",
"M0 	c #C89469",
"N0 	c #EBBF8B",
"O0 	c #CE9C70",
"P0 	c #C2976D",
"Q0 	c #977956",
"R0 	c #C19167",
"S0 	c #E4A878",
"T0 	c #ECAC7A",
"U0 	c #EEAD7B",
"V0 	c #DDA677",
"W0 	c #B89067",
"X0 	c #A77D59",
"Y0 	c #B98A61",
"Z0 	c #EDAC79",
"`0 	c #EBAB78",
" a 	c #EAAB78",
".a 	c #DCA97B",
"+a 	c #BEA780",
"@a 	c #ACA182",
"#a 	c #615852",
"$a 	c #54493E",
"%a 	c #53483D",
"&a 	c #574C41",
"*a 	c #5A4E43",
"=a 	c #5E5246",
"-a 	c #62564A",
";a 	c #665B4D",
">a 	c #6A5F51",
",a 	c #6E6255",
"'a 	c #73675A",
")a 	c #7B6F5E",
"!a 	c #847867",
"~a 	c #8F8371",
"{a 	c #958976",
"]a 	c #A49781",
"^a 	c #AA9D86",
"/a 	c #A99A82",
"(a 	c #B1A389",
"_a 	c #B9AB91",
":a 	c #BEB096",
"<a 	c #C2B397",
"[a 	c #C8B99C",
"}a 	c #D0BFA2",
"|a 	c #D1C1A2",
"1a 	c #D2C1A2",
"2a 	c #D4C3A3",
"3a 	c #D2BFA0",
"4a 	c #D0BC9B",
"5a 	c #CFB998",
"6a 	c #D0BA99",
"7a 	c #D3BC9B",
"8a 	c #D6BF9C",
"9a 	c #D6BD9A",
"0a 	c #D2B795",
"aa 	c #D4B795",
"ba 	c #D4B692",
"ca 	c #CEAF8C",
"da 	c #B79974",
"ea 	c #A2835E",
"fa 	c #9B7C59",
"ga 	c #977856",
"ha 	c #937554",
"ia 	c #9E7E5C",
"ja 	c #BF906A",
"ka 	c #CA976F",
"la 	c #CB9971",
"ma 	c #CE9D74",
"na 	c #CF9D74",
"oa 	c #C2946D",
"pa 	c #847758",
"qa 	c #897C5C",
"ra 	c #8F8060",
"sa 	c #A78F6A",
"ta 	c #AA906A",
"ua 	c #A78E69",
"va 	c #A88E69",
"wa 	c #AB916B",
"xa 	c #AC926C",
"ya 	c #AD936C",
"za 	c #AD946D",
"Aa 	c #B89C73",
"Ba 	c #B59B72",
"Ca 	c #B79C73",
"Da 	c #B99E74",
"Ea 	c #BB9F75",
"Fa 	c #BBA076",
"Ga 	c #BDA176",
"Ha 	c #C1A479",
"Ia 	c #BD9E73",
"Ja 	c #C3A276",
"Ka 	c #BF9C71",
"La 	c #AA916A",
"Ma 	c #A58964",
"Na 	c #AA8F67",
"Oa 	c #BB9E73",
"Pa 	c #D6B383",
"Qa 	c #9E8561",
"Ra 	c #8B7353",
"Sa 	c #C4A275",
"Ta 	c #D7AF80",
"Ua 	c #DCC393",
"Va 	c #D9C091",
"Wa 	c #D8B384",
"Xa 	c #947958",
"Ya 	c #8F7252",
"Za 	c #C89E73",
"`a 	c #DDB687",
" b 	c #E4C998",
".b 	c #DFB585",
"+b 	c #E0B181",
"@b 	c #D2A87A",
"#b 	c #9D815E",
"$b 	c #9D7F5B",
"%b 	c #D3A679",
"&b 	c #DDB184",
"*b 	c #E2CB9D",
"=b 	c #E0C495",
"-b 	c #D8B485",
";b 	c #B4956C",
">b 	c #A48762",
",b 	c #BF986D",
"'b 	c #CD9E71",
")b 	c #CD9F72",
"!b 	c #D4AF84",
"~b 	c #E9D4B9",
"{b 	c #ECDCB1",
"]b 	c #C1AA80",
"^b 	c #C29E73",
"/b 	c #C89C6F",
"(b 	c #C8966B",
"_b 	c #C69469",
":b 	c #C69368",
"<b 	c #D5A073",
"[b 	c #E9BD89",
"}b 	c #CD9C6F",
"|b 	c #C09369",
"1b 	c #8C6E4E",
"2b 	c #916E4D",
"3b 	c #B5865E",
"4b 	c #EAAA79",
"5b 	c #ECAB7A",
"6b 	c #DDA777",
"7b 	c #BE9B70",
"8b 	c #B18660",
"9b 	c #96704F",
"0b 	c #A17A56",
"ab 	c #EEAD7A",
"bb 	c #E9AB78",
"cb 	c #CCA379",
"db 	c #B9A985",
"eb 	c #A99E84",
"fb 	c #574C43",
"gb 	c #4F4338",
"hb 	c #50443A",
"ib 	c #53473C",
"jb 	c #594D42",
"kb 	c #5C5044",
"lb 	c #605447",
"mb 	c #64584B",
"nb 	c #685C4F",
"ob 	c #6C6052",
"pb 	c #716557",
"qb 	c #746858",
"rb 	c #796D5D",
"sb 	c #867968",
"tb 	c #8A7D6B",
"ub 	c #8E826F",
"vb 	c #90846F",
"wb 	c #988B76",
"xb 	c #9C8F79",
"yb 	c #9B8D76",
"zb 	c #9F9079",
"Ab 	c #AA9C85",
"Bb 	c #AFA189",
"Cb 	c #B2A48A",
"Db 	c #B4A58B",
"Eb 	c #BCAD92",
"Fb 	c #C0B093",
"Gb 	c #C2B296",
"Hb 	c #C7B79A",
"Ib 	c #C9B89B",
"Jb 	c #CAB89B",
"Kb 	c #C8B697",
"Lb 	c #C5B192",
"Mb 	c #C1AA8C",
"Nb 	c #CCB696",
"Ob 	c #CDB796",
"Pb 	c #CCB594",
"Qb 	c #CBB291",
"Rb 	c #CBB190",
"Sb 	c #CEB291",
"Tb 	c #CEB18F",
"Ub 	c #C9AC89",
"Vb 	c #BFA17D",
"Wb 	c #AC8E69",
"Xb 	c #A78963",
"Yb 	c #A58761",
"Zb 	c #A6855F",
"`b 	c #997A57",
" c 	c #AD8662",
".c 	c #C3926C",
"+c 	c #C7966F",
"@c 	c #C99870",
"#c 	c #CD9E74",
"$c 	c #CC9A71",
"%c 	c #A98461",
"&c 	c #887354",
"*c 	c #7E7052",
"=c 	c #827355",
"-c 	c #9A8562",
";c 	c #AB906A",
">c 	c #A58C68",
",c 	c #A68D68",
"'c 	c #A88F69",
")c 	c #AC936C",
"!c 	c #B39870",
"~c 	c #B89D73",
"{c 	c #B59A71",
"]c 	c #B49A72",
"^c 	c #B69B73",
"/c 	c #B79D73",
"(c 	c #BA9F75",
"_c 	c #BCA076",
":c 	c #BDA177",
"<c 	c #BEA277",
"[c 	c #BC9F74",
"}c 	c #BD9F74",
"|c 	c #CBAA7B",
"1c 	c #BC9A70",
"2c 	c #A88C66",
"3c 	c #B49A71",
"4c 	c #B79970",
"5c 	c #CCAD7F",
"6c 	c #CEAE80",
"7c 	c #D1B081",
"8c 	c #D2B181",
"9c 	c #9C835F",
"0c 	c #866C4D",
"ac 	c #C09D71",
"bc 	c #D6AE7E",
"cc 	c #D9B787",
"dc 	c #DBC698",
"ec 	c #D6B789",
"fc 	c #D6B182",
"gc 	c #D3B081",
"hc 	c #B7976E",
"ic 	c #A1805B",
"jc 	c #D3AC7F",
"kc 	c #E1CB9C",
"lc 	c #DEBB8B",
"mc 	c #997D5B",
"nc 	c #B08E66",
"oc 	c #E0C598",
"pc 	c #EEDCB0",
"qc 	c #DCC69D",
"rc 	c #AF9971",
"sc 	c #B9986E",
"tc 	c #C49A6F",
"uc 	c #C79A6E",
"vc 	c #CA9D71",
"wc 	c #D0A378",
"xc 	c #D1A67A",
"yc 	c #C59569",
"zc 	c #C9956A",
"Ac 	c #C79368",
"Bc 	c #C99469",
"Cc 	c #CC966A",
"Dc 	c #D9A678",
"Ec 	c #E8BF8C",
"Fc 	c #CE9D70",
"Gc 	c #B58B63",
"Hc 	c #937351",
"Ic 	c #886849",
"Jc 	c #987250",
"Kc 	c #C18F65",
"Lc 	c #DCA273",
"Mc 	c #DDA979",
"Nc 	c #CBA87B",
"Oc 	c #E0A778",
"Pc 	c #9A7A57",
"Qc 	c #EEAC7A",
"Rc 	c #F0B07C",
"Sc 	c #C7AA81",
"Tc 	c #B5A685",
"Uc 	c #514438",
"Vc 	c #4A3E33",
"Wc 	c #4D4036",
"Xc 	c #504338",
"Yc 	c #52453A",
"Zc 	c #54483D",
"`c 	c #574B3E",
" d 	c #5B4E41",
".d 	c #5E5245",
"+d 	c #625649",
"@d 	c #65594B",
"#d 	c #695D4F",
"$d 	c #695C4E",
"%d 	c #706354",
"&d 	c #796D5C",
"*d 	c #7B6E5D",
"=d 	c #7D715F",
"-d 	c #827662",
";d 	c #857864",
">d 	c #8C7F6B",
",d 	c #8D806B",
"'d 	c #90826C",
")d 	c #998C75",
"!d 	c #A1947D",
"~d 	c #A4967F",
"{d 	c #A5977D",
"]d 	c #A99A80",
"^d 	c #AFA086",
"/d 	c #B2A388",
"(d 	c #B7A88C",
"_d 	c #BDAD91",
":d 	c #BAA98D",
"<d 	c #BEAD91",
"[d 	c #BEAC90",
"}d 	c #BDA98C",
"|d 	c #C0AD8F",
"1d 	c #C6B293",
"2d 	c #C5AF90",
"3d 	c #C3AD8D",
"4d 	c #C2AA8A",
"5d 	c #C5AE8D",
"6d 	c #C6AC8B",
"7d 	c #C4A987",
"8d 	c #C1A481",
"9d 	c #B99C75",
"0d 	c #B1946D",
"ad 	c #AE916A",
"bd 	c #AE9068",
"cd 	c #AF8D66",
"dd 	c #A3825D",
"ed 	c #AB8762",
"fd 	c #B78B66",
"gd 	c #BF8E68",
"hd 	c #C2936C",
"id 	c #C89870",
"jd 	c #CB9A73",
"kd 	c #BB8F69",
"ld 	c #8F7454",
"md 	c #7C6B4D",
"nd 	c #7B6C4E",
"od 	c #807152",
"pd 	c #97815F",
"qd 	c #A68C67",
"rd 	c #A58C67",
"sd 	c #A38B66",
"td 	c #A88E68",
"ud 	c #A78F69",
"vd 	c #A68E68",
"wd 	c #A9906A",
"xd 	c #AE956E",
"yd 	c #B99D74",
"zd 	c #B39971",
"Ad 	c #B39A71",
"Bd 	c #B69C73",
"Cd 	c #B89E74",
"Dd 	c #BFA378",
"Ed 	c #C1A378",
"Fd 	c #C4A579",
"Gd 	c #B7956C",
"Hd 	c #876F50",
"Id 	c #957D5B",
"Jd 	c #B4976F",
"Kd 	c #BFA278",
"Ld 	c #C8A97D",
"Md 	c #C4A77B",
"Nd 	c #C9AB7D",
"Od 	c #7A6246",
"Pd 	c #A48660",
"Qd 	c #CCA779",
"Rd 	c #DCC193",
"Sd 	c #E0CB9A",
"Td 	c #D6B585",
"Ud 	c #A0835F",
"Vd 	c #846A4D",
"Wd 	c #D8B98B",
"Xd 	c #DEC797",
"Yd 	c #E0C295",
"Zd 	c #C9A97E",
"`d 	c #9C825E",
" e 	c #BD976D",
".e 	c #D0A072",
"+e 	c #D4A274",
"@e 	c #D2A477",
"#e 	c #DAB489",
"$e 	c #D3B58D",
"%e 	c #C3A175",
"&e 	c #C59B70",
"*e 	c #C3976B",
"=e 	c #C3966A",
"-e 	c #C5976C",
";e 	c #C5966A",
">e 	c #C39469",
",e 	c #C59468",
"'e 	c #C49267",
")e 	c #C59368",
"!e 	c #D7A679",
"~e 	c #E8CFA1",
"{e 	c #D1A073",
"]e 	c #D09E71",
"^e 	c #A37E5A",
"/e 	c #8B6B4C",
"(e 	c #866648",
"_e 	c #A07753",
":e 	c #D7A475",
"<e 	c #C5A478",
"[e 	c #CFA578",
"}e 	c #DFAA7A",
"|e 	c #E9AD7C",
"1e 	c #E8AD7C",
"2e 	c #AD8A62",
"3e 	c #DBA575",
"4e 	c #EBAA77",
"5e 	c #E9AA77",
"6e 	c #E9AA78",
"7e 	c #D2A578",
"8e 	c #BEAA83",
"9e 	c #ADA287",
"0e 	c #5B5047",
"ae 	c #4E4135",
"be 	c #463A2F",
"ce 	c #4A3D33",
"de 	c #4C3F35",
"ee 	c #4E4237",
"fe 	c #504439",
"ge 	c #53463A",
"he 	c #564A3D",
"ie 	c #5A4D40",
"je 	c #5C4F42",
"ke 	c #5D5143",
"le 	c #605345",
"me 	c #605243",
"ne 	c #6A5D4D",
"oe 	c #6F6354",
"pe 	c #706453",
"qe 	c #736755",
"re 	c #776B58",
"se 	c #7A6E5B",
"te 	c #807360",
"ue 	c #837561",
"ve 	c #887A66",
"we 	c #91846F",
"xe 	c #978972",
"ye 	c #9F9078",
"ze 	c #A09078",
"Ae 	c #A5947B",
"Be 	c #AA9A80",
"Ce 	c #AB9A81",
"De 	c #A9977E",
"Ee 	c #B2A186",
"Fe 	c #B19F83",
"Ge 	c #B3A085",
"He 	c #B9A689",
"Ie 	c #B7A285",
"Je 	c #BAA486",
"Ke 	c #BBA587",
"Le 	c #BBA486",
"Me 	c #BCA586",
"Ne 	c #BCA384",
"Oe 	c #BBA280",
"Pe 	c #BAA17B",
"Qe 	c #B99F77",
"Re 	c #B79D74",
"Se 	c #B49972",
"Te 	c #B2946C",
"Ue 	c #AD8E66",
"Ve 	c #AD8A64",
"We 	c #B28965",
"Xe 	c #B58864",
"Ye 	c #B98A65",
"Ze 	c #BD906A",
"`e 	c #C3956F",
" f 	c #C1926B",
".f 	c #7F6B4C",
"+f 	c #7A694C",
"@f 	c #847354",
"#f 	c #9D8661",
"$f 	c #A98F69",
"%f 	c #A08964",
"&f 	c #AB916A",
"*f 	c #A78E68",
"=f 	c #A9916B",
"-f 	c #B09770",
";f 	c #B19970",
">f 	c #B49B72",
",f 	c #C0A277",
"'f 	c #C5A77A",
")f 	c #D5AD7E",
"!f 	c #B69970",
"~f 	c #BCA075",
"{f 	c #C2A67A",
"]f 	c #C7A87C",
"^f 	c #AB926B",
"/f 	c #C2AC80",
"(f 	c #D9C399",
"_f 	c #D5B589",
":f 	c #C4A479",
"<f 	c #927857",
"[f 	c #7F6749",
"}f 	c #B3936A",
"|f 	c #D9B183",
"1f 	c #DEC696",
"2f 	c #D5B98B",
"3f 	c #D2AE80",
"4f 	c #BC9C71",
"5f 	c #866E50",
"6f 	c #A78660",
"7f 	c #E0C798",
"8f 	c #E6D5B2",
"9f 	c #BDA782",
"0f 	c #C99D70",
"af 	c #CF9E70",
"bf 	c #CC9E70",
"cf 	c #CC9D71",
"df 	c #C89C70",
"ef 	c #C59A6F",
"ff 	c #C1956A",
"gf 	c #C09469",
"hf 	c #C19569",
"if 	c #C09468",
"jf 	c #C09368",
"kf 	c #C09267",
"lf 	c #C29368",
"mf 	c #C59669",
"nf 	c #C39166",
"of 	c #C59267",
"pf 	c #D1A175",
"qf 	c #DCC296",
"rf 	c #DBC696",
"sf 	c #D9B889",
"tf 	c #D8AB7D",
"uf 	c #D3A174",
"vf 	c #D3A073",
"wf 	c #BB8E65",
"xf 	c #9D7856",
"yf 	c #8D6B4B",
"zf 	c #A57B57",
"Af 	c #CB956B",
"Bf 	c #D5A677",
"Cf 	c #C7A477",
"Df 	c #CBA477",
"Ef 	c #E2A97A",
"Ff 	c #E7AD7C",
"Gf 	c #E5AC7B",
"Hf 	c #B8996F",
"If 	c #C1976C",
"Jf 	c #CCA97F",
"Kf 	c #B7A889",
"Lf 	c #A79F89",
"Mf 	c #5D5146",
"Nf 	c #483B31",
"Of 	c #44382D",
"Pf 	c #473B30",
"Qf 	c #493D32",
"Rf 	c #4B3E33",
"Sf 	c #4D4035",
"Tf 	c #4F4237",
"Uf 	c #524539",
"Vf 	c #55483C",
"Wf 	c #5A4D3F",
"Xf 	c #5D5042",
"Yf 	c #645849",
"Zf 	c #685C4C",
"`f 	c #6B5F4E",
" g 	c #6F6251",
".g 	c #716553",
"+g 	c #776A57",
"@g 	c #7A6C59",
"#g 	c #827561",
"$g 	c #887C67",
"%g 	c #8B7D68",
"&g 	c #8C7E68",
"*g 	c #8E7F69",
"=g 	c #92836D",
"-g 	c #94846D",
";g 	c #998971",
">g 	c #9A8970",
",g 	c #A18F76",
"'g 	c #A59379",
")g 	c #A6947A",
"!g 	c #AA977D",
"~g 	c #AD997E",
"{g 	c #AA947A",
"]g 	c #B09B7F",
"^g 	c #B29D80",
"/g 	c #B19A7C",
"(g 	c #B29B7E",
"_g 	c #AF9678",
":g 	c #B59F7B",
"<g 	c #B8A27B",
"[g 	c #BAA37A",
"}g 	c #B9A279",
"|g 	c #B79F77",
"1g 	c #B89D76",
"2g 	c #B1936B",
"3g 	c #AD8865",
"4g 	c #AC8260",
"5g 	c #AD825F",
"6g 	c #B08461",
"7g 	c #B68B65",
"8g 	c #BC8F6A",
"9g 	c #AF8561",
"0g 	c #856D4D",
"ag 	c #7E694B",
"bg 	c #7D6C4E",
"cg 	c #9E8763",
"dg 	c #9F8863",
"eg 	c #A68D67",
"fg 	c #AC926B",
"gg 	c #A7906A",
"hg 	c #AB936C",
"ig 	c #B0986F",
"jg 	c #B0976F",
"kg 	c #B09870",
"lg 	c #B29971",
"mg 	c #B69D73",
"ng 	c #BCA177",
"og 	c #C3A57A",
"pg 	c #DEBC8B",
"qg 	c #C1A579",
"rg 	c #C1A57A",
"sg 	c #C5A77B",
"tg 	c #AD926B",
"ug 	c #96825E",
"vg 	c #BBA77D",
"wg 	c #DECCA4",
"xg 	c #D4BB8E",
"yg 	c #B69870",
"zg 	c #836B4D",
"Ag 	c #8E7252",
"Bg 	c #C29F73",
"Cg 	c #D3AC7D",
"Dg 	c #D8B98A",
"Eg 	c #DBC595",
"Fg 	c #D4B688",
"Gg 	c #C6A578",
"Hg 	c #8D7555",
"Ig 	c #AD8C65",
"Jg 	c #D2A576",
"Kg 	c #D7A779",
"Lg 	c #D9B58F",
"Mg 	c #C9A579",
"Ng 	c #CFA274",
"Og 	c #C69A6E",
"Pg 	c #C79B6E",
"Qg 	c #C3996E",
"Rg 	c #C2986D",
"Sg 	c #BF946A",
"Tg 	c #BD9268",
"Ug 	c #BE9268",
"Vg 	c #BE9166",
"Wg 	c #C39368",
"Xg 	c #C59469",
"Yg 	c #C49367",
"Zg 	c #C7956A",
"`g 	c #C49268",
" h 	c #C39167",
".h 	c #C79369",
"+h 	c #D2AA7D",
"@h 	c #E1CE9D",
"#h 	c #E0C697",
"$h 	c #DBBA8B",
"%h 	c #D6AB7E",
"&h 	c #D0A073",
"*h 	c #D19E71",
"=h 	c #B38861",
"-h 	c #987553",
";h 	c #866749",
">h 	c #A67D59",
",h 	c #CFA172",
"'h 	c #C1A377",
")h 	c #D0A577",
"!h 	c #DFA879",
"~h 	c #E6AC7B",
"{h 	c #E8AE7D",
"]h 	c #D8A878",
"^h 	c #C0A075",
"/h 	c #BD9D72",
"(h 	c #DAA879",
"_h 	c #BCB191",
":h 	c #594F45",
"<h 	c #45382D",
"[h 	c #43362B",
"}h 	c #44372D",
"|h 	c #46392E",
"1h 	c #483B30",
"2h 	c #4A3D32",
"3h 	c #4C3F33",
"4h 	c #55483B",
"5h 	c #584B3E",
"6h 	c #5F5344",
"7h 	c #615546",
"8h 	c #615545",
"9h 	c #655848",
"0h 	c #685C4B",
"ah 	c #6C5F4D",
"bh 	c #6F6250",
"ch 	c #736553",
"dh 	c #796D5A",
"eh 	c #7E715E",
"fh 	c #80725F",
"gh 	c #82745F",
"hh 	c #847560",
"ih 	c #887964",
"jh 	c #8A7A64",
"kh 	c #8A7963",
"lh 	c #8E7C66",
"mh 	c #94836C",
"nh 	c #98876F",
"oh 	c #9C8B73",
"ph 	c #A08C74",
"qh 	c #A18C73",
"rh 	c #A69177",
"sh 	c #A69075",
"th 	c #A38D71",
"uh 	c #A38C70",
"vh 	c #A58E6F",
"wh 	c #B5A17A",
"xh 	c #B5A179",
"yh 	c #B9A37B",
"zh 	c #B9A37A",
"Ah 	c #B8A078",
"Bh 	c #B59D75",
"Ch 	c #AE906B",
"Dh 	c #A47F5E",
"Eh 	c #A37A5A",
"Fh 	c #A47B59",
"Gh 	c #A97F5C",
"Hh 	c #B28763",
"Ih 	c #B08562",
"Jh 	c #937553",
"Kh 	c #816A4A",
"Lh 	c #7E6949",
"Mh 	c #8A7454",
"Nh 	c #957F5C",
"Oh 	c #9A8460",
"Ph 	c #9C8561",
"Qh 	c #A58D67",
"Rh 	c #AA926B",
"Sh 	c #A89069",
"Th 	c #AD956D",
"Uh 	c #AC946D",
"Vh 	c #B19870",
"Wh 	c #B99F75",
"Xh 	c #B39970",
"Yh 	c #C0A478",
"Zh 	c #D3B181",
"`h 	c #DABC8D",
" i 	c #CBB083",
".i 	c #C0A479",
"+i 	c #937C5A",
"@i 	c #897352",
"#i 	c #D4B88C",
"$i 	c #D7C191",
"%i 	c #D3B788",
"&i 	c #D0AF81",
"*i 	c #C7A77C",
"=i 	c #A28763",
"-i 	c #796246",
";i 	c #A48661",
">i 	c #D0AB7D",
",i 	c #D8BE90",
"'i 	c #E1CEA1",
")i 	c #D6BB8E",
"!i 	c #BBA378",
"~i 	c #99825E",
"{i 	c #C29D72",
"]i 	c #CDA071",
"^i 	c #CF9F71",
"/i 	c #CE9E70",
"(i 	c #CD9E70",
"_i 	c #CB9A6D",
":i 	c #CA9A6D",
"<i 	c #C0966C",
"[i 	c #BC9166",
"}i 	c #BC9066",
"|i 	c #BC8F65",
"1i 	c #BD9065",
"2i 	c #BD9066",
"3i 	c #BF9066",
"4i 	c #C39268",
"5i 	c #C29167",
"6i 	c #BE8F65",
"7i 	c #BF8F65",
"8i 	c #C19066",
"9i 	c #C49167",
"0i 	c #CC966C",
"ai 	c #D3A578",
"bi 	c #DDC092",
"ci 	c #E4D09F",
"di 	c #E3D0A1",
"ei 	c #DEC99A",
"fi 	c #DABB8D",
"gi 	c #D2A174",
"hi 	c #CF9C70",
"ii 	c #C7976C",
"ji 	c #A8835E",
"ki 	c #D09A6E",
"li 	c #CFA376",
"mi 	c #C3A174",
"ni 	c #D7A879",
"oi 	c #E6A775",
"pi 	c #DAB589",
"qi 	c #CCBC96",
"ri 	c #B6AC91",
"si 	c #4B4036",
"ti 	c #42352A",
"ui 	c #42342A",
"vi 	c #43352B",
"wi 	c #44372B",
"xi 	c #473A2F",
"yi 	c #493C30",
"zi 	c #4B3E32",
"Ai 	c #4D4034",
"Bi 	c #4F4135",
"Ci 	c #504337",
"Di 	c #54473B",
"Ei 	c #56493D",
"Fi 	c #594C3F",
"Gi 	c #5B4E40",
"Hi 	c #5B4F40",
"Ii 	c #605344",
"Ji 	c #625646",
"Ki 	c #665848",
"Li 	c #685B4A",
"Mi 	c #6D5F4E",
"Ni 	c #716451",
"Oi 	c #746754",
"Pi 	c #776A56",
"Qi 	c #786A56",
"Ri 	c #7A6A56",
"Si 	c #80705C",
"Ti 	c #80705B",
"Ui 	c #7F6E59",
"Vi 	c #887762",
"Wi 	c #8B7A64",
"Xi 	c #918069",
"Yi 	c #93826B",
"Zi 	c #94816A",
"`i 	c #95826A",
" j 	c #97826B",
".j 	c #9B866E",
"+j 	c #9C876E",
"@j 	c #9D866D",
"#j 	c #9A846A",
"$j 	c #957C62",
"%j 	c #A48F6D",
"&j 	c #AE9D76",
"*j 	c #AF9D76",
"=j 	c #B4A179",
"-j 	c #B8A47B",
";j 	c #B7A37B",
">j 	c #B5A078",
",j 	c #B09973",
"'j 	c #A18060",
")j 	c #9D7859",
"!j 	c #9B7455",
"~j 	c #9E7556",
"{j 	c #A67E5D",
"]j 	c #AA8361",
"^j 	c #9E7958",
"/j 	c #856C4B",
"(j 	c #88704D",
"_j 	c #846C4C",
":j 	c #897250",
"<j 	c #96805E",
"[j 	c #97815E",
"}j 	c #A28B66",
"|j 	c #B59B71",
"1j 	c #D8BC8E",
"2j 	c #D4BE8E",
"3j 	c #BFA377",
"4j 	c #967F5B",
"5j 	c #786245",
"6j 	c #CCA97B",
"7j 	c #D0B384",
"8j 	c #D6BF90",
"9j 	c #CCAD80",
"0j 	c #917A58",
"aj 	c #AE9067",
"bj 	c #CEA97B",
"cj 	c #D5AF81",
"dj 	c #E5CEA2",
"ej 	c #DBC79A",
"fj 	c #BAA177",
"gj 	c #CA9D70",
"hj 	c #CB9D70",
"ij 	c #CB9C6F",
"jj 	c #CA9B6E",
"kj 	c #C99A6D",
"lj 	c #C8996C",
"mj 	c #C8986B",
"nj 	c #BE956A",
"oj 	c #BD946A",
"pj 	c #BC9268",
"qj 	c #BA9067",
"rj 	c #B98E65",
"sj 	c #B98E64",
"tj 	c #BA8E65",
"uj 	c #BA8E64",
"vj 	c #BC8D65",
"wj 	c #BF8F66",
"xj 	c #BC8D63",
"yj 	c #BE8E64",
"zj 	c #C29067",
"Aj 	c #C69268",
"Bj 	c #C59167",
"Cj 	c #CB966B",
"Dj 	c #D19B6F",
"Ej 	c #D8A97C",
"Fj 	c #DFC092",
"Gj 	c #E5D4A4",
"Hj 	c #E4D3A3",
"Ij 	c #DDC899",
"Jj 	c #D9BA8C",
"Kj 	c #D5AC7F",
"Lj 	c #D19E72",
"Mj 	c #D29F72",
"Nj 	c #B88F67",
"Oj 	c #A17F5A",
"Pj 	c #DCA475",
"Qj 	c #CB9E72",
"Rj 	c #E2A979",
"Sj 	c #E1A979",
"Tj 	c #BC9D73",
"Uj 	c #BD996F",
"Vj 	c #E5A674",
"Wj 	c #E4A674",
"Xj 	c #E5A775",
"Yj 	c #D7B88E",
"Zj 	c #CDC19D",
"`j 	c #ACA591",
" k 	c #403328",
".k 	c #413429",
"+k 	c #423429",
"@k 	c #423529",
"#k 	c #44362B",
"$k 	c #45372C",
"%k 	c #4A3D31",
"&k 	c #4C3E33",
"*k 	c #4E4034",
"=k 	c #56493C",
"-k 	c #584B3C",
";k 	c #5A4D3E",
">k 	c #5D5041",
",k 	c #635545",
"'k 	c #665949",
")k 	c #6A5C4B",
"!k 	c #6C5E4C",
"~k 	c #6E604E",
"{k 	c #6E5F4D",
"]k 	c #71614F",
"^k 	c #766653",
"/k 	c #7A6955",
"(k 	c #83725D",
"_k 	c #897862",
":k 	c #8A7862",
"<k 	c #8D7C65",
"[k 	c #8E7B64",
"}k 	c #8F7B64",
"|k 	c #907B64",
"1k 	c #917C64",
"2k 	c #917A62",
"3k 	c #8D755D",
"4k 	c #8F775C",
"5k 	c #9F8E6A",
"6k 	c #A3936E",
"7k 	c #A79671",
"8k 	c #B29F78",
"9k 	c #B4A27A",
"0k 	c #B2A078",
"ak 	c #AF9C75",
"bk 	c #A38B69",
"ck 	c #957456",
"dk 	c #987557",
"ek 	c #956F52",
"fk 	c #9A7456",
"gk 	c #A07B5B",
"hk 	c #9C7858",
"ik 	c #8A6E4E",
"jk 	c #806948",
"kk 	c #89714F",
"lk 	c #8F7855",
"mk 	c #947E5C",
"nk 	c #96805D",
"ok 	c #99835F",
"pk 	c #9D8662",
"qk 	c #A18A65",
"rk 	c #A8906A",
"sk 	c #AE956D",
"tk 	c #AF966F",
"uk 	c #B69C72",
"vk 	c #B89D74",
"wk 	c #B49870",
"xk 	c #BA9E74",
"yk 	c #C5A67A",
"zk 	c #D6BC8D",
"Ak 	c #CCB083",
"Bk 	c #A58B65",
"Ck 	c #715D42",
"Dk 	c #957A58",
"Ek 	c #C1A175",
"Fk 	c #D9C192",
"Gk 	c #D6BD8E",
"Hk 	c #CDAC7F",
"Ik 	c #AE926B",
"Jk 	c #7A6447",
"Kk 	c #937856",
"Lk 	c #CBA578",
"Mk 	c #CDA679",
"Nk 	c #C8A679",
"Ok 	c #C39D71",
"Pk 	c #C39B6F",
"Qk 	c #C69B6F",
"Rk 	c #C99C6E",
"Sk 	c #C99B6D",
"Tk 	c #C8996D",
"Uk 	c #C7986B",
"Vk 	c #C6976B",
"Wk 	c #BE9369",
"Xk 	c #BB9167",
"Yk 	c #B98F66",
"Zk 	c #B78D64",
"`k 	c #B68C63",
" l 	c #B68B62",
".l 	c #B68B63",
"+l 	c #B78C63",
"@l 	c #B68A62",
"#l 	c #B58A61",
"$l 	c #B78A61",
"%l 	c #B98B62",
"&l 	c #BF8E65",
"*l 	c #C08E65",
"=l 	c #C29066",
"-l 	c #C39066",
";l 	c #CE996E",
">l 	c #DCBE90",
",l 	c #E1CE9F",
"'l 	c #E1CF9F",
")l 	c #DEC798",
"!l 	c #DBBE90",
"~l 	c #D6AE80",
"{l 	c #D2A376",
"]l 	c #AA8963",
"^l 	c #C2966C",
"/l 	c #D7A072",
"(l 	c #DAA171",
"_l 	c #CDA477",
":l 	c #C4A276",
"<l 	c #CDA376",
"[l 	c #DCA677",
"}l 	c #D0A376",
"|l 	c #B1956D",
"1l 	c #DDA171",
"2l 	c #D89E6F",
"3l 	c #D39A6C",
"4l 	c #DEB386",
"5l 	c #E2D0A5",
"6l 	c #CBC1A0",
"7l 	c #544A41",
"8l 	c #45382F",
"9l 	c #3F3126",
"0l 	c #403227",
"al 	c #44372C",
"bl 	c #46392D",
"cl 	c #4C3D31",
"dl 	c #4D3F33",
"el 	c #524538",
"fl 	c #534639",
"gl 	c #56493B",
"hl 	c #584A3C",
"il 	c #615344",
"jl 	c #655746",
"kl 	c #675847",
"ll 	c #675846",
"ml 	c #695A48",
"nl 	c #6E5E4C",
"ol 	c #6F5E4D",
"pl 	c #746351",
"ql 	c #756450",
"rl 	c #7B6A55",
"sl 	c #806E59",
"tl 	c #82705A",
"ul 	c #85735D",
"vl 	c #85725C",
"wl 	c #86735C",
"xl 	c #86725B",
"yl 	c #86715A",
"zl 	c #836B55",
"Al 	c #836B53",
"Bl 	c #8B7759",
"Cl 	c #998965",
"Dl 	c #A0906B",
"El 	c #A99872",
"Fl 	c #AA9A74",
"Gl 	c #A89872",
"Hl 	c #A4906C",
"Il 	c #937659",
"Jl 	c #8E6E52",
"Kl 	c #906E51",
"Ll 	c #916D50",
"Ml 	c #967355",
"Nl 	c #967456",
"Ol 	c #806949",
"Pl 	c #7B6445",
"Ql 	c #7F6948",
"Rl 	c #8B7451",
"Sl 	c #907B58",
"Tl 	c #927E5B",
"Ul 	c #96815D",
"Vl 	c #96815E",
"Wl 	c #98825F",
"Xl 	c #A48C66",
"Yl 	c #A68F69",
"Zl 	c #A9916A",
"`l 	c #BDA075",
" m 	c #BAA076",
".m 	c #D1B486",
"+m 	c #C3A77C",
"@m 	c #C0A378",
"#m 	c #857151",
"$m 	c #765F44",
"%m 	c #A98B66",
"&m 	c #C5A377",
"*m 	c #D0B083",
"=m 	c #DCC797",
"-m 	c #D2B789",
";m 	c #957E5C",
">m 	c #866E4F",
",m 	c #C09F73",
"'m 	c #C2A074",
")m 	c #C19F73",
"!m 	c #C19E72",
"~m 	c #BE996E",
"{m 	c #BD986D",
"]m 	c #C5976B",
"^m 	c #C29469",
"/m 	c #B99067",
"(m 	c #BA9066",
"_m 	c #B78C64",
":m 	c #B38A62",
"<m 	c #B0865F",
"[m 	c #A9815C",
"}m 	c #A67F5A",
"|m 	c #A37F59",
"1m 	c #A27D58",
"2m 	c #A47D58",
"3m 	c #A17B57",
"4m 	c #9F7955",
"5m 	c #9D7755",
"6m 	c #9D7754",
"7m 	c #AA805A",
"8m 	c #AE835D",
"9m 	c #B3865F",
"0m 	c #B78961",
"am 	c #B98A62",
"bm 	c #BC8C63",
"cm 	c #BF8E64",
"dm 	c #C29065",
"em 	c #CC966B",
"fm 	c #D5A578",
"gm 	c #DDBC8D",
"hm 	c #E0C999",
"im 	c #DDC998",
"jm 	c #DCC798",
"km 	c #D1B88C",
"lm 	c #B6976E",
"mm 	c #D4A072",
"nm 	c #D2A678",
"om 	c #D0A173",
"pm 	c #DAA476",
"qm 	c #C0986E",
"rm 	c #E1A372",
"sm 	c #D8A474",
"tm 	c #B58A62",
"um 	c #997452",
"vm 	c #9C7553",
"wm 	c #AD815A",
"xm 	c #D49B6D",
"ym 	c #E3A674",
"zm 	c #E1A574",
"Am 	c #D8B68A",
"Bm 	c #DBD1A8",
"Cm 	c #B4AC93",
"Dm 	c #50463D",
"Em 	c #3E3026",
"Fm 	c #3E3025",
"Gm 	c #3F3127",
"Hm 	c #403228",
"Im 	c #47392D",
"Jm 	c #48392D",
"Km 	c #4A3C30",
"Lm 	c #4C3E32",
"Mm 	c #4E4133",
"Nm 	c #504235",
"Om 	c #524537",
"Pm 	c #534638",
"Qm 	c #56493A",
"Rm 	c #594B3D",
"Sm 	c #5C4E3F",
"Tm 	c #5D4F40",
"Um 	c #5F5142",
"Vm 	c #605242",
"Wm 	c #605141",
"Xm 	c #645544",
"Ym 	c #675747",
"Zm 	c #695948",
"`m 	c #6C5C4A",
" n 	c #6C5B49",
".n 	c #756452",
"+n 	c #796854",
"@n 	c #7A6954",
"#n 	c #7D6B56",
"$n 	c #7E6C56",
"%n 	c #7E6C55",
"&n 	c #7E6A54",
"*n 	c #7D6852",
"=n 	c #7C6650",
"-n 	c #7D684E",
";n 	c #837254",
">n 	c #897858",
",n 	c #968663",
"'n 	c #9C8A68",
")n 	c #957E5F",
"!n 	c #896B50",
"~n 	c #88694E",
"{n 	c #89694E",
"]n 	c #8D6C51",
"^n 	c #927255",
"/n 	c #886C4F",
"(n 	c #80684A",
"_n 	c #7C6647",
":n 	c #7D6647",
"<n 	c #856E4E",
"[n 	c #8D7856",
"}n 	c #8E7B58",
"|n 	c #937F5C",
"1n 	c #95805D",
"2n 	c #A58E67",
"3n 	c #A38C66",
"4n 	c #9A835F",
"5n 	c #98815D",
"6n 	c #967F5C",
"7n 	c #A58C66",
"8n 	c #A58D68",
"9n 	c #B0966D",
"0n 	c #BDA076",
"an 	c #D6BD8D",
"bn 	c #D0B88A",
"cn 	c #A88F68",
"dn 	c #7A6448",
"en 	c #B5966D",
"fn 	c #D7BD8E",
"gn 	c #D7C192",
"hn 	c #CAAA7F",
"in 	c #9B7F5C",
"jn 	c #BF9D71",
"kn 	c #BD9A6F",
"ln 	c #BC996E",
"mn 	c #BB976D",
"nn 	c #BA966C",
"on 	c #BB956A",
"pn 	c #BF9368",
"qn 	c #AD865F",
"rn 	c #A8815C",
"sn 	c #9F7A57",
"tn 	c #957250",
"un 	c #8D6C4C",
"vn 	c #846547",
"wn 	c #836446",
"xn 	c #7C6043",
"yn 	c #7C5F43",
"zn 	c #795D42",
"An 	c #7A5D42",
"Bn 	c #775B40",
"Cn 	c #74593E",
"Dn 	c #73593E",
"En 	c #7B5E42",
"Fn 	c #826246",
"Gn 	c #886749",
"Hn 	c #8E6C4C",
"In 	c #946F4F",
"Jn 	c #9B7553",
"Kn 	c #A17955",
"Ln 	c #A87E59",
"Mn 	c #B1845D",
"Nn 	c #BA8A61",
"On 	c #C49066",
"Pn 	c #D29C70",
"Qn 	c #D5A376",
"Rn 	c #D7B183",
"Sn 	c #D8BC92",
"Tn 	c #CDAD81",
"Un 	c #CEA073",
"Vn 	c #D59C6E",
"Wn 	c #E3B886",
"Xn 	c #D7A375",
"Yn 	c #CFA275",
"Zn 	c #B0936B",
"`n 	c #C69C6F",
" o 	c #E3A473",
".o 	c #DFA271",
"+o 	c #D9A374",
"@o 	c #AD845E",
"#o 	c #896849",
"$o 	c #BE8D63",
"%o 	c #E2B386",
"&o 	c #E7D2AA",
"*o 	c #C9BEA0",
"=o 	c #989387",
"-o 	c #473B31",
";o 	c #3D2F24",
">o 	c #413328",
",o 	c #44362A",
"'o 	c #46372A",
")o 	c #46372B",
"!o 	c #493B2F",
"~o 	c #4B3D30",
"{o 	c #4C3E31",
"]o 	c #504335",
"^o 	c #534537",
"/o 	c #554739",
"(o 	c #57493A",
"_o 	c #584A3B",
":o 	c #5A4C3D",
"<o 	c #5B4C3D",
"[o 	c #5B4B3B",
"}o 	c #5F5141",
"|o 	c #615140",
"1o 	c #645342",
"2o 	c #695847",
"3o 	c #705F4D",
"4o 	c #72614D",
"5o 	c #786651",
"6o 	c #77644F",
"7o 	c #77634E",
"8o 	c #76614D",
"9o 	c #745F49",
"0o 	c #746147",
"ao 	c #79674B",
"bo 	c #806E50",
"co 	c #867555",
"do 	c #8F7E5C",
"eo 	c #92815F",
"fo 	c #8E7A5C",
"go 	c #876D53",
"ho 	c #82664C",
"io 	c #83664C",
"jo 	c #86684D",
"ko 	c #8B6C51",
"lo 	c #896D51",
"mo 	c #7B6548",
"no 	c #786446",
"oo 	c #796547",
"po 	c #7D6747",
"qo 	c #8E7756",
"ro 	c #907C59",
"so 	c #8F7C59",
"to 	c #94805D",
"uo 	c #95815E",
"vo 	c #99845F",
"wo 	c #AE966E",
"xo 	c #B1976F",
"yo 	c #A68F68",
"zo 	c #A8916A",
"Ao 	c #957E5B",
"Bo 	c #816C4D",
"Co 	c #725F44",
"Do 	c #6B583F",
"Eo 	c #6F593F",
"Fo 	c #705B40",
"Go 	c #776347",
"Ho 	c #887152",
"Io 	c #98805D",
"Jo 	c #A78E67",
"Ko 	c #CEAE81",
"Lo 	c #D6BE8F",
"Mo 	c #C8AC80",
"No 	c #715C41",
"Oo 	c #9E815D",
"Po 	c #C3A275",
"Qo 	c #E4D0A4",
"Ro 	c #E1D0AD",
"So 	c #B39D73",
"To 	c #95805C",
"Uo 	c #B7986E",
"Vo 	c #BE9E72",
"Wo 	c #BC9B6F",
"Xo 	c #BB996E",
"Yo 	c #BB986D",
"Zo 	c #BA976C",
"`o 	c #B8956B",
" p 	c #B8946A",
".p 	c #B89369",
"+p 	c #B48A62",
"@p 	c #AC845D",
"#p 	c #A17B58",
"$p 	c #987452",
"%p 	c #8C6C4B",
"&p 	c #846647",
"*p 	c #785C40",
"=p 	c #6E543C",
"-p 	c #695039",
";p 	c #664E37",
">p 	c #624B35",
",p 	c #5F4934",
"'p 	c #5D4833",
")p 	c #5C4833",
"!p 	c #5B4732",
"~p 	c #594531",
"{p 	c #584330",
"]p 	c #56432F",
"^p 	c #594430",
"/p 	c #5B4631",
"(p 	c #604934",
"_p 	c #654D36",
":p 	c #6B5139",
"<p 	c #6E543B",
"[p 	c #755A40",
"}p 	c #7D5F43",
"|p 	c #836346",
"1p 	c #8A684A",
"2p 	c #987251",
"3p 	c #A67C58",
"4p 	c #BE8C63",
"5p 	c #CD986D",
"6p 	c #CD9B6E",
"7p 	c #ECC993",
"8p 	c #E1B381",
"9p 	c #DBA577",
"0p 	c #D8A375",
"ap 	c #C79D72",
"bp 	c #B8986E",
"cp 	c #DEA171",
"dp 	c #D1A173",
"ep 	c #C3A074",
"fp 	c #C9A578",
"gp 	c #DBA576",
"hp 	c #A8845F",
"ip 	c #AB855F",
"jp 	c #E0A372",
"kp 	c #DEA372",
"lp 	c #E0A473",
"mp 	c #E2A674",
"np 	c #E0A97B",
"op 	c #E8C6A2",
"pp 	c #DECFAC",
"qp 	c #AEA892",
"rp 	c #4E4339",
"sp 	c #3D2F25",
"tp 	c #3C2E23",
"up 	c #443629",
"vp 	c #46382C",
"wp 	c #473A2E",
"xp 	c #483A2D",
"yp 	c #493C2E",
"zp 	c #4E4032",
"Ap 	c #504234",
"Bp 	c #514335",
"Cp 	c #554738",
"Dp 	c #564839",
"Ep 	c #574839",
"Fp 	c #594B3B",
"Gp 	c #5C4D3C",
"Hp 	c #5F503F",
"Ip 	c #5F4E3D",
"Jp 	c #665645",
"Kp 	c #685847",
"Lp 	c #695746",
"Mp 	c #6C5A48",
"Np 	c #6E5D4A",
"Op 	c #705E4A",
"Pp 	c #705D4A",
"Qp 	c #715E4A",
"Rp 	c #6E5A46",
"Sp 	c #685540",
"Tp 	c #6A5840",
"Up 	c #6F5D43",
"Vp 	c #766449",
"Wp 	c #79684B",
"Xp 	c #827153",
"Yp 	c #847254",
"Zp 	c #826C52",
"`p 	c #7E644C",
" q 	c #7D624A",
".q 	c #7F634A",
"+q 	c #84674D",
"@q 	c #876A50",
"#q 	c #7C6449",
"$q 	c #736145",
"%q 	c #746245",
"&q 	c #746144",
"*q 	c #7C694A",
"=q 	c #8E7A58",
"-q 	c #8D7A57",
";q 	c #8D7A58",
">q 	c #907C5A",
",q 	c #A79069",
"'q 	c #B0966E",
")q 	c #A48D67",
"!q 	c #9F8964",
"~q 	c #A28B65",
"{q 	c #867051",
"]q 	c #746247",
"^q 	c #7E6B4D",
"/q 	c #8A7554",
"(q 	c #897454",
"_q 	c #816C4E",
":q 	c #7A664A",
"<q 	c #6E5A3F",
"[q 	c #725B41",
"}q 	c #856D4E",
"|q 	c #A0845F",
"1q 	c #B79A70",
"2q 	c #D4BD8E",
"3q 	c #C5A87C",
"4q 	c #B69B72",
"5q 	c #826D4E",
"6q 	c #7E6649",
"7q 	c #AF9068",
"8q 	c #C8A578",
"9q 	c #D9B78D",
"0q 	c #D7BD94",
"aq 	c #BCA277",
"bq 	c #B3946C",
"cq 	c #BA996F",
"dq 	c #B9976D",
"eq 	c #B7946A",
"fq 	c #B79469",
"gq 	c #B79369",
"hq 	c #B59067",
"iq 	c #B28C64",
"jq 	c #AD875F",
"kq 	c #9E7956",
"lq 	c #906E4D",
"mq 	c #856647",
"nq 	c #7C5E42",
"oq 	c #73583D",
"pq 	c #6D533A",
"qq 	c #644D36",
"rq 	c #5E4833",
"sq 	c #584431",
"tq 	c #56422F",
"uq 	c #54412E",
"vq 	c #523F2D",
"wq 	c #523E2D",
"xq 	c #52402D",
"yq 	c #523F2C",
"zq 	c #523E2B",
"Aq 	c #503D2A",
"Bq 	c #513D2A",
"Cq 	c #4F3C29",
"Dq 	c #503C2A",
"Eq 	c #503D2B",
"Fq 	c #533F2D",
"Gq 	c #55412E",
"Hq 	c #584430",
"Iq 	c #5C4732",
"Jq 	c #614A35",
"Kq 	c #72573E",
"Lq 	c #7F6044",
"Mq 	c #936F4F",
"Nq 	c #A17855",
"Oq 	c #B0835D",
"Pq 	c #C18F66",
"Qq 	c #C59268",
"Rq 	c #E3BB88",
"Sq 	c #E9C38E",
"Tq 	c #D8A274",
"Uq 	c #CDA074",
"Vq 	c #C09B6F",
"Wq 	c #DFA171",
"Xq 	c #C69F74",
"Yq 	c #DAA576",
"Zq 	c #D8A677",
"`q 	c #B59269",
" r 	c #DA9F6F",
".r 	c #DBA070",
"+r 	c #E2B388",
"@r 	c #E5D4AB",
"#r 	c #C5BDA0",
"$r 	c #50453C",
"%r 	c #3B2D22",
"&r 	c #3D2E24",
"*r 	c #3C2D23",
"=r 	c #3F3026",
"-r 	c #423428",
";r 	c #44372A",
">r 	c #45372B",
",r 	c #46382B",
"'r 	c #48392C",
")r 	c #493B2D",
"!r 	c #4B3C2F",
"~r 	c #4D3E31",
"{r 	c #4F4133",
"]r 	c #524435",
"^r 	c #544536",
"/r 	c #534435",
"(r 	c #564738",
"_r 	c #584A3A",
":r 	c #584838",
"<r 	c #5C4B3C",
"[r 	c #615141",
"}r 	c #625140",
"|r 	c #655443",
"1r 	c #675645",
"2r 	c #695744",
"3r 	c #6B5946",
"4r 	c #6D5A47",
"5r 	c #66533F",
"6r 	c #604D38",
"7r 	c #614F38",
"8r 	c #65533B",
"9r 	c #6B5940",
"0r 	c #705F44",
"ar 	c #736247",
"br 	c #78634A",
"cr 	c #79614A",
"dr 	c #795F48",
"er 	c #7A6048",
"fr 	c #7C6149",
"gr 	c #81664D",
"hr 	c #7E644B",
"ir 	c #705D42",
"jr 	c #705E42",
"kr 	c #715E42",
"lr 	c #816F4F",
"mr 	c #8A7856",
"nr 	c #8B7856",
"or 	c #8C7957",
"pr 	c #947F5D",
"qr 	c #957F5D",
"rr 	c #887353",
"sr 	c #756348",
"tr 	c #836F51",
"ur 	c #917C5A",
"vr 	c #9A8560",
"wr 	c #A38D67",
"xr 	c #A28C67",
"yr 	c #9B8662",
"zr 	c #947F5C",
"Ar 	c #857051",
"Br 	c #705C41",
"Cr 	c #745D42",
"Dr 	c #977E5B",
"Er 	c #AF946C",
"Fr 	c #CFB688",
"Gr 	c #BEA278",
"Hr 	c #BFA478",
"Ir 	c #A58B66",
"Jr 	c #776146",
"Kr 	c #BF9F73",
"Lr 	c #BB9B70",
"Mr 	c #BC9A6E",
"Nr 	c #B8976C",
"Or 	c #B6956B",
"Pr 	c #B6946A",
"Qr 	c #B59369",
"Rr 	c #B49268",
"Sr 	c #B59268",
"Tr 	c #B49167",
"Ur 	c #B38E65",
"Vr 	c #A9855E",
"Wr 	c #997754",
"Xr 	c #8B6B4B",
"Yr 	c #7C5F42",
"Zr 	c #6F553B",
"`r 	c #685039",
" s 	c #614B35",
".s 	c #574430",
"+s 	c #55412D",
"@s 	c #56422D",
"#s 	c #5A442E",
"$s 	c #5A442D",
"%s 	c #59432C",
"&s 	c #58422C",
"*s 	c #58422B",
"=s 	c #57412B",
"-s 	c #56412B",
";s 	c #54402B",
">s 	c #553F2B",
",s 	c #533E2B",
"'s 	c #513C2A",
")s 	c #503C2B",
"!s 	c #513D2C",
"~s 	c #57412F",
"{s 	c #6C523A",
"]s 	c #7D5E42",
"^s 	c #8E6A4B",
"/s 	c #9B7552",
"(s 	c #AA7F59",
"_s 	c #BB8B63",
":s 	c #D1A072",
"<s 	c #E5BF8B",
"[s 	c #E6B986",
"}s 	c #D6A173",
"|s 	c #B18F67",
"1s 	c #B99369",
"2s 	c #D99D6E",
"3s 	c #D99E6F",
"4s 	c #D79D6E",
"5s 	c #C99D71",
"6s 	c #BF9E73",
"7s 	c #CAA276",
"8s 	c #DDA676",
"9s 	c #DEA777",
"0s 	c #D9A576",
"as 	c #AF9169",
"bs 	c #DDA170",
"cs 	c #D99F6F",
"ds 	c #ECD0AF",
"es 	c #DBD1B2",
"fs 	c #A39D8E",
"gs 	c #47392E",
"hs 	c #3B2D23",
"is 	c #3E2F25",
"js 	c #433529",
"ks 	c #443529",
"ls 	c #47392C",
"ms 	c #493A2D",
"ns 	c #4A3C2E",
"os 	c #4B3D2F",
"ps 	c #4C3E30",
"qs 	c #504133",
"rs 	c #514233",
"ss 	c #534436",
"ts 	c #544434",
"us 	c #594A3A",
"vs 	c #5B4C3C",
"ws 	c #5B4C3B",
"xs 	c #5D4D3C",
"ys 	c #604F3E",
"zs 	c #645240",
"As 	c #665543",
"Bs 	c #675441",
"Cs 	c #5E4B38",
"Ds 	c #574531",
"Es 	c #594732",
"Fs 	c #5D4A34",
"Gs 	c #635039",
"Hs 	c #66533C",
"Is 	c #67553D",
"Js 	c #6B5841",
"Ks 	c #715A44",
"Ls 	c #735B45",
"Ms 	c #745B45",
"Ns 	c #765C46",
"Os 	c #796049",
"Ps 	c #7D634C",
"Qs 	c #725D44",
"Rs 	c #6B5A3F",
"Ss 	c #6F5D41",
"Ts 	c #715F43",
"Us 	c #766447",
"Vs 	c #877554",
"Ws 	c #897655",
"Xs 	c #8A7755",
"Ys 	c #8C7857",
"Zs 	c #8F7B59",
"`s 	c #97825E",
" t 	c #A58E68",
".t 	c #998360",
"+t 	c #9A8561",
"@t 	c #816E4F",
"#t 	c #847151",
"$t 	c #98825E",
"%t 	c #9E8863",
"&t 	c #A18B66",
"*t 	c #A68F6A",
"=t 	c #A7916A",
"-t 	c #AA946C",
";t 	c #A69069",
">t 	c #98815E",
",t 	c #7F6A4C",
"'t 	c #A38963",
")t 	c #B3996F",
"!t 	c #B89C72",
"~t 	c #B79C72",
"{t 	c #D0B385",
"]t 	c #D8C091",
"^t 	c #C8AA7F",
"/t 	c #BFA277",
"(t 	c #7C674A",
"_t 	c #9F845F",
":t 	c #BA9B70",
"<t 	c #BB9C71",
"[t 	c #B99A6F",
"}t 	c #B7986D",
"|t 	c #B6976C",
"1t 	c #B6966C",
"2t 	c #B4946A",
"3t 	c #B39269",
"4t 	c #B29168",
"5t 	c #B29067",
"6t 	c #AE8C64",
"7t 	c #A6835E",
"8t 	c #9A7855",
"9t 	c #765B40",
"0t 	c #564330",
"at 	c #55422E",
"bt 	c #55422D",
"ct 	c #59442E",
"dt 	c #5C462E",
"et 	c #5F4830",
"ft 	c #614930",
"gt 	c #634A31",
"ht 	c #624A31",
"it 	c #624A30",
"jt 	c #60482F",
"kt 	c #5E472E",
"lt 	c #5C462D",
"mt 	c #5A442C",
"nt 	c #58432B",
"ot 	c #57422B",
"pt 	c #59422B",
"qt 	c #5A432C",
"rt 	c #58412C",
"st 	c #57402B",
"tt 	c #543E2A",
"ut 	c #5C4632",
"vt 	c #684F38",
"wt 	c #816245",
"xt 	c #926E4E",
"yt 	c #E7C593",
"zt 	c #E3B989",
"At 	c #CB9B70",
"Bt 	c #987B57",
"Ct 	c #D59D6E",
"Dt 	c #D59B6D",
"Et 	c #B99B72",
"Ft 	c #C79F73",
"Gt 	c #D6A677",
"Ht 	c #DB9F70",
"It 	c #D89F6F",
"Jt 	c #DEA679",
"Kt 	c #E7C09B",
"Lt 	c #EBDFB8",
"Mt 	c #B6B09A",
"Nt 	c #544A42",
"Ot 	c #423327",
"Pt 	c #45372A",
"Qt 	c #4A3B2D",
"Rt 	c #4B3C2E",
"St 	c #4D3E30",
"Tt 	c #4E4031",
"Ut 	c #4E3F31",
"Vt 	c #4F4132",
"Wt 	c #504131",
"Xt 	c #534334",
"Yt 	c #564838",
"Zt 	c #574838",
"`t 	c #5A4939",
" u 	c #5B4B3A",
".u 	c #61503F",
"+u 	c #604E3B",
"@u 	c #564331",
"#u 	c #513E2B",
"$u 	c #53412D",
"%u 	c #5B4833",
"&u 	c #5E4C35",
"*u 	c #69533F",
"=u 	c #6D5642",
"-u 	c #6F5641",
";u 	c #715842",
">u 	c #775E48",
",u 	c #755E46",
"'u 	c #66553C",
")u 	c #67573D",
"!u 	c #6B5A40",
"~u 	c #715F44",
"{u 	c #7F6D4E",
"]u 	c #877454",
"^u 	c #897654",
"/u 	c #887655",
"(u 	c #8C7856",
"_u 	c #9B8661",
":u 	c #9B8561",
"<u 	c #998460",
"[u 	c #9B8460",
"}u 	c #AF9970",
"|u 	c #9B8461",
"1u 	c #9A8661",
"2u 	c #9F8965",
"3u 	c #AA936C",
"4u 	c #AF9870",
"5u 	c #A9936B",
"6u 	c #715B40",
"7u 	c #AE946C",
"8u 	c #B49A70",
"9u 	c #BFA176",
"0u 	c #D4BB8D",
"au 	c #DAC89B",
"bu 	c #C8B38B",
"cu 	c #B49B73",
"du 	c #897453",
"eu 	c #A58B64",
"fu 	c #B7996F",
"gu 	c #B7996E",
"hu 	c #B6986E",
"iu 	c #B4956B",
"ju 	c #B29369",
"ku 	c #B08F66",
"lu 	c #AB8B63",
"mu 	c #A4835D",
"nu 	c #987754",
"ou 	c #886949",
"pu 	c #785D40",
"qu 	c #6B5239",
"ru 	c #604B35",
"su 	c #5A4632",
"tu 	c #58442E",
"uu 	c #5C462F",
"vu 	c #5E462E",
"wu 	c #513D27",
"xu 	c #523E28",
"yu 	c #4D3A26",
"zu 	c #503C27",
"Au 	c #4B3824",
"Bu 	c #4E3B26",
"Cu 	c #493724",
"Du 	c #4E3A26",
"Eu 	c #533F29",
"Fu 	c #55412A",
"Gu 	c #56402B",
"Hu 	c #513D2B",
"Iu 	c #543F2D",
"Ju 	c #584230",
"Ku 	c #6F553C",
"Lu 	c #836547",
"Mu 	c #9A7553",
"Nu 	c #AF835D",
"Ou 	c #BD8C63",
"Pu 	c #CE986D",
"Qu 	c #DBAA7B",
"Ru 	c #EED7A8",
"Su 	c #E0B283",
"Tu 	c #BF946B",
"Uu 	c #D2996C",
"Vu 	c #C1976D",
"Wu 	c #B5966C",
"Xu 	c #DFA677",
"Yu 	c #DCA676",
"Zu 	c #D9A677",
"`u 	c #C09E72",
" v 	c #D7A172",
".v 	c #D79E6E",
"+v 	c #D69C6D",
"@v 	c #D69E6E",
"#v 	c #D59D6D",
"$v 	c #D59C6D",
"%v 	c #D79E6F",
"&v 	c #D69E6F",
"*v 	c #DAA275",
"=v 	c #DFB185",
"-v 	c #EDDCB5",
";v 	c #D4CDAE",
">v 	c #9D988C",
",v 	c #564D44",
"'v 	c #3F3025",
")v 	c #403126",
"!v 	c #423326",
"~v 	c #413326",
"{v 	c #433528",
"]v 	c #453629",
"^v 	c #47382B",
"/v 	c #48382B",
"(v 	c #49392C",
"_v 	c #493A2C",
":v 	c #4B3C2D",
"<v 	c #4C3D2E",
"[v 	c #4D3E2F",
"}v 	c #4E3E2F",
"|v 	c #524334",
"1v 	c #534434",
"2v 	c #554636",
"3v 	c #574636",
"4v 	c #584837",
"5v 	c #594938",
"6v 	c #5A4A39",
"7v 	c #5C4B3B",
"8v 	c #5B4A38",
"9v 	c #4E3C29",
"0v 	c #4D3A28",
"av 	c #54422D",
"bv 	c #5C4935",
"cv 	c #68533F",
"dv 	c #6A533E",
"ev 	c #6E5641",
"fv 	c #705943",
"gv 	c #725A44",
"hv 	c #605037",
"iv 	c #625139",
"jv 	c #68573D",
"kv 	c #756347",
"lv 	c #827050",
"mv 	c #867353",
"nv 	c #887554",
"ov 	c #988360",
"pv 	c #97815D",
"qv 	c #B09970",
"rv 	c #9E8762",
"sv 	c #94825E",
"tv 	c #A7946E",
"uv 	c #D8C99E",
"vv 	c #DBCBA5",
"wv 	c #BCA57E",
"xv 	c #AC956D",
"yv 	c #AB956D",
"zv 	c #A9936C",
"Av 	c #907A59",
"Bv 	c #6F5A3F",
"Cv 	c #786145",
"Dv 	c #9B825F",
"Ev 	c #B1966D",
"Fv 	c #B99D72",
"Gv 	c #CAAA80",
"Hv 	c #DBC69C",
"Iv 	c #D4C49F",
"Jv 	c #B6A57C",
"Kv 	c #AF926A",
"Lv 	c #B3966C",
"Mv 	c #B4966C",
"Nv 	c #B09269",
"Ov 	c #B19269",
"Pv 	c #A68660",
"Qv 	c #947553",
"Rv 	c #876849",
"Sv 	c #795E41",
"Tv 	c #624D36",
"Uv 	c #5B4832",
"Vv 	c #57442F",
"Wv 	c #57442E",
"Xv 	c #5D472F",
"Yv 	c #5F482F",
"Zv 	c #5B452D",
"`v 	c #56422B",
" w 	c #6F5437",
".w 	c #745839",
"+w 	c #7B5D3D",
"@w 	c #7B5D3C",
"#w 	c #785C3B",
"$w 	c #80613F",
"%w 	c #775A3B",
"&w 	c #7F603F",
"*w 	c #856542",
"=w 	c #785B3B",
"-w 	c #7E5F3E",
";w 	c #7D5F3E",
">w 	c #644B31",
",w 	c #60492F",
"'w 	c #483623",
")w 	c #4C3925",
"!w 	c #543E2B",
"~w 	c #523D2B",
"{w 	c #523E2C",
"]w 	c #574330",
"^w 	c #634C37",
"/w 	c #73593F",
"(w 	c #8D6B4C",
"_w 	c #A57C58",
":w 	c #BA8A63",
"<w 	c #DCAF82",
"[w 	c #E8CDA0",
"}w 	c #DEB082",
"|w 	c #C2956B",
"1w 	c #927453",
"2w 	c #D1996B",
"3w 	c #B1936C",
"4w 	c #C39A6F",
"5w 	c #DAA374",
"6w 	c #D4A576",
"7w 	c #BD9C72",
"8w 	c #DCA06F",
"9w 	c #D39B6C",
"0w 	c #D49C6D",
"aw 	c #D29A6B",
"bw 	c #D49C6C",
"cw 	c #D8A073",
"dw 	c #D9A477",
"ew 	c #E9CFB6",
"fw 	c #E3DCBF",
"gw 	c #ACA797",
"hw 	c #4C4137",
"iw 	c #3B2C22",
"jw 	c #3C2D22",
"kw 	c #3D2E23",
"lw 	c #3E2F24",
"mw 	c #413226",
"nw 	c #403225",
"ow 	c #453729",
"pw 	c #49392B",
"qw 	c #4B3B2D",
"rw 	c #4B3B2C",
"sw 	c #4E3F30",
"tw 	c #4F3F30",
"uw 	c #504031",
"vw 	c #524232",
"ww 	c #524333",
"xw 	c #554535",
"yw 	c #534232",
"zw 	c #483624",
"Aw 	c #493825",
"Bw 	c #4A3826",
"Cw 	c #4F3D2A",
"Dw 	c #5C4836",
"Ew 	c #634F3B",
"Fw 	c #654F3C",
"Gw 	c #67513D",
"Hw 	c #6A5440",
"Iw 	c #6B5641",
"Jw 	c #68533D",
"Kw 	c #5E4D36",
"Lw 	c #5C4C35",
"Mw 	c #5F4E37",
"Nw 	c #6D5D41",
"Ow 	c #826F50",
"Pw 	c #837151",
"Qw 	c #8A7756",
"Rw 	c #8D7957",
"Sw 	c #9F8762",
"Tw 	c #BDA478",
"Uw 	c #AA936B",
"Vw 	c #C2A980",
"Ww 	c #DBC69D",
"Xw 	c #CDB68B",
"Yw 	c #A58F68",
"Zw 	c #AC966E",
"`w 	c #A8926B",
" x 	c #8F7A58",
".x 	c #735E43",
"+x 	c #776044",
"@x 	c #9A815E",
"#x 	c #B49970",
"$x 	c #C4AA82",
"%x 	c #C6AC85",
"&x 	c #AC9068",
"*x 	c #B0926A",
"=x 	c #B1936A",
"-x 	c #B3946B",
";x 	c #AD8F67",
">x 	c #AC8D64",
",x 	c #A4845E",
"'x 	c #8C6E4D",
")x 	c #7A5F41",
"!x 	c #70563C",
"~x 	c #654F38",
"{x 	c #594530",
"]x 	c #5A452D",
"^x 	c #5D462E",
"/x 	c #5C452D",
"(x 	c #664D32",
"_x 	c #876643",
":x 	c #98734C",
"<x 	c #97724B",
"[x 	c #9C764E",
"}x 	c #936F49",
"|x 	c #8D6A46",
"1x 	c #846441",
"2x 	c #826341",
"3x 	c #7C5E3D",
"4x 	c #A17A50",
"5x 	c #8A6844",
"6x 	c #886744",
"7x 	c #926E48",
"8x 	c #75593A",
"9x 	c #4F3B26",
"0x 	c #4B3925",
"ax 	c #543F29",
"bx 	c #563F2B",
"cx 	c #533E2C",
"dx 	c #54402F",
"ex 	c #5A4532",
"fx 	c #6B523B",
"gx 	c #816347",
"hx 	c #9B7654",
"ix 	c #B3875F",
"jx 	c #C39168",
"kx 	c #DAA87A",
"lx 	c #EAD5AF",
"mx 	c #E1BD93",
"nx 	c #CA9A6F",
"ox 	c #917252",
"px 	c #BF8C63",
"qx 	c #CA9468",
"rx 	c #DDA576",
"sx 	c #B2956D",
"tx 	c #D2996B",
"ux 	c #D1996A",
"vx 	c #D1986A",
"wx 	c #D29A6C",
"xx 	c #D6A073",
"yx 	c #E0B892",
"zx 	c #ECE1BF",
"Ax 	c #BBB6A0",
"Bx 	c #50473F",
"Cx 	c #42362B",
"Dx 	c #403125",
"Ex 	c #403124",
"Fx 	c #3F3124",
"Gx 	c #433428",
"Hx 	c #443528",
"Ix 	c #463729",
"Jx 	c #47382A",
"Kx 	c #48392B",
"Lx 	c #493A2B",
"Mx 	c #4C3C2D",
"Nx 	c #4D3D2E",
"Ox 	c #4F3F2F",
"Px 	c #4F4030",
"Qx 	c #514131",
"Rx 	c #564635",
"Sx 	c #4A3726",
"Tx 	c #473422",
"Ux 	c #483523",
"Vx 	c #493725",
"Wx 	c #4A3725",
"Xx 	c #4E3B29",
"Yx 	c #584533",
"Zx 	c #604C39",
"`x 	c #614C39",
" y 	c #644F3C",
".y 	c #66513E",
"+y 	c #65513C",
"@y 	c #5B4934",
"#y 	c #55442E",
"$y 	c #574630",
"%y 	c #615038",
"&y 	c #7F6C4E",
"*y 	c #806E4E",
"=y 	c #937E5C",
"-y 	c #A78F68",
";y 	c #8A7655",
">y 	c #756246",
",y 	c #A48D66",
"'y 	c #D5B98A",
")y 	c #BDA077",
"!y 	c #B19971",
"~y 	c #6D583E",
"{y 	c #A28863",
"]y 	c #B1976E",
"^y 	c #AF956C",
"/y 	c #B0956C",
"(y 	c #B5996F",
"_y 	c #B2936A",
":y 	c #B5956B",
"<y 	c #AD9068",
"[y 	c #876949",
"}y 	c #6B533A",
"|y 	c #705537",
"1y 	c #826340",
"2y 	c #8C6A45",
"3y 	c #916D48",
"4y 	c #A0794F",
"5y 	c #936E48",
"6y 	c #6B5135",
"7y 	c #6E5436",
"8y 	c #6A5035",
"9y 	c #654C32",
"0y 	c #674D33",
"ay 	c #694F34",
"by 	c #6D5336",
"cy 	c #795C3C",
"dy 	c #76593A",
"ey 	c #8F6C47",
"fy 	c #99744C",
"gy 	c #96714A",
"hy 	c #735739",
"iy 	c #4F3B27",
"jy 	c #58432D",
"ky 	c #533F2C",
"ly 	c #523E2E",
"my 	c #564231",
"ny 	c #634D38",
"oy 	c #785D42",
"py 	c #8F6E4E",
"qy 	c #B88A62",
"ry 	c #C49368",
"sy 	c #D8A377",
"ty 	c #E4C9A5",
"uy 	c #E2CCA8",
"vy 	c #D2A67C",
"wy 	c #A27D5A",
"xy 	c #7D6145",
"yy 	c #936E4E",
"zy 	c #9B7653",
"Ay 	c #9E7E5B",
"By 	c #BC986E",
"Cy 	c #D49A6B",
"Dy 	c #CE9669",
"Ey 	c #CD9669",
"Fy 	c #CF9769",
"Gy 	c #CF976A",
"Hy 	c #D1986B",
"Iy 	c #D1996C",
"Jy 	c #DBAB7F",
"Ky 	c #EDDAB9",
"Ly 	c #D6D0B3",
"My 	c #514740",
"Ny 	c #3F3024",
"Oy 	c #3F2F24",
"Py 	c #413225",
"Qy 	c #423427",
"Ry 	c #433427",
"Sy 	c #443427",
"Ty 	c #443628",
"Uy 	c #48382A",
"Vy 	c #4D3C2D",
"Wy 	c #4D3D2D",
"Xy 	c #504030",
"Yy 	c #4F3E2D",
"Zy 	c #463322",
"`y 	c #473423",
" z 	c #4D3A29",
".z 	c #5C4937",
"+z 	c #5E4A37",
"@z 	c #624D3B",
"#z 	c #5E4936",
"$z 	c #513F2B",
"%z 	c #503F2A",
"&z 	c #53432D",
"*z 	c #67563D",
"=z 	c #79674A",
"-z 	c #806E4F",
";z 	c #887454",
">z 	c #97825F",
",z 	c #927D5B",
"'z 	c #D2B082",
")z 	c #A28964",
"!z 	c #7E6A4C",
"~z 	c #6A563D",
"{z 	c #907A58",
"]z 	c #9D8762",
"^z 	c #B5986E",
"/z 	c #A9926B",
"(z 	c #A08A65",
"_z 	c #6A563C",
":z 	c #866E4E",
"<z 	c #AE936B",
"[z 	c #AC926A",
"}z 	c #AD936A",
"|z 	c #AE936A",
"1z 	c #B0946C",
"2z 	c #B19268",
"3z 	c #A1835D",
"4z 	c #917350",
"5z 	c #806245",
"6z 	c #644F37",
"7z 	c #5F4B35",
"8z 	c #5C4831",
"9z 	c #5A452E",
"0z 	c #5F472F",
"az 	c #866643",
"bz 	c #684E33",
"cz 	c #725638",
"dz 	c #6C5236",
"ez 	c #705538",
"fz 	c #715638",
"gz 	c #755839",
"hz 	c #8E6C47",
"iz 	c #9B754D",
"jz 	c #816240",
"kz 	c #5B442D",
"lz 	c #55402A",
"mz 	c #57422C",
"nz 	c #58422D",
"oz 	c #5C4734",
"pz 	c #6D533C",
"qz 	c #836447",
"rz 	c #9C7754",
"sz 	c #B48760",
"tz 	c #C08F66",
"uz 	c #D8AF88",
"vz 	c #E7D6B7",
"wz 	c #E1C6A3",
"xz 	c #D8A87D",
"yz 	c #C1946A",
"zz 	c #AF865F",
"Az 	c #9A7755",
"Bz 	c #A17D5A",
"Cz 	c #B78D66",
"Dz 	c #CE9E72",
"Ez 	c #CC9467",
"Fz 	c #CC9568",
"Gz 	c #CD9568",
"Hz 	c #CF986B",
"Iz 	c #CE976A",
"Jz 	c #CD9769",
"Kz 	c #CE986A",
"Lz 	c #D0986A",
"Mz 	c #D0996B",
"Nz 	c #D19B6D",
"Oz 	c #DBA67B",
"Pz 	c #E9CBB0",
"Qz 	c #EAE4C6",
"Rz 	c #B2AE9B",
"Sz 	c #544B44",
"Tz 	c #45382E",
"Uz 	c #3B2C21",
"Vz 	c #3E2F23",
"Wz 	c #3F3023",
"Xz 	c #403024",
"Yz 	c #433326",
"Zz 	c #443527",
"`z 	c #463629",
" A 	c #4A3A2B",
".A 	c #4B3A2B",
"+A 	c #4B3B2B",
"@A 	c #4E3E2E",
"#A 	c #493726",
"$A 	c #463422",
"%A 	c #463323",
"&A 	c #584433",
"*A 	c #584534",
"=A 	c #5A4735",
"-A 	c #5F4B38",
";A 	c #55422F",
">A 	c #4B3A26",
",A 	c #4D3B28",
"'A 	c #584630",
")A 	c #6E5C42",
"!A 	c #7D6B4D",
"~A 	c #857353",
"{A 	c #817050",
"]A 	c #8E7A59",
"^A 	c #907B59",
"/A 	c #96825F",
"(A 	c #B99C72",
"_A 	c #9F8A65",
":A 	c #624E37",
"<A 	c #786448",
"[A 	c #A28963",
"}A 	c #B3976D",
"|A 	c #B2976E",
"1A 	c #A48D68",
"2A 	c #7D694B",
"3A 	c #6B553C",
"4A 	c #967D5A",
"5A 	c #A98F68",
"6A 	c #AA8F68",
"7A 	c #AA9068",
"8A 	c #AB9068",
"9A 	c #AB8F67",
"0A 	c #AE9269",
"aA 	c #A98C65",
"bA 	c #AB8E66",
"cA 	c #9E805B",
"dA 	c #896C4C",
"eA 	c #644E37",
"fA 	c #5D4A33",
"gA 	c #5C4730",
"hA 	c #836441",
"iA 	c #886743",
"jA 	c #906C47",
"kA 	c #7D5E3D",
"lA 	c #674D32",
"mA 	c #664C32",
"nA 	c #735839",
"oA 	c #836341",
"pA 	c #826240",
"qA 	c #806140",
"rA 	c #7C5D3D",
"sA 	c #A07A50",
"tA 	c #A98056",
"uA 	c #866542",
"vA 	c #5A432D",
"wA 	c #57412E",
"xA 	c #533F2E",
"yA 	c #574332",
"zA 	c #654E39",
"AA 	c #7B6044",
"BA 	c #B58760",
"CA 	c #BE8D64",
"DA 	c #C8946A",
"EA 	c #CD996E",
"FA 	c #D8B691",
"GA 	c #E4D2AF",
"HA 	c #DCB48C",
"IA 	c #D09E73",
"JA 	c #D49F72",
"KA 	c #CC9F72",
"LA 	c #B4956D",
"MA 	c #BA976E",
"NA 	c #D2996A",
"OA 	c #CB9467",
"PA 	c #CB9568",
"QA 	c #CF9A6C",
"RA 	c #E0B58D",
"SA 	c #EDDFBC",
"TA 	c #C9C5A9",
"UA 	c #564E47",
"VA 	c #413227",
"WA 	c #3D2E22",
"XA 	c #413124",
"YA 	c #453528",
"ZA 	c #453628",
"`A 	c #463628",
" B 	c #473729",
".B 	c #483829",
"+B 	c #493829",
"@B 	c #4A392A",
"#B 	c #4C3C2C",
"$B 	c #453221",
"%B 	c #463423",
"&B 	c #503D2C",
"*B 	c #564332",
"=B 	c #5A4734",
"-B 	c #4B3926",
";B 	c #4A3825",
">B 	c #604E36",
",B 	c #746246",
"'B 	c #7D6C4D",
")B 	c #7E6C4E",
"!B 	c #847252",
"~B 	c #897656",
"{B 	c #937F5D",
"]B 	c #CFB385",
"^B 	c #9D8863",
"/B 	c #7A674A",
"(B 	c #66523A",
"_B 	c #6B563D",
":B 	c #766246",
"<B 	c #7C694C",
"[B 	c #97805D",
"}B 	c #9C8560",
"|B 	c #CAB78D",
"1B 	c #AF966E",
"2B 	c #836C4D",
"3B 	c #A58A64",
"4B 	c #A78C66",
"5B 	c #A78D66",
"6B 	c #A88D66",
"7B 	c #A98D66",
"8B 	c #A88C65",
"9B 	c #AA8E66",
"0B 	c #A78B64",
"aB 	c #A58861",
"bB 	c #987B58",
"cB 	c #846849",
"dB 	c #755A3F",
"eB 	c #6C553C",
"fB 	c #644F38",
"gB 	c #604A33",
"hB 	c #5E472F",
"iB 	c #5C452E",
"jB 	c #98734B",
"kB 	c #846542",
"lB 	c #6E5336",
"mB 	c #644B32",
"nB 	c #8A6944",
"oB 	c #8F6C46",
"pB 	c #937049",
"qB 	c #97724A",
"rB 	c #94704A",
"sB 	c #936F48",
"tB 	c #8E6B46",
"uB 	c #896844",
"vB 	c #7A5C3D",
"wB 	c #906D48",
"xB 	c #A27A50",
"yB 	c #795B3C",
"zB 	c #533E29",
"AB 	c #5E462F",
"BB 	c #5A432F",
"CB 	c #614C38",
"DB 	c #7C6044",
"EB 	c #B3865E",
"FB 	c #BC8B62",
"GB 	c #BF8D64",
"HB 	c #C08E64",
"IB 	c #C59369",
"JB 	c #C6946A",
"KB 	c #CEA278",
"LB 	c #E1CBA9",
"MB 	c #E6D3B3",
"NB 	c #D6AD82",
"OB 	c #D7A376",
"PB 	c #DDA678",
"QB 	c #D3A072",
"RB 	c #AF916A",
"SB 	c #C99368",
"TB 	c #CE9668",
"UB 	c #CA9366",
"VB 	c #CA9467",
"WB 	c #CC9669",
"XB 	c #CD976A",
"YB 	c #D5A479",
"ZB 	c #ECD6B9",
"`B 	c #DBD3B5",
" C 	c #A39D90",
".C 	c #544A43",
"+C 	c #3D2D22",
"@C 	c #453527",
"#C 	c #473728",
"$C 	c #483728",
"%C 	c #493828",
"&C 	c #473523",
"*C 	c #443321",
"=C 	c #463524",
"-C 	c #513F2E",
";C 	c #534130",
">C 	c #544130",
",C 	c #554231",
"'C 	c #574432",
")C 	c #513E2C",
"!C 	c #4F3D29",
"~C 	c #67553C",
"{C 	c #786649",
"]C 	c #7B694B",
"^C 	c #7C6A4C",
"/C 	c #8B7756",
"(C 	c #A28A66",
"_C 	c #CAAE82",
":C 	c #C3A97E",
"<C 	c #9A8662",
"[C 	c #95825F",
"}C 	c #725D43",
"|C 	c #705C42",
"1C 	c #7B684B",
"2C 	c #937D5B",
"3C 	c #988460",
"4C 	c #9F8A64",
"5C 	c #A79169",
"6C 	c #9A845F",
"7C 	c #867352",
"8C 	c #B8A47D",
"9C 	c #D6BF92",
"0C 	c #B59970",
"aC 	c #776448",
"bC 	c #756043",
"cC 	c #A28862",
"dC 	c #A78C65",
"eC 	c #A68B64",
"fC 	c #A68A63",
"gC 	c #A58963",
"hC 	c #A58962",
"iC 	c #A1855F",
"jC 	c #957855",
"kC 	c #7F6446",
"lC 	c #6C553D",
"mC 	c #655139",
"nC 	c #604B33",
"oC 	c #654B31",
"pC 	c #7A5C3C",
"qC 	c #725739",
"rC 	c #785B3C",
"sC 	c #95704A",
"tC 	c #946F49",
"uC 	c #9D7750",
"vC 	c #A67D52",
"wC 	c #B0875D",
"xC 	c #B69269",
"yC 	c #B89268",
"zC 	c #AF8A62",
"AC 	c #A98157",
"BC 	c #A37C52",
"CC 	c #9D7851",
"DC 	c #9D764D",
"EC 	c #99734B",
"FC 	c #96714B",
"GC 	c #916E48",
"HC 	c #9E784F",
"IC 	c #775B3B",
"JC 	c #5E4731",
"KC 	c #55402F",
"LC 	c #624C38",
"MC 	c #7B5F44",
"NC 	c #B3855E",
"OC 	c #BD8B62",
"PC 	c #D5AB84",
"QC 	c #E3CDAA",
"RC 	c #DFC196",
"SC 	c #D6A87A",
"TC 	c #D4A275",
"UC 	c #C6A478",
"VC 	c #BBA278",
"WC 	c #BD9A70",
"XC 	c #CB9366",
"YC 	c #C69165",
"ZC 	c #C89366",
"`C 	c #C99366",
" D 	c #C99367",
".D 	c #D09769",
"+D 	c #C79164",
"@D 	c #C89266",
"#D 	c #CE9A6D",
"$D 	c #D19D71",
"%D 	c #E2C1A0",
"&D 	c #EEE3BE",
"*D 	c #B9B39D",
"=D 	c #5C544D",
"-D 	c #47382D",
";D 	c #423225",
">D 	c #3C2D21",
",D 	c #3D2D21",
"'D 	c #423125",
")D 	c #433325",
"!D 	c #443426",
"~D 	c #473627",
"{D 	c #493728",
"]D 	c #483626",
"^D 	c #453422",
"/D 	c #433321",
"(D 	c #493827",
"_D 	c #503D2D",
":D 	c #52402E",
"<D 	c #53402F",
"[D 	c #493624",
"}D 	c #473522",
"|D 	c #53412C",
"1D 	c #78674A",
"2D 	c #7A684B",
"3D 	c #887555",
"4D 	c #816F50",
"5D 	c #967F5D",
"6D 	c #BFA47A",
"7D 	c #CAB285",
"8D 	c #A58E69",
"9D 	c #958260",
"0D 	c #94815F",
"aD 	c #978360",
"bD 	c #9A8663",
"cD 	c #8D7858",
"dD 	c #8F7B5A",
"eD 	c #9C8661",
"fD 	c #847051",
"gD 	c #D5B586",
"hD 	c #B79870",
"iD 	c #796749",
"jD 	c #745F43",
"kD 	c #A48A63",
"lD 	c #A78C64",
"mD 	c #A38761",
"nD 	c #927553",
"oD 	c #7E6245",
"pD 	c #71583E",
"qD 	c #6C563D",
"rD 	c #655239",
"sD 	c #624B33",
"tD 	c #765A3A",
"uD 	c #8D6B46",
"vD 	c #A47C52",
"wD 	c #B68D64",
"xD 	c #B48D62",
"yD 	c #B9946C",
"zD 	c #C4A37E",
"AD 	c #C9AB8A",
"BD 	c #D3BA9F",
"CD 	c #DDCAB5",
"DD 	c #D8C1A8",
"ED 	c #D9C4AB",
"FD 	c #D9C4AE",
"GD 	c #CAAC8B",
"HD 	c #C7A784",
"ID 	c #B8956E",
"JD 	c #A9825A",
"KD 	c #A27950",
"LD 	c #A37B51",
"MD 	c #9F784F",
"ND 	c #9A754C",
"OD 	c #8B6945",
"PD 	c #AB8257",
"QD 	c #AE875C",
"RD 	c #8F6F4C",
"SD 	c #634C33",
"TD 	c #54402A",
"UD 	c #5C4530",
"VD 	c #574331",
"WD 	c #564333",
"XD 	c #634E3A",
"YD 	c #806247",
"ZD 	c #9D7654",
"`D 	c #B2855E",
" E 	c #BA8961",
".E 	c #C09066",
"+E 	c #CC996F",
"@E 	c #D4AF87",
"#E 	c #DDC495",
"$E 	c #D8C192",
"%E 	c #E3BE8F",
"&E 	c #DBB186",
"*E 	c #D7B386",
"=E 	c #D3AF82",
"-E 	c #C6A87D",
";E 	c #BFA67B",
">E 	c #C79166",
",E 	c #C58F64",
"'E 	c #C48F64",
")E 	c #C69166",
"!E 	c #C48F63",
"~E 	c #C59165",
"{E 	c #C79266",
"]E 	c #C89367",
"^E 	c #D7AC84",
"/E 	c #EEDEBA",
"(E 	c #D3CEB0",
"_E 	c #433226",
":E 	c #433225",
"<E 	c #3F2F23",
"[E 	c #3D2E21",
"}E 	c #3E2E22",
"|E 	c #3E2F22",
"1E 	c #3E3023",
"2E 	c #433426",
"3E 	c #453526",
"4E 	c #463526",
"5E 	c #463627",
"6E 	c #483727",
"7E 	c #443322",
"8E 	c #4C3929",
"9E 	c #4E3B2B",
"0E 	c #4F3D2D",
"aE 	c #503E2E",
"bE 	c #52402F",
"cE 	c #463321",
"dE 	c #473322",
"eE 	c #594731",
"fE 	c #776548",
"gE 	c #816E50",
"hE 	c #917E5B",
"iE 	c #C9B386",
"jE 	c #C1AB81",
"kE 	c #A38C69",
"lE 	c #998563",
"mE 	c #A18B67",
"nE 	c #9E8A65",
"oE 	c #998562",
"pE 	c #998461",
"qE 	c #8C7958",
"rE 	c #937D5A",
"sE 	c #B4976E",
"tE 	c #7C6A4B",
"uE 	c #705D41",
"vE 	c #9C825F",
"wE 	c #A08761",
"xE 	c #A18862",
"yE 	c #A08660",
"zE 	c #947755",
"AE 	c #806446",
"BE 	c #6B573E",
"CE 	c #6A553B",
"DE 	c #644D34",
"EE 	c #5F472E",
"FE 	c #9F784E",
"GE 	c #AD855A",
"HE 	c #BE9B74",
"IE 	c #CDB090",
"JE 	c #D3B99D",
"KE 	c #DDC9B4",
"LE 	c #EADED1",
"ME 	c #E9DCCD",
"NE 	c #F0E7DE",
"OE 	c #F5EFE8",
"PE 	c #F6F1EC",
"QE 	c #F7F3EE",
"RE 	c #F2EBE3",
"SE 	c #DCC8AF",
"TE 	c #DAC5AB",
"UE 	c #DDCBB4",
"VE 	c #D0B394",
"WE 	c #C9AA87",
"XE 	c #BB9871",
"YE 	c #B78E63",
"ZE 	c #B88F64",
"`E 	c #B78D62",
" F 	c #B68C60",
".F 	c #B68E63",
"+F 	c #B48A5D",
"@F 	c #AB8358",
"#F 	c #A07951",
"$F 	c #9A754D",
"%F 	c #9E7951",
"&F 	c #B08A60",
"*F 	c #90724F",
"=F 	c #5E4831",
"-F 	c #564230",
";F 	c #574434",
">F 	c #66503B",
",F 	c #806347",
"'F 	c #9C7654",
")F 	c #BC8A62",
"!F 	c #C19168",
"~F 	c #CCA176",
"{F 	c #CCAE82",
"]F 	c #E1CEA2",
"^F 	c #F0E1B9",
"/F 	c #E6D5A8",
"(F 	c #E5D2A0",
"_F 	c #C9AA7E",
":F 	c #C79B6F",
"<F 	c #C79065",
"[F 	c #C79165",
"}F 	c #C38E63",
"|F 	c #C59064",
"1F 	c #C49064",
"2F 	c #C38F63",
"3F 	c #C38F64",
"4F 	c #CA9567",
"5F 	c #C89467",
"6F 	c #CE9D73",
"7F 	c #E2C7AA",
"8F 	c #DFD5B4",
"9F 	c #ACA695",
"0F 	c #443325",
"aF 	c #443326",
"bF 	c #413024",
"cF 	c #423224",
"dF 	c #453426",
"eF 	c #473626",
"fF 	c #473625",
"gF 	c #4B3828",
"hF 	c #4C3A2A",
"iF 	c #4D3B2B",
"jF 	c #4E3C2C",
"kF 	c #4F3D2C",
"lF 	c #4B3725",
"mF 	c #473321",
"nF 	c #4B3724",
"oF 	c #766448",
"pF 	c #7E6C4D",
"qF 	c #8A7757",
"rF 	c #C9B489",
"sF 	c #C1AD88",
"tF 	c #A99574",
"uF 	c #A9926D",
"vF 	c #A08B67",
"wF 	c #9F8A66",
"xF 	c #978461",
"yF 	c #968360",
"zF 	c #97835F",
"AF 	c #8E7C5A",
"BF 	c #8D7756",
"CF 	c #A18A64",
"DF 	c #7E684A",
"EF 	c #9E8560",
"FF 	c #9F8560",
"GF 	c #A18661",
"HF 	c #A28762",
"IF 	c #9D825E",
"JF 	c #917654",
"KF 	c #72583D",
"LF 	c #6E573D",
"MF 	c #6B573C",
"NF 	c #695035",
"OF 	c #513D28",
"PF 	c #56412A",
"QF 	c #624930",
"RF 	c #9A744C",
"SF 	c #A57D54",
"TF 	c #B88E63",
"UF 	c #C7A681",
"VF 	c #D6BFA4",
"WF 	c #E9DED0",
"XF 	c #F3EDE5",
"YF 	c #F3ECE4",
"ZF 	c #F7F1EC",
"`F 	c #FAF7F5",
" G 	c #EEE4D9",
".G 	c #EDE2D7",
"+G 	c #E3D2BF",
"@G 	c #D1B597",
"#G 	c #D0B494",
"$G 	c #D4BC9F",
"%G 	c #D1B495",
"&G 	c #CCAE8B",
"*G 	c #C6A57E",
"=G 	c #C19D73",
"-G 	c #BE986D",
";G 	c #C4A17A",
">G 	c #C7A680",
",G 	c #C8A883",
"'G 	c #CAAA86",
")G 	c #BC966D",
"!G 	c #B38A5D",
"~G 	c #AE8458",
"{G 	c #A37E56",
"]G 	c #B48C60",
"^G 	c #836442",
"/G 	c #564029",
"(G 	c #5B452F",
"_G 	c #564434",
":G 	c #66503C",
"<G 	c #9B7554",
"[G 	c #BD8B63",
"}G 	c #BC8B63",
"|G 	c #BD8C64",
"1G 	c #C9966B",
"2G 	c #C6956A",
"3G 	c #C3976D",
"4G 	c #CDA67F",
"5G 	c #D6B48C",
"6G 	c #D5B78D",
"7G 	c #D1A97E",
"8G 	c #C28E64",
"9G 	c #C38E65",
"0G 	c #CD9569",
"aG 	c #C38D63",
"bG 	c #C08C61",
"cG 	c #C18D62",
"dG 	c #C28E63",
"eG 	c #C69266",
"fG 	c #C49165",
"gG 	c #CA9568",
"hG 	c #CA986B",
"iG 	c #D7B18B",
"jG 	c #E8DAB5",
"kG 	c #C1BBA4",
"lG 	c #493A2E",
"mG 	c #402F23",
"nG 	c #423124",
"oG 	c #453325",
"pG 	c #483625",
"qG 	c #473624",
"rG 	c #463523",
"sG 	c #4A3929",
"tG 	c #4B3929",
"uG 	c #4C3A29",
"vG 	c #473320",
"wG 	c #513E2A",
"xG 	c #7A694B",
"yG 	c #8C7756",
"zG 	c #897555",
"AG 	c #867454",
"BG 	c #9A8461",
"CG 	c #D9CBAD",
"DG 	c #DBD0B6",
"EG 	c #C5B698",
"FG 	c #AC9672",
"GG 	c #988561",
"HG 	c #93815E",
"IG 	c #867554",
"JG 	c #826E4F",
"KG 	c #846D4E",
"LG 	c #806A4C",
"MG 	c #7D694C",
"NG 	c #907958",
"OG 	c #9C845F",
"PG 	c #9D835E",
"QG 	c #9C835E",
"RG 	c #9C815C",
"SG 	c #7E6345",
"TG 	c #70573C",
"UG 	c #6D553B",
"VG 	c #695036",
"WG 	c #473623",
"XG 	c #A88055",
"YG 	c #B0865A",
"ZG 	c #BD9972",
"`G 	c #D3B79A",
" H 	c #E4D3C0",
".H 	c #FCFAF8",
"+H 	c #F8F5F0",
"@H 	c #FDFCFA",
"#H 	c #FEFCFB",
"$H 	c #F9F6F3",
"%H 	c #E9DECF",
"&H 	c #DAC3A9",
"*H 	c #C19D74",
"=H 	c #BF9A70",
"-H 	c #C29F77",
";H 	c #C19C73",
">H 	c #BD966B",
",H 	c #BC9367",
"'H 	c #BD9569",
")H 	c #C5A27A",
"!H 	c #CBAD8B",
"~H 	c #D4BB9E",
"{H 	c #DDC9B1",
"]H 	c #CFB497",
"^H 	c #C09C75",
"/H 	c #AC8459",
"(H 	c #B48E64",
"_H 	c #B4926A",
":H 	c #907353",
"<H 	c #644C32",
"[H 	c #564232",
"}H 	c #594535",
"|H 	c #68513C",
"1H 	c #846649",
"2H 	c #BA8960",
"3H 	c #B98961",
"4H 	c #C18E66",
"5H 	c #C28F66",
"6H 	c #C08C63",
"7H 	c #BE8A61",
"8H 	c #BE8B61",
"9H 	c #C68F64",
"0H 	c #BE8B60",
"aH 	c #BF8C61",
"bH 	c #C08D62",
"cH 	c #C79265",
"dH 	c #C18F63",
"eH 	c #C39064",
"fH 	c #C79367",
"gH 	c #D1A47A",
"hH 	c #EEDBB7",
"iH 	c #CFC9AF",
"jH 	c #453427",
"kH 	c #463427",
"lH 	c #453425",
"mH 	c #483726",
"nH 	c #483724",
"oH 	c #473525",
"pH 	c #4A3828",
"qH 	c #473220",
"rH 	c #463220",
"sH 	c #614F37",
"tH 	c #736146",
"uH 	c #756346",
"vH 	c #78664A",
"wH 	c #857152",
"xH 	c #877353",
"yH 	c #9A8361",
"zH 	c #AF9A78",
"AH 	c #C4B394",
"BH 	c #D9CDB4",
"CH 	c #D2C6A2",
"DH 	c #B3A179",
"EH 	c #A99770",
"FH 	c #927F5C",
"GH 	c #6D5A41",
"HH 	c #6C5A40",
"IH 	c #887252",
"JH 	c #7E6A4B",
"KH 	c #99805C",
"LH 	c #9B815D",
"MH 	c #9A815C",
"NH 	c #9A805C",
"OH 	c #927653",
"PH 	c #826647",
"QH 	c #745A3F",
"RH 	c #6D573D",
"SH 	c #694F35",
"TH 	c #A07C55",
"UH 	c #916E49",
"VH 	c #745939",
"WH 	c #9E7950",
"XH 	c #BA9064",
"YH 	c #C3A078",
"ZH 	c #C9AA85",
"`H 	c #D5BC9F",
" I 	c #E0CEB8",
".I 	c #EADFD0",
"+I 	c #F9F6F2",
"@I 	c #FFFFFE",
"#I 	c #FBF9F7",
"$I 	c #F7F1ED",
"%I 	c #E3D4C0",
"&I 	c #C19E75",
"*I 	c #BA9063",
"=I 	c #C6A47D",
"-I 	c #BB9266",
";I 	c #B88D60",
">I 	c #B98E60",
",I 	c #BB9165",
"'I 	c #BE976C",
")I 	c #C7A781",
"!I 	c #D5BDA0",
"~I 	c #E8DCCC",
"{I 	c #DBC6AE",
"]I 	c #CAAC88",
"^I 	c #C09C74",
"/I 	c #B18A60",
"(I 	c #A17B52",
"_I 	c #AA845C",
":I 	c #BB9469",
"<I 	c #5D442B",
"[I 	c #5B4531",
"}I 	c #584636",
"|I 	c #6D5640",
"1I 	c #916E4F",
"2I 	c #AB805B",
"3I 	c #B78760",
"4I 	c #B88961",
"5I 	c #BA8B62",
"6I 	c #BB8A62",
"7I 	c #BB8A61",
"8I 	c #BC8A61",
"9I 	c #BB8960",
"0I 	c #BC8960",
"aI 	c #C99267",
"bI 	c #CA9267",
"cI 	c #C28D62",
"dI 	c #C18E62",
"eI 	c #BE8C61",
"fI 	c #BD8A60",
"gI 	c #BC8A60",
"hI 	c #BD8C61",
"iI 	c #BA8A60",
"jI 	c #BB895F",
"kI 	c #BD8B61",
"lI 	c #C18E63",
"mI 	c #C29064",
"nI 	c #C69367",
"oI 	c #C49065",
"pI 	c #D09F75",
"qI 	c #E5C4A2",
"rI 	c #51463D",
"sI 	c #463528",
"tI 	c #473527",
"uI 	c #463426",
"vI 	c #423024",
"wI 	c #403023",
"xI 	c #433224",
"yI 	c #4B3A27",
"zI 	c #4C3A27",
"AI 	c #4B3825",
"BI 	c #4A3926",
"CI 	c #453424",
"DI 	c #463424",
"EI 	c #473526",
"FI 	c #493727",
"GI 	c #493626",
"HI 	c #483423",
"II 	c #47321F",
"JI 	c #4D3925",
"KI 	c #776549",
"LI 	c #7D6B4C",
"MI 	c #7F6C4D",
"NI 	c #8D7857",
"OI 	c #8F7A59",
"PI 	c #8F7B5B",
"QI 	c #B59E7A",
"RI 	c #B3A07B",
"SI 	c #A8966F",
"TI 	c #A6906B",
"UI 	c #99835E",
"VI 	c #A68A65",
"WI 	c #947D5B",
"XI 	c #98835F",
"YI 	c #7A684A",
"ZI 	c #967E5B",
"`I 	c #967E5A",
" J 	c #937855",
".J 	c #866949",
"+J 	c #775E42",
"@J 	c #705A3F",
"#J 	c #8C6D4A",
"$J 	c #AC865D",
"%J 	c #4A3824",
"&J 	c #40311F",
"*J 	c #483723",
"=J 	c #906D47",
"-J 	c #AF8559",
";J 	c #B78C60",
">J 	c #BC9469",
",J 	c #C4A179",
"'J 	c #D0B393",
")J 	c #DBC5AC",
"!J 	c #E1D0BB",
"~J 	c #E9DDCE",
"{J 	c #F2EAE2",
"]J 	c #FDFBF9",
"^J 	c #F7F2ED",
"/J 	c #F1EAE1",
"(J 	c #E5D6C5",
"_J 	c #D2B89B",
":J 	c #C09B71",
"<J 	c #B98E61",
"[J 	c #B3885A",
"}J 	c #B4895B",
"|J 	c #B68B5D",
"1J 	c #BB9164",
"2J 	c #C29D75",
"3J 	c #E5D7C5",
"4J 	c #F6F1EB",
"5J 	c #F8F4EF",
"6J 	c #EFE7DD",
"7J 	c #E2D1BE",
"8J 	c #D4BA9D",
"9J 	c #C7A57F",
"0J 	c #B99166",
"aJ 	c #AC8256",
"bJ 	c #BA956C",
"cJ 	c #C0A486",
"dJ 	c #90775C",
"eJ 	c #604830",
"fJ 	c #5A4430",
"gJ 	c #564334",
"hJ 	c #5E4B3A",
"iJ 	c #7A5F46",
"jJ 	c #997353",
"kJ 	c #B2855F",
"lJ 	c #B68760",
"mJ 	c #B78861",
"nJ 	c #B88860",
"oJ 	c #BA8860",
"pJ 	c #B8875F",
"qJ 	c #B88760",
"rJ 	c #B98860",
"sJ 	c #C28D64",
"tJ 	c #C69065",
"uJ 	c #C59065",
"vJ 	c #B0825B",
"wJ 	c #A37956",
"xJ 	c #906F4F",
"yJ 	c #8C6D4D",
"zJ 	c #846648",
"AJ 	c #987351",
"BJ 	c #9C7452",
"CJ 	c #AD8059",
"DJ 	c #C28F63",
"EJ 	c #C28F64",
"FJ 	c #C39065",
"GJ 	c #E0BC93",
"HJ 	c #DDD1B1",
"IJ 	c #ABA797",
"JJ 	c #53483F",
"KJ 	c #463527",
"LJ 	c #443225",
"MJ 	c #433125",
"NJ 	c #413023",
"OJ 	c #433324",
"PJ 	c #4E3D2A",
"QJ 	c #4E3D28",
"RJ 	c #4D3C28",
"SJ 	c #4E3B28",
"TJ 	c #453323",
"UJ 	c #453324",
"VJ 	c #463325",
"WJ 	c #483627",
"XJ 	c #493525",
"YJ 	c #483321",
"ZJ 	c #5C4932",
"`J 	c #715F45",
" K 	c #726045",
".K 	c #7B694C",
"+K 	c #806D4E",
"@K 	c #8E7957",
"#K 	c #8A7555",
"$K 	c #8A7656",
"%K 	c #97805E",
"&K 	c #A68C65",
"*K 	c #BF9F74",
"=K 	c #947E5B",
"-K 	c #99805D",
";K 	c #927856",
">K 	c #856949",
",K 	c #7B5F42",
"'K 	c #785F43",
")K 	c #765D41",
"!K 	c #70573B",
"~K 	c #8F6D47",
"{K 	c #926F4A",
"]K 	c #453522",
"^K 	c #3F301F",
"/K 	c #443422",
"(K 	c #6A5034",
"_K 	c #6B5134",
":K 	c #99734C",
"<K 	c #9E774E",
"[K 	c #B08558",
"}K 	c #AB8155",
"|K 	c #B4895C",
"1K 	c #E6D8C6",
"2K 	c #F1E9E0",
"3K 	c #EFE5DA",
"4K 	c #ECE1D4",
"5K 	c #E0CFB9",
"6K 	c #C09A70",
"7K 	c #B58C60",
"8K 	c #B58A5B",
"9K 	c #B28759",
"0K 	c #B58A5C",
"aK 	c #C5A37D",
"bK 	c #D5BCA1",
"cK 	c #EADFD1",
"dK 	c #F8F5F1",
"eK 	c #EDE1D5",
"fK 	c #CAAC8A",
"gK 	c #BB966E",
"hK 	c #AB845B",
"iK 	c #BC9974",
"jK 	c #C29F78",
"kK 	c #9C7750",
"lK 	c #644A2F",
"mK 	c #584432",
"nK 	c #67523E",
"oK 	c #84664A",
"pK 	c #A37A58",
"qK 	c #B1845E",
"rK 	c #B48660",
"sK 	c #B1835D",
"tK 	c #B4855E",
"uK 	c #B6855E",
"vK 	c #B7875F",
"wK 	c #BB8961",
"xK 	c #C18D63",
"yK 	c #BB885F",
"zK 	c #BD8C62",
"AK 	c #B48860",
"BK 	c #9B7855",
"CK 	c #876B4D",
"DK 	c #856A4C",
"EK 	c #987855",
"FK 	c #9D7956",
"GK 	c #9E7A57",
"HK 	c #9B7655",
"IK 	c #85674A",
"JK 	c #7E6347",
"KK 	c #7F6245",
"LK 	c #936E4D",
"MK 	c #B0835B",
"NK 	c #BD8B60",
"OK 	c #BF8D63",
"PK 	c #C18F64",
"QK 	c #C08E63",
"RK 	c #C69468",
"SK 	c #D2A882",
"TK 	c #E7DAC0",
"UK 	c #B6B1A0",
"VK 	c #53473E",
"WK 	c #48382C",
"XK 	c #473426",
"YK 	c #52402B",
"ZK 	c #513F2A",
"`K 	c #513E29",
" L 	c #463425",
".L 	c #493423",
"+L 	c #483320",
"@L 	c #64513A",
"#L 	c #6D5B41",
"$L 	c #705E44",
"%L 	c #766548",
"&L 	c #897455",
"*L 	c #927C5A",
"=L 	c #C5A77C",
"-L 	c #917A57",
";L 	c #927B59",
">L 	c #9E8661",
",L 	c #8C6F4F",
"'L 	c #785E43",
")L 	c #7C684A",
"!L 	c #755B3E",
"~L 	c #866642",
"{L 	c #95714A",
"]L 	c #A67D53",
"^L 	c #AA8055",
"/L 	c #BD986F",
"(L 	c #C8A782",
"_L 	c #E4D5C1",
":L 	c #DBC4AB",
"<L 	c #DECCB5",
"[L 	c #E7DAC9",
"}L 	c #E9DDCD",
"|L 	c #E7D9C7",
"1L 	c #DFCDB8",
"2L 	c #CAAB88",
"3L 	c #C9A883",
"4L 	c #B68B5E",
"5L 	c #AF8457",
"6L 	c #AD8356",
"7L 	c #AD8256",
"8L 	c #D3BB9D",
"9L 	c #E8DBCD",
"0L 	c #F0E7DD",
"aL 	c #D4BCA1",
"bL 	c #C19D77",
"cL 	c #C3A079",
"dL 	c #C2A687",
"eL 	c #876F55",
"fL 	c #5D4630",
"gL 	c #5A4838",
"hL 	c #705842",
"iL 	c #8D6C4F",
"jL 	c #A87D59",
"kL 	c #B0845E",
"lL 	c #B2835D",
"mL 	c #B3845D",
"nL 	c #B6865F",
"oL 	c #B78860",
"pL 	c #B9875F",
"qL 	c #BE8B62",
"rL 	c #BF8C62",
"sL 	c #B7865E",
"tL 	c #967958",
"uL 	c #997857",
"vL 	c #A17C58",
"wL 	c #AE845E",
"xL 	c #B98C64",
"yL 	c #C49369",
"zL 	c #C19269",
"AL 	c #BF9168",
"BL 	c #AF855F",
"CL 	c #8F6D4C",
"DL 	c #AF835B",
"EL 	c #BE8C62",
"FL 	c #BF8E63",
"GL 	c #CEA583",
"HL 	c #E2D2B7",
"IL 	c #C3BEA9",
"JL 	c #4A392E",
"KL 	c #493627",
"LL 	c #483527",
"ML 	c #423123",
"NL 	c #413123",
"OL 	c #56432D",
"PL 	c #56432C",
"QL 	c #54412C",
"RL 	c #53402B",
"SL 	c #4F3D28",
"TL 	c #443224",
"UL 	c #463324",
"VL 	c #493421",
"WL 	c #4A3420",
"XL 	c #493320",
"YL 	c #806D4F",
"ZL 	c #806C4E",
"`L 	c #816D4F",
" M 	c #846F51",
".M 	c #D0BA8D",
"+M 	c #C2AE88",
"@M 	c #A48E68",
"#M 	c #9C8763",
"$M 	c #8D7C59",
"%M 	c #957D5A",
"&M 	c #A08661",
"*M 	c #937755",
"=M 	c #816546",
"-M 	c #795E43",
";M 	c #81694A",
">M 	c #806849",
",M 	c #6E5437",
"'M 	c #A87F53",
")M 	c #B9946A",
"!M 	c #C29E75",
"~M 	c #CBAD8C",
"{M 	c #D9C2A8",
"]M 	c #D2B798",
"^M 	c #DAC4AA",
"/M 	c #DAC3AA",
"(M 	c #D1B697",
"_M 	c #C8A780",
":M 	c #B78E61",
"<M 	c #AE8356",
"[M 	c #B78C5E",
"}M 	c #AE8357",
"|M 	c #A97F54",
"1M 	c #A77D53",
"2M 	c #B2875A",
"3M 	c #B98F61",
"4M 	c #D2B79A",
"5M 	c #EEE5DB",
"6M 	c #FDFCFB",
"7M 	c #EDE3D7",
"8M 	c #E0CFBB",
"9M 	c #CDB094",
"0M 	c #B69067",
"aM 	c #C7A783",
"bM 	c #B59573",
"cM 	c #755737",
"dM 	c #5C4631",
"eM 	c #574535",
"fM 	c #614E3C",
"gM 	c #7A5F47",
"hM 	c #997354",
"iM 	c #A97F5A",
"jM 	c #B1825C",
"kM 	c #B2835C",
"lM 	c #B7865F",
"mM 	c #B28860",
"nM 	c #AC8B64",
"oM 	c #A08561",
"pM 	c #AA8560",
"qM 	c #C2946A",
"rM 	c #C4986E",
"sM 	c #CCA477",
"tM 	c #CFA67C",
"uM 	c #CDA57B",
"vM 	c #CC9E73",
"wM 	c #BF9268",
"xM 	c #A77F5B",
"yM 	c #806345",
"zM 	c #B1835C",
"AM 	c #C29168",
"BM 	c #C89C74",
"CM 	c #E7D3AE",
"DM 	c #C5BEA5",
"EM 	c #4C3C31",
"FM 	c #58442D",
"GM 	c #57442D",
"HM 	c #55422C",
"IM 	c #463525",
"JM 	c #453224",
"KM 	c #483323",
"LM 	c #4B3420",
"MM 	c #4C3521",
"NM 	c #55412B",
"OM 	c #6A583F",
"PM 	c #7D6A4C",
"QM 	c #846F50",
"RM 	c #837050",
"SM 	c #897554",
"TM 	c #8F7957",
"UM 	c #9D8460",
"VM 	c #BFA67D",
"WM 	c #D3C198",
"XM 	c #C3B285",
"YM 	c #AC9972",
"ZM 	c #91805D",
"`M 	c #947D5A",
" N 	c #957A57",
".N 	c #866A4A",
"+N 	c #755B40",
"@N 	c #7D6447",
"#N 	c #8A714F",
"$N 	c #7E6241",
"%N 	c #8C6D4B",
"&N 	c #886845",
"*N 	c #8C6945",
"=N 	c #B3885C",
"-N 	c #B48B60",
";N 	c #BB966D",
">N 	c #C3A07A",
",N 	c #CBAD89",
"'N 	c #CDAF8D",
")N 	c #C8A884",
"!N 	c #BB9368",
"~N 	c #AC8357",
"{N 	c #A87E53",
"]N 	c #A37A51",
"^N 	c #A97E53",
"/N 	c #A57C52",
"(N 	c #C5A27C",
"_N 	c #DCC7B1",
":N 	c #FEFEFD",
"<N 	c #FBF9F6",
"[N 	c #F5EEE7",
"}N 	c #C8AA88",
"|N 	c #BF9970",
"1N 	c #CEB394",
"2N 	c #A58767",
"3N 	c #614931",
"4N 	c #5A4533",
"5N 	c #584637",
"6N 	c #83664B",
"7N 	c #9D7656",
"8N 	c #AC815B",
"9N 	c #AE815B",
"0N 	c #B1815C",
"aN 	c #AF815B",
"bN 	c #B4865F",
"cN 	c #A98C67",
"dN 	c #B28A63",
"eN 	c #BD8F66",
"fN 	c #C09168",
"gN 	c #DDC392",
"hN 	c #E8D5A6",
"iN 	c #EAD9B8",
"jN 	c #DCC79C",
"kN 	c #D8BD8F",
"lN 	c #CDA87C",
"mN 	c #C5996E",
"nN 	c #7D6246",
"oN 	c #9B7452",
"pN 	c #BE8D62",
"qN 	c #C5976D",
"rN 	c #DBC29F",
"sN 	c #D5CDAF",
"tN 	c #53463D",
"uN 	c #473528",
"vN 	c #4A3727",
"wN 	c #4A3627",
"xN 	c #433124",
"yN 	c #503C28",
"zN 	c #453223",
"AN 	c #4A3421",
"BN 	c #4C3520",
"CN 	c #4E3722",
"DN 	c #5A4730",
"EN 	c #69573E",
"FN 	c #6B593F",
"GN 	c #806B4D",
"HN 	c #816D4E",
"IN 	c #836F50",
"JN 	c #867152",
"KN 	c #8C7755",
"LN 	c #A18864",
"MN 	c #A08B65",
"NN 	c #9D8964",
"ON 	c #917B59",
"PN 	c #8C7655",
"QN 	c #8F7756",
"RN 	c #8A6E4D",
"SN 	c #796044",
"TN 	c #886D4C",
"UN 	c #8A6D4A",
"VN 	c #755A3E",
"WN 	c #B5926B",
"XN 	c #544029",
"YN 	c #AC8155",
"ZN 	c #A77D52",
"`N 	c #A27B52",
" O 	c #A47D53",
".O 	c #B2875B",
"+O 	c #B28B61",
"@O 	c #B08556",
"#O 	c #B78C5F",
"$O 	c #9D774E",
"%O 	c #A47C51",
"&O 	c #C8A983",
"*O 	c #E1D0BD",
"=O 	c #F6F2ED",
"-O 	c #F5EEE6",
";O 	c #E4D6C5",
">O 	c #C5A37F",
",O 	c #C6A47E",
"'O 	c #C0A485",
")O 	c #84684B",
"!O 	c #5E4B3B",
"~O 	c #715943",
"{O 	c #906E50",
"]O 	c #AB7F5A",
"^O 	c #AD805B",
"/O 	c #B0825C",
"(O 	c #B2845E",
"_O 	c #AF825C",
":O 	c #B68A61",
"<O 	c #BD9E72",
"[O 	c #B58C65",
"}O 	c #BB8D64",
"|O 	c #C19369",
"1O 	c #C5A176",
"2O 	c #C9AD81",
"3O 	c #D3B88A",
"4O 	c #DDC291",
"5O 	c #DABB8E",
"6O 	c #D6B896",
"7O 	c #D3BA90",
"8O 	c #D4BD91",
"9O 	c #D2B185",
"0O 	c #BF9167",
"aO 	c #957352",
"bO 	c #806346",
"cO 	c #AB805A",
"dO 	c #BB8C61",
"eO 	c #C19065",
"fO 	c #C19067",
"gO 	c #DBBFA5",
"hO 	c #D5CAB5",
"iO 	c #53463C",
"jO 	c #48372A",
"kO 	c #4B3627",
"lO 	c #473425",
"mO 	c #5E452E",
"nO 	c #5C442D",
"oO 	c #473323",
"pO 	c #4D3520",
"qO 	c #4D3521",
"rO 	c #513924",
"sO 	c #66563D",
"tO 	c #68573E",
"uO 	c #6C5A41",
"vO 	c #7F6B4D",
"wO 	c #7E6B4C",
"xO 	c #806C4D",
"yO 	c #877352",
"zO 	c #8A7654",
"AO 	c #947D59",
"BO 	c #8D7755",
"CO 	c #8A7453",
"DO 	c #897050",
"EO 	c #846749",
"FO 	c #7A5F44",
"GO 	c #826A4C",
"HO 	c #93754F",
"IO 	c #836543",
"JO 	c #A2825F",
"KO 	c #A58764",
"LO 	c #7A5D3C",
"MO 	c #7E603F",
"NO 	c #826241",
"OO 	c #9E784E",
"PO 	c #B18659",
"QO 	c #B2895D",
"RO 	c #A47B51",
"SO 	c #AF8458",
"TO 	c #BB9367",
"UO 	c #B58B5E",
"VO 	c #BD966C",
"WO 	c #A87F55",
"XO 	c #9C754D",
"YO 	c #A47B52",
"ZO 	c #B4895A",
"`O 	c #B98F62",
" P 	c #C09C72",
".P 	c #CFB394",
"+P 	c #E5D7C6",
"@P 	c #FAF8F5",
"#P 	c #FEFDFC",
"$P 	c #DBC7B1",
"%P 	c #BD9B77",
"&P 	c #775A3A",
"*P 	c #5C4633",
"=P 	c #594637",
"-P 	c #64503E",
";P 	c #9D7655",
">P 	c #AA7F5A",
",P 	c #AE825C",
"'P 	c #AF825B",
")P 	c #B2875F",
"!P 	c #C1986D",
"~P 	c #CCB182",
"{P 	c #BB946B",
"]P 	c #B78B62",
"^P 	c #BC8F66",
"/P 	c #BF976D",
"(P 	c #CCB184",
"_P 	c #CAAD80",
":P 	c #C29166",
"<P 	c #BB8B62",
"[P 	c #C5A378",
"}P 	c #DAC69F",
"|P 	c #E4D3B1",
"1P 	c #D3B18A",
"2P 	c #AE865F",
"3P 	c #816549",
"4P 	c #A47C58",
"5P 	c #B88960",
"6P 	c #BA8B61",
"7P 	c #BB8D62",
"8P 	c #BC8D62",
"9P 	c #BC8C62",
"0P 	c #CCA785",
"aP 	c #DACCB0",
"bP 	c #4B3B2E",
"cP 	c #4B3727",
"dP 	c #4A3827",
"eP 	c #4A3728",
"fP 	c #483526",
"gP 	c #5E452D",
"hP 	c #5B432C",
"iP 	c #4E3A28",
"jP 	c #4E3620",
"kP 	c #64543C",
"lP 	c #68563D",
"mP 	c #69583F",
"nP 	c #6F5E43",
"oP 	c #705E43",
"pP 	c #726044",
"qP 	c #796649",
"rP 	c #7C694B",
"sP 	c #847050",
"tP 	c #867151",
"uP 	c #877151",
"vP 	c #897353",
"wP 	c #937C59",
"xP 	c #8D7554",
"yP 	c #866A4B",
"zP 	c #81694C",
"AP 	c #907350",
"BP 	c #95734D",
"CP 	c #876743",
"DP 	c #8F6D49",
"EP 	c #755C41",
"FP 	c #4F3C27",
"GP 	c #7D5E3E",
"HP 	c #8A6945",
"IP 	c #876744",
"JP 	c #926F48",
"KP 	c #B89065",
"LP 	c #B68E64",
"MP 	c #B98F63",
"NP 	c #C19E76",
"OP 	c #CBAC88",
"PP 	c #CCAE8D",
"QP 	c #AD8357",
"RP 	c #9E774F",
"SP 	c #A77E53",
"TP 	c #B3885B",
"UP 	c #BC9468",
"VP 	c #D1B596",
"WP 	c #ECE2D6",
"XP 	c #FEFDFB",
"YP 	c #D2BA9F",
"ZP 	c #A1896F",
"`P 	c #604932",
" Q 	c #755C45",
".Q 	c #967152",
"+Q 	c #AA7F5B",
"@Q 	c #B0825D",
"#Q 	c #AE815C",
"$Q 	c #AD815B",
"%Q 	c #B88C63",
"&Q 	c #D0AF80",
"*Q 	c #CBAF80",
"=Q 	c #C0956B",
"-Q 	c #BEA075",
";Q 	c #B5865D",
">Q 	c #B3855C",
",Q 	c #B4865D",
"'Q 	c #B4885F",
")Q 	c #B68960",
"!Q 	c #C79B72",
"~Q 	c #DCC39E",
"{Q 	c #E1C8A0",
"]Q 	c #917352",
"^Q 	c #987552",
"/Q 	c #B88A60",
"(Q 	c #B98B61",
"_Q 	c #BD8D63",
":Q 	c #CAA37D",
"<Q 	c #D6C6A7",
"[Q 	c #B2AC9A",
"}Q 	c #4C3828",
"|Q 	c #483425",
"1Q 	c #493526",
"2Q 	c #4D3927",
"3Q 	c #59412A",
"4Q 	c #5C432C",
"5Q 	c #5D442C",
"6Q 	c #5D432C",
"7Q 	c #5B422B",
"8Q 	c #58402A",
"9Q 	c #4A3523",
"0Q 	c #4F3721",
"aQ 	c #5C4933",
"bQ 	c #64533B",
"cQ 	c #65533C",
"dQ 	c #65543C",
"eQ 	c #68563E",
"fQ 	c #6D5C42",
"gQ 	c #836E4F",
"hQ 	c #897252",
"iQ 	c #846D4F",
"jQ 	c #877051",
"kQ 	c #806547",
"lQ 	c #897251",
"mQ 	c #96754E",
"nQ 	c #926F49",
"oQ 	c #977550",
"pQ 	c #8E6B47",
"qQ 	c #9F7950",
"rQ 	c #BF996E",
"sQ 	c #B89066",
"tQ 	c #B08659",
"uQ 	c #B88E62",
"vQ 	c #B48A5E",
"wQ 	c #98724B",
"xQ 	c #AC8156",
"yQ 	c #B18658",
"zQ 	c #DCC9B3",
"AQ 	c #FDFBFA",
"BQ 	c #EBDFD4",
"CQ 	c #D0B598",
"DQ 	c #C5AC91",
"EQ 	c #856645",
"FQ 	c #5C4733",
"GQ 	c #6B5642",
"HQ 	c #8C6C4F",
"IQ 	c #A57B59",
"JQ 	c #AF825D",
"KQ 	c #AD805A",
"LQ 	c #E4C995",
"MQ 	c #C4A075",
"NQ 	c #B49269",
"OQ 	c #BF9166",
"PQ 	c #B1845C",
"QQ 	c #B0835A",
"RQ 	c #B1845B",
"SQ 	c #B2855D",
"TQ 	c #B98C63",
"UQ 	c #D3B186",
"VQ 	c #ECD4A9",
"WQ 	c #CC9F74",
"XQ 	c #957856",
"YQ 	c #B6875E",
"ZQ 	c #B78960",
"`Q 	c #C39974",
" R 	c #E1D1B3",
".R 	c #BEB7A4",
"+R 	c #514337",
"@R 	c #4A3829",
"#R 	c #493628",
"$R 	c #4D3929",
"%R 	c #5D432B",
"&R 	c #5E442C",
"*R 	c #5C432A",
"=R 	c #573F29",
"-R 	c #4A3626",
";R 	c #4C3522",
">R 	c #4F3620",
",R 	c #533C26",
"'R 	c #63523A",
")R 	c #64523B",
"!R 	c #64523A",
"~R 	c #66543C",
"{R 	c #66543D",
"]R 	c #746145",
"^R 	c #786548",
"/R 	c #867252",
"(R 	c #7B684A",
"_R 	c #7D6A4B",
":R 	c #806B4C",
"<R 	c #836D4E",
"[R 	c #8A7252",
"}R 	c #887151",
"|R 	c #876F4F",
"1R 	c #876B4B",
"2R 	c #897151",
"3R 	c #947854",
"4R 	c #9D774F",
"5R 	c #A27B51",
"6R 	c #A67E53",
"7R 	c #664C31",
"8R 	c #4C3A26",
"9R 	c #392B1C",
"0R 	c #A57D53",
"aR 	c #B4895E",
"bR 	c #B1885D",
"cR 	c #A57D52",
"dR 	c #B3895D",
"eR 	c #AB8156",
"fR 	c #AB845A",
"gR 	c #B7946E",
"hR 	c #9D7852",
"iR 	c #CFB293",
"jR 	c #FAF7F4",
"kR 	c #E6D8C8",
"lR 	c #DCC8B1",
"mR 	c #B2916D",
"nR 	c #735738",
"oR 	c #614932",
"pR 	c #594636",
"qR 	c #63513F",
"rR 	c #7D6249",
"sR 	c #A97D59",
"tR 	c #A97E59",
"uR 	c #AA7E59",
"vR 	c #AE815A",
"wR 	c #D0AD7E",
"xR 	c #E5C693",
"yR 	c #BD936A",
"zR 	c #B58A63",
"AR 	c #BB956B",
"BR 	c #9C815D",
"CR 	c #AB835C",
"DR 	c #9D7854",
"ER 	c #9A7451",
"FR 	c #A97E57",
"GR 	c #AF835A",
"HR 	c #B0845B",
"IR 	c #B1855C",
"JR 	c #ECC693",
"KR 	c #9E7F5A",
"LR 	c #8F704E",
"MR 	c #B4855D",
"NR 	c #B5885F",
"OR 	c #B5875E",
"PR 	c #BB8C63",
"QR 	c #D8C5A8",
"RR 	c #C7BDA8",
"SR 	c #4B382A",
"TR 	c #4D3928",
"UR 	c #483525",
"VR 	c #4A3526",
"WR 	c #4E3927",
"XR 	c #60452C",
"YR 	c #61462C",
"ZR 	c #62472D",
"`R 	c #5F452B",
" S 	c #5D432A",
".S 	c #573E28",
"+S 	c #4C3826",
"@S 	c #4A3525",
"#S 	c #503620",
"$S 	c #503721",
"%S 	c #553F29",
"&S 	c #5F4D36",
"*S 	c #63513A",
"=S 	c #69573D",
"-S 	c #6D5C41",
";S 	c #7C6A4D",
">S 	c #715E43",
",S 	c #736044",
"'S 	c #857251",
")S 	c #866F4F",
"!S 	c #816849",
"~S 	c #836546",
"{S 	c #896D4D",
"]S 	c #A27E55",
"^S 	c #B69168",
"/S 	c #A48059",
"(S 	c #3D2E1E",
"_S 	c #342719",
":S 	c #6D5335",
"<S 	c #A0784F",
"[S 	c #9D764E",
"}S 	c #906E4A",
"|S 	c #B1906B",
"1S 	c #97744E",
"2S 	c #B68B5C",
"3S 	c #ECE1D6",
"4S 	c #DDC9B2",
"5S 	c #DFCDB6",
"6S 	c #CEB79E",
"7S 	c #876A4A",
"8S 	c #5C4735",
"9S 	c #5C4C3C",
"0S 	c #735C46",
"aS 	c #8F6E50",
"bS 	c #A17856",
"cS 	c #A77D58",
"dS 	c #A87C57",
"eS 	c #A97E58",
"fS 	c #AD825B",
"gS 	c #DAB484",
"hS 	c #DEB887",
"iS 	c #BA8F67",
"jS 	c #B68C64",
"kS 	c #A3835D",
"lS 	c #977855",
"mS 	c #B78D65",
"nS 	c #B69A71",
"oS 	c #896E4F",
"pS 	c #795E42",
"qS 	c #866748",
"rS 	c #AA7F58",
"sS 	c #AE835B",
"tS 	c #AF835C",
"uS 	c #DCBB8A",
"vS 	c #BE946A",
"wS 	c #967856",
"xS 	c #B2845C",
"yS 	c #B4865E",
"zS 	c #B5875F",
"AS 	c #D4BD99",
"BS 	c #C4BAA2",
"CS 	c #4F3F31",
"DS 	c #4E3A2A",
"ES 	c #4E3A29",
"FS 	c #573E29",
"GS 	c #62462C",
"HS 	c #63472C",
"IS 	c #63482D",
"JS 	c #5F442B",
"KS 	c #583F29",
"LS 	c #4B3726",
"MS 	c #4A3624",
"NS 	c #503720",
"OS 	c #553F28",
"PS 	c #62513A",
"QS 	c #6F5D42",
"RS 	c #766347",
"SS 	c #7B674A",
"TS 	c #7D684B",
"US 	c #80694B",
"VS 	c #816A4C",
"WS 	c #816345",
"XS 	c #A78A62",
"YS 	c #AC8358",
"ZS 	c #B1885E",
"`S 	c #C2A17C",
" T 	c #8E704F",
".T 	c #352819",
"+T 	c #846442",
"@T 	c #916D47",
"#T 	c #AF8558",
"$T 	c #BA8F62",
"%T 	c #DAC4AC",
"&T 	c #F5EFE9",
"*T 	c #E8DCCD",
"=T 	c #E0CFBC",
"-T 	c #A18568",
";T 	c #6F5436",
">T 	c #604933",
",T 	c #695643",
"'T 	c #83674C",
")T 	c #997454",
"!T 	c #A67B57",
"~T 	c #A67C57",
"{T 	c #A87D58",
"]T 	c #E3C392",
"^T 	c #B58B64",
"/T 	c #B28861",
"(T 	c #987654",
"_T 	c #AC815A",
":T 	c #CAA67A",
"<T 	c #D7B687",
"[T 	c #B18B64",
"}T 	c #8A6C4C",
"|T 	c #A07754",
"1T 	c #B0855D",
"2T 	c #A7815B",
"3T 	c #9C7F5C",
"4T 	c #BA9C72",
"5T 	c #C19E73",
"6T 	c #B48D65",
"7T 	c #A1835F",
"8T 	c #B1835B",
"9T 	c #B2855C",
"0T 	c #CDB08E",
"aT 	c #D5CCB2",
"bT 	c #5A4D41",
"cT 	c #4D3A2B",
"dT 	c #4B3728",
"eT 	c #4E3929",
"fT 	c #594029",
"gT 	c #65472D",
"hT 	c #65482D",
"iT 	c #64472D",
"jT 	c #62462B",
"kT 	c #60442B",
"lT 	c #563D29",
"mT 	c #4F3720",
"nT 	c #50361F",
"oT 	c #59452E",
"pT 	c #604F38",
"qT 	c #615039",
"rT 	c #625039",
"sT 	c #796548",
"tT 	c #796549",
"uT 	c #7D684A",
"vT 	c #7B6749",
"wT 	c #7D6749",
"xT 	c #81694B",
"yT 	c #7E6144",
"zT 	c #876A4B",
"AT 	c #A38B64",
"BT 	c #AC865B",
"CT 	c #B89166",
"DT 	c #C4A27E",
"ET 	c #B19576",
"FT 	c #523F29",
"GT 	c #3A2C1C",
"HT 	c #392B1B",
"IT 	c #E4D5C4",
"JT 	c #E7DAC8",
"KT 	c #C3A98D",
"LT 	c #644B33",
"MT 	c #5A4736",
"NT 	c #765E47",
"OT 	c #917051",
"PT 	c #A27A58",
"QT 	c #A47A57",
"RT 	c #A47A56",
"ST 	c #A57B56",
"TT 	c #B1865F",
"UT 	c #D9B88A",
"VT 	c #DCBB8D",
"WT 	c #B78C65",
"XT 	c #AE8661",
"YT 	c #947554",
"ZT 	c #806447",
"`T 	c #A87E58",
" U 	c #CAA579",
".U 	c #E1C699",
"+U 	c #BD956D",
"@U 	c #A8825C",
"#U 	c #826749",
"$U 	c #B68B61",
"%U 	c #AF8A63",
"&U 	c #B38961",
"*U 	c #B38860",
"=U 	c #B4936A",
"-U 	c #A9815B",
";U 	c #B0825A",
">U 	c #D2B495",
",U 	c #D7CBB1",
"'U 	c #ABA697",
")U 	c #55473C",
"!U 	c #4C392A",
"~U 	c #4B3829",
"{U 	c #4F3A2A",
"]U 	c #5C422A",
"^U 	c #67492D",
"/U 	c #66482C",
"(U 	c #65482C",
"_U 	c #63462C",
":U 	c #5F432A",
"<U 	c #523C28",
"[U 	c #4C3827",
"}U 	c #4C3623",
"|U 	c #513922",
"1U 	c #59462F",
"2U 	c #69583E",
"3U 	c #705D43",
"4U 	c #776447",
"5U 	c #7A6548",
"6U 	c #7D674A",
"7U 	c #7D6346",
"8U 	c #7F6144",
"9U 	c #947957",
"0U 	c #B68D60",
"aU 	c #CFB597",
"bU 	c #8D7459",
"cU 	c #5F462D",
"dU 	c #36291A",
"eU 	c #40301F",
"fU 	c #8B6A45",
"gU 	c #BA8F63",
"hU 	c #EFE6DC",
"iU 	c #F7F3EF",
"jU 	c #EDE3D8",
"kU 	c #DBC9B3",
"lU 	c #95795C",
"mU 	c #674E33",
"nU 	c #5F4935",
"oU 	c #59483A",
"pU 	c #6B5742",
"qU 	c #876A4D",
"rU 	c #A37957",
"sU 	c #A37955",
"tU 	c #CBA97F",
"uU 	c #E3CB9F",
"vU 	c #BC956E",
"wU 	c #B08762",
"xU 	c #9C7957",
"yU 	c #765D43",
"zU 	c #BE9F77",
"AU 	c #C19B71",
"BU 	c #AD845D",
"CU 	c #937252",
"DU 	c #85684A",
"EU 	c #C7AC7F",
"FU 	c #B2916A",
"GU 	c #AD855E",
"HU 	c #B28760",
"IU 	c #B0855F",
"JU 	c #A6845E",
"KU 	c #AF8259",
"LU 	c #B1855D",
"MU 	c #C59E7A",
"NU 	c #D7C7AA",
"OU 	c #AFA897",
"PU 	c #65584D",
"QU 	c #4F3C2E",
"RU 	c #4F3A29",
"SU 	c #503A29",
"TU 	c #4D3827",
"UU 	c #61442B",
"VU 	c #67482D",
"WU 	c #64472C",
"XU 	c #60442A",
"YU 	c #553D29",
"ZU 	c #4D3828",
"`U 	c #4E3622",
" V 	c #4F361F",
".V 	c #58452F",
"+V 	c #5F4D37",
"@V 	c #604E37",
"#V 	c #67563C",
"$V 	c #6A593F",
"%V 	c #6E5C41",
"&V 	c #756145",
"*V 	c #826B4D",
"=V 	c #7B6648",
"-V 	c #796448",
";V 	c #836A4B",
">V 	c #7E6244",
",V 	c #86694A",
"'V 	c #B7956B",
")V 	c #C5A27B",
"!V 	c #BDA385",
"~V 	c #382B1B",
"{V 	c #503D27",
"]V 	c #59442C",
"^V 	c #6C5235",
"/V 	c #9B764E",
"(V 	c #DBC8B1",
"_V 	c #F8F3EF",
":V 	c #F4EDE5",
"<V 	c #EBDFD1",
"[V 	c #B29B83",
"}V 	c #765A3C",
"|V 	c #624A34",
"1V 	c #584638",
"2V 	c #665340",
"3V 	c #80654B",
"4V 	c #987252",
"5V 	c #9F7755",
"6V 	c #A07755",
"7V 	c #A27956",
"8V 	c #C19F77",
"9V 	c #E2CCA2",
"0V 	c #CBAC85",
"aV 	c #AF8963",
"bV 	c #A6815D",
"cV 	c #8A6D4E",
"dV 	c #9A7C5B",
"eV 	c #AD835D",
"fV 	c #826648",
"gV 	c #BE9E75",
"hV 	c #DEC394",
"iV 	c #C0966D",
"jV 	c #B18861",
"kV 	c #B18961",
"lV 	c #B39168",
"mV 	c #A9825B",
"nV 	c #AF825A",
"oV 	c #B0845C",
"pV 	c #B1865E",
"qV 	c #B58961",
"rV 	c #BE9570",
"sV 	c #D3C0A1",
"tV 	c #BEB7A1",
"uV 	c #554235",
"vV 	c #4F3B29",
"wV 	c #503B2A",
"xV 	c #503B29",
"yV 	c #523B28",
"zV 	c #62452B",
"AV 	c #68492D",
"BV 	c #65472C",
"CV 	c #61452B",
"DV 	c #533C29",
"EV 	c #4E3928",
"FV 	c #4D3621",
"GV 	c #4E351E",
"HV 	c #4F351F",
"IV 	c #503821",
"JV 	c #594832",
"KV 	c #5D4C36",
"LV 	c #64533A",
"MV 	c #66553B",
"NV 	c #715E44",
"OV 	c #746044",
"PV 	c #816B4D",
"QV 	c #846E4F",
"RV 	c #7C6649",
"SV 	c #786346",
"TV 	c #786247",
"UV 	c #796346",
"VV 	c #7C6346",
"WV 	c #907452",
"XV 	c #AD926C",
"YV 	c #BF9A72",
"ZV 	c #D0B495",
"`V 	c #CBAE8C",
" W 	c #977A5A",
".W 	c #684E32",
"+W 	c #382A1B",
"@W 	c #413220",
"#W 	c #886844",
"$W 	c #BC9267",
"%W 	c #E8DCCE",
"&W 	c #EEE3D8",
"*W 	c #CBB7A1",
"=W 	c #7D6041",
"-W 	c #654C33",
";W 	c #62503F",
">W 	c #796048",
",W 	c #937051",
"'W 	c #9E7755",
")W 	c #A07855",
"!W 	c #B18863",
"~W 	c #D7BC95",
"{W 	c #DBC29D",
"]W 	c #B7916B",
"^W 	c #AE8560",
"/W 	c #A9825D",
"(W 	c #937251",
"_W 	c #7E6449",
":W 	c #9F8865",
"<W 	c #A47F5A",
"[W 	c #B89A72",
"}W 	c #E1C79C",
"|W 	c #C8A57D",
"1W 	c #B48962",
"2W 	c #B5936A",
"3W 	c #AD825A",
"4W 	c #AB8058",
"5W 	c #B2845B",
"6W 	c #AE8159",
"7W 	c #AE8259",
"8W 	c #AE825A",
"9W 	c #B2865E",
"0W 	c #B78F6A",
"aW 	c #DECEB0",
"bW 	c #BEB8A5",
"cW 	c #5C4E42",
"dW 	c #513D2E",
"eW 	c #4D392A",
"fW 	c #4F3A28",
"gW 	c #69492D",
"hW 	c #68482D",
"iW 	c #5D4229",
"jW 	c #513B29",
"kW 	c #4D351E",
"lW 	c #523D28",
"mW 	c #5A4A33",
"nW 	c #5C4B35",
"oW 	c #66553D",
"pW 	c #65543B",
"qW 	c #736045",
"rW 	c #725E44",
"sW 	c #786347",
"tW 	c #766045",
"uW 	c #786246",
"vW 	c #7A6347",
"wW 	c #7D6245",
"xW 	c #BCA27C",
"yW 	c #BE9A6F",
"zW 	c #CFB295",
"AW 	c #B79670",
"BW 	c #3C2E1D",
"CW 	c #99744D",
"DW 	c #A27A51",
"EW 	c #A07950",
"FW 	c #9F794F",
"GW 	c #C09B72",
"HW 	c #D4BDA3",
"IW 	c #F5F0EA",
"JW 	c #E6D9C7",
"KW 	c #93785D",
"LW 	c #6D5234",
"MW 	c #5C4835",
"NW 	c #5E4E3D",
"OW 	c #906F50",
"PW 	c #9C7655",
"QW 	c #A27A56",
"RW 	c #A67E5A",
"SW 	c #C2A37E",
"TW 	c #E4D1AE",
"UW 	c #CBAF87",
"VW 	c #B38A64",
"WW 	c #AA835E",
"XW 	c #A57F5B",
"YW 	c #A37E59",
"ZW 	c #A37F5A",
"`W 	c #AB845E",
" X 	c #AE855E",
".X 	c #8A6E50",
"+X 	c #A58766",
"@X 	c #E1CBA7",
"#X 	c #DCC79D",
"$X 	c #C8AA7E",
"%X 	c #BA9F76",
"&X 	c #B6885F",
"*X 	c #AC8058",
"=X 	c #A97E56",
"-X 	c #AC8158",
";X 	c #B4855C",
">X 	c #AD8159",
",X 	c #B3865D",
"'X 	c #B68F6C",
")X 	c #CFBAA2",
"!X 	c #C1BAA9",
"~X 	c #564437",
"{X 	c #4F3B2B",
"]X 	c #513B2A",
"^X 	c #64462B",
"/X 	c #503A28",
"(X 	c #4E3825",
"_X 	c #4C341F",
":X 	c #4C341E",
"<X 	c #4D351F",
"[X 	c #5A4933",
"}X 	c #5D4C35",
"|X 	c #604D37",
"1X 	c #65533A",
"2X 	c #6E5D42",
"3X 	c #6F5C42",
"4X 	c #796347",
"5X 	c #745F44",
"6X 	c #755F44",
"7X 	c #766145",
"8X 	c #796144",
"9X 	c #8B6D4D",
"0X 	c #AB916E",
"aX 	c #C19E78",
"bX 	c #DCC9B2",
"cX 	c #C5A37E",
"dX 	c #AF865B",
"eX 	c #745738",
"fX 	c #3A2D1C",
"gX 	c #3A2C1D",
"hX 	c #9B764D",
"iX 	c #B58A5E",
"jX 	c #B68C61",
"kX 	c #BE986E",
"lX 	c #FEFDFD",
"mX 	c #E2D1BD",
"nX 	c #AB8E6C",
"oX 	c #5E4934",
"pX 	c #5C4C3B",
"qX 	c #705B45",
"rX 	c #8A6A4E",
"sX 	c #9C7653",
"tX 	c #9E7754",
"uX 	c #9F7855",
"vX 	c #9F7856",
"wX 	c #AC8763",
"xX 	c #D1BB98",
"yX 	c #DCC9A4",
"zX 	c #C5A880",
"AX 	c #B08B64",
"BX 	c #AB835E",
"CX 	c #AF8862",
"DX 	c #D8C199",
"EX 	c #E5D4AE",
"FX 	c #D8C195",
"GX 	c #AA7E57",
"HX 	c #A87D56",
"IX 	c #AA7F57",
"JX 	c #B3845B",
"KX 	c #AC8159",
"LX 	c #B28761",
"MX 	c #CDB99A",
"NX 	c #BFB7A2",
"OX 	c #5C4C40",
"PX 	c #523B2A",
"QX 	c #64462C",
"RX 	c #67482C",
"SX 	c #67472C",
"TX 	c #66472C",
"UX 	c #64452B",
"VX 	c #5C412A",
"WX 	c #523B29",
"XX 	c #513A28",
"YX 	c #4E3725",
"ZX 	c #4C3420",
"`X 	c #5A4934",
" Y 	c #5B4A35",
".Y 	c #5E4D37",
"+Y 	c #6A583E",
"@Y 	c #6E5B41",
"#Y 	c #725D42",
"$Y 	c #745E43",
"%Y 	c #796247",
"&Y 	c #7A6346",
"*Y 	c #7A6145",
"=Y 	c #C4AE87",
"-Y 	c #C5A67C",
";Y 	c #D3BAA1",
">Y 	c #D9C3AA",
",Y 	c #C19C72",
"'Y 	c #AC8861",
")Y 	c #3E2F1F",
"!Y 	c #61482F",
"~Y 	c #816140",
"{Y 	c #8F6B47",
"]Y 	c #BE966B",
"^Y 	c #DBC7B0",
"/Y 	c #E7DBCA",
"(Y 	c #B59D84",
"_Y 	c #755736",
":Y 	c #614A33",
"<Y 	c #5C4A3A",
"[Y 	c #6C5944",
"}Y 	c #85684D",
"|Y 	c #B18B66",
"1Y 	c #CBB18A",
"2Y 	c #D5C397",
"3Y 	c #CBB285",
"4Y 	c #B18B65",
"5Y 	c #B18D66",
"6Y 	c #B59169",
"7Y 	c #B5956D",
"8Y 	c #A08662",
"9Y 	c #AD835C",
"0Y 	c #B99269",
"aY 	c #BB956E",
"bY 	c #B8946C",
"cY 	c #AB7F58",
"dY 	c #A77C55",
"eY 	c #AD8158",
"fY 	c #AD8259",
"gY 	c #B1835A",
"hY 	c #B4865C",
"iY 	c #AF845C",
"jY 	c #C8B190",
"kY 	c #B7AF9C",
"lY 	c #5A483A",
"mY 	c #523D2D",
"nY 	c #523C2A",
"oY 	c #63452B",
"pY 	c #59402A",
"qY 	c #4F3725",
"rY 	c #4A321D",
"sY 	c #4A321E",
"tY 	c #5A4731",
"uY 	c #5C4B34",
"vY 	c #5C4B36",
"wY 	c #5D4D36",
"xY 	c #5D4D37",
"yY 	c #604E38",
"zY 	c #796447",
"AY 	c #705B41",
"BY 	c #7C6245",
"CY 	c #AA8D68",
"DY 	c #D2B98D",
"EY 	c #C4A17B",
"FY 	c #DFCCB7",
"GY 	c #8F755A",
"HY 	c #4D3924",
"IY 	c #332719",
"JY 	c #372A1B",
"KY 	c #413120",
"LY 	c #654C31",
"MY 	c #A17950",
"NY 	c #A67E52",
"OY 	c #C9A984",
"PY 	c #F5F0EB",
"QY 	c #C2AB93",
"RY 	c #644C34",
"SY 	c #5B4938",
"TY 	c #6A5843",
"UY 	c #947051",
"VY 	c #987352",
"WY 	c #9A7452",
"XY 	c #A27B57",
"YY 	c #AC8862",
"ZY 	c #C7B084",
"`Y 	c #CAB185",
" Z 	c #D4BE95",
".Z 	c #D5BE99",
"+Z 	c #DAC798",
"@Z 	c #DCC796",
"#Z 	c #B7966D",
"$Z 	c #A47A55",
"%Z 	c #A77D57",
"&Z 	c #A67B55",
"*Z 	c #A57A54",
"=Z 	c #A37953",
"-Z 	c #A47954",
";Z 	c #AC8059",
">Z 	c #AB8059",
",Z 	c #AF845D",
"'Z 	c #CFB99B",
")Z 	c #C5BEA9",
"!Z 	c #604F41",
"~Z 	c #4F3B2A",
"{Z 	c #583F2A",
"]Z 	c #63462B",
"^Z 	c #523C29",
"/Z 	c #47301C",
"(Z 	c #4C3723",
"_Z 	c #594933",
":Z 	c #5F4E38",
"<Z 	c #62523A",
"[Z 	c #5E4E37",
"}Z 	c #625138",
"|Z 	c #735F43",
"1Z 	c #6E5A40",
"2Z 	c #6F5A40",
"3Z 	c #8D6E4D",
"4Z 	c #C1A679",
"5Z 	c #CBAD80",
"6Z 	c #D9C3A9",
"7Z 	c #C8B29A",
"8Z 	c #634E39",
"9Z 	c #725738",
"0Z 	c #896744",
"aZ 	c #CCAF91",
"bZ 	c #F1EAE2",
"cZ 	c #F9F7F3",
"dZ 	c #E3D3BE",
"eZ 	c #CCB9A3",
"fZ 	c #7F6242",
"gZ 	c #5B4836",
"hZ 	c #665541",
"iZ 	c #7C644A",
"jZ 	c #8E6D4F",
"kZ 	c #967150",
"lZ 	c #977250",
"mZ 	c #A07955",
"nZ 	c #A07854",
"oZ 	c #A57F5A",
"pZ 	c #D1B68F",
"qZ 	c #E4D3AC",
"rZ 	c #DDC99A",
"sZ 	c #D6BA8A",
"tZ 	c #AA815B",
"uZ 	c #A17954",
"vZ 	c #A17853",
"wZ 	c #A67B56",
"xZ 	c #A77C56",
"yZ 	c #A47A54",
"zZ 	c #A17752",
"AZ 	c #A27853",
"BZ 	c #A57B54",
"CZ 	c #AC7F58",
"DZ 	c #B58E69",
"EZ 	c #D1BDA1",
"FZ 	c #B7B0A1",
"GZ 	c #5A4738",
"HZ 	c #543F2F",
"IZ 	c #513C2C",
"JZ 	c #543C28",
"KZ 	c #513A29",
"LZ 	c #483220",
"MZ 	c #442E1C",
"NZ 	c #442F1C",
"OZ 	c #4B3722",
"PZ 	c #56442F",
"QZ 	c #574833",
"RZ 	c #5B4B35",
"SZ 	c #5C4C36",
"TZ 	c #615139",
"UZ 	c #5F4F38",
"VZ 	c #68563C",
"WZ 	c #6D5940",
"XZ 	c #6F5B41",
"YZ 	c #967855",
"ZZ 	c #C5A97E",
"`Z 	c #CEB38F",
" ` 	c #D3B89A",
".` 	c #D4BA9C",
"+` 	c #9B876F",
"@` 	c #4D3820",
"#` 	c #3D2F1E",
"$` 	c #37291B",
"%` 	c #3B2D1D",
"&` 	c #AB8055",
"*` 	c #E6DACB",
"=` 	c #EFE6DB",
"-` 	c #DECBB4",
";` 	c #DDCBB5",
">` 	c #8D735A",
",` 	c #6A5033",
"'` 	c #5B4834",
")` 	c #60513E",
"!` 	c #776048",
"~` 	c #8B6B4D",
"{` 	c #997451",
"]` 	c #9C7652",
"^` 	c #9D7653",
"/` 	c #9E7653",
"(` 	c #B28A64",
"_` 	c #B48B65",
":` 	c #B28C65",
"<` 	c #A97F59",
"[` 	c #A27A55",
"}` 	c #9F7753",
"|` 	c #9F7652",
"1` 	c #A17753",
"2` 	c #A67C55",
"3` 	c #A37954",
"4` 	c #A27852",
"5` 	c #AD8058",
"6` 	c #A87E56",
"7` 	c #C9B499",
"8` 	c #BFB9A7",
"9` 	c #5B493B",
"0` 	c #503B2B",
"a` 	c #533C2A",
"b` 	c #63452A",
"c` 	c #61442A",
"d` 	c #5D4129",
"e` 	c #513B28",
"f` 	c #4F3927",
"g` 	c #422D1B",
"h` 	c #432E1B",
"i` 	c #493623",
"j` 	c #564631",
"k` 	c #5A4A34",
"l` 	c #5B4A34",
"m` 	c #605039",
"n` 	c #66543B",
"o` 	c #68553D",
"p` 	c #6C5940",
"q` 	c #6C593F",
"r` 	c #6D593F",
"s` 	c #796145",
"t` 	c #9A7B56",
"u` 	c #CCB590",
"v` 	c #D3BA97",
"w` 	c #D7BFA3",
"x` 	c #CCB59B",
"y` 	c #755D44",
"z` 	c #74583A",
"A` 	c #81623F",
"B` 	c #8F6D48",
"C` 	c #C3A077",
"D` 	c #D5BEA5",
"E` 	c #FCFAF7",
"F` 	c #E4D5C2",
"G` 	c #DDCAB6",
"H` 	c #9F7C55",
"I` 	c #715B45",
"J` 	c #896A4C",
"K` 	c #94704F",
"L` 	c #97714F",
"M` 	c #9E7753",
"N` 	c #9C7552",
"O` 	c #9F7854",
"P` 	c #9E7652",
"Q` 	c #9D7451",
"R` 	c #9D7551",
"S` 	c #A67B54",
"T` 	c #A07652",
"U` 	c #AB7F57",
"V` 	c #A87E57",
"W` 	c #A97F58",
"X` 	c #AF8763",
"Y` 	c #D2BE9F",
"Z` 	c #5F4E40",
"`` 	c #5A4637",
"  .	c #543D2A",
". .	c #543C2A",
"+ .	c #62442A",
"@ .	c #604329",
"# .	c #5A4029",
"$ .	c #422E1C",
"% .	c #402C1B",
"& .	c #5A4A35",
"* .	c #6A573E",
"= .	c #6C583F",
"- .	c #786144",
"; .	c #826547",
"> .	c #A68964",
", .	c #E2CBA0",
"' .	c #CCAD87",
") .	c #DAC5AC",
"! .	c #7D5D3A",
"~ .	c #392C1B",
"{ .	c #463522",
"] .	c #57422A",
"^ .	c #B38859",
"/ .	c #B1865A",
"( .	c #BB9166",
"_ .	c #B98E62",
": .	c #CDAF90",
"< .	c #F1E8DF",
"[ .	c #E3D3C0",
"} .	c #A08872",
"| .	c #684E31",
"1 .	c #705B44",
"2 .	c #87684B",
"3 .	c #926F4F",
"4 .	c #95704F",
"5 .	c #94704E",
"6 .	c #9B7451",
"7 .	c #96714F",
"8 .	c #997350",
"9 .	c #9C7753",
"0 .	c #9A7551",
"a .	c #9B7350",
"b .	c #A37852",
"c .	c #9F7651",
"d .	c #A77D56",
"e .	c #A57B55",
"f .	c #B28C67",
"g .	c #CCB899",
"h .	c #BDB6A4",
"i .	c #685749",
"j .	c #594534",
"k .	c #533D2D",
"l .	c #533D2A",
"m .	c #563E29",
"n .	c #5E4229",
"o .	c #604229",
"p .	c #61432A",
"q .	c #5E4228",
"r .	c #5A3F28",
"s .	c #4B3625",
"t .	c #3E2C1B",
"u .	c #3E2B1A",
"v .	c #3F2E1C",
"w .	c #4B3B27",
"x .	c #594934",
"y .	c #594833",
"z .	c #605038",
"A .	c #66533B",
"B .	c #69563D",
"C .	c #68553C",
"D .	c #68543B",
"E .	c #6C583E",
"F .	c #87684A",
"G .	c #BA9D72",
"H .	c #DABF93",
"I .	c #CEB293",
"J .	c #C8AC8D",
"K .	c #6D563E",
"L .	c #493723",
"M .	c #41311F",
"N .	c #4C3A25",
"O .	c #4A3724",
"P .	c #B78D61",
"Q .	c #C39F78",
"R .	c #C6A37D",
"S .	c #BB9265",
"T .	c #EBDFD2",
"U .	c #E4D5C3",
"V .	c #DAC4AB",
"W .	c #A98C6E",
"X .	c #5E4832",
"Y .	c #5B4B39",
"Z .	c #916E4E",
"` .	c #946F4E",
" ..	c #9A7351",
"...	c #96704E",
"+..	c #956F4E",
"@..	c #97724F",
"#..	c #987350",
"$..	c #98724F",
"%..	c #9B7450",
"&..	c #A07752",
"*..	c #9A724F",
"=..	c #99724F",
"-..	c #9C7350",
";..	c #9E7551",
">..	c #A37A54",
",..	c #A67C56",
"'..	c #AE835C",
")..	c #B08864",
"!..	c #DACAAD",
"~..	c #C9C2AD",
"{..	c #665343",
"]..	c #574231",
"^..	c #553D2A",
"/..	c #553E29",
"(..	c #5C4128",
"_..	c #5F4229",
":..	c #5D4128",
"<..	c #593F28",
"[..	c #3C2B1A",
"}..	c #3E2D1C",
"|..	c #4B3C28",
"1..	c #554631",
"2..	c #5D4B35",
"3..	c #65523A",
"4..	c #67543C",
"5..	c #67533B",
"6..	c #67543B",
"7..	c #69553C",
"8..	c #6E593F",
"9..	c #BC9D74",
"0..	c #D7C09D",
"a..	c #D3BA9B",
"b..	c #D3B99C",
"c..	c #D2B596",
"d..	c #B29B82",
"e..	c #594229",
"f..	c #3E2F1E",
"g..	c #473622",
"h..	c #856643",
"i..	c #C8A781",
"j..	c #C7A782",
"k..	c #FDFDFB",
"l..	c #F0E8DE",
"m..	c #DECCB6",
"n..	c #AB957E",
"o..	c #62482D",
"p..	c #614933",
"q..	c #5C4B3A",
"r..	c #85664A",
"s..	c #906D4D",
"t..	c #926D4D",
"u..	c #926E4C",
"v..	c #946F4D",
"w..	c #97714E",
"x..	c #9C7450",
"y..	c #97704D",
"z..	c #98714E",
"A..	c #9B734F",
"B..	c #9D7450",
"C..	c #B1865D",
"D..	c #B3885F",
"E..	c #BB9471",
"F..	c #D4C2AA",
"G..	c #B6B1A5",
"H..	c #614E3E",
"I..	c #554030",
"J..	c #5B4128",
"K..	c #593F27",
"L..	c #3A2B1A",
"M..	c #3B2B1A",
"N..	c #3E2E1D",
"O..	c #50412D",
"P..	c #554530",
"Q..	c #584832",
"R..	c #5B4A33",
"S..	c #5B4B34",
"T..	c #635139",
"U..	c #645139",
"V..	c #65523B",
"W..	c #7C6145",
"X..	c #947351",
"Y..	c #C7AB84",
"Z..	c #DFC8A2",
"`..	c #D6BFA3",
" +.	c #A7835D",
".+.	c #62482E",
"++.	c #423220",
"@+.	c #4D3B26",
"#+.	c #BF9A6F",
"$+.	c #C7A67F",
"%+.	c #F0E7DC",
"&+.	c #DCC7AF",
"*+.	c #A28566",
"=+.	c #5E4C39",
"-+.	c #715A43",
";+.	c #86674A",
">+.	c #916D4D",
",+.	c #926E4D",
"'+.	c #95704E",
")+.	c #997450",
"!+.	c #96714E",
"~+.	c #95704D",
"{+.	c #9A734F",
"]+.	c #B2865D",
"^+.	c #B88D68",
"/+.	c #CCB89F",
"(+.	c #C2BBAA",
"_+.	c #543C29",
":+.	c #5A4129",
"<+.	c #5C4228",
"[+.	c #5A4027",
"}+.	c #583F27",
"|+.	c #443120",
"1+.	c #3A2B1B",
"2+.	c #423322",
"3+.	c #52422E",
"4+.	c #564531",
"5+.	c #584732",
"6+.	c #594A33",
"7+.	c #6A553D",
"8+.	c #997855",
"9+.	c #D6B98A",
"0+.	c #D7BB94",
"a+.	c #CAAA85",
"b+.	c #AB8D6D",
"c+.	c #3E301E",
"d+.	c #B68C5F",
"e+.	c #C29D74",
"f+.	c #C9AA84",
"g+.	c #C8A881",
"h+.	c #C5A37B",
"i+.	c #FCFBF9",
"j+.	c #D6BDA1",
"k+.	c #AA9175",
"l+.	c #5E462D",
"m+.	c #5D4C39",
"n+.	c #735D45",
"o+.	c #88694B",
"p+.	c #95724F",
"q+.	c #98704E",
"r+.	c #956F4D",
"s+.	c #936E4C",
"t+.	c #99724E",
"u+.	c #AB8057",
"v+.	c #AE835A",
"w+.	c #AF845B",
"x+.	c #B2875E",
"y+.	c #B78F69",
"z+.	c #CDB799",
"A+.	c #ACA495",
"B+.	c #6A5848",
"C+.	c #5B4635",
"D+.	c #523C2C",
"E+.	c #523A28",
"F+.	c #533B28",
"G+.	c #5A4128",
"H+.	c #583E27",
"I+.	c #453321",
"J+.	c #3B2C1C",
"K+.	c #3A2C1B",
"L+.	c #403120",
"M+.	c #52432E",
"N+.	c #574732",
"O+.	c #574731",
"P+.	c #5A4B34",
"Q+.	c #624F38",
"R+.	c #635038",
"S+.	c #634F38",
"T+.	c #68543C",
"U+.	c #715A40",
"V+.	c #816547",
"W+.	c #D3B68B",
"X+.	c #D8C2A3",
"Y+.	c #D8C2A9",
"Z+.	c #8B7762",
"`+.	c #493621",
" @.	c #423320",
".@.	c #3B2E1D",
"+@.	c #3E301F",
"@@.	c #AC8255",
"#@.	c #BA9165",
"$@.	c #C09B70",
"%@.	c #C7A57E",
"&@.	c #CAAB87",
"*@.	c #CBAC89",
"=@.	c #D7C0A6",
"-@.	c #997F65",
";@.	c #5E462C",
">@.	c #614E3A",
",@.	c #786148",
"'@.	c #8A6C4D",
")@.	c #8F6B4C",
"!@.	c #95714F",
"~@.	c #9B7C58",
"{@.	c #8C7050",
"]@.	c #826346",
"^@.	c #826446",
"/@.	c #8D6B4A",
"(@.	c #8D6A4A",
"_@.	c #906C4A",
":@.	c #946F4C",
"<@.	c #946E4C",
"[@.	c #99714F",
"}@.	c #99714E",
"|@.	c #A57A55",
"1@.	c #CAB79A",
"2@.	c #BCB6A3",
"3@.	c #6F5E4E",
"4@.	c #5B4736",
"5@.	c #583F28",
"6@.	c #594028",
"7@.	c #573E27",
"8@.	c #573E26",
"9@.	c #3B2D1C",
"0@.	c #544430",
"a@.	c #584733",
"b@.	c #574632",
"c@.	c #584731",
"d@.	c #635239",
"e@.	c #614E37",
"f@.	c #DCC196",
"g@.	c #E1CBAC",
"h@.	c #C7B095",
"i@.	c #392C1C",
"j@.	c #644A31",
"k@.	c #634B31",
"l@.	c #896743",
"m@.	c #BD9468",
"n@.	c #CAAB86",
"o@.	c #C8A882",
"p@.	c #C6A37C",
"q@.	c #E9DCCC",
"r@.	c #CDAE8C",
"s@.	c #A98A68",
"t@.	c #7A6349",
"u@.	c #8A6B4D",
"v@.	c #8F6C4D",
"w@.	c #8F6C4C",
"x@.	c #93704F",
"y@.	c #BDA276",
"z@.	c #7D6448",
"A@.	c #785E44",
"B@.	c #70563E",
"C@.	c #6F573F",
"D@.	c #6E583F",
"E@.	c #69523A",
"F@.	c #6F563D",
"G@.	c #775B3F",
"H@.	c #816244",
"I@.	c #896647",
"J@.	c #8E6A49",
"K@.	c #8E6B4A",
"L@.	c #AB815A",
"M@.	c #B68F6B",
"N@.	c #DBCCB2",
"O@.	c #B3ADA0",
"P@.	c #655242",
"Q@.	c #4F3929",
"R@.	c #533B29",
"S@.	c #553D27",
"T@.	c #533B26",
"U@.	c #3F311F",
"V@.	c #4D3E2A",
"W@.	c #53432F",
"X@.	c #554430",
"Y@.	c #564731",
"Z@.	c #584833",
"`@.	c #625038",
" #.	c #604D36",
".#.	c #735C41",
"+#.	c #DFC394",
"@#.	c #CCB194",
"##.	c #836A50",
"$#.	c #554029",
"%#.	c #382A1C",
"&#.	c #493824",
"*#.	c #C39F77",
"=#.	c #C29F76",
"-#.	c #E1D0BC",
";#.	c #E5D5C3",
">#.	c #C19D75",
",#.	c #8D7760",
"'#.	c #543E27",
")#.	c #61503B",
"!#.	c #786248",
"~#.	c #8E6B4C",
"{#.	c #926F4E",
"]#.	c #A88861",
"^#.	c #CBAB7E",
"/#.	c #BC9C72",
"(#.	c #967452",
"_#.	c #937250",
":#.	c #8B6C4C",
"<#.	c #7B6145",
"[#.	c #775D42",
"}#.	c #70573E",
"|#.	c #6B523A",
"1#.	c #72593E",
"2#.	c #75593E",
"3#.	c #806044",
"4#.	c #866547",
"5#.	c #886647",
"6#.	c #A27954",
"7#.	c #9D7652",
"8#.	c #A77E58",
"9#.	c #BC9978",
"0#.	c #CFBEA7",
"a#.	c #B3ADA2",
"b#.	c #655345",
"c#.	c #533B2A",
"d#.	c #513A26",
"e#.	c #503925",
"f#.	c #503A25",
"g#.	c #4F3924",
"h#.	c #4F3925",
"i#.	c #563E2A",
"j#.	c #3F3120",
"k#.	c #4E3F2B",
"l#.	c #51422E",
"m#.	c #55452F",
"n#.	c #55442F",
"o#.	c #5F4C36",
"p#.	c #614E38",
"q#.	c #735C42",
"r#.	c #DABE95",
"s#.	c #E0CCAF",
"t#.	c #E9DDCF",
"u#.	c #E3D3BF",
"v#.	c #D3BCA3",
"w#.	c #5D462D",
"x#.	c #342819",
"y#.	c #53402A",
"z#.	c #B58A5D",
"A#.	c #CDB08F",
"B#.	c #C9AA86",
"C#.	c #D9C2A9",
"D#.	c #BF9C75",
"E#.	c #916F4B",
"F#.	c #63513C",
"G#.	c #7A6348",
"H#.	c #8C6A4B",
"I#.	c #916F4E",
"J#.	c #906E4E",
"K#.	c #92704F",
"L#.	c #AE8F66",
"M#.	c #DCBE8C",
"N#.	c #B9976E",
"O#.	c #A07A57",
"P#.	c #A27D59",
"Q#.	c #A07B57",
"R#.	c #977553",
"S#.	c #927250",
"T#.	c #8D6F4E",
"U#.	c #866849",
"V#.	c #735A41",
"W#.	c #6F573D",
"X#.	c #8B6949",
"Y#.	c #9D7753",
"Z#.	c #A07A56",
"`#.	c #AB825C",
" $.	c #B08A67",
".$.	c #B8B1A1",
"+$.	c #6B5B4E",
"@$.	c #5B4738",
"#$.	c #4E3925",
"$$.	c #4B3723",
"%$.	c #4C3823",
"&$.	c #573E2A",
"*$.	c #3F3220",
"=$.	c #4B3D29",
"-$.	c #51412D",
";$.	c #54442F",
">$.	c #574631",
",$.	c #564530",
"'$.	c #5E4C36",
")$.	c #5A4932",
"!$.	c #5D4B34",
"~$.	c #5E4B35",
"{$.	c #E2C699",
"]$.	c #DFC9AE",
"^$.	c #E3D4C1",
"/$.	c #D1B79A",
"($.	c #35291A",
"_$.	c #56422A",
":$.	c #CBAD8A",
"<$.	c #CEB190",
"[$.	c #D3B899",
"}$.	c #CFB393",
"|$.	c #CCAE8C",
"1$.	c #B2885D",
"2$.	c #C5A47F",
"3$.	c #8C7359",
"4$.	c #533F28",
"5$.	c #67553F",
"6$.	c #80684C",
"7$.	c #8B6A4B",
"8$.	c #8E6D4D",
"9$.	c #D9BC8B",
"0$.	c #A4805C",
"a$.	c #A9835F",
"b$.	c #A58561",
"c$.	c #9F7C59",
"d$.	c #9F7C58",
"e$.	c #9E7B57",
"f$.	c #9A7754",
"g$.	c #997653",
"h$.	c #9C7955",
"i$.	c #9D7955",
"j$.	c #977653",
"k$.	c #775D41",
"l$.	c #765B3F",
"m$.	c #AB8967",
"n$.	c #C0AE93",
"o$.	c #A59E8F",
"p$.	c #4D3825",
"q$.	c #483522",
"r$.	c #4C3825",
"s$.	c #3E3120",
"t$.	c #50402C",
"u$.	c #52412D",
"v$.	c #53432E",
"w$.	c #634F39",
"x$.	c #725B42",
"y$.	c #836749",
"z$.	c #AC8962",
"A$.	c #DCC096",
"B$.	c #E8D8C1",
"C$.	c #F6F0EA",
"D$.	c #D8C3AB",
"E$.	c #836A51",
"F$.	c #59432B",
"G$.	c #332718",
"H$.	c #C4A27A",
"I$.	c #CCAF8E",
"J$.	c #B38A5E",
"K$.	c #AF875D",
"L$.	c #BB9C77",
"M$.	c #695139",
"N$.	c #5D4832",
"O$.	c #725F45",
"P$.	c #82674B",
"Q$.	c #89694A",
"R$.	c #8E6B4B",
"S$.	c #947251",
"T$.	c #CFB081",
"U$.	c #A4805B",
"V$.	c #9C7956",
"W$.	c #A0815D",
"X$.	c #C0A884",
"Y$.	c #D1BA98",
"Z$.	c #CEB792",
"`$.	c #CBB594",
" %.	c #BB9C74",
".%.	c #A5815B",
"+%.	c #9A7854",
"@%.	c #9B7854",
"#%.	c #936F4D",
"$%.	c #9E7854",
"%%.	c #9F7A56",
"&%.	c #A47F5C",
"*%.	c #C0B199",
"=%.	c #B3AC9B",
"-%.	c #615043",
";%.	c #4D3829",
">%.	c #583F2B",
",%.	c #3F3221",
"'%.	c #4A3B28",
")%.	c #4F402C",
"!%.	c #52422D",
"~%.	c #584631",
"{%.	c #624F39",
"]%.	c #705A41",
"^%.	c #826649",
"/%.	c #A78460",
"(%.	c #E3C79B",
"_%.	c #E8D8C0",
":%.	c #CFB89D",
"<%.	c #8D6D4A",
"[%.	c #362A1B",
"}%.	c #322618",
"|%.	c #BC966C",
"1%.	c #B99065",
"2%.	c #7B5C3B",
"3%.	c #604C35",
"4%.	c #725F46",
"5%.	c #84674A",
"6%.	c #8B694A",
"7%.	c #8A694A",
"8%.	c #9F7D59",
"9%.	c #9E7D58",
"0%.	c #9B7A57",
"a%.	c #9A805E",
"b%.	c #B59E7D",
"c%.	c #D4C2A1",
"d%.	c #D4BF9B",
"e%.	c #DDC9A1",
"f%.	c #DFC99A",
"g%.	c #A48560",
"h%.	c #BC9F78",
"i%.	c #AE8A62",
"j%.	c #A27F5A",
"k%.	c #9C7855",
"l%.	c #A07C58",
"m%.	c #735B40",
"n%.	c #93704E",
"o%.	c #A07853",
"p%.	c #9E7855",
"q%.	c #AF9276",
"r%.	c #D4CAB4",
"s%.	c #635143",
"t%.	c #533E2E",
"u%.	c #493523",
"v%.	c #4F3926",
"w%.	c #3E311F",
"x%.	c #4E3E2A",
"y%.	c #4F3F2B",
"z%.	c #51402C",
"A%.	c #51422D",
"B%.	c #53422E",
"C%.	c #51412C",
"D%.	c #54432E",
"E%.	c #5C4A34",
"F%.	c #705941",
"G%.	c #83664A",
"H%.	c #AA8762",
"I%.	c #DBBD92",
"J%.	c #EADAC4",
"K%.	c #DDCCB5",
"L%.	c #8F775F",
"M%.	c #D3B99A",
"N%.	c #AE865C",
"O%.	c #B58D62",
"P%.	c #B78E62",
"Q%.	c #9C7953",
"R%.	c #B7946C",
"S%.	c #776348",
"T%.	c #87694B",
"U%.	c #8B684A",
"V%.	c #896749",
"W%.	c #8A6849",
"X%.	c #8C6B4A",
"Y%.	c #9F7D58",
"Z%.	c #977754",
"`%.	c #997B58",
" &.	c #937C5B",
".&.	c #8F7352",
"+&.	c #9D7A58",
"@&.	c #A68764",
"#&.	c #BE9B72",
"$&.	c #DEBE8D",
"%&.	c #B5956C",
"&&.	c #967553",
"*&.	c #9B7E5A",
"=&.	c #AA936D",
"-&.	c #C2AC84",
";&.	c #D1BA8D",
">&.	c #D8C193",
",&.	c #CFB689",
"'&.	c #9F7B57",
")&.	c #997351",
"!&.	c #A17B56",
"~&.	c #C8B498",
"{&.	c #CCC3B1",
"]&.	c #5E4B3D",
"^&.	c #513D2D",
"/&.	c #513A27",
"(&.	c #4E3926",
"_&.	c #413221",
":&.	c #403220",
"<&.	c #413322",
"[&.	c #503F2B",
"}&.	c #68543D",
"|&.	c #A5815E",
"1&.	c #E1C293",
"2&.	c #EEDFC7",
"3&.	c #FAF8F4",
"4&.	c #9E7953",
"5&.	c #3C2D1D",
"6&.	c #7A5D3D",
"7&.	c #5D452E",
"8&.	c #D1B696",
"9&.	c #C09D75",
"0&.	c #B0875B",
"a&.	c #947049",
"b&.	c #AD8A63",
"c&.	c #9C7F5E",
"d&.	c #483622",
"e&.	c #69553D",
"f&.	c #7D674B",
"g&.	c #886648",
"h&.	c #8A6949",
"i&.	c #8C6A4A",
"j&.	c #A78861",
"k&.	c #D6BB8B",
"l&.	c #A58661",
"m&.	c #957553",
"n&.	c #987B59",
"o&.	c #80694C",
"p&.	c #DDC08E",
"q&.	c #A88761",
"r&.	c #B49169",
"s&.	c #CCAC80",
"t&.	c #94714F",
"u&.	c #977350",
"v&.	c #987451",
"w&.	c #A38262",
"x&.	c #C4AF96",
"y&.	c #B3ADA3",
"z&.	c #584434",
"A&.	c #503928",
"B&.	c #4F3A27",
"C&.	c #423321",
"D&.	c #4C3C29",
"E&.	c #4D3F2B",
"F&.	c #54432F",
"G&.	c #564630",
"H&.	c #5B4933",
"I&.	c #67533C",
"J&.	c #AA8661",
"K&.	c #DEBD8E",
"L&.	c #E7D7BE",
"M&.	c #F0E8DF",
"N&.	c #9E866D",
"O&.	c #63492F",
"P&.	c #3A2D1D",
"Q&.	c #513E28",
"R&.	c #AA8054",
"S&.	c #CDAF8C",
"T&.	c #D0B493",
"U&.	c #D0B392",
"V&.	c #AD8459",
"W&.	c #5E4830",
"X&.	c #6A563E",
"Y&.	c #7D6549",
"Z&.	c #876648",
"`&.	c #896748",
" *.	c #BC9F73",
".*.	c #CBAE7F",
"+*.	c #957653",
"@*.	c #8D7152",
"#*.	c #8C6B4B",
"$*.	c #8E6D4C",
"%*.	c #D3B283",
"&*.	c #D8B888",
"**.	c #B8966C",
"=*.	c #A17C57",
"-*.	c #9C7D59",
";*.	c #967350",
">*.	c #967250",
",*.	c #997553",
"'*.	c #A2805F",
")*.	c #B9A893",
"!*.	c #BBB4AA",
"~*.	c #64564A",
"{*.	c #584435",
"]*.	c #4F3928",
"^*.	c #503B27",
"/*.	c #433523",
"(*.	c #4D3D2A",
"_*.	c #4F3E2B",
":*.	c #574730",
"<*.	c #5A4833",
"[*.	c #5C4934",
"}*.	c #715B42",
"|*.	c #86694C",
"1*.	c #A7825E",
"2*.	c #DCB688",
"3*.	c #ECDBC3",
"4*.	c #A88B6B",
"5*.	c #56402A",
"6*.	c #5D472E",
"7*.	c #BC9569",
"8*.	c #CEB08F",
"9*.	c #7F6549",
"0*.	c #846446",
"a*.	c #836345",
"b*.	c #917150",
"c*.	c #BD9F73",
"d*.	c #CAAC7F",
"e*.	c #917351",
"f*.	c #80684B",
"g*.	c #8D6C4B",
"h*.	c #987653",
"i*.	c #C5A477",
"j*.	c #D4B585",
"k*.	c #876E4F",
"l*.	c #896D4E",
"m*.	c #947250",
"n*.	c #B99A70",
"o*.	c #CFB485",
"p*.	c #755E43",
"q*.	c #8E6E4D",
"r*.	c #977451",
"s*.	c #9E7F5E",
"t*.	c #BEAE96",
"u*.	c #5C493A",
"v*.	c #483825",
"w*.	c #423422",
"x*.	c #493B27",
"y*.	c #4E3E2B",
"z*.	c #584632",
"A*.	c #594733",
"B*.	c #5D4A35",
"C*.	c #5E4B36",
"D*.	c #65523C",
"E*.	c #83674A",
"F*.	c #A27D5B",
"G*.	c #D5AD81",
"H*.	c #E6D0B0",
"I*.	c #F9F6F1",
"J*.	c #B99C7C",
"K*.	c #BD966A",
"L*.	c #C5A47D",
"M*.	c #CCAE8A",
"N*.	c #CCAD8A",
"O*.	c #A47B50",
"P*.	c #B48C62",
"Q*.	c #C19E77",
"R*.	c #6B5136",
"S*.	c #5F4C35",
"T*.	c #846345",
"U*.	c #856547",
"V*.	c #876748",
"W*.	c #C5A97D",
"X*.	c #C6AA7E",
"Y*.	c #CEB283",
"Z*.	c #D4B889",
"`*.	c #977A57",
" =.	c #8B6E4E",
".=.	c #92704E",
"+=.	c #977552",
"@=.	c #CAAD7F",
"#=.	c #C9AA7C",
"$=.	c #997955",
"%=.	c #997552",
"&=.	c #A6896A",
"*=.	c #B6A58B",
"==.	c #493926",
"-=.	c #483925",
";=.	c #503B28",
">=.	c #433422",
",=.	c #4A3B27",
"'=.	c #5A4832",
")=.	c #55432F",
"!=.	c #5F4C37",
"~=.	c #67543D",
"{=.	c #6C5840",
"]=.	c #7C6248",
"^=.	c #977555",
"/=.	c #EACFAB",
"(=.	c #F5EFE6",
"_=.	c #CEB49A",
":=.	c #806344",
"<=.	c #3F2F1F",
"[=.	c #372A1A",
"}=.	c #8A6845",
"|=.	c #C6A57D",
"1=.	c #BA956B",
"2=.	c #9F7A51",
"3=.	c #C19C75",
"4=.	c #9F7B54",
"5=.	c #A27E57",
"6=.	c #7F6347",
"7=.	c #856446",
"8=.	c #D5BA8A",
"9=.	c #907251",
"0=.	c #775C40",
"a=.	c #D6BB92",
"b=.	c #BA9C74",
"c=.	c #AD9169",
"d=.	c #9F825D",
"e=.	c #90714F",
"f=.	c #916F4D",
"g=.	c #A3815B",
"h=.	c #CEAF7F",
"i=.	c #C7A97B",
"j=.	c #9C7C58",
"k=.	c #977854",
"l=.	c #8C7453",
"m=.	c #92714F",
"n=.	c #93714F",
"o=.	c #967351",
"p=.	c #564131",
"q=.	c #4C3B27",
"r=.	c #4A3B26",
"s=.	c #4A3A26",
"t=.	c #53422D",
"u=.	c #5C4A35",
"v=.	c #5D4B36",
"w=.	c #64513B",
"x=.	c #66533D",
"y=.	c #785F46",
"z=.	c #907153",
"A=.	c #C29871",
"B=.	c #E4C59F",
"C=.	c #F3EBE0",
"D=.	c #D2C1AE",
"E=.	c #37291A",
"F=.	c #433220",
"G=.	c #A58057",
"H=.	c #C19D76",
"I=.	c #B58B60",
"J=.	c #B28D64",
"K=.	c #735A3E",
"L=.	c #614B32",
"M=.	c #7D664A",
"N=.	c #7F6145",
"O=.	c #876647",
"P=.	c #836445",
"Q=.	c #AA8C66",
"R=.	c #CFB283",
"S=.	c #AC8E67",
"T=.	c #735D42",
"U=.	c #8A6848",
"V=.	c #A68664",
"W=.	c #CEB892",
"X=.	c #D5C395",
"Y=.	c #BFA57B",
"Z=.	c #A3805B",
"`=.	c #D1B485",
" -.	c #967754",
".-.	c #795F43",
"+-.	c #A99276",
"@-.	c #B7AC99",
"#-.	c #574334",
"$-.	c #4C3829",
"%-.	c #4E3A27",
"&-.	c #453623",
"*-.	c #443523",
"=-.	c #4A3C28",
"--.	c #4C3D2A",
";-.	c #564430",
">-.	c #5A4834",
",-.	c #63503A",
"'-.	c #624F3A",
")-.	c #705A42",
"!-.	c #896B4F",
"~-.	c #B58D68",
"{-.	c #E1BD94",
"]-.	c #EEE2D1",
"^-.	c #F6F0EB",
"/-.	c #977E64",
"(-.	c #674D31",
"_-.	c #382B1C",
":-.	c #74593A",
"<-.	c #BD9469",
"[-.	c #B68E62",
"}-.	c #906E49",
"|-.	c #A37D54",
"1-.	c #A8855E",
"2-.	c #6B5439",
"3-.	c #806548",
"4-.	c #826345",
"5-.	c #8A6A4B",
"6-.	c #D1B586",
"7-.	c #AC8F69",
"8-.	c #8C7252",
"9-.	c #876747",
"0-.	c #886848",
"a-.	c #8B6A4A",
"b-.	c #906D4C",
"c-.	c #A07B58",
"d-.	c #AC8E68",
"e-.	c #A78962",
"f-.	c #D2B988",
"g-.	c #AD8F68",
"h-.	c #786044",
"i-.	c #906F4E",
"j-.	c #8F6E4D",
"k-.	c #967555",
"l-.	c #C4B398",
"m-.	c #5A4638",
"n-.	c #523E2F",
"o-.	c #4F3B28",
"p-.	c #4C3C27",
"q-.	c #443624",
"r-.	c #453625",
"s-.	c #493B28",
"t-.	c #594632",
"u-.	c #584531",
"v-.	c #5E4C37",
"w-.	c #5D4A36",
"x-.	c #604D39",
"y-.	c #6C5841",
"z-.	c #A78260",
"A-.	c #DBB287",
"B-.	c #EDDCC7",
"C-.	c #B29A80",
"D-.	c #6D5337",
"E-.	c #3F301E",
"F-.	c #B3895C",
"G-.	c #B88F62",
"H-.	c #B88D61",
"I-.	c #8D6A45",
"J-.	c #B28D66",
"K-.	c #CBAE8D",
"L-.	c #B38A5F",
"M-.	c #B0885D",
"N-.	c #836645",
"O-.	c #715A3E",
"P-.	c #836648",
"Q-.	c #806144",
"R-.	c #856648",
"S-.	c #AB8C66",
"T-.	c #D6BB8D",
"U-.	c #B99B74",
"V-.	c #866647",
"W-.	c #8E6C4B",
"X-.	c #8B6A49",
"Y-.	c #B89B71",
"Z-.	c #CEB082",
"`-.	c #AD8D65",
" ;.	c #907352",
".;.	c #785F44",
"+;.	c #87694A",
"@;.	c #8D6D4C",
"#;.	c #8F6E4C",
"$;.	c #91704D",
"%;.	c #90704E",
"&;.	c #A98E72",
"*;.	c #C8B8A2",
"=;.	c #ADA8A0",
"-;.	c #5D4A3C",
";;.	c #544031",
">;.	c #4C3B26",
",;.	c #503A27",
"';.	c #553D28",
");.	c #473825",
"!;.	c #453725",
"~;.	c #463825",
"{;.	c #4A3C29",
"];.	c #4C3D29",
"^;.	c #5B4935",
"/;.	c #5E4C38",
"(;.	c #68553F",
"_;.	c #7D634A",
":;.	c #D1A67D",
"<;.	c #E6D0B1",
"[;.	c #EEE5DA",
"};.	c #C0A78D",
"|;.	c #755939",
"1;.	c #362A1A",
"2;.	c #B99064",
"3;.	c #B8956F",
"4;.	c #A1794F",
"5;.	c #6C5237",
"6;.	c #725E42",
"7;.	c #7F6043",
"8;.	c #9A7B58",
"9;.	c #C4AE86",
"0;.	c #D6C59B",
"a;.	c #C1A980",
"b;.	c #91714F",
"c;.	c #846546",
"d;.	c #896848",
"e;.	c #896949",
"f;.	c #8A6A4A",
"g;.	c #D3B687",
"h;.	c #967A58",
"i;.	c #93714E",
"j;.	c #947352",
"k;.	c #AB9075",
"l;.	c #B8AC9E",
"m;.	c #5A483B",
"n;.	c #503C2E",
"o;.	c #493A26",
"p;.	c #483926",
"q;.	c #473927",
"r;.	c #473926",
"s;.	c #4F3F2C",
"t;.	c #50402D",
"u;.	c #594631",
"v;.	c #54422E",
"w;.	c #5E4B37",
"x;.	c #66533E",
"y;.	c #997758",
"z;.	c #C79B73",
"A;.	c #E7CBA9",
"B;.	c #F8F4EB",
"C;.	c #F0E9DF",
"D;.	c #D1B9A0",
"E;.	c #B58C61",
"F;.	c #9B7751",
"G;.	c #B9956B",
"H;.	c #A17B53",
"I;.	c #7B6549",
"J;.	c #886C4D",
"K;.	c #7E5E42",
"L;.	c #7E5F42",
"M;.	c #91704F",
"N;.	c #A78A67",
"O;.	c #AF926D",
"P;.	c #856546",
"Q;.	c #886748",
"R;.	c #C2A57B",
"S;.	c #DEC596",
"T;.	c #B59974",
"U;.	c #957854",
"V;.	c #906F4D",
"W;.	c #A5886E",
"X;.	c #BDB0A3",
"Y;.	c #4E3A2B",
"Z;.	c #4B3729",
"`;.	c #4B3826",
" >.	c #483B27",
".>.	c #463926",
"+>.	c #493C28",
"@>.	c #4C3E2A",
"#>.	c #4C3C2A",
"$>.	c #574530",
"%>.	c #64513C",
"&>.	c #765D46",
"*>.	c #947355",
"=>.	c #BD926C",
"->.	c #DEBC96",
";>.	c #F7F1E4",
">>.	c #A88A67",
",>.	c #433221",
"'>.	c #AE875D",
")>.	c #A78259",
"!>.	c #9F774E",
"~>.	c #856D4F",
"{>.	c #7F6042",
"]>.	c #7C5E41",
"^>.	c #7D5F42",
"/>.	c #7E6043",
"(>.	c #866747",
"_>.	c #876848",
":>.	c #B19068",
"<>.	c #CAB288",
"[>.	c #CEB891",
"}>.	c #D1BC91",
"|>.	c #8D6E4C",
"1>.	c #94714E",
"2>.	c #B1947A",
"3>.	c #B9A693",
"4>.	c #564537",
"5>.	c #4C3A2B",
"6>.	c #4A3729",
"7>.	c #463724",
"8>.	c #4E3C28",
"9>.	c #4A3D28",
"0>.	c #4A3D29",
"a>.	c #4B3C29",
"b>.	c #55432E",
"c>.	c #574532",
"d>.	c #6F5942",
"e>.	c #8C6E51",
"f>.	c #B58A66",
"g>.	c #D9B189",
"h>.	c #F0E4CE",
"i>.	c #C5AA8D",
"j>.	c #7E6142",
"k>.	c #A77E54",
"l>.	c #B48C61",
"m>.	c #8A6946",
"n>.	c #634A30",
"o>.	c #755C3F",
"p>.	c #7E6A4D",
"q>.	c #8B7051",
"r>.	c #7B5D40",
"s>.	c #7F6244",
"t>.	c #7F6143",
"u>.	c #826344",
"v>.	c #896A4A",
"w>.	c #A48865",
"x>.	c #B39A75",
"y>.	c #B2956E",
"z>.	c #8E6F4D",
"A>.	c #927150",
"B>.	c #9C7A58",
"C>.	c #B09375",
"D>.	c #A09181",
"E>.	c #635548",
"F>.	c #534132",
"G>.	c #453523",
"H>.	c #443423",
"I>.	c #503C29",
"J>.	c #4A3E29",
"K>.	c #4B3F2A",
"L>.	c #4D3D29",
"M>.	c #53412E",
"N>.	c #584633",
"O>.	c #5D4B37",
"P>.	c #67533F",
"Q>.	c #83684D",
"R>.	c #A47E5E",
"S>.	c #CB9F78",
"T>.	c #E7D0B2",
"U>.	c #FAF8F0",
"V>.	c #F4EEE6",
"W>.	c #DDCCB8",
"X>.	c #987F64",
"Y>.	c #57412A",
"Z>.	c #9D7850",
"`>.	c #776246",
" ,.	c #795C3F",
".,.	c #7A5C40",
"+,.	c #7D5F41",
"@,.	c #816243",
"#,.	c #806143",
"$,.	c #896B4A",
"%,.	c #8B6C4B",
"&,.	c #9D805F",
"*,.	c #AF9A82",
"=,.	c #ADA08F",
"-,.	c #5F5145",
";,.	c #534134",
">,.	c #453423",
",,.	c #433322",
"',.	c #4C402B",
"),.	c #4C3F2A",
"!,.	c #4D3C29",
"~,.	c #594734",
"{,.	c #63503C",
"],.	c #775E47",
"^,.	c #947356",
"/,.	c #B98F6B",
"(,.	c #DBB891",
"_,.	c #F4EDDB",
":,.	c #EDE2D6",
"<,.	c #BBA58D",
"[,.	c #765837",
"},.	c #36281A",
"|,.	c #4A3723",
"1,.	c #7A5F40",
"2,.	c #785B3F",
"3,.	c #816344",
"4,.	c #826445",
"5,.	c #8A6C4B",
"6,.	c #9F8467",
"7,.	c #C1B09A",
"8,.	c #5A493C",
"9,.	c #483426",
"0,.	c #513C28",
"a,.	c #4D3F2A",
"b,.	c #4B3B28",
"c,.	c #4C3C28",
"d,.	c #4F3E2A",
"e,.	c #554330",
"f,.	c #564532",
"g,.	c #5C4936",
"h,.	c #5F4C39",
"i,.	c #6D5742",
"j,.	c #876A4F",
"k,.	c #CEA47C",
"l,.	c #E9D6BA",
"m,.	c #FBF9F4",
"n,.	c #DCCBB7",
"o,.	c #8F7151",
"p,.	c #3B2C1D",
"q,.	c #785A3B",
"r,.	c #856B4C",
"s,.	c #785C3F",
"t,.	c #7B5E41",
"u,.	c #7D6042",
"v,.	c #7D6043",
"w,.	c #7E6143",
"x,.	c #806244",
"y,.	c #856747",
"z,.	c #8A6B4A",
"A,.	c #B7A086",
"B,.	c #CEBDA6",
"C,.	c #5C4E41",
"D,.	c #4D3B2D",
"E,.	c #423221",
"F,.	c #4D412C",
"G,.	c #4E422D",
"H,.	c #4D3E2B",
"I,.	c #54422F",
"J,.	c #554331",
"K,.	c #584634",
"L,.	c #64513D",
"M,.	c #9C7959",
"N,.	c #C19670",
"O,.	c #DFBF9C",
"P,.	c #F7F0E4",
"Q,.	c #E7DBCC",
"R,.	c #B1977C",
"S,.	c #876A47",
"T,.	c #8B7251",
"U,.	c #795D40",
"V,.	c #846646",
"W,.	c #866848",
"X,.	c #886A49",
"Y,.	c #8C6D4C",
"Z,.	c #95785B",
"`,.	c #CFBBA4",
" '.	c #B2A89C",
".'.	c #443324",
"+'.	c #443323",
"@'.	c #4A3A28",
"#'.	c #4B3A28",
"$'.	c #4C3B28",
"%'.	c #53422F",
"&'.	c #544330",
"*'.	c #554431",
"='.	c #574633",
"-'.	c #594735",
";'.	c #5C4B38",
">'.	c #6E5842",
",'.	c #8C6D51",
"''.	c #B38966",
")'.	c #D5AD86",
"!'.	c #EEE0C8",
"~'.	c #FFFEFC",
"{'.	c #FEFCFA",
"]'.	c #CEB8A2",
"^'.	c #644C31",
"/'.	c #826442",
"('.	c #88704E",
"_'.	c #846748",
":'.	c #775F43",
"<'.	c #5F4732",
"['.	c #7C6042",
"}'.	c #856646",
"|'.	c #B39A81",
"1'.	c #CEBDA9",
"2'.	c #513F30",
"3'.	c #493729",
"4'.	c #423223",
"5'.	c #423222",
"6'.	c #4E432D",
"7'.	c #4F432D",
"8'.	c #4D402B",
"9'.	c #4A3927",
"0'.	c #4A3A27",
"a'.	c #52412E",
"b'.	c #564431",
"c'.	c #5A4936",
"d'.	c #65523E",
"e'.	c #7F644B",
"f'.	c #A27D5E",
"g'.	c #C79C75",
"h'.	c #E2CBAA",
"i'.	c #FAF7EE",
"j'.	c #F6F2EC",
"k'.	c #E6D8C7",
"l'.	c #785A39",
"m'.	c #523E29",
"n'.	c #755A3C",
"o'.	c #8B6E4B",
"p'.	c #8B6F4E",
"q'.	c #765A3E",
"r'.	c #7A5D40",
"s'.	c #836748",
"t'.	c #917957",
"u'.	c #816F51",
"v'.	c #735A40",
"w'.	c #674F38",
"x'.	c #674E36",
"y'.	c #71573C",
"z'.	c #795C40",
"A'.	c #7C5F41",
"B'.	c #806243",
"C'.	c #876847",
"D'.	c #836647",
"E'.	c #846747",
"F'.	c #856848",
"G'.	c #896B4B",
"H'.	c #93775A",
"I'.	c #C9B89E",
"J'.	c #B3AA9F",
"K'.	c #554334",
"L'.	c #4C3A2C",
"M'.	c #473628",
"N'.	c #443425",
"O'.	c #413222",
"P'.	c #4F432E",
"Q'.	c #4F422D",
"R'.	c #4A3B29",
"S'.	c #493A28",
"T'.	c #493927",
"U'.	c #564432",
"V'.	c #564533",
"W'.	c #5F4D3A",
"X'.	c #715B44",
"Y'.	c #907155",
"Z'.	c #BA8F6B",
"`'.	c #D3B18D",
" ).	c #EEE6D5",
".).	c #D8C6B1",
"+).	c #A2866B",
"@).	c #312518",
"#).	c #836340",
"$).	c #866947",
"%).	c #856849",
"&).	c #785B40",
"*).	c #775C3F",
"=).	c #896E4D",
"-).	c #AD976F",
";).	c #9E8864",
">).	c #7A6044",
",).	c #6E553C",
"').	c #5F4832",
")).	c #6D5339",
"!).	c #836646",
"~).	c #816445",
"{).	c #856748",
"]).	c #886A4A",
"^).	c #A79176",
"/).	c #C5B8A3",
"().	c #AFACA7",
"_).	c #57473A",
":).	c #4D3C2E",
"<).	c #473629",
"[).	c #433423",
"}).	c #453524",
"|).	c #4E412C",
"1).	c #50432E",
"2).	c #4B3B29",
"3).	c #503F2C",
"4).	c #51402D",
"5).	c #544331",
"6).	c #584735",
"7).	c #5C4A38",
"8).	c #65523F",
"9).	c #80654D",
"0).	c #A78061",
"a).	c #C79D79",
"b).	c #DFCBAE",
"c).	c #FAF6EE",
"d).	c #F9F5F0",
"e).	c #CCB091",
"f).	c #634A2F",
"g).	c #2F2316",
"h).	c #2E2316",
"i).	c #322518",
"j).	c #332619",
"k).	c #806342",
"l).	c #8C704E",
"m).	c #887251",
"n).	c #876B4C",
"o).	c #7A5E41",
"p).	c #CCB588",
"q).	c #7E6346",
"r).	c #59452F",
"s).	c #654C34",
"t).	c #795B3F",
"u).	c #826546",
"v).	c #86694B",
"w).	c #8C7052",
"x).	c #AF9A7F",
"y).	c #B8AFA3",
"z).	c #534336",
"A).	c #4A392B",
"B).	c #443526",
"C).	c #443524",
"D).	c #4B3827",
"E).	c #50442E",
"F).	c #50432D",
"G).	c #483826",
"H).	c #493826",
"I).	c #4E3D29",
"J).	c #544230",
"K).	c #564633",
"L).	c #594836",
"M).	c #725B45",
"N).	c #907255",
"O).	c #B18967",
"P).	c #C9A681",
"Q).	c #E5D9C1",
"R).	c #FCFAF4",
"S).	c #E2D1BC",
"T).	c #7F603E",
"U).	c #332618",
"V).	c #8B704E",
"W).	c #907956",
"X).	c #7D6144",
"Y).	c #BFAA80",
"Z).	c #CFBE92",
"`).	c #B6A077",
" !.	c #7F6547",
".!.	c #7E6447",
"+!.	c #6E563D",
"@!.	c #5E4932",
"#!.	c #5E4630",
"$!.	c #85694A",
"%!.	c #947A5E",
"&!.	c #B2A18E",
"*!.	c #BCB5AE",
"=!.	c #544438",
"-!.	c #493A27",
";!.	c #51402E",
">!.	c #53412F",
",!.	c #544431",
"'!.	c #64523E",
")!.	c #7C634A",
"!!.	c #9C795B",
"~!.	c #BE936F",
"{!.	c #EFE8DA",
"]!.	c #D4BBA0",
"^!.	c #A38464",
"/!.	c #302417",
"(!.	c #352719",
"_!.	c #443421",
":!.	c #7D603F",
"<!.	c #92734E",
"[!.	c #947C59",
"}!.	c #7A5F42",
"|!.	c #A58A66",
"1!.	c #BCA67C",
"2!.	c #BBA67C",
"3!.	c #8B7252",
"4!.	c #816649",
"5!.	c #7B6245",
"6!.	c #654E37",
"7!.	c #664D35",
"8!.	c #806445",
"9!.	c #866A4C",
"0!.	c #987E63",
"a!.	c #B5A99E",
"b!.	c #514235",
"c!.	c #483827",
"d!.	c #4C3928",
"e!.	c #51452F",
"f!.	c #4B3C2A",
"g!.	c #483725",
"h!.	c #534230",
"i!.	c #554432",
"j!.	c #574634",
"k!.	c #5B4B38",
"l!.	c #68543F",
"m!.	c #83684E",
"n!.	c #AB8263",
"o!.	c #C99F79",
"p!.	c #DCC9AB",
"q!.	c #F7F4E9",
"r!.	c #E5D5C2",
"s!.	c #CEB598",
"t!.	c #93724F",
"u!.	c #302517",
"v!.	c #94754F",
"w!.	c #977C58",
"x!.	c #8B7050",
"y!.	c #70563B",
"z!.	c #775C41",
"A!.	c #7B6043",
"B!.	c #AF926B",
"C!.	c #BEA57B",
"D!.	c #B59C73",
"E!.	c #9E8360",
"F!.	c #866B4C",
"G!.	c #7F6548",
"H!.	c #7F6447",
"I!.	c #7F6345",
"J!.	c #886B4C",
"K!.	c #9E8873",
"L!.	c #B9AEA3",
"M!.	c #5C4E43",
"N!.	c #4D3C2F",
"O!.	c #473828",
"P!.	c #483A28",
"Q!.	c #52462F",
"R!.	c #51452E",
"S!.	c #4C3A28",
"T!.	c #52412F",
"U!.	c #6E5944",
"V!.	c #8D6F53",
"W!.	c #B68B6A",
"X!.	c #C9A682",
"Y!.	c #E0D3BB",
"Z!.	c #FAF8F1",
"`!.	c #EEE4DB",
" ~.	c #BFA68A",
".~.	c #886D52",
"+~.	c #312517",
"@~.	c #987750",
"#~.	c #A0825C",
"$~.	c #6E553B",
"%~.	c #6E543A",
"&~.	c #7A5F43",
"*~.	c #8B6F50",
"=~.	c #C1AA7F",
"-~.	c #907454",
";~.	c #816648",
">~.	c #604B34",
",~.	c #6A5037",
"'~.	c #7D6143",
")~.	c #7F6346",
"!~.	c #8A6E4F",
"~~.	c #AD9C8B",
"{~.	c #534337",
"]~.	c #4A3A2D",
"^~.	c #483A29",
"/~.	c #483927",
"(~.	c #473725",
"_~.	c #503F2D",
":~.	c #574734",
"<~.	c #614F3C",
"[~.	c #786049",
"}~.	c #9D795B",
"|~.	c #C39772",
"1~.	c #D4B592",
"2~.	c #EBE5D1",
"3~.	c #ECE0D3",
"4~.	c #DBC5AB",
"5~.	c #C7A988",
"6~.	c #8F714F",
"7~.	c #423120",
"8~.	c #896845",
"9~.	c #9E7850",
"0~.	c #A87F54",
"a~.	c #97754F",
"b~.	c #9E805A",
"c~.	c #6E553A",
"d~.	c #806648",
"e~.	c #745C41",
"f~.	c #644B34",
"g~.	c #7F6344",
"h~.	c #7C6143",
"i~.	c #826646",
"j~.	c #947A60",
"k~.	c #B2A190",
"l~.	c #504032",
"m~.	c #493B29",
"n~.	c #53462F",
"o~.	c #534630",
"p~.	c #51442E",
"q~.	c #4B3D2A",
"r~.	c #4B3927",
"s~.	c #4F3D2B",
"t~.	c #513F2C",
"u~.	c #534331",
"v~.	c #554532",
"w~.	c #5A4837",
"x~.	c #7F654D",
"y~.	c #A78261",
"z~.	c #C59B75",
"A~.	c #D4BE9B",
"B~.	c #EFEBDB",
"C~.	c #FEFDFA",
"D~.	c #E6D8C9",
"E~.	c #D5BDA1",
"F~.	c #B79C7E",
"G~.	c #83694E",
"H~.	c #61482E",
"I~.	c #B69167",
"J~.	c #94744D",
"K~.	c #9C7F59",
"L~.	c #9A7F5C",
"M~.	c #987D5B",
"N~.	c #6F563B",
"O~.	c #6D543A",
"P~.	c #6C533A",
"Q~.	c #6E553D",
"R~.	c #634C35",
"S~.	c #634D37",
"T~.	c #664F38",
"U~.	c #655038",
"V~.	c #675038",
"W~.	c #AE9971",
"X~.	c #927A58",
"Y~.	c #947B5A",
"Z~.	c #8D7454",
"`~.	c #7E6446",
" {.	c #6D553C",
".{.	c #7B6042",
"+{.	c #816446",
"@{.	c #A48A73",
"#{.	c #534538",
"${.	c #4C3F2C",
"%{.	c #493A29",
"&{.	c #52452F",
"*{.	c #534730",
"={.	c #50422D",
"-{.	c #503E2B",
";{.	c #4F3E2C",
">{.	c #52422F",
",{.	c #51412F",
"'{.	c #6C5842",
"){.	c #8E7053",
"!{.	c #B68C68",
"~{.	c #D0A57F",
"{{.	c #DBC9AD",
"]{.	c #F4F1E4",
"^{.	c #DAC4A9",
"/{.	c #CBB294",
"({.	c #9E8161",
"_{.	c #58432C",
":{.	c #A88057",
"<{.	c #8B6B47",
"[{.	c #94734D",
"}{.	c #9B7F5A",
"|{.	c #9A825E",
"1{.	c #927957",
"2{.	c #856A4B",
"3{.	c #71583C",
"4{.	c #6A5239",
"5{.	c #6D543B",
"6{.	c #624E38",
"7{.	c #624F37",
"8{.	c #AF9871",
"9{.	c #C1AC84",
"0{.	c #9F8662",
"a{.	c #82694A",
"b{.	c #725A3F",
"c{.	c #5D4932",
"d{.	c #7D6244",
"e{.	c #8C7054",
"f{.	c #AA927B",
"g{.	c #4E4130",
"h{.	c #4B3E2B",
"i{.	c #544831",
"j{.	c #544730",
"k{.	c #513F2D",
"l{.	c #524230",
"m{.	c #745C46",
"n{.	c #977658",
"o{.	c #BB906B",
"p{.	c #C9A47C",
"q{.	c #D5C4A1",
"r{.	c #EDE8D6",
"s{.	c #FCFAF6",
"t{.	c #F7F4EF",
"u{.	c #E3D3C1",
"v{.	c #BD9F7C",
"w{.	c #644A2E",
"x{.	c #977751",
"y{.	c #9D835F",
"z{.	c #977F5B",
"A{.	c #71583D",
"B{.	c #685138",
"C{.	c #695239",
"D{.	c #735B41",
"E{.	c #755D42",
"F{.	c #745B41",
"G{.	c #775E43",
"H{.	c #765E43",
"I{.	c #846C4E",
"J{.	c #877152",
"K{.	c #A28D69",
"L{.	c #C7B389",
"M{.	c #927655",
"N{.	c #5E4933",
"O{.	c #987E62",
"P{.	c #A38D75",
"Q{.	c #5B5044",
"R{.	c #504334",
"S{.	c #463828",
"T{.	c #4D402C",
"U{.	c #554831",
"V{.	c #4C3B29",
"W{.	c #624F3B",
"X{.	c #785F47",
"Y{.	c #9A7858",
"Z{.	c #BF926C",
"`{.	c #D3A981",
" ].	c #DCC6A2",
".].	c #F0E9D6",
"+].	c #FEFCF6",
"@].	c #F8F6F1",
"#].	c #E6D9C9",
"$].	c #D8C1A6",
"%].	c #D1BDA6",
"&].	c #A58E74",
"*].	c #755C42",
"=].	c #553F2A",
"-].	c #98744D",
";].	c #9F7D54",
">].	c #A2845E",
",].	c #A18561",
"'].	c #846A4B",
")].	c #6A5138",
"!].	c #B09A72",
"~].	c #7D6649",
"{].	c #84694B",
"]].	c #C5AE82",
"^].	c #A48B66",
"/].	c #645038",
"(].	c #967E63",
"_].	c #574A3E",
":].	c #4B3E2E",
"<].	c #493A2A",
"[].	c #564932",
"}].	c #4E3C2A",
"|].	c #796047",
"1].	c #987657",
"2].	c #B98F69",
"3].	c #CBA179",
"4].	c #CEB796",
"5].	c #E5DECB",
"6].	c #F9F7F2",
"7].	c #E2D2BF",
"8].	c #C2A584",
"9].	c #9F8364",
"0].	c #9A744D",
"a].	c #A7855C",
"b].	c #A38660",
"c].	c #816749",
"d].	c #72593F",
"e].	c #634D36",
"f].	c #674F36",
"g].	c #6C5339",
"h].	c #745B40",
"i].	c #A48C65",
"j].	c #8A7152",
"k].	c #7A6247",
"l].	c #786046",
"m].	c #786045",
"n].	c #7C6347",
"o].	c #7F674A",
"p].	c #876F51",
"q].	c #927555",
"r].	c #8C7051",
"s].	c #765E42",
"t].	c #765D42",
"u].	c #7C684B",
"v].	c #9E8D68",
"w].	c #836B4C",
"x].	c #7D6547",
"y].	c #785D41",
"z].	c #8C7357",
"A].	c #92816B",
"B].	c #574A3F",
"C].	c #433527",
"D].	c #4D412D",
"E].	c #554931",
"F].	c #493928",
"G].	c #473524",
"H].	c #463624",
"I].	c #4D3B29",
"J].	c #4D3C2A",
"K].	c #4E3D2B",
"L].	c #503E2C",
"M].	c #624E3A",
"N].	c #775E46",
"O].	c #BB8E68",
"P].	c #D0A379",
"Q].	c #D4B98F",
"R].	c #E2D8B8",
"S].	c #F5F3E4",
"T].	c #F8F4ED",
"U].	c #E8DCCF",
"V].	c #D2B89D",
"W].	c #C7A47C",
"X].	c #B8956C",
"Y].	c #95734E",
"Z].	c #403020",
"`].	c #3C2E1E",
" ^.	c #A57F55",
".^.	c #A6875E",
"+^.	c #AB8D65",
"@^.	c #A48863",
"#^.	c #937655",
"$^.	c #685037",
"%^.	c #674F37",
"&^.	c #6F563C",
"*^.	c #D1B688",
"=^.	c #B39E78",
"-^.	c #9B8565",
";^.	c #A38C6B",
">^.	c #9E8968",
",^.	c #B09971",
"'^.	c #C4AD81",
")^.	c #C7AD80",
"!^.	c #AA8D67",
"~^.	c #7B6246",
"{^.	c #775F44",
"]^.	c #8D7B5A",
"^^.	c #8B7858",
"/^.	c #80674A",
"(^.	c #8B7352",
"_^.	c #7C6144",
":^.	c #8B7559",
"<^.	c #4B3D31",
"[^.	c #483A2A",
"}^.	c #584B34",
"|^.	c #544732",
"1^.	c #4B3A29",
"2^.	c #473726",
"3^.	c #735B43",
"4^.	c #8E6F51",
"5^.	c #B58A65",
"6^.	c #CC9F75",
"7^.	c #CEB08A",
"8^.	c #DCD0B2",
"9^.	c #EFE9D6",
"0^.	c #F5EEE3",
"a^.	c #EEE3D7",
"b^.	c #DFCDB9",
"c^.	c #CEB193",
"d^.	c #BE976E",
"e^.	c #7D5E3C",
"f^.	c #9C774F",
"g^.	c #A28158",
"h^.	c #A7875F",
"i^.	c #AB8E67",
"j^.	c #A68862",
"k^.	c #685038",
"l^.	c #654E36",
"m^.	c #644D35",
"n^.	c #6A5038",
"o^.	c #695037",
"p^.	c #AF936D",
"q^.	c #C7B18A",
"r^.	c #D1C09B",
"s^.	c #CBB893",
"t^.	c #CEBA91",
"u^.	c #C1A97E",
"v^.	c #B8A278",
"w^.	c #C7AF81",
"x^.	c #70593F",
"y^.	c #8A795A",
"z^.	c #887050",
"A^.	c #846B4C",
"B^.	c #856D51",
"C^.	c #8A775E",
"D^.	c #574B35",
"E^.	c #4F402E",
"F^.	c #5A4733",
"G^.	c #614D39",
"H^.	c #725A42",
"I^.	c #937152",
"J^.	c #C7A67D",
"K^.	c #C9B994",
"L^.	c #DED5BE",
"M^.	c #F2ECE0",
"N^.	c #F2EADF",
"O^.	c #E4D4C1",
"P^.	c #C3A37E",
"Q^.	c #B2906B",
"R^.	c #A17C54",
"S^.	c #94714B",
"T^.	c #6D5439",
"U^.	c #9D784F",
"V^.	c #A78257",
"W^.	c #A6865D",
"X^.	c #A88A64",
"Y^.	c #AB8D66",
"Z^.	c #785E42",
"`^.	c #664E36",
" /.	c #71583F",
"./.	c #836A4D",
"+/.	c #977D5C",
"@/.	c #927E60",
"#/.	c #9E8869",
"$/.	c #8F7759",
"%/.	c #886F51",
"&/.	c #896F4F",
"*/.	c #BCA276",
"=/.	c #B0956D",
"-/.	c #776045",
";/.	c #7F6E4F",
">/.	c #7F6C4F",
",/.	c #886F4E",
"'/.	c #796043",
")/.	c #83684C",
"!/.	c #8F7C63",
"~/.	c #4D433A",
"{/.	c #43352A",
"]/.	c #483B2B",
"^/.	c #584B35",
"//.	c #534532",
"(/.	c #604C38",
"_/.	c #8F6F4F",
":/.	c #AF8560",
"</.	c #C9996E",
"[/.	c #D1A478",
"}/.	c #CAAC80",
"|/.	c #CEBF9A",
"1/.	c #E1D9C3",
"2/.	c #EEE7D9",
"3/.	c #E7DACA",
"4/.	c #BE966A",
"5/.	c #B78F64",
"6/.	c #9D7C57",
"7/.	c #755C40",
"8/.	c #AB865B",
"9/.	c #AB8A61",
"0/.	c #B19168",
"a/.	c #9F815C",
"b/.	c #735A3F",
"c/.	c #664F36",
"d/.	c #664E35",
"e/.	c #6B5138",
"f/.	c #675037",
"g/.	c #6C553B",
"h/.	c #6D563D",
"i/.	c #6E563C",
"j/.	c #70583E",
"k/.	c #7E6547",
"l/.	c #C8AD7F",
"m/.	c #B2976F",
"n/.	c #7C6447",
"o/.	c #725B40",
"p/.	c #5F4B34",
"q/.	c #765E44",
"r/.	c #8A7051",
"s/.	c #7F6243",
"t/.	c #8C755D",
"u/.	c #4A3E34",
"v/.	c #443729",
"w/.	c #554932",
"x/.	c #473826",
"y/.	c #5F4B37",
"z/.	c #836649",
"A/.	c #9C7756",
"B/.	c #B68B64",
"C/.	c #CA9B70",
"D/.	c #CEA67A",
"E/.	c #CBB183",
"F/.	c #D0C39B",
"G/.	c #E0D6BC",
"H/.	c #EBE1D2",
"I/.	c #E3D4C3",
"J/.	c #D0B497",
"K/.	c #BC9265",
"L/.	c #BD9A71",
"M/.	c #A98A67",
"N/.	c #896C4B",
"O/.	c #654D33",
"P/.	c #654B30",
"Q/.	c #503C26",
"R/.	c #634930",
"S/.	c #A77F55",
"T/.	c #AE8A60",
"U/.	c #B19066",
"V/.	c #664F37",
"W/.	c #644C35",
"X/.	c #695138",
"Y/.	c #654F36",
"Z/.	c #695339",
"`/.	c #6A533A",
" (.	c #6A523A",
".(.	c #6C543B",
"+(.	c #7A6144",
"@(.	c #B3976E",
"#(.	c #C3A87C",
"$(.	c #82694C",
"%(.	c #6D563C",
"&(.	c #7B6447",
"*(.	c #7F6648",
"=(.	c #765C41",
"-(.	c #82694F",
";(.	c #958572",
">(.	c #564D45",
",(.	c #4A3D2C",
"'(.	c #4F412D",
")(.	c #574431",
"!(.	c #5E4A35",
"~(.	c #66503A",
"{(.	c #8C6C4D",
"](.	c #A87E5B",
"^(.	c #B88D66",
"/(.	c #CBB689",
"((.	c #D7CAA0",
"_(.	c #E5DABB",
":(.	c #EBDFCD",
"<(.	c #E6DAC8",
"[(.	c #B38B60",
"}(.	c #BA9266",
"|(.	c #B5936D",
"1(.	c #AA8257",
"2(.	c #987753",
"3(.	c #8C6B46",
"4(.	c #876846",
"5(.	c #9A7750",
"6(.	c #98754F",
"7(.	c #9F7A53",
"8(.	c #A48058",
"9(.	c #A17A51",
"0(.	c #A78157",
"a(.	c #B08C60",
"b(.	c #B09168",
"c(.	c #AD9069",
"d(.	c #AC8D66",
"e(.	c #A88961",
"f(.	c #9C7E59",
"g(.	c #644E36",
"h(.	c #634D35",
"i(.	c #654F37",
"j(.	c #675138",
"k(.	c #685239",
"l(.	c #685238",
"m(.	c #70583D",
"n(.	c #A58A65",
"o(.	c #CDB385",
"p(.	c #9A825F",
"q(.	c #8E7655",
"r(.	c #826A4B",
"s(.	c #958675",
"t(.	c #A3988A",
"u(.	c #534530",
"v(.	c #463625",
"w(.	c #473724",
"x(.	c #4B3928",
"y(.	c #54402D",
"z(.	c #5A4732",
"A(.	c #6A533B",
"B(.	c #7B6045",
"C(.	c #937150",
"D(.	c #AF845E",
"E(.	c #C7AB80",
"F(.	c #D2C091",
"G(.	c #DFD0A4",
"H(.	c #E8DCBD",
"I(.	c #EEE4CD",
"J(.	c #EBDFC8",
"K(.	c #DECDB0",
"L(.	c #B78F65",
"M(.	c #A57E54",
"N(.	c #A47C53",
"O(.	c #A98156",
"P(.	c #A37C53",
"Q(.	c #A88157",
"R(.	c #AC875F",
"S(.	c #B59065",
"T(.	c #B4966E",
"U(.	c #AE926A",
"V(.	c #B5946B",
"W(.	c #A5845E",
"X(.	c #634C34",
"Y(.	c #C8B082",
"Z(.	c #C6B184",
"`(.	c #9B815E",
" _.	c #7E6548",
"._.	c #755D43",
"+_.	c #8A6F4F",
"@_.	c #70573D",
"#_.	c #81674B",
"$_.	c #8A745D",
"%_.	c #ACA49D",
"&_.	c #4A3F35",
"*_.	c #483A27",
"=_.	c #604C36",
"-_.	c #6D543C",
";_.	c #826447",
">_.	c #C1956C",
",_.	c #C19C71",
"'_.	c #D5BA8B",
")_.	c #E1D1A3",
"!_.	c #E8DDB9",
"~_.	c #F4EFD4",
"{_.	c #F5F0DE",
"]_.	c #EEE4D5",
"^_.	c #E8DCCB",
"/_.	c #E0CFB8",
"(_.	c #DBC7AE",
"__.	c #D9C5AF",
":_.	c #CDB092",
"<_.	c #B18960",
"[_.	c #B3895E",
"}_.	c #B1895E",
"|_.	c #B28C62",
"1_.	c #B38C61",
"2_.	c #B68D62",
"3_.	c #BD9C74",
"4_.	c #C0A37C",
"5_.	c #C0A57E",
"6_.	c #BAA27A",
"7_.	c #B6946B",
"8_.	c #BA9369",
"9_.	c #B58F66",
"0_.	c #9F7E58",
"a_.	c #634B34",
"b_.	c #614B33",
"c_.	c #654D35",
"d_.	c #624C34",
"e_.	c #624B34",
"f_.	c #624C35",
"g_.	c #9D8360",
"h_.	c #C4AE82",
"i_.	c #B7A077",
"j_.	c #9B7F5D",
"k_.	c #8B7555",
"l_.	c #887051",
"m_.	c #957B59",
"n_.	c #7C6247",
"o_.	c #8D765B",
"p_.	c #AFA397",
"q_.	c #4A3E35",
"r_.	c #45382A",
"s_.	c #4F422E",
"t_.	c #52452E",
"u_.	c #463725",
"v_.	c #53402C",
"w_.	c #54412D",
"x_.	c #856749",
"y_.	c #AB815B",
"z_.	c #CAA377",
"A_.	c #D1B285",
"B_.	c #D9C499",
"C_.	c #E7D9BD",
"D_.	c #F3ECDC",
"E_.	c #F8F3E3",
"F_.	c #F9F4E1",
"G_.	c #F9F6E7",
"H_.	c #F7F2E6",
"I_.	c #F2EADB",
"J_.	c #EBDFCA",
"K_.	c #DFCEB3",
"L_.	c #D3BD9E",
"M_.	c #D2BA9A",
"N_.	c #D9C6A8",
"O_.	c #D6C0A1",
"P_.	c #DBC9A9",
"Q_.	c #D7C3A1",
"R_.	c #D7C29E",
"S_.	c #CBB28B",
"T_.	c #C6B088",
"U_.	c #C0AA82",
"V_.	c #BCA47D",
"W_.	c #BC966B",
"X_.	c #B69066",
"Y_.	c #AD8760",
"Z_.	c #5F4A33",
"`_.	c #5D4831",
" :.	c #5C4630",
".:.	c #614B34",
"+:.	c #665038",
"@:.	c #6B5339",
"#:.	c #8F7857",
"$:.	c #AC9971",
"%:.	c #B3A076",
"&:.	c #CAB589",
"*:.	c #C3AF84",
"=:.	c #A28864",
"-:.	c #71593F",
";:.	c #846C51",
">:.	c #9E8D74",
",:.	c #4C3F36",
"':.	c #53402D",
"):.	c #614C36",
"!:.	c #C39971",
"~:.	c #CBA77E",
"{:.	c #D2B48E",
"]:.	c #DEC6A8",
"^:.	c #E7D5B9",
"/:.	c #E9D9BC",
"(:.	c #EEE0CA",
"_:.	c #F1E5CC",
"::.	c #F1E6CD",
"<:.	c #F4EBC8",
"[:.	c #EEE4BC",
"}:.	c #F1E8C8",
"|:.	c #EDE2BD",
"1:.	c #EEE1BD",
"2:.	c #E9D9B0",
"3:.	c #E7D6AF",
"4:.	c #E2D0A3",
"5:.	c #D4BD94",
"6:.	c #CEB488",
"7:.	c #C2A67C",
"8:.	c #BD956B",
"9:.	c #A9845C",
"0:.	c #997753",
"a:.	c #5F4932",
"b:.	c #5C4731",
"c:.	c #5B4630",
"d:.	c #5A4530",
"e:.	c #5A4630",
"f:.	c #5F4A34",
"g:.	c #6B543A",
"h:.	c #6E563B",
"i:.	c #9E8662",
"j:.	c #A88D69",
"k:.	c #A48B67",
"l:.	c #948268",
"m:.	c #534840",
"n:.	c #483A2F",
"o:.	c #4B3D2B",
"p:.	c #4F3F2D",
"q:.	c #4A3928",
"r:.	c #493625",
"s:.	c #533F2B",
"t:.	c #54402C",
"u:.	c #523F2B",
"v:.	c #7E6246",
"w:.	c #9A7655",
"x:.	c #A9805D",
"y:.	c #B48B66",
"z:.	c #B9916A",
"A:.	c #C19671",
"B:.	c #C59E78",
"C:.	c #C79F77",
"D:.	c #D1AA86",
"E:.	c #D5B38E",
"F:.	c #D6B387",
"G:.	c #DCBD8F",
"H:.	c #DBBA8E",
"I:.	c #DAB686",
"J:.	c #D4AA7E",
"K:.	c #CB9F74",
"L:.	c #B48B63",
"M:.	c #5B4731",
"N:.	c #5D4731",
"O:.	c #6A543A",
"P:.	c #7D6850",
"Q:.	c #A79880",
"R:.	c #55483F",
"S:.	c #483524",
"T:.	c #523E2A",
"U:.	c #67513A",
"V:.	c #715840",
"W:.	c #8A6C4E",
"X:.	c #8F6F51",
"Y:.	c #977454",
"Z:.	c #A8815D",
"`:.	c #AC855F",
" <.	c #B38962",
".<.	c #B0855E",
"+<.	c #AB825D",
"@<.	c #A57E59",
"#<.	c #5A452F",
"$<.	c #5F4933",
"%<.	c #644E35",
"&<.	c #55493E",
"*<.	c #4A3C2A",
"=<.	c #524430",
"-<.	c #4C3927",
";<.	c #503D29",
"><.	c #5D4934",
",<.	c #614D38",
"'<.	c #65503A",
")<.	c #68523C",
"!<.	c #6D553E",
"~<.	c #725940",
"{<.	c #745A41",
"]<.	c #785D43",
"^<.	c #7D6045",
"/<.	c #7B5F43",
"(<.	c #72583E",
"_<.	c #58442F",
":<.	c #584530",
"<<.	c #5A462F",
"[<.	c #594630",
"}<.	c #614C35",
"|<.	c #644F36",
"1<.	c #6B543B",
"2<.	c #745D45",
"3<.	c #9D8E77",
"4<.	c #9B9589",
"5<.	c #685E56",
"6<.	c #524638",
"7<.	c #554833",
"8<.	c #4E3F2D",
"9<.	c #57432E",
"0<.	c #5B4733",
"a<.	c #5D4834",
"b<.	c #5F4A35",
"c<.	c #56432E",
"d<.	c #5B4730",
"e<.	c #665037",
"f<.	c #685139",
"g<.	c #6A5036",
"h<.	c #4E402F",
"i<.	c #51422F",
"j<.	c #4D3A27",
"k<.	c #58432E",
"l<.	c #58432F",
"m<.	c #59442F",
"n<.	c #5B4530",
"o<.	c #665138",
"p<.	c #675139",
"q<.	c #6D5841",
"r<.	c #948874",
"s<.	c #4D3E2E",
"t<.	c #4C3C2B",
"u<.	c #453322",
"v<.	c #55412C",
"w<.	c #56412D",
"x<.	c #69533B",
"y<.	c #68523A",
"z<.	c #8C8271",
"A<.	c #4A3B2A",
"B<.	c #443221",
"C<.	c #513D29",
"D<.	c #654E35",
"E<.	c #604C34",
"F<.	c #624D35",
"G<.	c #665139",
"H<.	c #6A543C",
"I<.	c #69533A",
"J<.	c #6A553E",
"K<.	c #6E5F4B",
"L<.	c #726657",
"M<.	c #443121",
"N<.	c #493524",
"O<.	c #4C3926",
"P<.	c #523F2A",
"Q<.	c #533F2A",
"R<.	c #5C4832",
"S<.	c #614C34",
"T<.	c #715E46",
"U<.	c #7C7062",
"V<.	c #7D7368",
"W<.	c #685C51",
"X<.	c #4D4030",
"Y<.	c #433120",
"Z<.	c #55402C",
"`<.	c #634E36",
" [.	c #73614B",
".[.	c #978A76",
"+[.	c #9E9890",
"@[.	c #483928",
"#[.	c #453222",
"$[.	c #443222",
"%[.	c #4F3C28",
"&[.	c #5E4A33",
"*[.	c #655037",
"=[.	c #634F37",
"-[.	c #68533B",
";[.	c #82725B",
">[.	c #544637",
",[.	c #433121",
"'[.	c #423020",
")[.	c #443220",
"![.	c #5F4B33",
"~[.	c #5F4C34",
"{[.	c #6B5943",
"][.	c #7F715B",
"^[.	c #504132",
"/[.	c #453624",
"([.	c #423121",
"_[.	c #4D3B27",
":[.	c #624E36",
"<[.	c #6B5D4C",
"[[.	c #766A5A",
"}[.	c #5B4D41",
"|[.	c #41301F",
"1[.	c #42301F",
"2[.	c #4E3B27",
"3[.	c #5E4A34",
"4[.	c #5E4B34",
"5[.	c #614D35",
"6[.	c #614D37",
"7[.	c #6C5E4E",
"8[.	c #4A3C2B",
"9[.	c #412F1F",
"0[.	c #73624E",
"a[.	c #7D7268",
"b[.	c #7C726B",
"c[.	c #4B3C2C",
"d[.	c #433020",
"e[.	c #4D3926",
"f[.	c #5D4A32",
"g[.	c #73634E",
"h[.	c #99938D",
"i[.	c #524536",
"j[.	c #422F1F",
"k[.	c #5D4933",
"l[.	c #7C6E58",
"m[.	c #4C3D2D",
"n[.	c #413020",
"o[.	c #463221",
"p[.	c #685A48",
"q[.	c #7E7364",
"r[.	c #594E41",
"s[.	c #4F4130",
"t[.	c #61513D",
"u[.	c #6D6256",
"v[.	c #422F20",
"w[.	c #503E2A",
"x[.	c #5A4631",
"y[.	c #675641",
"z[.	c #6C5D4C",
"A[.	c #6C5F51",
"B[.	c #514533",
"C[.	c #524634",
"D[.	c #4F412C",
"E[.	c #7A6B55",
"F[.	c #817668",
"G[.	c #594D3E",
"H[.	c #524531",
"I[.	c #55432D",
"J[.	c #645443",
"K[.	c #6C5E4D",
"L[.	c #5A5242",
"M[.	c #564B37",
"N[.	c #554832",
"O[.	c #53472F",
"P[.	c #4E412B",
"Q[.	c #57452F",
"R[.	c #5F4D38",
"S[.	c #6A5C48",
"T[.	c #6E6154",
"U[.	c #6A5F55",
"V[.	c #5E5648",
"W[.	c #584D39",
"X[.	c #564A33",
"Y[.	c #56442E",
"Z[.	c #685843",
"`[.	c #776C62",
" }.	c #5B513E",
".}.	c #584C35",
"+}.	c #584C34",
"@}.	c #52402C",
"#}.	c #604F3C",
"$}.	c #655747",
"%}.	c #5E5542",
"&}.	c #5C503A",
"*}.	c #5A4D35",
"=}.	c #6B5C48",
"-}.	c #6B5E4F",
";}.	c #695C4F",
">}.	c #5D513B",
",}.	c #5B4F37",
"'}.	c #5A4E36",
")}.	c #5D4C37",
"!}.	c #71604C",
"~}.	c #766C5F",
"{}.	c #625B49",
"]}.	c #5D533E",
"^}.	c #564A32",
"/}.	c #4E422C",
"(}.	c #43301F",
"_}.	c #503E29",
":}.	c #5D4B39",
"<}.	c #625A49",
"[}.	c #5C523D",
"}}.	c #5A4F37",
"|}.	c #665641",
"1}.	c #736452",
"2}.	c #69594B",
"3}.	c #645D4C",
"4}.	c #5B513A",
"5}.	c #6C5A44",
"6}.	c #766756",
"7}.	c #605745",
"8}.	c #5C513B",
"9}.	c #594D35",
"0}.	c #432F20",
"a}.	c #624F3D",
"b}.	c #645343",
"c}.	c #695849",
"d}.	c #5E5541",
"e}.	c #5B5038",
"f}.	c #574B33",
"g}.	c #614E3B",
"h}.	c #604D3C",
"i}.	c #5A4E37",
"j}.	c #584D35",
"k}.	c #614F3A",
"l}.	c #5F4F40",
"m}.	c #574C35",
"n}.	c #574A33",
"o}.	c #4E402B",
"p}.	c #604E3E",
"q}.	c #67594D",
"r}.	c #60584A",
"s}.	c #594D39",
"t}.	c #554933",
"u}.	c #524630",
"v}.	c #65533F",
"w}.	c #605142",
"x}.	c #5B513F",
"y}.	c #564934",
"z}.	c #544731",
"A}.	c #534731",
"B}.	c #422F1E",
"C}.	c #5A4839",
"D}.	c #5B4B3D",
"E}.	c #574A35",
"F}.	c #554A34",
"G}.	c #50442F",
"H}.	c #412F1E",
"I}.	c #675445",
"J}.	c #5C5444",
"K}.	c #594E3C",
"L}.	c #412E1E",
"M}.	c #432F1F",
"N}.	c #5C4B3D",
"O}.	c #5D4E42",
"P}.	c #5C5242",
"Q}.	c #584D3B",
"R}.	c #534631",
"S}.	c #4B3E29",
"T}.	c #453120",
"U}.	c #594536",
"V}.	c #62554C",
"W}.	c #5F574A",
"X}.	c #5E5649",
"Y}.	c #584F3D",
"Z}.	c #544832",
"`}.	c #4E3C2B",
" |.	c #4E3C2D",
".|.	c #524234",
"+|.	c #57493D",
"@|.	c #5B5140",
"#|.	c #5C5240",
"$|.	c #574C38",
"%|.	c #564935",
"&|.	c #5E4E39",
"*|.	c #4B392A",
"=|.	c #504134",
"-|.	c #514338",
";|.	c #524438",
">|.	c #5C5344",
",|.	c #5C5343",
"'|.	c #584E3C",
")|.	c #524530",
"!|.	c #514530",
"~|.	c #483A26",
"{|.	c #5B4C37",
"]|.	c #4D3D2B",
"^|.	c #504336",
"/|.	c #4F4238",
"(|.	c #5A5243",
"_|.	c #544938",
":|.	c #534734",
"<|.	c #4C3F2B",
"[|.	c #544532",
"}|.	c #564835",
"||.	c #4A3D2E",
"1|.	c #4F4437",
"2|.	c #53493F",
"3|.	c #595049",
"4|.	c #595040",
"5|.	c #5A5144",
"6|.	c #554B3B",
"7|.	c #4F4330",
"8|.	c #4E422E",
"9|.	c #4D412E",
"0|.	c #4A3D2A",
"a|.	c #463726",
"b|.	c #453726",
"c|.	c #463826",
"d|.	c #473A2B",
"e|.	c #443728",
"f|.	c #483C2E",
"g|.	c #4D4236",
"h|.	c #615A50",
"i|.	c #5C5347",
"j|.	c #584F42",
"k|.	c #574E41",
"l|.	c #524839",
"m|.	c #4E4332",
"n|.	c #53493C",
"o|.	c #4E4233",
"p|.	c #4A3E2D",
"q|.	c #473A29",
"r|.	c #473929",
"s|.	c #443625",
"t|.	c #453727",
"u|.	c #463827",
"v|.	c #473A2A",
"w|.	c #443626",
"x|.	c #483B2E",
"y|.	c #473A2C",
"z|.	c #4B4034",
"A|.	c #4E4234",
"B|.	c #4F453A",
"C|.	c #544C44",
"D|.	c #5A5249",
"E|.	c #544A40",
"F|.	c #544A3F",
"G|.	c #4C3F32",
"H|.	c #4D4235",
"I|.	c #4A3E30",
"J|.	c #4C4031",
"K|.	c #46392A",
"L|.	c #483A2C",
"M|.	c #493C2D",
"N|.	c #4A3D30",
"O|.	c #51483F",
"P|.	c #4D4339",
"Q|.	c #51473D",
"R|.	c #524A41",
"                                                                                                                                                                                                                                                                                                                                                                                                                                                                                                                                                                                                                                                                                                         ",
"                                                                                                                                                                                                                                                                                                                                                                                                                                                                                                                                                                                                                                                                                                         ",
"                                                                                                                                                                                                                                                                                                                                                                        .     +     @  #  $  %  &  *  =  -  ;  >  ,  '  )  !  ~  {  )  ]  ^  /  (  _  :  <  [  }                                                                                                                                                                                                                                         ",
"                                                                                                                                                                                                                                                                                                                                                         |  1  2  3  4  5  6  7  8  9  0  a  b  c  d  e  f  g  h  i  j  k  l  m  n  o  p  q  r  s  t  t  u  v  w  x  x  y  z  A                                                                                                                                                                                                                          ",
"                                                                                                                                                                                                                                                                                                         B     C     B  D  |  E  F  G  H  I  J  K  L  M  N  O  P  Q  R  S  T  U  V  W  X  Y  Z  `   . .. +. @. #. $. %. &. &. *. =. -. ;. >. ,. '. ). !. ~. {. ]. b  b  ^. /. (. _. :. <. [. }. |.                                                                                                                                                                                                       ",
"                                                                                                                                                                     1. 2. 3. 4. 5. 6. 6. 7. 8. 9. 0. a. a. 4  b. a. c. d. e. c. f. g. h. g. e. i. j. k. l. m. n. o. p. n. e. f. e. q. m. g. e. e. r. e. s. e. c. t. u. v. w. x. y. z. A. B. C. D. E. F. G. H. I. J. K. L. M. L. N. O. P. ~. Q. R. S. T. U. V. W. X. Y. Z. `.  + .+ ++ @+ .+ #+ $+ %+ &+ #+ *+ =+ -+ ;+ >+ ,+ '+ )+ !+ ~+ ~+ {+ {+ a  ]+ ^+ /+                                                                                                                                                                                           ",
"                                                                                                                                                (+ _+ :+ <+ [+ E  }+ |+ 1+ 2+ 3+ 4+ 5+ 6+ I  4  4  c. r. m. m. 7+ 7+ 7+ k. 8+ 7+ j. 7+ 7+ k. 9+ 0+ a+ a+ b+ 0+ 0+ 0+ c+ 0+ c+ c+ 0+ c+ 0+ 0+ d+ c+ e+ N  f+ g+ h+ i+ j+ k+ l+ m+ n+ o+ p+ q+ r+ s+ t+ u+ v+ w+ x+ y+ z+ A+ B+ C+ D+ E+ F+ G+ H+ I+ J+ K+ L+ L+ M+ N+ O+ P+ Q+ R+ S+ S+ T+ U+ V+ W+ W+ X+ Y+ Z+ $+ `+  @ .@ X. +@ @@ #@ $@ %@ &@ *@ =@ -@ {+ {+ ;@ >@                                                                                                                                                                                     ",
"                                                                                                                                 ,@ '@ )@ !@ ~@ }+ 9. {@ a. ]@ ^@ a. 4  a. d. r. e. m. 7+ k. 9+ a+ b+ /@ (@ _@ _@ _@ (@ (@ (@ :@ _@ <@ [@ }@ |@ 1@ 1@ 1@ 2@ 3@ 4@ 5@ 3@ 6@ 4@ 3@ 5@ 7@ 8@ A. 9@ 0@ a@ b@ c@ d@ e@ f@ g@ h@ i@ j@ k@ l@ m@ n@ o@ p@ q@ q@ r@ s@ t@ u@ v@ w@ x@ y@ z@ A@ B@ C@ D@ D@ E@ F@ G@ G@ H@ I@ J@ K@ L@ M@ N@ O@ P@ Q@ R@ S@ W+ T@ Y+ U@ V@ V@ W@ `. `. X@ Y@ Z@ `@  # .# +# @# ## $# %# ~+ ~+ &# *#                                                                                                                                                                               ",
"                                                                                                                     =# -# ;# ;# ># ;# ,# '# c. 8+ )# !# !# ~# {# ]# ]# ^# /# (# _# :# <# [# }# |# 1# 1# 2# 3# 3# 3# 4# 5# 6# 7# 8# 9# 9# 8# 0# a# b# c# d# 8# e# f# e# g# d# h# i# j# k# l# m# m# n# o# p# q# r# s# s# t# u# v# w# x# y# z# z# A# B# C# D# E# F# G# H# I# J# K# L# L# M# L# L# L# D@ E@ F@ G@ N# O# J@ P+ P# K@ L@ Q# R# S# T# V+ U# V# Y+ W# X# V@ W@ Y# X@ Z# $+ X@ `#  $ $+ Z@ .$ +$ @$ #$ $$ %$ &$ *$ =$ -$                                                                                                                                                                         ",
"                                                                                                               ;$ >$ ,$ '$ )$ !$ )$ ~$ {$ ]$ ^$ /$ /$ ($ _$ :$ <$ [$ }$ |$ 1$ 2$ 3$ 3$ 4$ 5$ 6$ 7$ 8$ 9$ 0$ a$ b$ b$ c$ d$ d$ d$ d$ e$ f$ g$ g$ h$ i$ j$ k$ k$ k$ k$ l$ m$ n$ 0@ o$ p$ q$ r$ s$ t$ u$ g@ v$ w$ x$ y$ z$ A$ B$ C$ D$ E$ F$ G$ H$ I$ J$ K$ L$ M$ N$ O$ P$ P$ P$ K# K# K# K# K# L# L# L# D@ Q$ F@ N# O# I@ J@ J@ J@ R$ S$ T$ P@ S# U$ V$ W$ X$ Y$ Z$ `$ W@  % .% +% X@ .% @% #% $% %% &% *% .$ =% -% ;% R. >% ,% '% *$ )% !%                                                                                                                                                                ",
"                                                                                                         ~% {% !$ )$ ]% ^% /% (% _% ]$ :% <% <% [% :$ }% |% 1% 2% 3% 3% 4% 5% 6% 7% 8% 9% 0% a% b% c% d% e% d% f% g% d$ h% h% i% i$ j% j% j% k% l% m% n% n% o% n% h$ p% q% r% s% t% u% v% w% x% y% z% A% B% C% D% E% F% G% H% I% J% K% L% M% N% O% P% Q% P$ K# L# K# K# K# P$ P$ P$ P$ P$ K# K# L# D@ D@ Q$ F@ G@ H@ J@ I@ I@ P# R% S% T$ R# S# U$ V$ T% U% V% W% X% `$ Y% Z% +% &+ W# `% &+ Y# %+ %+  & &% .& +& @& #& -% $& %& && *& =& U  -& -&                                                                                                                                                       ",
"                                                                                                   ;& ,# !$ ]% >& /% ,& '& )& !& ~& {& ]& ^& /& [% (& _& :& <& 2% [& }& 4% |& 1& 2& 8% 3& 4& 5& 6& 7& f% 6& 8& 9& 0& a& b& c& d& d$ d$ d$ e& e& e$ j% f& g& m$ h& i& ;  j& k& l& T  m& n& o& p& p& q& r& s& t& u& G% v& I% I% w& x& y& z& A& B& L# C& P$ K# K# D@ L# D@ L# P$ D& E& P$ F& F& F& L# E@ Q$ F@ F@ G@ H@ I@ H@ O# G& H& I& J& K& S# U$ S@ T% W$ L& M& N& W% W# O& Z#  $ +% +% X@ ++ +& P&  & +& @& Q& `@ +& +& `@ R& S& T& U& V& W& X& U  Y&                                                                                                                                                 ",
"                                                                                          2. ;# ,# !$ Z& >& `&  * (% '& .* +* @* #* ~# $* $* %* &* ^& ($ ** _& =* -* ;* >* ,* '* )* !* 9% 9% 9% 6$ ~* {* ]* |$ ^* ]* /* (* _* :* :* _* <* <* [* }* |* 1* 2* 3* 4* 5* 6* 7* 8* 9* 0* a* b* c* d* l+ e* f* g* h* i* i* j* k* l* m* n* o* p* q* q* C& r* D& s* K# K# L# M# D@ K# P$ D& P$ P$ F& F& L# D@ E@ E@ G@ H@ H@ I@ N# t* u* I& T$ K& T# Q@ v* S@ T% w* x* Z$ x* x* x* y* z* A* Z% B* B* ++ P& P& C* C* `@ C*  & `@ D* Q& E* F* U. G* H* I* J* K* L* M* N*                                                                                                                                           ",
"                                                                                       O* ;# ,# P* ]% `& /% /% Q* Q* R* S* .* +* {$ T* U* V* T* !& W* %* :% ^$ ^$ :% X* Y* Z* }% `* ,*  = ,* |$ .= _# += @= Z* _# #= |$ $= /* %= &= *= == -= == ;= >= ,= '= )= != ~= {= ]= ^= /= (= _= n$ := <= [= }= |= 1= j* j* 2= 3= 4= 5= 6= P% 7= 8= C& C& 9= 0= 9= a= O$ P$ K# K# L# L# P$ D& D& P$ P$ F& L# L# D@ Q$ N# H@ I@ b= c= d= e= I& O@ P@ T# v* f= W+ g= h= x* W% x* i= V% W# X@ #% j= X@ B* ++ Y. C*  % k= l= l= Q& `@ m= n= W. F* F* o= p= q= r= s= t= u= v= r%                                                                                                                                        ",
"                                                                                 w= x= y= y= ,# z= ^% A= ^% >& B= C= B= D= D= D= E= F= G= F= F= H= V* I= I= J= U* K= L= U* M= ^# Z* += Y* N= N= O= P= Q= P= R= S= T= #= U= <# V= W= X= Y= Z= `=  - .- +- @- #- $- %- &- *- =- -- ;- >- ,- '- )- !- ~- {- ]- ^- /- (- _- :- <- [- }- |- 1- r* 2- 3- 0= 4- 5- 6- Q% P$ P$ K# K# P$ D& D& Q% Q% F& L# L# D@ F@ G@ H@ 7- 8- 8- 9- I& O@ 0- a- b- c- W+ g= d- L& x* e- x* i= f- &+ +% g- Z% +% B* Y@ $+ m= B* ++ h- $+ $% W. $% W. $% o= o= i- j- k- l- m- n- o- p- q- r- s-                                                                                                                                  ",
"                                                                              {% t- 4. t- u- v- w- x- x- !$ y- z- y- B= B= B= A- B- B- A- C- C- F= c. V* H= ^@ D- E- F- D- g. I= O= G- H- I- I- J- K- L- I- M- N- O- Y= P- Q- R- R- S- T- U- V- W- X- Y- Z- `-  ; .; +; @; #; $; %; &; *; =; -; ;; >; ,; '; ); !; ~; {; ]; ^; /; (; _; r* 2- :; <; [; }; |; 1; D& P$ D& D& D& D& 2; D& Q% Q% L# E@ E@ F@ G@ 3; 7- 3; 3; L+ 4; 5; a- 6; 7; 8; f= W+ W$ h= e- 9; X$ e- W# X@ +% W# Z$ Z% +% Z#  $  $  $ B* Y@ $+ $% $+ A* A* $% 0; a; b; k- k- c; c; d; d; e; n- f; g; h; i;                                                                                                                               ",
"                                                                           ~% {% t- t- j; t- 4. k; k; l; v- m; E  w- 8. 8. y- }+ n; |+ 7. o; B- C- a. G= C- 5+ p; p; q; t. r; s; s; t; u; v; w; x; y; z; A; B; C; R- D; E; E; E; F; G; H; I; J; K; L; M; N; O; P; Q; R; S; T; U; V; W; X; Y; Z; `;  > .> +> @> #> $> %> ~; &> *> => -> ;> >> ,> '> [; 0= 2- 0= )> D& 2; !> 2; 2; 2; D& Q% Q% L# E@ F@ F@ 3; 3; 3; ~> {> ]> ^> a- 7; b- 8; /> U# U% W$ V# e- (> _> :> g- Z# Z% <> [> [> Z% }> +% +% +% X@  $ |> $% A* |> |> A* |> 1> c; c; 2> 3> 4> 4> 5> 6> 6> 7> 8> 9> 0> a> b>                                                                                                                         ",
"                                                                     c> d> -# e> f> f> f> j; t- g> g> h> i> h> l; E  E  [+ j> k> [+ l> m> |+ n> n> 9. B- o> >= p> >= q> E- t. r> s> s> s> t> u> x; v> S- w> x> y> y> z> z> A> B> C> D> E> F> G> H> I> J> K> L> L> M> N> O> P> Q> R> S> T> U> V> W> X> Y> Z> `>  , ., +, +, @, #, $, %, 0= &, *, =, [; !> 0= [; -, !> !> D& D& P$ D& D& Q% D& ;, >, F@ ~> ~> J+ J+ J+ K+ ,, 0- ', b- 8; /> f= ), !, g= V$ Y$ (> X$ e- W# Z% Y% Y% .% g- ~, O& Z% g- +% X@  $ $+ $+  $ {, b; a; e; ], d; 3> ^, /, j= j= (, _, :, <, _, [, }, |, 1, 1,                                                                                                                      ",
"                                                                  2, 3, 3, (+ 2, 2, 4, 5, :+ h> t- i> :+ 6, h> 7, j> k> 8, 8, k> j> 9, @  n; n; m> 0, a, m> b, c, p> p; d, e, f, g, h, h, t> y; v> S- i, x> j, k, l, m, n, o, p, q, r, s, t, F> u, v, x% w, x, x, y, z, A, B, C, D, E, F, G, H, I, J, K, L, `> #> M, N, O, P, Q, R, S, ,> T, *, '> [; [; [; 3- !> !> 2; 2; D& P$ 2; Q% U, 2; F& V, W, {> X, X, J+ K+ Y, Z, `,  ' 8; /> /> .' U% h= h= 9; Z$ Z$ +' Y$ W# <> .% +% }> y* @' O& }> .% &+ X@ Y@ $+  $ #' #' {, 1> ], 3> ^, 4> 5> 6> (, :, <, $' $' %' %' :, &' *' =' -' ;'                                                                                                                   ",
"                                                               >' ,' '' )' !' _+ ~' {' 5, :+ :+ 5, ]' ^' 8, 8, 8, 8, /' /' /' 8, (' k> _' k> @  k> :' <' <' [' }' c, |' 1' 2' 3' 3' 4' 5' 6' y; 7' i, 8' 9' P; 0' a' b' c' d' e' f' g' h' i' j' k' l' m' n' o' p' q' r' s' t' u' v' w' x' y' z' A' B' C' C' D' E'  , M, F' G' (; H' I' T, J' &, '> <; <; [; 0= !> 2; 2; 2; D& Q% 2; Q% K' K' L' M' N' O' N' J+ K+ P' ,, Q' R' S' /> T' U' V' W' e- x* Y$ W# Z$ f- f- <> <> Z% /, X' X' g- .% +% &+ &+ X@  $  $ #' #' #' #% +% }> 4> /, /, 6> (, <, $' Y' Z' Y' `'  )  ) .) &' +) @) #) $) %)                                                                                                             ",
"                                                            &) *) *) =) -) -) ~' ;) {' ]' >) >) >) ,) ') ') ') ') )) )) !) !) ') ') ') ') ~) {) ]) ]) ^) /) () _) :) G  <) [) [) }) |) 1) f+ 2) 3) 4) 5) 6) 7) 8) 9) 0) a) b) c) d) e) f) g) v# h) n' i) j) k) l) m) n) n) o) p) q) r) s) z' t) u) K, C' v) w) x) y) z) A) G' B) C) D) E) F) I' <; 3- *, G) !> !> !> 2; 2; D& 2; F& ;, H) ;, I) J) O' K) {> L) M) O' N) ^> `, S' /> S' ^> ', W' O) Y$ ~, Z$ W# <> Z% <> `# X' @' j= O& <> Z% X' Z# +% X@ X@ #' Z# X@ h-  % }> }> /, j= (, P) <, Q) Z' Z' R) .)  ) S) T) .) U) V) W) X) Y) Z) `)                                                                                                          ",
"                                                          ! .! +! =) ,' ;) @! #! ,) $! %! ,) ,) ') &! *! =! -! &! ;! >! ,! '! '! '! >! ;! ;! ;! !) !) )! ]) /) () _) :) !! ~! ~! {! ]! 1) 6' ^! /! (! _! :! <! [! }! |! 1! 2! 3! 4! 5! 6! 7! 8! h) 9! 0! a! b! c! d! e! f! g! h! i! s) j! k! l! m! n! o! p! q! r! s! F' t! u! M, v! w! x! M, y! <; G) &, 0= 2- z! 0= ;> ;> r* C& q* A! B! p* C! D! D! K) ~> L+ E! W, J+ F! 0- /> G! U' R' .' (> x* Y$ Z$ W# <> Z% Z% `# `# X' H! I! Y% Z# `# `# Z# &+ &+ &+ I! J! K! L! M! N! #' O& @' $' $' Z' O! P! Q! T) R! S! T! U! U! U! V! W! X! Y! Z! `!  ~                                                                                                       ",
"                                                      .~ +~ @~ #~ #~ $~ %~ &~ *~ =~ =~ -~ -~ ;~ >~ &~ ,~ -~ -~ ,~ '~ )~ !~ !~ ~~ {~ ,! '! '! '! '! '! i& ;! ]~ ^~ /~ _) 7  (~ _~ :~ <~ [~ }~ ^! 4) |~ 1~ 2~ 3~ 4~ 5~ 6~ 7~ 8~ 9~ 0~ a~ b~ c~ d~ e~ f~ g~ h~ i~ j~ k~ l~ m~ n~ o~ p~ q~ r~ s~ l! u) n! t~ u~ D' v~ w~ t! x~ x~ y~ z~ T, T, A~ B~ *, &, C~ 9= C~ -> C~ >> D~ A! ;, p* E~ B! a= F~ G~ H~ J) P' ~> I~ W, J+ L) a- f= .' J~ K~ L~ O) M~ ~, f- <> <> Z% g- g- X' j= O& +% +% X@ Z% Y% &+ &+ &+ +% X' N~ O~ P~ Q~ R~ @& j= S~ $' L~ O! T~ T~ R! U~ V~ W~ T! W! X~ Y~ Y~ Y~ Y~ Z~ `~  { .{ `! +{                                                                                                 ",
"                                                   %~ %~ @{ @! #{ ${ %{ &{ *{ ={ -{ ;{ -{ -{ >{ -{ ,{ '{ '{ ){ !{ ~{ {{ ]{ ]{ ]{ ^{ /{ /{ /{ ^{ ^{ ({ )~ _{ :{ <{ [{ }{ }{ }{ |{ 1{ :~ 2{ 3{ 4{ 5{ 6{ 7{ 8{ 9{ 9{ 9{ 0{ a{ b{ c{ d{ e{ f{ f{ g{ h{ i{ j{ k{ l{ m{ n{ o{ p{ q{ r{ p~ s{ r~ t{ u{ v{ w{ x{ y{ z{ q! A{ x~ x~ E) B{ C{ D{ E{ F{ G{ H{ &, z! I{ I{ -> C~ -> J{ K{ P% L{ L{ o* M{ N{ G~ D! N) S' P! :, I! O{ P{ Q{ K~ O! O! (> (> `% ~, W# <> <> Z% Z% g- g- X' g- +% &+ X@ R{ W@ &+ &+ &+ +% /, S{ T{ U{ V{ W{ X{ Y{ S~ Z{ Q) Z' T~ R! R! S! `{ W~  ] T! T! .] +] +] @] @] @] @] #] $] %] &] *]                                                                                              ",
"                                                =] -] *{ #{ ;] >] ,] '] )] !] ~] {] {] {] ]] ^] ^] ^] ^] /] (] _] (] :] <] [] }] |] [] 1] 1] 2] [] 3] 4] 5] 5] 6] 7] 8] 9] 0] a] b] c] d] e] f] g] h] i] j] 9{ 9{ 9{ 9{ k] l] m] n] e@ o] p] q] r] s] t] u] v] w] x] r) y] z] r{ A] B] s) C] u{ D] E] x{ w{ F] G] H] I] I] J] K] C{ L] M] F{ N] D{ &, >> O] O] w! C~ P] Q] R] S] S] T] U] V] W] X] Y] $' Z] `]  ^ .^ +^ @^ X' #^ L~ (> (> `% ~, $^ <> <> <> Z% `# g- g- g- .% Z# &+ X@ `. X@ Z# &+ +% }> X' %^ &^ *^ =^ -^ ;^ >^ :, <, Q) Z' T~ G! S! V~ W~ ,^ +] +] '^ @] )^ !^ !^ ~^ {^ ]^ ^^ ]^ /^ (^ _^ :^                                                                                           ",
"                                             <^ [^ }^ |^ 1^ 2^ 3^ 4^ 5^ 6^ 3^ 7^ 8^ 9^ 0^ a^ b^ c^ d^ e^ f^ g^ h^ i^ j^ j^ k^ l^ m^ m^ m^ n^ o^ p^ q^ r^ 1] s^ s^ <] |] 5] t^ u^ v^ w^ x^ y^ z^ A^ B^ 9{ 9{ 9{ 9{ C^ 8{ D^ (= E^ F^ G^ H^ I^ J^ K^ L^ M^ N^ O^ P^ Q^ R^ S^ T^ r{ A] U^ V^ W^ X^ Y^ Z^ `^ w{ z{  / ./ I] +/ @/ K] #/ L] F{ D{ F{ F{ I{ I{ I{ $/ $/ w! %/ &/ */ =/ -/ W) ;/ >/ |> U! l- ,/ '/ )/ !/ ~/ {/ ]/ ^/ m- P) S~ M~ X' `# O& O& <> `# O& O& g- O& .% .% &+ R{ `. `. X@ Z# Z# +% // V) (/ F{ V) _/ S. :/ </ j= <, Z' P! R! S! V~ V~ W~ ,^ [/ [/ }/ |/ 1/ 1/ {^ 2/ 3/ ^^ G~ 4/ ~^ 5/ 6/ 7/ 8/                                                                                        ",
"                                          @~ 9/ 0/ a/ b/ c/ d/ e/ f/ f/ g/ h/ i/ j/ k/ l/ m/ n/ o/ p/ q/ r/ s/ t/ u/ v/ w/ x/ y/ z/ A/ B/ C/ D/ E/ F/ k^ G/ H/ I/ J/ 2] 3] K/ L/ M/ N/ O/ P/ Q/ R/ S/ 0{ 9{ 9{ 9{ T/ U/ V/ W/ X/ Y/ Z/ `/  ( .( +( @( #( $( %( &( *( R^ =( S^ y] y] y] -( W^ X^ ;( Y^ `^ >( z{ ,( '( )( #/ @/ K] !( ~( D{ !( {( ]( ^( I' S, /( F) *> (( `~ _( :( <( [( }( |( 1( 2( 3( 4( 5( 6( */ 7( 8( 9( 0( a( k- @' X' j= O& O& `# O& O& O& }> O& .% +% +% &+ X@ X@ X@ &+ Z# +% /, @% b( c( d( e( c; f( g( 5> S~ h( Z' T~ R! R! V~ i( j( k( l( l( m( n( o( p( p( Y] q( q( r( s( t( u( v( w( }=                                                                                        ",
"                                       x( y( <) z( A( B( B( B( B( C( D( E( F( G( H( I( J( K( L( M( N( O( P( Q( R( S( T( U( V( W( X( Y( Z( `(  _ ._ +_ @_ #_ $_ %_ &_ *_ *_ =_ -_ ;_ >_ ,_ '_ )_ |! 6~ !_ 0{ ~_ {_ ]_ ^_ /_ (_ __ r+ :_ <_ [_ [_ }_ |_ 1_ 2_ 3_ 4_ 5_ *( 6_ z] 7_ y] 8_ 9_ 0_ a_ a_ Y^ b_ >( X^ c_ c_ ./ d_ e_ +/ J] K] C{ B{ x~ x~ f_ g_ D) h_ *> i_ j_ k_ l_ m_ n_ o_ p_ q_ r_ s_ o_ i_ &/ t_ &/ u_ v_ w_ x_ y_ z_ 5> X' g- .% O& A_ j= .% .% Y% .% +% &+ &+ &+ X@ Z# +% Z# +% .% 6> B_ C_ D_ E_ F_ G_ H_ I_ S~ h( Z' P! T) S! U~ J_ j( K_ P{ k( m( m( o( L_ L_ Y] Y] q( N) M_ N_ M) t( n( J$ O_ P_ Q_                                                                                  ",
"                                    R_ S_ T_ U_ V_ W_ X_ Y_ Z_ B. `_  : .: +: @: #: $: %: &: *: =: -: ;: >: ,: ': ): !: ~: {: R( ]: ^: /: (: _: :: Z( <: [: }: |: 1: 2: 3: 4: 5: 6: 7: 8: 9: 1! 8~ 0: a: b: c: d: A. e: N/ f: g: h: i: j: k: l: m: o{ n: o: p: q: r: 3_ 6_ s: 8_ 8_ t: 9_ 9_ u: W^ v: W^ V^ D] ,( w: x: '( y: z: A: B: B: )( C: D: E: F: F) G: H: I: J: K: L: M: N: O: F' P: O: Q: R: S: S: T: U: V: W: X: Y: Z: `:  < j= }> +% /, .< +% &+ &+ &+ &+ &+ &+ X@ X@ &+ +% +% +% +% O& X' %^ +< @< #< $< %< &< d; L~ Z' Z' P! R! S! `{ *< K_ P{ P{ k( m( m( o( L_ L_ Y] Y] q( M) K+ O' N_ M) N) =< -< ;< ><                                                                                  ",
"                                    ,< '< )< !< |@ ~< B. Y_ {< `_ ]< ^< /< (< _< :< << [< }< |< 1< 2< 3< 4< 5< 6< 7< 8< 9< 0< a< b< c< d< ]: e< f< g< h< i< j< k< l< m< n< o< p< q< r< s< t< u< v< w< x< y< z< A< B< m& C< D< E< F< G< H< I< J< K< L< M< N< O< P< q: Q< *( s: 8_ 7_ t: t: 9_ R< S< 0_ T< s{ U< V< W< X< Y< y: Z< y: ./ B: )( I' g_ %/ A{ %/ `< P:  [ %> %^ B: .[ F' +[ @[ F) P: #[ $[ v! %[ &[ *[ =[ w~ -[ ;[ q_ >[ ,[ 4> +% &+ +% }> &+ X@ X@ X@ X@ &+ X@ X@ X@ #' #% ], +% +% /, '[ )[ ![ E_ _, ~[ {[ ;/ U@ .< h( Q) P! R! V~ K_ ][ ^[ P{ ][ k( m( o( o( L_ L_ Y] s( N) K+ K+ /[ M) ([ ^^ _[ {^ :[ <[ [[                                                                               ",
"                                 }[ ~) |[ 1[ 2[ 4@ 3[ 4[ 3[ 5[ 6[ 7[ 8[ 9[ 0[ a[ b[ c[ d[ e[ f[ g[ h[ i[ j[ k[ l[ m[ n[ o[ p[ q[ r[ s[ t[ u[ v[ c< w[ x[ y[ z[ A[ j< j< B[ C[ D[ E[ F[ G[ H[ I[ J[ K[ L[ M[ N[ O[ P[ Q[ R[ S[ T[ U[ V[ W[ X[ Y[ Z[ `[  } .} +} @} q: r: *( s: #} 7_ t: $} R< R< =( %} &} E] *} =} =} w: c_ Y< '( '( -} H] H] G' P] F: h_ ;} _; S: >} ,} N] F{ .[ y~ '} )} !} @[ ~} {} ]} ^} /} (} _} :} <} [} }} |} 1} 2} #' R{ X@ #' X@ `. `. `. `. X@ X@ X@  $  $ #% #% }> }> j= 3} 4} W: 5} $< 6} 7} e; A_ Q) Z' Z'  ) U~ W~ l( k( K_ k( m( o( L_ o( o( L_ L_ N) s( 8} K+ J+ K+ M) K+ K+ 9} 9} p( 0} a} b}                                                                            ",
"                              c} d} _' H  e} f} g} r. c+ h} i} j} k} l} m} n} n} o} p} q} r} s} t} u} v} w} x} y} z} A} B} C} D} E} F} G} H} I} J} K} L} M} N} O} z[ z[ P} Q} R} S} T} U} V} W} X} Y} Z} `}  | .| +| @| #| $| %| &| *| =| -| L< ;| >| >| ,| '| )| !| ~| *( s: {| 7_ $} ]| ^| 9_ /| (| _| :| *} <| <| w: c_  / c_ [| }| || 1| Q, #, G: V: #, 2| 3| 4| 5| 6| J] 7| 8| 9| 0| a| b| O: c| d| e| f| g| h| i| j| k| l| m| f( 0; n| n|  $ o|  %  % k= p| p|  % R{ `. `. X@ #' &+ +% }> :, q| r| s| =^ t| {[ u| X' Z' O! v| w| G! x| K_ l( U' P{ y| z| Y] L_ o( o( L_ L_ A| N) 8} K+ K+ B| K+ 8- J+ M+ 9} P' '^ C| D| E|                                                                         ",
"                              F| G| H| {' I| J| {@ d. K| L| M| N| O| P| Q| R| S| T| U| V| W| X| Y| Z| `| h[  1 .1 +1 @1 #1 $1 %1 &1 *1 =1 -1 ;1 H} >1 ,1 K} '1 )1 !1 ~1 {1 ]1 ^1 /1 (1 _1 :1 <1 [1 }1 |1 11 21 31 41 51 61 71 81 91 01 a1 b1 @} c1 d1 >| e1 f1 r: *( g1 h1 i1 j1 k1 l1 ]| ^| m1 n1 o1 p1 b_ :| <| <| q1 r1 s1 t1 z' u1 v1 w1 x1 y1 z1 || A1 B1 C1 D1 E1 I: A: r1 !; F1 G1 H1 I1 J1 z1 K1 L1 M1 N1 O1 P1 j| Q1 R1 S1 T1 U1 $+  % +% n| h- h- Y. Y. Y. k= R{ p| `+ X@ X@ Z# Z# O& V1 c( W1 X1 Y1 Z1 E# `1 A_ O! v| K~ Q{ V~ `{ j( K_ l( l( l( o( Y] _[ o( o( o(  2 ,, A| K+ K+ J+ P' J+ M+ M+ M+ .2 9} +2 @2 #2 $2 %2                                                                      ",
"                           &2 *2 =2 -2 ;2 ^' 6, I| 4  c+ >2 M| q& ,2 '2 )2 !2 ~2 {2 ]2 X| ^2 /2 s} (2 _2 :2 <2 [2 }2 |2 12 }2 22 32 42 52 62 72 82 92 02 a2 b2 c2 d2 e2 f2 g2 h2 i2 j2 k2 l2 m2 n2 o2 p2 q2 r2 s2 t2 u2 v2 w2 x2 y2 z2 A2 B2 C2 C2 D2 .} q: R^ -( E2 p: F2 F2 G2 {| H2 I2 J2 K2 L2 M2 N2 O2 P2 :| <| Q2 [| R2 S2 {[ T2 U2 V2 W2 X2 Y2 Z2 */ `2 &/  3 .3  / +3 .[ @3 #3 $3 %3 &3 *3 {; =3 -3 ;3 >3 ,3 '3 )3 Q1 !3 ~3 |} t| h- $% |> l= {3 {3 .+ {3 {3 ++ p| k= p| `. X@ &+ &+ (, ]3 ^3 /3 (3 _3 :3 <3 X' Z' Z' O! w| x| `{ `{ j( U' m( l( m( z| o( o( o( o( o( L_ ,, 8} K+ L+ L+ M+ M+ [3 M+ }3 .2 }3 }3 A| @] |3 13 23                                                                   ",
"                           33 43 53 63 73 83 !' 0, F- e+ 93 03 a3 ,2 b3 c3 d3 e3 f3 g3 h3 /2 i3 j3 k3 l3  1 m3 n3 o3 p3 q3 r3 s3 t3 u3 v3 w3 x3 y3 z3 A3 B3 C3 D3 E3 F3 G3 H3 I3 J3 K3 L3 /1 M3 N3 O3 P3 Q3 R3 S3 T3 U3 V3 W3 X3 Y3 Z3 `3  4 .4 B2  } r: m1 -( 0_ -( z] s: G2 G2 {| k1 H2 k1 +4 @4 M2 #4 $4 %4 b_ :| x{ U< &4 *4 -3 =4 -4 ;4 >4 >[ ,4 R1 '4 W: W: )4 !4 ~4 {4 '} ]4 ^4 /4 (4 _4 :4 M, <4 [4 }4 5/ |4 14 24 >3 34 44 }( 54 W. l= l= l= 64 %% Y. {3 {3 ++ 74 84 .+ 94 &+ +% .% 04 a4 b4 c4 e; d4 e4 f4 S~ h( Z' v| w| Q{ V~ K_ g4 o( z| z| ,, _[ m( m( h4 o( L_  2 A| L) F! F! L+ F! F! M+ M+ }3 }3 }3 }3 i4 i4 +] j4 k4 w#                                                                ",
"                        l4 m4 n4 o4 p4 q4 r4 )' s4 n> Z= t4 u4 >2 v4 w4 x4 y4 z4 A4 B4 C4 D4 D4 E4 F4 G4 H4 I4 h[ J4 K4 L4 M4 M4 N4 O4 O4 P4 Q4 R4 S4 T4 U4 V4 W4 X4 Y4 Z4 -' `4 `!  5 .5 +5 @5 #5 $5 %5 &5 *5 =5 -5 ;5 >5 ,5 '5 )5 @} !5 .} ~5  4 p: S^ U^ -( 0_ {5 {5 W^ ]5 ^5 j1 {| j1 h1 /5 (5 W^ N2 #4 N2 N2 _5 E] l! S2 :5 <5 [5 X< s1 }5 |5 15 25 35 C) 7( 45 55 65 V: 75 ^} 85 95 05 a5 b5 c5 <4 d5 T2 e5 f5 g5 h5 i5 !3 j5 k5 x_ $+ #' o| h- l5 m5 @+ Z. %% 74 @+ %% .+ 94 +% }> }> n5 o5 p5 Y1 _3 q5 r5 s5 A_ O! O! O!  ) G! i( y| n( o( L_  2  2 z| t5 m( m( z| z|  2 A| 4; A| F! M+ F! 9} u5 M+ }3 v5 }3 v5 w5 w5 x5 y5 z5 A5 B5                                                             ",
"                        C5 D5 E5 F5 G5 H5 I5 83 #  J5 d, K5 h& L5 M5 N| N5 O5 P5 Q5 R5 S5 T5 U5 V5 W5 X5 Y5 Z5 `5  6 .6 +6 p3 @6 #6 O4 $6 %6 &6 *6 =6 -6 ;6 >6 ,6 '6 )6 !6 ~6 {6 ]6 ^6 /6 (6 _6 :6 <6 [6 }6 |6 16 26 36 36 46 56 66 76 86 96 .4 c1 3_ z] 7_ 9_ S< W^ v: Y^ 06 a6 b6 F2 c6 Q< d6 e6 v: N2 f6 W^ a_ W^ z{ g6 h6 i6 -( j6 *} k6 l6 T< %& m6 n6 o6 X: p6 q6 r6 z~ s6 ;4 t6 u6 #> v6 w6 ~; o6 x6 y6 z6 N, A6 B6 C6 R1 D6 E6 ,[ l- }> |> 64 m5 F6 Z. @+ @+ @+ @+ %% p| B* &+ X@ G6 H6 I6 J6 K6 L6 e4 T. ~, A_ M6 M6 O! v| N6 k( m( n( n( o( o( m( l( m( m( m( z| O6  2 P6 Q6 ,, A| F! 8} M+ }3 R6 L) w5 R6 v5 w5 w5 S6 Z, T6 U6 V6                                                             ",
"                     W6 X6 Y6 Z6 `6 m4  7 .7 +7 G| @7 #7 I| }) $7 %7 &7 *7 =7 -7 ;7 >7 ,7 '7 )7 !7 ~7 {7 ]7 ^7 /7 (7 _7 :7 <7 [7 }7 |7 17 27 37 47 57 67 =6 77 87 97 07 a7 b7 c7 K* d7 e7 f7 g7 h7 i7 j7 k7 l7 m7 n7 o7 p7 a} `3 q7 r7 s7 t7 .4 P< *( s: 7_ t: 9_ u7 {5 v: v7 {| w7 x7 y7 7_ i1 t: R< R< 8_ z7 A7 B7 C7 .> D7 E7 F7 ~| G7 H7 I7 J7 K7 ^4 L7 D6 M7 <} N7 O7 z1 P7 Q7 85 R7 S7 T7 U7 /; V7 W7 85 X7 K1 I1 Y7 Z7 `7  8 .8 +8 i- 1> @& @& @8 #8 %+ @+ @8 $8 @+ %8 ++ &+ B*  $ ./ &8 *8 =8 -8 ;8 R. &+ `# L~ M6  ) L~ v| i( g4 y| >8 h4 m( P{ k( `, ,8 m( m( P6 P6 L_ '8 )8 !8 !8 )8 )8 [3 L) L) w5 u* 9- u* w5 w5 S6 ~8 {8 ]8 ^8 /8                                                          ",
"                     (8 _8 :8 <8 [8 }8 |8 18 H5 28 38 48 58 68 78 88 l+ 98 08 a8 b8 c8 d8 e8 f8 g8 h8 )7 i8 j8 k8 l8 l8 m8 n8 o8 p8 q8 r8 s8 R4 t8 u8 v8 w8 x8 y8 z8 A8 B8 C8 D8 E8 F8 G8 H8 I8 G8 J8 K8 L8 M8 N8 O8 P8 Q8 R8 S8 S8 T8 T8 s7 U8 c1 V8 g1 6_ 8_ 8_ 7_ W8 R< U^ 8_ @} X8 8_ Y8 Y8 $} m1 Z8 `8  9 .9 +9 @9 #9 R^ $9 8_ %9 &9 *9 =9 E] *} -9 ;9 25 >9 ,9 .3 '9 )9 @, !9 ~9 {9 !; ]9 ^9 05 /9 (9 _9 :9 <9 [9 }9 |9 19 29 k5 39  < +& 49 #8 59 69 79 89 99 @8 $8 09 `. X@ Y@ a9 b9 .[ c9 d9 e9 f9 g9 W# X' P! U~ O! A_ v| K_ ][ *< P{ P{ k( J_ K_ l( ,8 h9 h9 Q6 P6 i9 !8 )8 )8 Q6 j9 ), S' )8 }3 }3 4; k9 k9 k9 k9 l9 Q' Q' ,^ m9 n9 o9                                                       ",
"                  p9 q9 r9 s9 t9 u9 [8 v9 E5 w9 x9 y9 z9 A9 B9 ~! C9 D9 E9 F9 G9 H9 I9 J9 K9 L9 M9 N9 O9 P9 Q9 R9 S9 T9 U9 V9 W9 X9 Y9 Z9 `9  0 .0 +0 @0 #0 $0 %0 &0 k5 t6 B8 *0 =0 -0 ;0 >0 ,0 '0 F8 )0 !0 ~0 {0 ]0 ^0 /0 (0 t7 _0 :0 <0 [0 }0 |0 10 20 30 )| 40 30 h1 z] 50 d6 60 8_ 70 ^5 {| 6_ 80 90 00 a0 b0 c0 t= d0 W^ e0 '; f0 g0 h0 i0 j0 k0 l0 m0 n0 o0 i_ p0 q0  , r0 s0 ~9 t0 u0 v0 w0 |9 x0 y0 z0 A0 B0 C0 D0 E0 F0 .} G0 H0 #& I0 J0 59 K0 L0 L0 M0 @8 $8 $8 09 `. Y# B* r0 N0 j| O0 d9 P0 Q0 R0 p| X'  ) w| A_ A_ G! k( J~ N6 G! N6 S0 J_ U' k( l( ,8 ,8 t5 T0 P6 U0 )8 h9 V0 W0 X0 Y0 X@ l( 4; S% 4; 4; k9 e= Z0 `0  a l( .a +a @a                                                       ",
"                  #a $a %a &a *a =a -a ;a >a ,a 'a  7 )a !a A9 ~a {a !! [~ ]a ^a ^a /a (a _a :a <a [a e8 }a |a 1a 2a 3a 4a 5a 6a 7a 8a 9a 0a aa z3 ba ca da ea n_ fa ga ha T2 ia ja ka la ma na oa $0 a  pa qa ra sa ta ua va wa xa ya za s7 Aa g0 Ba Ca Da Ea Fa Ga Ha i1 g1 !5 60 '| Ia t: 8_ Ja Ka La Ma Na Oa 60 i1 R< Pa 6_ Qa Ra Sa Ta Ua Va a_ Wa ~| Xa Ya Za `a  b .b +b @b #b $b %b &b *b =b -b ;b >b ,b 'b )b !b ~b {b ]b ^b /b .@ .@ (b @8 _b L0 :b L0 @8 @8 79 09 h- {3 <b .[ [b l| }b d9 |b 1b 2b 3b `+ O! v| M~ A_ `{ l( k( `{  ) w| N6 N6 `{ j( J~ k( k( 4b 5b T0 T0  2 6b K2 7b 8b 9b 0b &+ u* ab L) 8} k9 Z0 5; 0- bb J~ K_ cb db eb                                                    ",
"                  fb gb hb ib $a jb kb lb mb nb ob pb qb rb 28 sb tb ub vb wb xb yb zb Ab Bb Cb Db Eb Fb Gb Hb Ib Jb Kb Lb Mb Nb Ob Pb Qb Rb Sb Tb Ub Vb Wb Xb Yb Zb '/ `b T1  c .c +c @c #c $c %c &c *c =c =& -c ;c >c ,c ua 'c La )c za !c ~c {c ]c ^c /c Da (c _c :c Ha Ha <c [c }c |c &} 1c Xb 2c 3c 4c Ga G2 5c 6c 7c 8c ^5 9c 0c ac bc cc dc ec fc gc hc @9 ic jc kc lc s6 _- mc nc >9 C6 oc pc qc rc sc tc uc >^ vc wc xc C| 54 -% yc X. .$ J0 #8 zc :b Ac M0 69 Bc Cc @+ C* Dc Ec Y< Fc }b O0 _3 Gc Hc Ic Jc Kc `# X' Lc `{ k( k( N6 P! v| w| G! `{ j( U' U' R' 4b Q6 0-  ' Mc W> Nc E_ Oc O0 Pc Y# Qc S% Rc 8} U0 5; `0 `0  a bb J~ Z~ Sc Tc x;                                                 ",
"                  Uc Vc Wc Xc Yc Zc `c  d .d +d @d #d $d %d &d *d =d -d ;d >d ,d 'd )d !d ~d {d ]d ^d /d (d _d :d <d [d }d |d 1d 2d 3d 4d 5d 6d 7d 8d 9d 0d ad bd cd @# dd ed fd gd hd id jd kd ld md nd od pd qd rd sd td ud vd wd )c xd yd {c zd Ad Ba Bd Cd Cd (c _c Dd _c Ed Fd Fd s: p~ Gd Hd Id Jd Kd Ld a6 Md Nd H2 7c Y8 2c Od Pd Qd k! Rd Sd Td a_ A] Ud Vd L: Wd Xd Yd Zd `d  e .e +e @e #e $e %e &e *e =e =e G_ G_ -e ;e >e >e >e ,e #8 59 m5 @8 'e )e :b Ac K0 zc m5 l= !e ~e h5 {e ]e Fc =8 O0 W{ ^e /e (e _e Kc ~, S' O{ V~ O! L~ O! v| M6 S' `{ `{ S' U' k( t5 K_ :e <e [e }e |e 1e </ 2e 3e ~8 ab U0 ab ~8 `0 4e a- 5e 6e 6e W~ 7e 8e 9e                                                 ",
"               0e ae be ce de ee fe ge he ie je ke le me ne oe pe qe re se te ue ve we <{ xe M/ ye ze Ae Be Ce De Ee Fe Ge He Ie Je Ke Le Me Ne Oe Pe Qe Re Se S8 Te Ue Ve We Xe Ye Ze `e  f T1 .f m  +f @f #f $f %f sd T8 &f *f ud =f xd Ca !c -f ;f >f Bd Re Da (c Fa Dd Kd ,f b6 'f {| )f B] !f T8 ~f {f ]f 20 ^f /f (f _f 7c :f <f [f }f +> |f 1f 2f 3f a_ 4f 5f 6f C] 7f 8f 9f  { 0f af bf 0f cf df ef P0 ff gf  # hf if jf jf kf lf >e mf X. J0 @8 :b nf N! 'e of :b M0 %+ Y. pf qf rf sf tf uf vf 7> d9 m- wf xf Q~ yf zf Af O) h( w| O! O! M6 Q{ U' M6 Q{ Q{ `{ S' w| Bf Cf Df Ef Ff Gf `7 Hf If Z' O@ Z0 ~8 5; 5; a- 5e 5e 7; 6e l(  ' W! Jf Kf Lf                                              ",
"               Mf Nf Of Pf Qf Rf Sf Tf Uf Vf `c Wf ie Xf Yf Zf Zf `f  g .g +g @g #g $g %g &g *g =g -g ;g >g 5: ,g 'g )g !g ~g {g ]g ^g /g (g _g :g <g [g }g |g 1g S8 2g 3g 4g 5g 6g 7g 8g 9g 0g ag m  bg b7 cg sd dg eg T8 ya fg ud gg hg ig jg xd kg lg Ba mg Da _c Fa ng Aa |0 og w7 i1 V^ pg p: qg rg Md sg tg ug vg wg xg H2 $} yg zg Ag Bg Cg Dg Eg Fg e0 Gg Hg Ig Jg Kg Lg Mg Ng f4  < Og Pg u| Qg Rg Sg Tg ;% gf Ug Vg Vg Vg Vg kf Wg yc Xg Yg Xg N! )e Zg `g  h of .h $8 {3 n= +h 1_ @h #h $h %h &h 7> 7> *h U. =h -h ;h >h X@ y* T~ O! w| v| f= f= v| T~  ) N6 S! ,h 'h )h !h ~h {h ]h ^h /h %'  a 6; 5;  a 6;  a a- 6; 7; 7; 7; J~ S' #^ (h 0| _h                                              ",
"               :h <h [h }h |h 1h 2h 3h ae Uc ge 4h 5h ie 6h 7h 8h 9h 0h ah bh ch dh eh fh gh hh ih jh kh lh mh nh oh G/ ph qh A/ rh sh th uh vh wh xh <g yh zh Ah Bh Ch Dh Eh Fh Gh Hh Ih Jh Kh Lh .f Mh Nh Oh Ph cg wd Qh vd Rh Sh ud Rh Th Uh Th Vh kg Ad Da Fa _c Wh Da Xh Ga Yh b6 H2 Zh `h  i <c .i sg Ha +i @i D2 #i $i %i &i *i =i -i ;i Cf >i ,i 'i )i !i ~i {i ]i ^i /i (i f4 _i :i >^ u| If If <i o- S& @$ @$ [i }i |i }i 1i 2i 3i 4i 5i 6i 7i 8i M0 zc  h 9i of of M0 Z. 0i Y# ai bi ci di ei fi %h gi 7> hi m- ii ji `b ki g- L~ w| w| L~ L~ L~ O! O! Z' S~ li mi Q7 V) Ef /3 ni Hf ;4 X1 6; 6; oi T# 6; b- a- 7; b- 8; v* 8; U' S' .' W! pi qi ri                                           ",
"               si ti ui vi wi <h xi yi zi Ai Bi Ci Di Ei Fi Gi Hi Ii Ji Ki Li Mi Ni Oi Pi Qi Ri Si Ti Ui Vi Wi Xi Yi Zi `i  j .j +j @j #j $j %j &j *j =j -j ;j >j ,j 'j )j !j ~j {j ]j ^j /j (j _j :j +i <j [j J* Ph }j %f %f }j =' ^f xd xd Uh xd Vh -f ]c Ga Ga Cd Ba Xh |j <c Dd ^5 $} J2 1j 2j rg Dd Md 3j 4j 5j 2g 6j 7j 8j 9j k1 !5 0j +9 aj bj cj dj ej fj Hf x@ gj hj ij jj kj lj lj mj *e nj oj pj S& qj Y{ rj rj sj rj tj wf uj vj wj xj xj yj 7i Kc 8i zj Aj Bj 9i of )e K0 Cj *% Dj Ej Fj Gj Hj Ij Jj Kj 5( Lj Mj Nj Oj (3 O& Z' A_ `% M~ M~ A_ O! M6 Pj Qj 20 Bf V0 Rj Sj -< Tj Uj $' f= Vj Vj Wj b- oi f= oi oi V+ Xj V+ Xj  ' S' f= .' T6 Yj Zj `j                                        ",
"               be  k .k +k @k #k $k |h 1h %k &k *k Uc Uf Vf =k -k ;k >k me ,k 'k )k !k ~k {k ]k ^k ^k /k Ti (k _k :k <k [k }k |k 1k 2k 3k 4k 5k 6k 7k 8k 9k 0k ak bk ck dk ek fk gk hk ik jk /j kk lk mk Nh nk [j ok pk cg %f qk =' rk sk Th hg tk w( -f lg uk vk uk wk !f xk :c <c Yh {f yk H2 zk Ak 10 {f .i Bk Ck Dk Ek a6 Fk Gk Hk i1 Ik Jk Kk %e Lk Mk Nk 4= Ok Pk Qk Rk Sk Tk T. Uk Vk G_ Wk pj Xk .# Yk Y{ Zk `k  l  l .l .l +l  l @l #l $l %l yj &l &l &l *l =l -l Aj Aj 9i K0 m5 *% {3 ;l $% =3 >l ,l 'l )l !l ~l {l ]l ^l /l `# A_ @% (l X' ~, @% w| .) _l :l <l E_ B_ [l }l |l @3 _, U# V$ V$ W+ Wj Xj 1l 2l 3l 9; V$ Wj Wj Wj f= f= .' .' R! 4l 5l 6l                                        ",
"            7l 8l 9l 0l 0l 0l ui ti al bl |h yi cl dl ae Uc el fl gl hl ;k >k il ,k jl kl ll ml nl ol pl ql rl sl tl ul vl wl xl yl zl Al Bl ]6 Cl Dl El Fl Gl Hl Il Jl Kl Ll Ml Nl }( Ol Pl Ql Rl Sl Tl V& Ul Vl Wl #f }j Xl qk qk =' Yl Zl xd 3c w( Th Th Vh {c zd Aa `l Cd  m Fa ng <c Dd yk .m Gk +m @m {f yd #m $m %m &m *m =m -m ^5 @m ;m >m ,m 'm )m !m Ka ~m {m If F+ >^ Vk ]m =e =e ^m S& /m (m _m :m <m [m }m |m 1m 2m 3m 3m 4m 5m 6m 0b 7m 8m 9m 0m 0m am bm cm Aj of dm .h 79 em ki  & C* Y@ C* fm gm hm im jm km lm mm Z# .% S~ $^ `# `# `# W# B_ nm 20 om pm X! [l 95 Hf qm v| U# V$ g= rm T% V+ sm tm um vm wm xm rm V$ ym .' zm K~ K~ T) B_ Am Bm Cm                                     ",
"            Dm Em 9l 0l Fm Gm Hm .k ti [h al Im Jm Km Lm Ai Mm Nm Om Pm Qm Rm Sm Tm Um Vm Wm Xm Ym Zm `m  n .n +n @n #n $n %n &n *n =n -n ;n >n q- ,n `4 H3 'n )n !n ~n {n ]n ^n /n (n _n :n <n [n }n %$ |n 1n ug Wl qk Zl ^f rk 2n }j Yl hg za Uh 3n 4n 5n 6n 7n 8n ud 9n 3c Da Fa Fa 0n <c Yh b6 an bn Ga Dd Dd cn dn zg en R^ fn gn hn `l 5n in mi jn 7b kn ln mn nn on ,[ G_ =e ff Wk pn Y{ Gc qn rn sn tn un vn wn xn yn zn An Bn Cn Dn Cn En Fn Gn Hn In Jn Kn Ln Mn Nn *l *l On of Cj {3 Cj {3 {3  & m= Pn Qn Rn Sn Tn Un +% +% j= A_ U@ `% M~ .% Vn Wn Y^ -< F_ e( Xn Yn Zn `n v| U$ V$  o g= .o `% +o d6 {[ @o um #o $o T@ ), ), .' .' .' _> L~ V! %o &o *o =o                                  ",
"            -o ;o Em Fm ;o Em 9l 0l >o +k ,o 'o )o Jm !o %k ~o {o Mm ]o ^o /o (o _o :o <o [o }o |o Xm 1o 2o ol 3o 4o ql 5o 6o 7o 8o 9o 0o ao bo co >n do eo fo go ho io jo ko lo mo no oo po qo ro }n so Tl to uo vo Yl wo xo xo yo }j zo Sh Ph Ao Bo Co Do Eo Fo Go Ho Io Jo ~f 30 Fa (c Fa Ga @} Ko Lo Mo @m qg Ea 6n No Oo Po 6c Qo Ro So To Uo Vo Wo Xo Yo Zo `o  p .p o0 ,[ Sg Y{ +p @p #p $p %p &p *p =p -p ;p >p ,p 'p )p !p ~p {p ]p ^p /p (p _p :p <p [p }p |p 1p 2p 3p 9m 4p 9i .h .h M0 %% zc P& Y. *% 5p Y# 7> 6p {3  % +% S~ X' `# L~ (> &+ 34 7p 8p 9p F_ 0p ap bp Rg Z' U$ 6; v* W+ cp X% dp ep fp gp .) 2} hp ip `% jp kp lp mp mp (> A_ $' np op pp qp                                  ",
"            rp Fm sp tp tp sp Fm 9l 0l 0l +k up wi vp Im wp xp yp {o zp Ap Bp ^o Cp Dp Ep Ep Fp Gp Hp Ip Jp Kp Lp Mp Np Op Pp Qp Rp Sp Tp Up Vp Wp bg Xp Yp Zp `p  q .q +q @q #q $q %q &q *q =q so -q ;q >q Tl 1n #f ,q xd 'q jg )q !q ~q 4n {q ]q $q ^q /q (q _q :q <q [q }q |q 1q xk ~c Cd ~f Ga 40 -m 2q 3q qg qg 4q 5q 6q 7q 8q 9q 0q aq bq )m cq dq C7 `o eq fq gq .p hq iq jq kq lq mq nq oq pq qq rq sq tq uq vq wq xq yq zq Aq Bq Cq Dq Dq Eq yq Fq Gq Hq Iq Jq -p Kq Lq Mq Nq Oq am Pq 79 em Qq 89 Cc zc #+ Y# {3 @+ %+ {3 ++ X@ X@ Z# h( O& .+ Rq Sq i_ Tq J6 Uq Zn Vq $^ w* V$ T# S@ Wq V@ -^ .} Xq Yq Rj Y~ Zq `q sj V$  r .r Z$ `% lp `% U@ @% Y' +r @r #r                                  ",
"            $r %r &r *r *r ;o &r Fm Fm =r 0l -r ti ;r 'o >r ,r 'r )r !r ~r zp {r Ap ]r ^r /r (r _r :r <r [r |o }r |r 1r 2r 3r 4r 5r 6r 7r 8r 9r 0r ar Vp br cr dr er fr gr hr ir jr kr kr lr O. mr nr or =q >q pr %f ,q yo yo Yl }j Ph qr rr sr tr ur vr !q wr xr yr zr Ar Br Cr Dr Er {c Ca 10 xk [c ]f 2j Fr Gr Hr Dd Ir Jr in Kr O< d6 Ia Lr Mr Nr Or Pr Qr Rr Sr Tr Ur Vr Wr Xr Yr Zr `r  s !p .s ]p uq +s @s #s #s #s $s %s &s *s %s &s =s =s -s ;s >s ,s Dq 's )s !s ~s (p {s ]s ^s /s (s _s =l nf  h Aj .h &% Y@ Y# em Cc 09 $+ k= Y.  $ O& X@ :s <s [s Zq }s 5( |s 1s d; 2s 3s Y+ Xj rm 4s 5s 6s 7s pm 8s 9s 0s !m as &+ bs 2l 2l cs +' `% X# X# (l %' np ds es fs                               ",
"            gs ;o *r %r hs *r *r &r &r is =r 0l >o js up ks ,o ,r ls ms ns os ps zp qs rs rs ss ^r ts us vs ws xs ys }r zs As Bs Cs Ds Es Fs Gs Hs Is Js Ks Ls Ms Ns Os Ps Qs Rs Ss Ts Us +. Vs Ws Xs Ys ;q Zs `s }j  t !q .t +t Ph 4n Vl @t #t $t %t &t wr *t gg =t -t ;t >t ,t Eo }q 't )t !t ~t ~c @} {t ]t ^t /t (c 9n (t _t Hf :t <t [t }t |t 1t 2t 3t 4t 5t 6t 7t 8t Q~ 9t {s qq !p 0t at bt ct dt et ft gt ht it jt kt lt mt mt nt mt ot nt nt ot *s pt qt rt st tt Dq )s Fq ut vt Kq wt xt 3p am *l  h of 0i Z#  $ Cj @8 Z. ++ ++ 74 Y# #'  $ ]h yt zt &' }s At Bt E* Ct Dt 3s X+ W+ O& n- Et Ft !h B_ 8s Gt ;4 cq uc Ht 4s 4s 2l It It cs `$ V@ `# '[ Jt Kt Lt Mt                               ",
"         Nt <h *r *r %r %r *r *r *r *r &r is 9l 0l >o Ot -r js ,o Pt ls 'r ms Qt Rt St Tt Ut Vt Wt Xt (r Yt Zt `t  u xs Ip .u +u @u #u $u .s %u Fs &u *u =u -u ;u Ms >u ,u 'u )u !u ~u {u ]u ^u /u Ws (u Zs Tl +t %f _u :u <u Wl [u ~q }u |u |n 1u 2u qk gg |g 4q hg 3u 4u 5u pk {q 6u [f 9c 7u 8u !t 9u 30 0u au bu cu qk du eu fu gu hu `8 `8 en iu ju ku lu mu nu ou pu qu ru su 0t bt tu uu ft gt gt ft vu mt nt -s wu xu yu zu Au zu yu Bu zu Cu Du Du zu Eu Fu ot &s &s Gu Hu Hu Iu Ju ,p Ku Lu Mu Nu Ou :b Pu z* 5p Zg M0 zc $8 {3 $+ h- C* Y@ Qu Ru Su &' pm Tu $b #& Uu 3l 4s 9; cs Vu Wu  8 F_ Xu Yu Zu `u |l  v .v 3s +v 4s It @v #v $v %v &v +% /, *v =v -v ;v >v                            ",
"         ,v vi tp tp *r %r *r tp *r *r tp &r 'v )v Ot !v ~v Ot {v ]v 'o ^v /v (v _v :v <v os [v }v rs |v 1v 2v 3v 4v 5v 6v 7v 8v 9v 0v Cq yq av av bv cv *u dv ev fv gv Is hv iv jv kv lv mv (u nr nv Ws %$ uo ov :u |n .t %t $t pv qv ;f rv +t %t ov sv tv uv vv wv xv yv 5u zv gg Av Bv Cv Dv Ev Fv Oa 96 Gv Hv Iv Jv %t 7n Kv Lv Mv en Uo `8 Nv Ov 2t Pv Qv Rv Sv <p Tv Uv Vv Wv #s Xv jt Yv vu Zv %s `v jt  w .w +w @w #w $w %w &w +w *w =w -w ;w >w ,w nt 'w )w zu zu Eu =s %s rt !w ~w {w ]w ^w /w (w _w :w 79 Y# 59 _b 59 _b K0 @8 C* Z. m5 Y# <w [w }w c9 0p |w 1w cm 2w Uu 3l W. u6 3w 4w 5} Pj 5w 6w 7w bp uc 8w 9w 4s 9w 9w #v 0w aw bw Ct R{ +% }> cw dw ew fw gw                            ",
"         hw &r ;o ;o tp %r *r *r iw iw jw kw lw 'v mw nw nw mw Ot {v up ow 'o ^v ^v pw Qt qw rw <v sw tw uw vw ww ts xw 3v `t yw zw Aw Bw 0v Cq Cw Dw Ew Fw Gw Hw Iw Jw Kw Lw Mw Nw q  Ow Pw Qw Rw  . nv ;q =q %$ Tl %$ zr `s |n Sw Tw Uw <u =' .t mv *& Yl Vw Ww Xw jg Yw -t Zw `w  t  x .x +x @x Ev #x {c xk $x %x 4q &x x& *x *x =x -x }t -x ;x >x ,x 'x )x !x ~x 'p {x tu ]x ^x kt ^x mt /x Zv (x -w _x :x <x <x [x }x <x |x |x 1x 2x 3x 1x &w }x 4x 5x 6x 7x 8x (x ^x 9x 0x wu ax ot &s bx cx dx ex fx gx hx ix 5i jx (b K0 4i Xg K0 69 M0 $8 {3 kx lx mx c9 J6 nx ox sn px qx K0 Or cq ef }s rx X! {e )m sx 0; tx ux vx wx 2w vx 9w wx 2w aw `+ `+ &v O& 3> xx yx zx Ax                            ",
"         Bx Cx lw ;o tp *r *r tp iw iw %r *r lw is Dx Ex Fx Dx !v Ot Gx Hx ]v ]v Ix Jx Kx Lx pw qw Mx Nx }v Ox Px Qx vw ts Rx Sx Tx Ux zw Vx Wx Xx Yx Zx `x  y .y +y @y #y $y %y %q &y *y lv Rw nv +. ]u nr %# =q =q Tl qr =y mk ;b !| -y +t xr ;y >y Wl dg ,y Z3 'y )y }j Th !y `w Yl dg @. ~y -i {y ]y ^y /y |l (y Te Kv x& Kv x& as _y :y <y Yb `b [y Cn }y Tv Uv Vv $s /x vu ^x `v ft |y 1y 2y 3y 4y 5y 4x -w 6y 7y ht 8y Yv 9y ht 0y ay 8y by  w cy 3x dy ey fy gy _x _x hy Fu 0x iy xu ot jy ky ly my ny oy py >h qy jx 5i 5i ry .$ :b :b M0 %+ sy ty uy vy </ ]e wy xy yy zy Ay bd hj Mj Tq +o 6w cq By lj Cy Dy Ey Fy Gy Dy Fy Hy Iy Gy Gy Iy wx 0w o| {, 2> Jy Ky Ly >v                         ",
"         My Ny Oy lw tp *r kw *r iw iw iw jw kw ;o Ex Ny Ny Ex Py ~v Qy Ry Sy Sy Ty 'o Jx Uy Uy pw Lx rw Mx Vy Wy Ox Xy vw Yy Zy Zy Tx `y Ux Ux  z Yx .z +z Zx @z #z $z %z &z *z =z lr -z lv ]u Pw #t ;z >q `s so or to >z ,z [j bq 'z )z &t }j !z ~z {z ]z dg ^z 9_ Tj *f Yl /z ;t Yl gg (z @. _z :z &x <z [z }z |z Kv x& x& 1z 90 <y 2z aj 3z 4z 5z !x 6z 7z 8z 9z Zv dt %s ^x 0z hy <x 5y <x az -w %w bz cz bz ay ay 6y 6y 6y 6y dz  w cz ez |y fz 7y fz ez |y gz 1x |x hz <x iz jz kz Cu zu lz mz nz Iu dx oz pz qz rz sz yj tz  h 59 nf 'e :b zc n= uz vz wz xz vf yz zz Az Bz Cz ii a; a; e; Dz d0 ad  $ 3l Dy Ez Fz Gz Gz Gz Dy Hz Iz Iz Jz Kz Gy Lz Mz Nz K6 Oz Pz Qz Rz                         ",
"         Sz Tz Ny lw kw kw &r *r %r %r Uz jw kw kw Vz Wz Xz Xz Dx Py !v !v Yz Yz Zz ]v `z Ix `z Jx Uy pw  A .A +A Vy @A Ox #A $A $A Zy Zy Zy %A  z &A *A =A .z -A ;A >A ,A 'A )A !A ~A lr {u {A lv ~A nr ]A ^A Rw =q /A %$ ur [j (A 'z 2c wr _A Ow :A <A ^A 5n [A }A |A ,y qk 1A }j =t zo zo dg 2A 3A 4A 5A 6A 7A 8A 8A 9A x& 0A aA bA D# cA dA zn <p eA fA gA ^x /x ^x lt ft hA iA jA |x kA ez lA 0y mA lA bz 6y  w nA 8x %w +w %w 3x &w 1y oA 1y pA qA ;w rA +w %w .w %w 3x &w 5x sA tA uA ^x yu Eu &s vA wA xA yA zA AA hx BA CA *l *l Kc =l )e _b DA EA FA GA HA IA vf Fc Lj (3 JA =8 2> i- KA LA MA -% NA Hy Fz Ez Fz OA PA Fz Ey Iz Iz Jz Jz Jz Fz Ey %8 QA k- Tq RA SA TA                         ",
"         UA VA Ex Ny lw lw kw kw jw jw iw jw kw kw WA Vz Wz Ny Ex XA Py Py !v Yz Ry Zz YA ZA `A  B  B .B +B @B @B +A #B +A zw $A $A $A Zy $B %B &B @u *B &A =B =B -B ;B -B >B ,B q  'B 'B )B -z lv !B Qw ~B ]u nv ]A {B or ur vr 1z ]B xo xr ^B *& /B (B _B :B <B [B %t !q /z ^f }B =j |B 1B Uw }B ~y 2B 3B 4B 5B 6B 7B 8B 9B 8B 0B aB bB cB dB eB fB gB hB iB hB -s >w 6y jz jB kB -w lB mA ht gt gt mB bz  w .w 3x jz 2x kB az nB oB pB qB rB sB }x ey ey ey tB uB oA -w @w vB kA -w wB xB iz yB ot zB mt AB BB dx my CB DB hx EB Ou FB GB HB )e K0 IB JB KB LB MB NB OB U1 PB QB V{ }s uf  8 <t RB P& SB Ey PA qx Fy TB UB VB VB PA Ey Ey WB WB Fz Fz Jz XB 64 W. 2> YB ZB `B  C                      ",
"         .C <h Py Ex Ny Ny lw kw jw jw Uz jw kw kw +C +C Ny Ex Ex XA XA XA Py !v Ry Yz Sy @C @C `A `A #C $C $C $C @B .A %C &C $A $A $A $A *C =C -C ;C >C ,C 'C )C Ux &C !C ~C {C =z ]C ^C !A {u ;z Rw  . !B ~A mv Qw Qw /C |n ov (C _C :C wr <C [C %# ^q }C |C 1C 2C 3C 4C 5C 6C 7C 8C 9C 0C hg Rh aC bC cC 3B Bk dC eC fC gC hC iC jC kC /w lC mC nC 0z ^x kz ^x oC ey _x pC 8x qC nA jz fz ^x >w bz ay  w rC -w uB sC tC :x uC vC wC xC yC r5 zC AC BC CC DC EC gy FC rB 2y *w hA 1y kB GC sA HC IC lz Eu *s 0z JC KC ,C LC MC vm NC FB OC GB nf K0 N! 4i JB PC QC RC SC dw np -^ ]e TC UC VC WC lf XC YC ZC `C  D .D TB +D @D  D  D VB PA Fz Ey Fz WB Gy Iz m5 m5 #D $D %D &D *D                      ",
"         =D -D ;D ;D XA Xz Oy Vz kw kw >D ,D WA WA WA WA Ny XA 'D )D Xz XA XA Py !v Yz !D !D @C @C @C ~D ~D ~D #C +B {D ]D Tx &C $A $A ^D /D (D _D -C :D >C <D [D Tx }D |D Ss 1D {C =z 2D ^C {u 3D ~B !B 4D !B mv ~A ]u Ys Tl =y 5D 6D 7D 8D 9D 0D aD bD pr cD dD aD <C !q eD ;y fD 'q gD hD Zl 2n iD jD `d cC kD lD fC cC mD |q nD oD pD qD rD sD hB /x mt ot tD hA uD yB dz 8y bz 8x 7x %w ^x 8y qC hy 3x uA 3y vD wD xD yD zD AD BD CD DD ED FD GD HD zD ID JD KD xB xB LD MD ND pB hz OD rB PD QD RD SD zu TD kz UD VD WD XD YD ZD `D  E FB *l Aj zj .E 4i +E @E #E $E %E &E *E =E -E ;E &m Z. >E ,E 'E )E YC YC Ez Ez !E ~E YC ~E YC {E ]E Gz Gz PA Dy Dy XB Hz  @ E* ^E /E (E                      ",
"            ]v Yz _E :E XA Xz <E Oy Vz WA [E }E |E WA WA Wz 1E Xz XA Xz XA XA XA ;D :E 2E 2E !D 3E 3E 4E 4E 3E 5E $C 6E &C Tx Tx Tx $A ^D 7E 8E 9E 0E aE bE  z cE dE [D eE kv fE fE {C 1D +f gE +. -z {u 4D Pw +. ]u mv =q hE Zs ^A hg iE jE kE lE mE &t nE oE /A aD aD pE qE Ow rE &x ,m sE ~q dg tE uE vE wE xE 0B fC yE ## zE AE pD BE CE DE EE %s ot lB uA 2y pC kA 7y jt mt lz jt qC lA 6y tD qA 1x 3y FE GE HE IE JE KE LE ME NE OE PE QE RE SE TE UE VE WE XE YE ZE `E  F .F +F @F #F $F jB %F &F q5 *F Yv %s ,w =F -F ;F >F ,F 'F NC )F Ou 9i yj CA 7i !F U. ~F {F ]F ^F /F (F _F :F zc <F @D [F ,E ,E }F }F YC |F !E 1F !E 2F 3F 1F ~E ZC 4F 5F PA Ey Iz 09  @ E* 6F 7F 8F 9F                   ",
"            -D 0F aF aF :E 'D Xz Xz Oy |E |E <E |E }E }E WA WA <E bF <E Xz bF XA XA cF )D Yz 2E !D 3E 3E dF dF 4E ~D eF &C &C &C &C &C ^D fF gF hF iF jF kF lF mF mF nF ~C kv kv Us oF fE =z )B pF !A {u !B ]u Qw Zs ]u b7 ;q qF Ys $t cu rF sF tF uF vF wF xF yF aD zF AF !B BF 5n ~. Xl CF %t ok iD DF wE EF FF GF HF IF JF kC KF LF MF NF ,w %s lz 8x iz sC &w hy ay ot OF lz PF QF cz 8x %w az rB RF SF TF UF VF WF XF YF OE ZF `F `F  G .G +G @G #G $G %G &G *G =G -G ;G >G ,G 'G UF )G !G ~G 4x jB {G ]G ^G /G -s iB (G my _G :G gx <G `D [G 4p FB }G |G &l 1G 2G 3G 4G 5G 6G 7G 2G 8G 9G 3F 0G @D YC aG bG bG cG dG 3F 3F 1F +D 'E 3F 3F |F eG fG ]E Fz WB gG l5 E* hG iG jG kG                   ",
"            lG dF dF dF aF )D 'D XA Xz <E <E <E <E <E <E }E |E Wz XA <E mG mG Xz nG cF :E :E Yz !D dF dF oG 3E 4E ~D pG zw qG zw zw &C rG ]D %C sG tG hF uG [D vG mF wG ,B ,B kv Us fE fE =z Wp xG q  'B +. mv yG b7 zG ;y Qw AG Ws )6 BG yh CG DG EG FG xr GG aD -c HG IG JG KG LG MG mk }B Ph 1n jr NG OG PG QG PG RG JF SG TG LF UG VG gt ot jt pC fy 5x &w rC mA wu WG )w mt lA qC tD vB -w gy XG YG ZG >G `G  H YF .H +H @H 9{ #H $H %H &H #G *H =H >G -H ;H x6 >H ,H 'H )H !H ~H {H UE ]H ^H .F /H vD (H _H :H <H Zv Yv (G [H }H |H 1H 3p OC 2H 3H :w _s 7i 5i Kc GB Pq 4H GB 5H 6H 7H 8H <F 0G 9H ,E bG 0H 0H aH bH dG 3F cH UB |F dH cG dG 3F eH fH qx ]E {E 89 @& R& gH hH iH                   ",
"            3h oG jH kH 4E dF :E )D ;D XA Xz bF Xz mG mG <E <E <E XA ;D Xz <E Xz XA nG :E :E :E )D lH lH lH dF 4E mH ;B Cu nH [D Cu qG =C oH ]D %C pH pH #A mF qH rH sH tH uH Us kv vH Us Wp m  1D xG ^C 'B *y wH #t nv +. #t +. xH ;y ]A yH zH AH BH CH DH EH #) xF FH #t GH ~C HH IH [j eD 1n Pw JH 4j KH LH MH NH OH PH QH RH CE SH ft lt hB TH UH kA gz +w mB Bu /D )w kz 6y VH +w ;w 1y az WH XH YH ZH 92 `H  I .I OE +I @I #H #I $I %I H} &I *I =H =I ~m -I ;I >I ,I ,I 'I )I !I ~I YF .I {I ]I ^I /I (I _I :I <x <I lt ^x [I [H }I |I 1I 2I 3I  E 4I 5I CA 4p 6I 7I 6I )F )F 8I 9I 0I 8H aI bI aG cI dI eI fI gI gI hI iI jI eI gI kI bH cG lI mI nI eG oI 1F eG 69 49 pI qI es                   ",
"            rI sI tI tI tI uI oG aF )D :E nG 'D vI nG Xz <E <E <E Xz XA Xz wI Xz XA nG xI :E :E )D 0F 0F lH dF 3E yI zI -B AI BI Aw qG CI DI EI ]D FI GI HI II qH JI HH tH fE uH tH ]q $q KI {C {C =z !A ]C LI MI pF lv Ow Ow #t 3D NI  x OI PI kE QI RI SI TI aD UI VI WI JG Ar yG pv XI ~i =q YI {z 4j 4A ZI `I  J .J Sv +J @J VG >w /x >w #J $J vB fz fz kt %J &J *J /x 6y %w qA nB 2y =J RF -J ;J >J ,J 'J )J !J ~J {J QE ]J ^J /J (J _J YH &< ;I &< )H :J <J [J }J ;I |J 1J 2J VE 3J 4J 5J 6J 7J 8J 9J 0J aJ bJ cJ dJ 9y 0z eJ fJ gJ hJ iJ jJ kJ 3I lJ mJ nJ oJ pJ pJ qJ rJ rJ rJ 2H 8I sJ tJ 'E 0I 8H uJ kI vJ wJ um xJ yJ zJ yf AJ BJ CJ bH DJ bH mI fG dG EJ FJ of Zg 0; GJ HJ IJ                ",
"            JJ YA KJ tI tI uI uI uI oG 0F LJ LJ :E MJ XA NJ Xz Xz mG nG XA wI NJ XA XA nG xI OJ 0F oG 0F 0F lH ~D PJ QJ RJ RJ SJ -B qG TJ UJ VJ EI WJ XJ YJ II II ZJ )A Up `J ~u `J  K ,B kv oF KI Wp ^C Wp 2D 2D .K !A &y +K #t ;y @K #K Ys $K )6 =y mk WI %K && &K *K @m }B Oh Vl nk =K Rw +. Ar -K f0 Dr NH ;K >K ,K 'K )K !K (x ft ft ~K $F {K oA rC Zv ]K ^K /K Eu (K _K IC nB fy :K rB <K [K }K |K *H B3 )J 1K 1K .I 2K 4J 3K 4K 5K ]I YH 6K ;J 7K 'I <J 8K 9K [J 0K [J 8K ,H aK bK cK dK .H QE eK {I fK gK hK iK jK kK lK jt hB mK }I nK oK pK qK rK sz sK tK uK vK oJ rJ nJ nJ rJ wK xK xK 0I yK zK AK BK CK DK 1b EK FK GK HK IK JK KK LK MK NK OK PK QK lI EJ dm RK `@ SK TK UK                ",
"            VK WK kH tI ~D tI tI XK uI lH oG lH 0F aF :E nG XA XA NJ 0F xI NJ NJ bF XA nG xI OJ 0F oG oG oG lH 6E wG YK ZK wG `K ,A zw UJ oG VJ  L oH .L +L +L nF @L #L $L Up `J `J kv {C ,B %L .K fE 1D 1D 1D =z 2D .K ^C &y Pw zG wH @t wH &L ;z /C ^A 2C *L #f cn p: =L )z Oh |n so nr @t (u -L ;L 5n >L $@ ,L Yr 'L )L !L dz oC nt ~L HC &w hA -w QF %J wu 0x TD gt 6y 8y qC uD fy {L GC jB ]L ^L PD /L (L 'J _L :L <L [L }L |L ~I 1L 2L 3L x6 4L |K *I |J 9K 5L 6L 5L 7L 5L |J &< ,G 8L 9L .H j] `F 0L +G aL bL |J cL dL eL ft jt fL *A gL hL iL jL kL qK Oq lL mL nL )F oL nL qJ pJ pL qL rL sL 5I 2e tL uL vL wL xL 2i yL zL zL AL BL 1( oD CL DL EL FL QK QK QK Kc 9i _b GL HL IL                ",
"               JL KJ tI tI WJ KL LL EI uI uI 4E uI uI oG 0F LJ xI ML xI 0F nG NJ NJ NL nG OJ 0F oG oG oG oG lH 6E OL PL QL QL RL SL pG TL oG oG UJ UL VL WL XL OF Gs HH Up )A $q `J oF oF tH 2D +K {C oF fE {C {C =z 2D .K !A YL fD ZL `L  M wH wH xH =q  x {z 4n dg S8 .M +M @M #M $M N. NI Dv %M NG 4n &M *M =M -M ;M >M 8x 6y lA lB LD uB by fz 7y jt xu Eu *s 0y ,M ez -w 1x uB hz hz uD fy xB ]L 'M )M !M ~M {M ]M 8J &H {M ^M /M (M _M *H :M <M ~G *I [M }M |M |M 1M 1M }K 2M 3M *' &I 4M 5M 6M @I ]J ^J 7M 8M 9M 0M aM bM cM QF ft dM eM fM gM hM iM Nu sK jM vJ kM uK NC lJ oJ rJ lM oJ pJ mM nM oM pM 3i vj 3i qM rM sM tM uM vM  < wM xM yM 1p zM kI PK QK OK QK Kc AM BM CM DM                ",
"               EM 4E tI LL KL KL KL ]D LL LL LL tI tI uI uI VJ oG TL xI xI oG TL ML ML xI 0F 0F oG lH lH lH lH Dq 9z ct FM GM HM `K IM 0F oG JM JM KM LM LM MM NM 8r OM 9r HH )A `J Vp tH  K !A #t q  Us Us oF fE {C =z xG ^C &y YL ^q PM ZL QM Ow RM ;z SM {z TM  x UM VM WM XM YM ZM B+ Dv FF `M Ao 5n  N .N +N @N #N $N rC oC %N &N jz 6y pt 0z dz 9y wu nt ht 6y |y  w qA hA 2x 1y *N 7x jB <K vC 7L =N -N ;N >N =I (L ZH ,N 'N )N w1 !N 4L ~N 'M {N [J 2M {N ]N ^N /N LD 7L 2M >I *I ,H (N _N ^J 9{ 9{ :N <N [N 1K }N |N 1N 2N 6y QF 3N 4N 5N cv 6N 7N 8N 9N 0N aN lL zM sK bN rJ qJ tK 3b #l td cN dN eN 4i fN Vu s: gN hN iN jN kN lN mN qM }m nN oN iI FL pN pN dm Kc .E qN rN sN                ",
"               tN uN tI tI KL vN wN wN KL KL KL KL WJ tI tI XK uI oG 0F xN xI VJ xI xI TL oG oG  L  L lH  L 4E Bq kz ^x dt $s mz yN  L oG oG JM zN AN BN BN CN DN *z EN EN FN HH Up `J $L kv {u @t fE ,B ,B ]q Us fE {C Wp ^C YL @t YI 1C GN HN HN IN IN JN BF /q rr KN ~i LN MN NN ON 0j 4j `M PN TM QN RN xn SN TN UN -w pC VN WN Dn ax (x ^x zu PF XN Fu ay ^x 7y %w dy cy %w 3x $w 5x 7x sC tC 4x YN |M ZN `N  O .O ,H 'I YH z5 +O @O #O 2M LD $O $F vD xB $O 4x ZN %O xB ^L 5L ;I >I -I &< &O *O =O :N 9{ 9{ ]J -O ;O >O ,O 'O )O >w gt JC eM !O ~O {O 3p ]O ^O /O bN (O _O Oq `D Mn Mn :O <O 4q [O }O |O uc 1O 2O 3O 4O 5O 6O 7O -| 8O 9O [, 0O aO bO cO 8I dO pN eO yj cm fO gO hO                ",
"               iO jO tI tI WJ vN kO vN vN vN vN vN vN FI KL WJ tI XK  L oG oG uI oG oG TL oG oG  L  L lO XK uI Bq mO vu 0z nO =s 0v IM lH oG JM oO BN pO qO rO 7r sO tO EN EN OM 9r uO )A oF &y ]C $q ~u $q $q ,B Us oF fE /B PM 1C YI ^q vO wO xO JG #t Ow fD #m #m JN yO PN @. zO BF TM AO BO CO PN DO EO FO GO HO IO 1x kA JO KO xu ^x 8x jt ^D /D -s mA 8y bz =w LO pC MO 8x NO {L 5x |x 7x }x OO YN PO QO 2M RO SO 1J TO &< *I UO VO =I :I WO <x gy XO :K gy <K /N YO ]N {N <M ZO |J [M `O  P .P +P @P 9{ 9{ 9{ #P PE $P ,J 92 %P &P (x ht *P =P -P 6N ;P >P ^O jM Oq Mn ,P Mn 3b 'P )P !P ~P {P ]P ^P /P G, (P _P e5 :P .E <P }i [P }P |P 1P yz 2P 3P 4P 5P 6P 7P 8P 9P bm wj 0P aP                ",
"                  bP LL WJ KL wN cP cP cP gF vN cP cP gF dP eP KL fP EI XK uI XK  L lH oG oG oG oG  L lO fP ]D pt gP gP gP hP st iP  L  L  L VJ .L qO jP jP -s kP 'u *z lP EN mP OM FN HH ~u {C %q nP oP ~u pP %q ,B ,B kv fE qP aC 1C ZL PM rP wO IN RM wO MI HN JG IN sP tP tP uP vP TM wP IH PN xP yP kC zP AP BP CP ey DP M1 EP ax ht ez EE Cu FP >w ft 8y =w kA 3x kA 3x cy qA _x ;w GP HP IP JP vC KP x6 x6 LP <J ,H MP <J *I NP OP PP  e QP <x 3y <x fy fy RP xB LD vD SP aJ }M TP }J <J UP *H VP WP 6M 9{ 9{ 9{ XP 6J 4M 2L YP ZP  w 9y `P }H !O  Q .Q +Q @Q aN ]O #Q $Q ,P vJ 'P %Q &Q *Q @^ ^P =Q en -Q 4w uj ;Q >Q ,Q 'Q )Q 5I !Q ~Q {Q ap rj ]Q ^Q 5P /Q (Q (Q 6P _Q yj :Q <Q [Q             ",
"                  Yc LL KL KL KL cP cP }Q }Q }Q cP gF }Q gF gF gF wN KL fP fP XK EI fP lO  L VJ VJ |Q XJ 1Q 2Q 3Q 4Q 5Q 6Q 7Q 8Q 2Q  L  L  L DI 9Q jP jP 0Q aQ bQ cQ dQ ~C lP eQ EN EN OM uO ,B  K fQ )A oP ~u ,B fE tH tH aC ,B kv =z YI /B rP HN sP pF rP PM wO MI HN HN 5q gQ IH hQ QN 07 iQ jQ 85 Lu kQ lQ mQ nQ }x jB [x oQ wu PF ^D 9x lz yu kz QF bz hy kA GP +w 3x LO &w hA $w LO +w 2y 2y pQ qQ .F &< rQ sQ TP tQ aJ 2M uQ z5 &I VO vQ <M :x GC wQ EC fy $O jB iz RP 4x $O MD xQ yQ <J `O TO aK zQ QE 9{ 9{ 9{ 9{ AQ BQ CQ ]M DQ EQ bz 9y FQ 5v GQ HQ IQ JQ #Q >P cO cO (s KQ _O o- LQ MQ AK =Q NQ {[ OQ ;Q PQ MK QQ RQ SQ EB 'Q TQ UQ VQ WQ rj XQ Wr EB YQ ZQ ZQ 5P 9P yj `Q  R .R             ",
"                  +R @R #R #R KL wN cP }Q }Q }Q }Q $R $R }Q }Q }Q }Q cP wN FI GI GI GI EI lO lO fP XJ XJ GI 2Q 7Q %R &R &R *R =R -R EI EI EI oH ;R >R >R ,R &u 'R )R !R 8r ~R {R Is lP EN FN Ts `J #L #L )A oP =z =z ~u  K ]R oP ]R Us ^R qP ^q /R IN (R 1C ]C rP _R wO xO :R <R hQ [R xP }R iQ |R 1R &p 2R 3R 4R [x 5R 6R |x 7R lz 8R 9R *C TD lz lA 6y |y bz |y VH -w 2x kA +w jz qA 5x 1x uB nB |x {L 0R aR bR 0R cR <K xB |M [K dR YG eR ]L /N FC fR gR hR fy $F <x <x fy RP jB [x 'M QP |K ;I *I =H iR .G ]J 9{ 9{ 9{ @I jR kR $G lR mR nR bz oR pR qR rR jJ sR tR tR tR tR uR 8N vR wR xR yR zR AR BR %l vK CR DR ER FR GR HR PQ IR 'Q u) JR -< rj KR LR SQ MR NR OR YQ 5P PR K8 QR RR             ",
"                     SR {D {D KL KL cP }Q }Q }Q }Q $R $R $R $R $R TR }Q }Q gF vN vN -R cP ]D fP fP UR VR XJ WR XR YR ZR `R  S .S +S UR UR 1Q @S 0Q #S $S %S &S 'R *S *S @L )R cQ ~R Is lP =S FN fQ HH HH -S ~u ;S $q Up ~u ~u >S ,S $q uH ^R PM 'S wO PM PM rP (R (R JH gQ Bo ,t KG [R )S <R .9 !S ~S {S }B ]S aJ {N ^S /S by Eu ax (S _S 0x zu Zv 8y 7y 7y by cz :S qA uB pC %w oA oA jz _x pQ 2y 5x ey FC 4R <S $O jB 3y <x MD xB MD <x iz [S :x |x }S |S 1S fy :x fy fy <x fy $O 4y xB vD [K 2S #O -I >G VF 3S ]J 9{ 9{ 9{ j] YF 4S 5S 6S 7S 6y 9y 8S 9S 0S aS bS 3p 3p cS dS eS fS AK gS hS iS jS kS lS ;Q mS nS oS pS qS rS sS DL tS wD wR uS vS tj wS 2m ,Q xS >Q ,Q yS zS 4I +@ AS BS             ",
"                     CS #R {D FI vN cP }Q $R $R $R $R DS $R $R $R ES $R $R }Q }Q }Q cP cP cP fP fP XJ -R VR FS GS HS IS YR JS KS LS GI GI GI MS 0Q NS NS OS 7r PS PS *S *S )R bQ 8r ~R ~R lP FN FN HH HH #L kv {C QS )A  K ~u oP RS $q ,B kv /B wO qP wO PM /B /B SS )L Bo GN TS ,t -. US VS :z AE WS 4A XS YS #O ZS `S  T mt wu }D .T _S 'w ax Zv mA |y ez pC MO =w cy 3x 8x IC kA 1x +T NO OD OD OD uD tC RF <x fy rB sC jB fy :x rB ey rB }x HP IP CP @T sC jB <x :x fy FC {L 4y /N MD 4y #T #O $T >H ,J &O %T &T @I 9{ 9{ 9{ <N *T <L =T -T ;T bz >T `t ,T 'T )T X0 zf !T ~T {T 8N qy Wa ]T ^T /T XQ (T _T :T <T [T }T +J |T DL 1T 2T 3T 4T 5T tm 6T 7T qn RQ 8T RQ 9T >Q yS ZQ xL 0T aT             ",
"                     bT cT eP dT vN cP }Q $R $R $R DS DS eT eT ES ES ES eT $R $R TR }Q }Q }Q cP -R GI -R LS fT gT hT iT jT kT lT cP cP vN LS nF mT nT nT oT pT 7r qT rT *S )R bQ bQ cQ dQ Is OM 9r )A FN #L ,B Up HH QS ~u $L oP $q pP $q kv ^C {C fE qP ^R ^R qP sT tT (t uT vT (t uT wT xT .9 yT zT AT BT CT 3M DT ET 7y FT yu GT .T HT )w lz ht bz 6y fz tD cy  w .w &w qA +T hA jz nB _x 5x qA ey tB ey <x }x <x qB sC :K <x fy 7x pQ sC }x 6x az 1y OD ~K jA 7x <x :x sC FC RP LD HC vC PO [M ,H =H z5 !M 2L IT <N 9{ 9{ 9{ #P YF [L JT KT cy 8y LT MT Ip NT OT PT QT 3p RT ST Ln TT UT VT WT XT YT ZT `T  U .U +U @U #U lq $U X7 Ao ~9 %U &U *U =U Pd -U 8T ;U QQ PQ PQ EB ZQ PR >U ,U 'U          ",
"                        )U !U ~U eP cP }Q $R $R $R DS {U {U ES ES ES ES ES eT eT eT $R cP }Q $R }Q cP -R cP ]U ^U /U (U _U :U <U [U [U [U cP }U nT nT |U 1U &S pT pT 7r rT *S )R )R )R )R cQ *z =S 2U FN !u )A FN FN HH )A )A HH 3U ~u `J aC rP ,B ,B >y >y RS Go 4U sT ,t LG 5U mo mo 6U GO 7U 8U 9U D# 0U =H =H aU bU cU Eu ^D dU dU eU wu Fu ay by fz cz fz qC gz hy dy qA fU cy 1y nB sC 2y &w }x ey uB nB fy uD FC rB FC <x fy jB <x jB ey 5x 2x jz 5x OD 5x ey jB :x FC gy <K MD MD ^L yQ 2M gU &< >J 'I *H JE hU #H 9{ 9{ 9{ iU jU ~J kU lU lB mU nU oU pU qU 5m rU wJ sU wJ 3p L! tU uU vU wU xU yU Ic zU w0 AU BU CU DU Xk EU FU GU HU IU 6T iu JU sS KU KU KU QQ HR LU NR }O MU NU OU          ",
"                        PU QU dT gF dT }Q }Q TR TR ES {U {U RU RU RU RU RU SU RU RU iP TR TR iP $R }Q cP TU UU VU VU /U WU XU YU ZU ZU [U [U `U  V nT |U .V Kw Kw +V @V qT rT PS PS *S 8r 8r 8r 8r #V FN jv tO 2U 2U $V HH #L HH %V %V $L {C RS pP Co pP ]R >y &V Go tT gQ *V =V -V -V wT ;V >V ,V cC 'V UP )V ,N !V pC mt 9x ~V dU GT Cu {V ]V lA 9y ^V fz fz  w hy yB ;w 1x 1y  w jz iA uD sC iA pQ =J 2y rB SP 7x LD :x gy <x <x :x RF :K jA OD az 1y nB OD uB =J fy fy FC GC fy [S /V vC }K [K |J #O #O gU *' )I (V _V 9{ 9{ 9{ ]J :V <V %H [V }V (K |V 1V 2V 3V 4V 5V 6V Nq 7V +^ iM 8V 9V 0V aV bV cV -M dV .M Bg eV 8t fV gV hV iV jV <m kV X) lV mV CJ CJ KU 8T nV GR oV pV qV rV sV tV          ",
"                           uV $R }Q gF }Q }Q }Q TR ES vV wV SU SU SU SU SU SU xV SU vV iP iP TR TR }Q cP yV zV AV VU VU BV CV DV EV EV TR TU FV GV HV IV JV Lw KV Kw +V pT qT PS qT iv Is ~R LV 8r 'u #V MV *z jv 2U !u !u #L )A FN FN NV uH Ts 3U ir Ts RS :B OV -V PV QV RV SV TV UV mo VV WS WV XV d0 YV ZV `V  W .W iy ^D dU +W @W FP wu kt by bz mA bz |y tD rC &w qA 1x qA &w uA =J fy fy #W }x FC ey [x $F YO LD sC iz fy :x <x iz $O 7x ey *w $w OD uD _x 2y :x RF rB }x sC [x 5R /N |M }J 9K [J 9K 4L $W 6K fK %W ]J 9{ 9{ j] $H &W ~I *W =W :S -W MT ;W >W ,W 'F 'W 5V )W 3p 8N !W ~W {W ]W ^W /W (W _W :W Nj zz <W JK [W }W |W 1W +8 2W LA mS 3W rS 4W 5W QQ 6W 7W 8W IR 9W 0W aW bW          ",
"                           cW dW eW }Q }Q }Q TR ES ES xV wV wV SU SU SU SU xV xV xV xV xV xV fW ES $R [U yV BV gW hW VU BV iW jW fW fW iP WR pO kW GV lW mW nW nW &u Kw Mw 7r 7r qT bQ dQ )R LV 8r oW pW pW ~R Is jv 2U $V Up qW HH )A NV )A )A )A )A oP ]R RS rW sW <R ,t TV tW Jr uW vW wW qS [4 xW yW zW 4M AW +w ot WG BW GT GT %J iy lz (x ez dz cz 6y fz 8x 8x kA &w &w az nB OD GC FC {L CP GC <K SP QP CW FC DW EW 4y $O RP <K MD FW =J ey 2x jz 7x OD iA 2y 7x 7x pQ GC ~K fy 'M SP SO 0K 2M PO 9K }J `O >H GW HW IW 9{ 9{ 9{ ]J YF JW UE KW LW 0y MW NW NT OW PW ZD 5m 'W QW 3p RW SW TW UW VW WW XW YW ZW `W  X /W .X +X @X #X &O $X %X M1 &X *X =X -X ;X 7W QQ >X wm ,X ix 'X )X !X          ",
"                              ~X {X $R }Q }Q }Q TR iP vV wV xV xV wV wV xV xV xV xV ]X ]X ]X xV xV RU }Q YU /U hW VU hW ^X ]U DV SU /X fW (X _X :X <X lW [X nW nW }X Kw Kw +V |X rT eQ )R rT iv 8r ~R 8r 1X 8r ~R tO lP 2U Up pP )A 2X jr HH )A oP )A 3X >S Co >S Go ,t 4X 5X 6X 7X Jr 8X oD 9X 0X %x aX bX cX dX eX iy WG ^K fX gX 0x Au *s bz by ^V  w ^V lB (K bz 7y GP _x _x %w cy nB 7x 7x ]N vD hX |M iX AC sC :x MD xB cR LD YO EW fy rB pQ qA hA JP *w 5x 7x 7x =J uD uD hz sC 4y FW |M ]L LD 1M [K 5L jX kX -I >O BQ #P 9{ 9{ lX QE *T mX nX fz 0y oX pX qX rX 2( 'F sX 6m tX uX vX wX xX yX zX AX BX /W /W WW `W CX L7 kq ;H DX EX FX  { 1T GX HX IX 4W QQ QQ JX nV KX LU 1T LX MX NX          ",
"                              OX xA {X $R }Q }Q TR TR vV Dq Dq ]X ]X ]X xV ]X ]X ]X PX PX PX ]X ]X SU fW lT QX RX SX TX UX VX WX jW XX XX YX ZX :X :X TD Lw `X  Y nW Kw .Y .Y Mw 8r eQ 'R 7r pT iv LV 'u 8r bQ 'R *z ~C lP %V ,B  K -S +Y +Y #L ~u #L @Y )A 3U :B TS =V 5X #Y $Y %Y &Y *Y &p Jh =Y -Y ;Y >Y ,Y 'Y dt Au @W ~V dU )Y rG Au ot !Y kz mB 6y ay ^V 6y (x lB yB oA ~Y ay -w $w uD -w {Y {N vC LD /N RP <x tC FC 4y vC LD EW iz FC :x 6x ;w NO 6x az 2y JP GC }x }x gy jB jB <x /V xB MD [x <K <M PO :I 9J kX ]Y ^Y +H 9{ 9{ j] 5J *T /Y (Y _Y ay :Y <Y [Y }Y 2( Jn ZD sX sX ZD zy 5V |Y 1Y 2Y 3Y  { 4Y CX 5Y 6Y 7Y 8Y mV 9Y 0Y aY bY cY dY dY dY cY eY fY gY hY KU rS 3W iY [O jY kY          ",
"                                 lY mY DS $R }Q }Q TR ES Dq 's nY nY nY ]X ]X ]X ]X PX nY PX PX PX jW xV YU ^X BV BV BV oY pY WX WX WX yV qY :X rY sY tY uY `X vY KV wY xY .Y yY cQ bQ PS 7r qT iv iv bQ *S LV Mw dQ pW FN Co ]R ~u %V +Y EN FN FN HH )A QS ir <A :R zY AY AY #Y tW Cv BY Q~ CY DY EY FY ~M !H GY HY 'w BW IY JY BW KY iy -s *s ^x mU gt jt bz LY lt 9y 7y tD hy fz -w %w *w &w wB LD MY fy sC |x OD uA OD $F LD 4y :x fy fy }x uB oA kA jz uA nB 2y =J 7x <x [S HC 4y LD NY }K 7L MY vC 5L ;I ;H OY -G ,I VE PY 9{ 9{ @I +I 4K !J QY =W 6y RY SY TY 3V UY VY oN WY 'F Jn um 'F XY YY d1 ZY `Y  Z .Z +Z @Z 7D #Z cO $Z ST ~T %Z &Z *Z =Z -Z HX IX ;Z 8T RQ cY rS >Z ,Z ix 'Z )Z          ",
"                                 !Z [H mY DS ZU ZU $R ES ~Z Dq 's nY nY ]X ]X PX PX PX PX PX nY nY jW jW {Z oY ^X ^X ]Z XU lT ^Z WX WX WX ;R /Z /Z (Z tY _Z nW :Z <Z [Z KV KV Mw bQ 'R pT pT 'R rT %y iv }Z %y Mw 'R 'u ir FN #L pP HH ~C =S +Y +Y FN #L )A QS RS <A |Z 1Z 2Z Br #Y $Y BY 3Z 4Z 5Z ]H 6Z &G 7Z 8Z 0x /K HT .T GT )Y /D Bu Eu *s jt lA *s Zv ^x ^x Yv ft gt  w 9Z .w cy dy kA 0Z az fy MD uD |x 5x *N 5x uB FC 4y 4y RF 4y 4x uD uD _x jz jz *w 2y uB OD tB :x MD vD ^L }K 7L }J |K vC 5L 2M TO YH )H &< *I aZ bZ :N 9{ 9{ cZ 4K dZ eZ fZ 6y 9y gZ hZ iZ jZ kZ lZ um Mu um AJ sX mZ nZ oZ Te _c pZ qZ rZ sZ AR tZ uZ vZ vZ wZ xZ yZ =Z zZ AZ BZ =X 6W CZ rS KX >Z rS fS DZ EZ FZ          ",
"                                    GZ HZ IZ DS ZU $R EV ~Z xV Dq nY nY nY nY nY WX PX PX PX nY nY ^Z jW DV oY ^X ^X zV iW JZ KZ jW WX XX LZ MZ NZ OZ PZ QZ RZ qT 'R KV nW RZ SZ PS TZ Mw TZ qT KV UZ pT %y pT pT 'R EN #L ~C FN pP VZ #V +Y EN lP lP OM HH @Y Co kr 1Z WZ 1Z XZ Ck $m SG YZ ZZ `Z $G  ` .` +` @` WG #` $` JY %` ^K Cu xu FP Eu Yv 0z ax dt ot ^x vu >w bz |y |y 7y LO tD +w sC cy FW <x 6x 2y 2y =J jA hz sC MD 4x EW SP 'M [x rB nB IP 5x 2y wB ey 2y uD jB MD xB &` 7L 2M 4L TP 5L [J uQ L: GW L: *I <J cX *` AQ 9{ 9{ #I =` -` ;` >` ,` (x '` )` !` ~` kZ lZ AJ {` AJ {` ]` sX ^` /` Kn }m (` _` :` <` [` }` |` |` 1` xZ 2` 3` zZ 4` =Z BZ =X 5` FR 6` fY rS rS 8N !W 7` 8`          ",
"                                       9` HZ 0` $R ZU eT ES vV xV nY nY nY nY nY ^Z WX WX PX PX a` a` WX YU XU b` oY c` d` e` xV jW jW f` qH g` h` i` j` k` SZ wY SZ SZ SZ l` l` wY KV yY m` wY Lw pT qT pT Kw [Z qT n` FN VZ =S EN #V 'u ~C ~R Is Is o` EN +Y p` WZ q` q` r` 1Z #Y s` AE t` u` v` ]M w` x` y` zu ]K BW *C #` fX &J Du *s WG zu ^x =s lz Yv kt %s *s jt gt 6y z` rC 3x %w A` 2y jz FW B` 5x 5x 2y =J GC wB sC [x xB xB vC /N /V {L =J |x 7x }x 7x }x tC {L jB $O /N &` [K 2S |J 9K 9K #O :J C` -G ,H #O |J &< D` PE j] 9{ E` /J F` G` H` ^V mA FQ Gp I` J` K` kZ lZ lZ L` AJ M` um oN N` ]` O` Kn XY O` /` P` P` Q` R` 1` S` &Z 1` T` zZ AZ S` U` dY &Z 2` 6` V` W` cO X` Y` 5%          ",
"                                       Z` `` wq {X $R $R ES vV xV 's nY nY nY nY ^Z WX WX WX WX DV   .. .DV :U c` + .@ .# .jW SU jW jW f` $ .% .% .yI j` l` [Z nW & .wY Mw nW l` k` SZ .Y .Y Mw SZ pT pT qT Kw PS iv %y ~R ~C lP iv jv ~C n` 8r ~R ~C ~C ~C lP * .* .~z * .= .r` #Y - .; .> ., .' .) .iR ZG ! .Au /D &J 'w ~ .GT )Y )w zu { .Au ] .gt kt ot nt nt TD Yv bz ay 8y .w pC rC 2x 1y qA *w uB *w uA |x wB wB tC sC sC jB MY cR <K <x FC GC 2y ey =J tC jB $O FW iz <K }K 5L [J 9K ^ .5L / .( .,J 9J >H *I 4L _ .1J : .NE @I 9{ 6M < .mX [ .} .| .9y Iq 6v 1 .2 .3 .4 .L` 4 .5 .ER 6 .7 .lZ 8 .8 .ER ]` 9 .0 .ER R` Q` a .R` AZ b .=Z |` c .1` AZ d .U` =Z 3` e .2` %Z >Z 2I f .g .h .         ",
"                                          i .j .k .DS $R eT RU SU ]X nY nY nY l .^Z ^Z WX WX WX DV   .  .m .n .o .p .q .r .e` SU xV jW s .t .u .v .w .j` k` Mw }X x .wY qT Mw k` y .KV KV UZ Kw nW SZ [Z qT pT mP z .wY pT qT %y 'R lP n` n` 8r 8r 8r A .n` ~C B .C .D .C .~z E .Fo +J F .G .H .I .6Z ZH J .K .L .M .N .'w ~V 9R BW *C O .{ ./D iy lz Eu Cu xu %s Fu ^x /x bz 9y  w cz %w +w LO kA -w jz jz *w OD iA iA OD 2y OD uD jB MD <x <x <x rB pQ |x hz 5y <x 4y 4x OO xB 'M aJ 5L <M 5L }M P .>H Q .R .;H UP S .'H UP WE T .XP 9{ #H OE U .V .W .8y 9y X .Y .1 .2 .Z .Mq ` .LK LK  .....+.....L` @..#..{` 0 .$..%..&..*..=..-..;..4` =Z ;..;..zZ AZ d .HX >..e .,..V` rS sS '..)..!..~..         ",
"                                             {..]..)s DS $R eT RU ]X ]X nY nY nY ^Z ^Z ^Z WX yV yV   .^../..(.._.._..:..<..KZ SU xV SU HI t .[..}..|..1..j` l` }X l` pT *S PS 2..l` Lw KV Mw nW RZ Lw PS pT 'R LV [Z pT @V pT 7r bQ n` !R bQ 8r @L !R !R 3..n` 4..5..5..6..7..* .8..'K |( 9..0..a..b..c..d..e..%J /D zu *J gX +W f..WG %J rG @W /D )w lz g..wu TD zB *s kt 0y lA 7y dz tD 8x gz tD tD %w kA _x ey *w uA _x h..6x 5x hz }x rB fy }x 7x 7x rB sC <x iz [x /V OO LD cR 7L 5L yQ [J UO UP ,Y =I i..)H ;H >H ,I ,H j..3J XP 9{ k..l..V .m..n..o..gt p..q..1 .r..s..t..t..u..+..L` v..+..L` ...7 .#..#..@..w..x..T` y..z..A..a .&..c .-..B..1` AZ $Z IX -X -X 7W GR HR C..D..E..F..G..         ",
"                                                H..I..{X DS DS ES SU ]X PX ]X nY a` a` WX e` yV DV   .  .m .J..:..q .d` K..yV /X SU fW HI L..M..N..O..P..P..Q..R..}X 7r rT qT nW yY 2..2..l` [X S..Mw PS Mw LV wY wY Mw !R rT @V 7r rT T..!R !R !R U..U..V..8r 3..(B (B 5..C .~z 8..W..X..Y..Z..VP `..WE  +..+.WG /D yu WG 9R +W ++.Eu PF ^D @W /D Eu Yv wu @+.)w %J OF 0z gt lA ay 6y  w  w |y by by hy -w IP az jz oA 1x *w |x uB OD uD FC <x 7x }x 5y tC rB RF MD <S 4x SP }K SO ;I ;I ;I gU UP #+.,J OY ZH $+.C` L: -I 'I =I 8M @P 9{ @H %+.&+.DD *+.9y 9y =F =+.-+.;+.>+.>+.t..,+....+..` .5 .'+....lZ )+.@.....!+.Q` a .w..~+.z..=..*..*..{+.-..1` T` $Z 4W eY 7W GR HR HR ]+.*U ^+./+.(+.         ",
"                                                   H..mY {U eT eT RU SU ]X PX nY nY DV ^Z WX yV yV _+.^..m .:+.(..<+.[+.}+.DV /X KZ SU |+.1+.1+.2+.3+.j` j` 4+.j` [X nW Kw l` S..wY k` RZ 5+.Q..6+.}X }X wY z .}X }X %y HH ~R 8r @V @V 7r rT 'R bQ !R T..!R U..U..U..3..A .D .7+.8..oD 8+.9+.0+.) ._J a+.b+.xu /K 'w kz /D 9R 9R Eu jt Fu c+.&J )Y 'w zu L .*C *C /K 0x lz ax kt jt jt ^V 8y 6y mU bz fz $w 6x 3x pC %w 8x 3x jz jz _x |x GC 3y sC 7x 3y pQ nB pB MY {N aJ <M 7L d+.&< >H UP 'H L: e+.)V f+.ZH g+.)H -G &< :J h+.DD +I j] i+.*T b..j+.k+.l+.gt et m+.n+.o+.Mq >+.>+.5 .L` ` .` .7 .7 .CL p+.AJ ...!+.w..*..q+.r+.s+.z..a .*..t+.t+.a .;..Q` AZ FR u+.rS >Z v+.w+.LU x+.y+.z+.A+.         ",
"                                                   B+.C+.D+.{U eT eT RU xV ]X nY nY nY nY WX E+.F+._+._+.YU G+.J..J..[+.H+.YU ^Z e` /X I+.J+.K+.L+.M+.N+.j` j` P..j` N+.k` j` S..k` l` RZ Q..O+.Q.._Z _Z P+.mW uY Lw n` FN oP )A >B &S @V 7r 7r 'R cQ !R Gs Q+.R+.S+.U..3..T+.~z U+.V+.mu W+.X+. I VP Y+.Z+.`+./D /D &C %` GT BW *s lz  @..@.c+.#` GT %` +@.^K ^K /K yu yu Du Eu lz Zv (K mB 9y 9y bz ^V cy 6x cy 7y ay 8y hy nA tD cy pA hA 6x }x }x 3y |x 5x qB xB ^L <M @@.-J #@.'I &< ]Y x6 $@.YH %@.&@.*@.(L =I ;H 'I =H YH =@.3K 5J bZ )J 'J b[ -@.;@.ht JC >@.,@.'@.` .)@.s..v..7 .!@.4 .~@.{@.+J +N ]@.^@.mq /@.(@._@.:@.<@.[@.a .}@.w..$..|` AZ ;..AZ IX FR |@.e .KX v+.iY pV $& 1@.2@.         ",
"                                                      3@.4@.IZ DS eT eT SU ]X ]X nY ^Z a` WX E+.E+._+._+.YU 5@.6@.}+.7@.8@.^..DV ^Z e` $A 9@.9@.@W 3+.j` 0@.a@.N+.P..b@.5+.c@.k` k` k` k` 5+.5+.l` k` k` _Z JV [X uY d@.lP YI @Y &S &S &S &S @V 7r cQ bQ Q+.e@.e@.Q+.R+.U..5..BE [q DU ic f@.g@.mX ^M h@..w Bu Au ++.+@.GT +W JY BW ^K GT %` ^K /K GT i@.BW %` BW ^D 0x L .*J Bu wu nt ht jt hB j@.>w 9y 6y OD  w gt k@.8y  w ez hy |y rC 8x -w l@.|x iA CP =J iz 4y vD &` /N 2M UP >H ,I m@.,Y -H )H h+.n@.&@.o@.=I ,J !M ,J p@.(M U . G q@.{M fK r@.s@.kz QF Xv >@.t@.u@.v@.w@.s..2b x@.!@.8t y@.8Y z@.A@.B@.C@.D@.E@.F@./w G@.H@.H@.I@.J@.K@.z..1` 3` c .$Z 6` FR AZ _e ,..W` L@.1T M@.N@.O@.         ",
"                                                         P@.KC {X DS eT Q@.SU ]X ]X nY DV R@.E+.E+.R@._+.YU S@.S@.S@.,R T@._+.  ._+.WX Ux BW BW U@.V@.W@.W@.1..N+.N+.4+.X@.JV 5+.N+.Y@.j` 4+.Z@.Kw [Z wY N+.eE JV Lw `@.EN uH +Y sH 7r &S Kw &S @V PS 'R e@. #.e@.Q+.Q+.R+.3..B ..#.EO @# +#.2< ~J VF @#.##.$#.JI M .^K GT %#.dU dU _S dU HT %` )Y GT fX BW ~ .#` /K &C WG &#.yu ax Zv ^x *s TD %s Zv ^x Yv ay ^x vu ht 6y bz dz 7y 8x rC hy .w 3x ~Y 3x MO tC 4y RF [S LD 4y TP >H 'I `O ,H *#.p@.)H 9J ZH OY 3L ,J z5 )H =#.)H (M -#.~J ;#.#G >#.I .,#.'#.jt gA )#.!#.F .~#.{#.2b lq 2b 2b ]#.^#./#.Az (#._#.aO 1b :#.JK <#.[#.eB }#.}y |#.1#.2#.3#.4#.5#.*..dY FR 6#.7#.P` [` 8#.8m 9#.0#.a#.         ",
"                                                            b#.HZ {X eT EV RU SU xV nY ^Z c#.E+.E+.R@._+.DV d#.e#.f#.g#.h#.YU i#.^..  .MS BW BW j#.k#.l#.M+.0@.j` P..W@.W@.P..P..0@.m#.n#.P..Q..}X Mw RZ P..JV JV uY @V d@.lP pW Mw @V Kw &u &u &u @V Gs o#.o#.|X e@.p#.Q+.@L T+.q#.cB Zb r#.s#.t#.u#.v#.V+.w#.0x /D ^K %` 9R JY $` x#..T JY HT HT +W HT HT ~ .#` ++.++./K WG Du mt jt %s lz xu y#.-s nt lz %s ot -s ft mA ft (x 7y %w hy 9Z fz gz rA dy %w =J 4y gy fy 4y |M z#.&< >H *I *' =I ,J )H %@.ZH A#.*@.&I rQ ,J =#.Q .B#.C#.-` VF OY =H D#.E#.nt ht (G F#.G#.;h H#.2b I#.J#.lq K#.L#.M#.N#.O#.kq FK P#.Q#.FK (T R#.X..S#.T#.yJ U#.wW wW V#.LF W#.Zr X#.e .$Z 7#.N` Y#.Z#.`#. $.c3 .$.         ",
"                                                            +$.@$.wq {U $R EV fW fW ]X ]X nY WX E+.F+._+._+.#$.$$.%$.OZ $$.JZ &$.i#.  .MS f..#` *$.=$.l#.3+.3+.P..3+.-$.-$.3+.3+.W@.;$.$y >$.,$.R..'$.>$.j` 5+.Q..)$.uY }X Kw }X Kw .Y .Y &S &u !$.~$. #.~$.o#.|X |X e@.U..3..B .Cr EO >4 {$.]$.RE ^$./$.ox nt yu ^D #` 9R 9R JY JY JY dU ($.($.dU x#..T x#.JY ~V GT )Y ++.^D Eu 8y |y %s *s PF FT -s PF wu xu _$.ot ft 9y jt ft ay |y  w 7y hy 8x %w by %w ey fy <x <x 4x 6L |J S .S .rQ ,J YH ,J OY :$.<$.[$.&G ,J e+.e+.z5 x6 *H }$.`..|$.|N 1$.2$.3$.4$.kt /p 5$.6$.;h 7$.un 8$.8$.CL 2b 4c 9$. +.sn FK 0$.a$.b$.c$.d$.e$.f$.R#.Wr Wr g$.h$.i$.j$.S#.}T k$.l$.}` P` N` N` ]` 0b 4P m$.n$.o$.         ",
"                                                               +$.`` IZ DS TR EV fW xV jW WX WX E+.R@.R@.F+.p$.i` i` q$.q$.JZ {Z &$.i#.r$.f..#` s$.V@.O..O..-$.M+.-$.t$.-$.u$.-$.v$.P..JV >$.P..c@.5+.P..O+.c@.mW R..[X mW R..l` Lw wY UZ 7r 7r uY Fs Fs !$.&u &S &S |X w$.Gs o` x$.y$.z$.A$.B$.C$.t#.D$.E$.F$.Bu ^D BW 9R 9R JY $` 9R $` dU ($._S G$._S dU i@.i@.9R %` &J *C gt (K ay PF Zv /x ^x ^x %s xu _$.kz kz Yv k@.ht ft bz lA bz 8y fz rC 8x by rC 2y pQ ey jB /N YN |K gU ,I  P =I H$.o@.:$.92 ]M [$.'N o@.p@.;H =H kX 'I I$.#G jK J$.K$.L$.M$.lz Yv N$.O$.P$.Q$.yf H#.H#.H#.R$.S$.T$.|c U$.V$.W$.X$.Y$.Z$.`$. %..%.+%.(T 8t e$.FK e$.1m R~ @%.Q#.]Q 'K #%.M` N` ER ]` $%.%%.&%.*%.=%.         ",
"                                                                  -%.yA {U ;%.$R iP fW xV jW jW XX E+._+._+.p$.}D }D $A Tx <U >%.&$.&$.lF ^K #` ,%.'%.k#.k#.)%.O..t$.t$.-$.3+.3+.3+.P..,$.!%.v$.n#.n#.X@.,$.JV &S &S ~%.[X [X l` _Z Kw 7r 7r Mw uY  #.Fs 2..~$.&u ~$.o#.|X {%.Hs ]%.^%./%.(%._%.QE WF :%.<%.^x wu WG #` fX HT JY [%.JY JY JY dU G$.}%._S JY 9R %` BW GT BW /D )w g..ax ay ay 9Z ^V jt *s wu PF ^x mt /x ,w Yv !Y mA ht LY bz |y pC |y :S @w uB uD |x FC |M }K #O UP 'I =#.=I %@.o@.OY 92 [$.]M <$.n@.o@.)V *H |%.1%.%@.$+.UP }M {N z#.2%.lz ft 3%.4%.5%.R$.6%.6%.6%.7%.6%.8%.6_ @4 9%.0%.a%.b%.c%.d%.e%.f%.E+ Az EK g%.h%.yd {[ i%.j%.k%.l%.|} m%.n%.o%.^` {` sX p%.]` q%.r%.            ",
"                                                                     s%.t%.DS $R EV EV fW SU KZ XX XX R@._+.f` u%.L .nH WG e` >%.>%.>%.v%.j#.w%.*$.|..x%.V@.)%.)%.y%.)%.z%.3+.A%.u$.$y B%.C%.u$.B%.v$.D%.#y 5+.2..E%.JV &S Lw JV O+.l` @V *S }X }X &S Fs !$.~$.~$.~$.~$.|X p#.o` F%.G%.H%.I%.J%.jR .G K%.L%.l+.Eu Cu @W #` GT HT +W JY JY .T _S G$.}%.x#.JY JY (S +@.#` +@./K /K /D %s -w 3x LO |y ft OF %J TD mt Fu nt Zv mt ft k@.gt >w bz |y %w cz  w cy OD hz 6x pQ /N 2M *I /P -G -H >G _M %@.*@.#G .` M%.VP &G n@.>G *H N%.O%.:J ,Y P%.LD Q%.R%.DE qt ^x @L S%.T%.U%.#o V%.#o W%.X%.Y%.7j |0 Z%.`%. &..&.+&.@&.#&.$&.%&.&&.*&.=&.-&.;&.>&.,&.z$.'&.e$.{S kC lZ ER )&.AJ $%.!&.kq ~&.{&.            ",
"                                                                        ]&.^&.$R ZU TR iP fW SU SU /X WX _+./&.O .'w WG 'w e` >%.>%.>%.(&._&.:&.<&.|..x%.V@.k#.k#.y%.y%.t$.t$.t$.v$.c@.z%.[&.B%.D%.3+.;$.m#.c@.l` [X mW d@.uY Q..5+.[X Kw +V k` l` E%.l` E%.2..Fs Fs Fs o#.p#.}&.]%.)O |&.1&.2&.3&.l..%T 4&.gt TD O . @.#` 5&.GT HT HT $` G$.x#._S G$.dU dU ~V /D 'w  @./K /D rG Fu *s jz 1x fz 6&.z` TD rG TD bz nt -s Eu -s ^x ^x 7&.QF 9y ^V 9Z .w by %w uB OD 1y OD SP 4L 4L -I &< *H p@.YH *H n@.<$.M%.[$.8&.92 &G f+.9&.}M |K S .L: 0&.a&.b&.c&.d&.ot Xv e&.f&.Q~ 1p g&.g&.Gn h&.i&.j&.k&.l&.m&.n&.o&.U#.x@.K` cq p&.q&.P~ *&.iQ >b r&.s&.hV 7b 1m +%.DO cB t&.@..u&.v&.zy p%.w&.x&.y&.            ",
"                                                                        i .z&.{X $R }Q TR TR fW fW A&.XX DV WX nF &C &C rG B&.>%.>%.>%.e` C&._&.C&.D&.y%.V@.E&.k#.k#.x%.y%.y%.t$.m#.>$.-$.z%.D%.n#.F&.JV G&.JV JV 5+.E%.&u $y O+.O+.[X &u mW y .y .[X l` l` E%.H&.H&.bv ~$.|X I&.x$.)O J&.K&.L&.E` M&.u#.N&.O&.=s yu *C BW %` P&.9R HT dU _S ($.($.x#..T dU GT ^D 9x xu { .^K L .ft gt mA bz -w  w LO Zv *J Au TD Q&.wu Bu FT lz lz mt kt kt k@.by 8x lA 8x CP iA jz =J R&.2M 7L 2M _ .=H :J 'I rQ o@.S&.T&.VP U&.<$.:$.ZH *' [J z#.*' L: }K sC V&.VG L .ot W&.X&.Y&.;h 4#.4#.4#.Z&.`&.6%. *..*.dd +*.@*..#.#*.$*. ^ *( %*.e| P~ k5 *Y AJ i$.mn &*.**.=*.-*.|R ; .;*.>*.;*.u&.AJ ,*.'*.)*.!*.            ",
"                                                                           ~*.{*.{U $R }Q }Q EV EV ]*./X WX WX +S zw nH qG e` &$.{Z >%.^*.C&.2+./*.|..(*.V@.V@.V@.(*.(*.x%._*.-$.:*.#y y%.u$.n#.n#.n#.c@.>$.$y ,$.c@.&S eE P..,$.j` uY uY 5+.5+.5+.y .<*.<*.[X H&.[*.bv 2..|X V..}*.|*.1*.2*.3*.#I ^J mX 4*.dz kz wu ]K .@.GT GT GT ~V JY x#.($.dU dU dU .T dU fX +@.&J BW BW )Y /K nt wu gt hA (K (K Du ]K Du xu 9x )w yu zu wu 5*.dt /x 6*.jt by 7y bz hy 1y uB _x }x |M 9K 5L [K ;I ,H -I 7*.>H ,G ,N 8*.92 8*.|$.OP >G ZE eR uQ -H *' ]L FC qQ nR yu %s =F Js 9*.vn 0*.a*.0*.4#.Z&.b*.c*.d*.}4 e*.f*.7U g*.yf h*.i*.j*.ic m&.k*.l*.m*.>*.n*.o*.-+ e$.Bt p*.q*.u&.!@.>*.u&.r*.$p s*.t*.               ",
"                                                                              u*.t%.DS $R }Q }Q 2Q WR ]*.KZ WX WR Aw Aw v*.B&.&$.{Z {Z F+./D @W w*.x*.y*.(*.(*.V@.(*.(*.(*.x%.u$.u$.[&._*.u$.;$.B%.v$.v$.$y 0@.;$.Es H&.PZ n#.X@.>$.}X uY z*.>$.~%.Es Es A*.`X @y B*.B*.C*.p#.D*.]%.E*.F*.G*.H*.+I I*.1K J*.fz kt xu 'w #` GT GT GT 9R JY .T x#..T dU JY ($.x#.dU HT GT %` BW BW WG PF yu 9y lA lz yu { .^D )w 9x Du yu yu wu lz mt /x kt gt gt bz lA bz by 3x hA #W 3y LD yQ 5L 7L _ .K*.-I ,I z6 L*.f+.M*.0T N*.OP n@.=#.K$.O*.P*.R .Q*.WO UH K$.R*.Bu %s S*.rW m6 ]@.|p a*.T*.U*.V*.(W W*.X*.Qv k_ iQ 'K h&.i&.x@.Y*.Z*.3( `*.~.  =..=.+=.@=.#=.JU $=.k_ <#.tn p+.n%.!@.;*.r*.%=.&=.*=.               ",
"                                                                                 4@.wq DS }Q }Q [U TU EV fW jW fW BI ==.-=.;=.i#.&$.{Z yV >=._&.w*.,=.x%.V@.(*.V@.V@.V@.(*.V@.y%.y%.y%.y%.[&.t$.z%.u$.B%.n#.B%.n#.'=.n#.B%.D%.)=.>$.`X JV ~%.JV ~%.Es H&.[X }X 2..~$.!=.!=.V..~=.{=.]=.^=.cb /=.(=..H <V _=.:=.ft TD %J <=.GT GT GT GT ~V dU .T _S _S $` +W .T $` [=.GT %` fX fX ^K Cu 9Z $w Au iy PF L .^D &C 'w %J yu yu {V Fu Fu _$.jt gt LY lA mB gt bz .w kA *w }=.fy /N 'M }K P%.x6 TO ,I UP GW |=.2L ZH OY *@.o@.1=.2=.qQ 1s &G 3=.DC 4=.5=.'w OF ]x mC tT 6=.wt 7=.T*.T*.U*.V*.YZ 8=.Kv 9=.1w +9 0=.X#.i&.S$.:f a=.b=.c=.d=.e=.f=.g=.h=.i=.j=.k=.l=.n0 m=.n=.{#.n=.t&.o=..^ *+.u4                ",
"                                                                                    p=.{X $R gF }Q [U TU ]*.SU xV q=.r=.s=.B&.i#.&$.&$.yV ]K 2+.>=.,=.k#.(*.(*.V@.k#.(*.V@.V@.(*.x%.x%.y%.[&.t$.3+.t$.-$.B%.D%.>$.>$.3+.-$.t=.n#.5+.Es >$.<*.H&.z*.<*.Fs <*.'$.@y u=.v=.+V V..w=.x=.y=.z=.A=.B=.C=.#P /J D=.oA <H *s yu L+..@.%` BW BW GT E=.dU .T _S dU 9R +W JY +W GT GT HT BW %J Bu lz Yv *J )w 9x )Y )Y F=.^D { .Au rG WG zu Eu Eu ot mt gt lA gt 0z (x 7y 8x +w MO nB :x RF HC V&.#O $T *I `O TO ;H _M *G )I ,G GW G=.@T `N H=.A#.I=.wB J=.K=.@W Eu L=.No M=.N=.wn O=.P=.P=.U*.(e Q=.R=.S=.]Q y_ T=.mq U=.X#.s..V=.W=.X=.Y=.ZW I#.lq Z=.`=.20  -.YZ [R .-.K#.f=.f=..=.x@.m*.#%.+-.@-.               ",
"                                                                                       #-.{X $-.dT cP +S TU fW xV SJ w .,=.%-.^..i#.lT yV &-./*.*-.=-.V@.--.--.(*.(*.(*.(*.(*.(*.(*.k#.y%.t$.-$.3+.t$.-$.B%.B%.[X n#.-$.u$.u$.F&.b@.>$.;-.H&.Es Es E%.%u z*.>-.A*.`X nW :Z ,-.6r '-.)-.!-.~-.{-.]-.#H ^-.^$./-.(-.kz FP /D BW %` (S ^K fX HT _-.JY dU .T dU JY dU +W %` 9R ~V GT *C mt zu WG *C { .*C &J GT @W ^D 'w %J O .rG )w xu {V zu Eu ^x oC gt ]V ft ay by :-.tD 2x 2y 2y 3y iz 0R }M 9K [J ;I <-.!M ,J !M ,Y [-.}-.OD YS ~M 2$.|-.H` 1-.&#.L .]V 2-.%Y 3-.]@.wn 4-.4-.wn mq 5-.=4 6-.7-.]Q 8-.VS ou 9-.0-.a-.b-.c-.d-.p- CL g*.$*.e-.f-.g-.lS Q0 h-.oD i-.j-.lq I#.K#._#.k-.l-.                  ",
"                                                                                       m-.n-.eW gF cP cP [U EV SU o-.p-.,=.>A F+.YU lT yV nH q-.r-.s-.E&.(*.(*.(*.(*.(*.(*.(*.(*.V@.x%.y%.)%.-$.t$.-$.3+.3+.n#.c@.z%.-$.u$.-$.u$.X@.)=.Ds ~%.n#.t-.!$.u-.;-.b@.a@.A*. Y vY v-.w-.x-.y-.'T z-.A-.B-.]J @P %H C-.D-.^x xu 'w ^K %` (S )Y (S %` GT HT dU .T x#.dU $` 9R GT 9R +W +W GT Zv kz Cu /D @W @W E-.[=.+@.^K ++.'w 'w 'w %J yu L .O .9x nt k@.Yv %s QF ay dz hy nA 3x jz CP uB pQ }x $O 'M [K }J F-.G-.]Y 'H H-.(I hA I-.J-.K-.L-./V M-.N-.}D Du k@.O-.dn P-.Q-.wt Q-.4-.wn R-.h&.S-.T-.U-.p- 4n .&.Rv U*.V-.V*.a-.f=.W-.X-.X-.X%.j-.Y-.Z-.`-.+*. ;..;.+;.@;.#;.$;.i-.%;.K#.&;.*;.=;.               ",
"                                                                                          -;.;;.eW dT kO cP ZU EV iP >;.s=.BI ,;.JZ ';.F+.);.!;.~;.{;.V@.V@.y*.V@.];.D&.D&.(*.y*.x%.x%.y%.t$.t$.t$.3+.3+.B%.O+.v$.z%.z%.-$.-$.z%.3+.F&.Es F&.B%.~%.)$.Ds ;-.4+.b@.z*.A*.>-.>-.^;./;.(;._;.gk :;.<;.<N .H [;.};.|;.ft lz %J ++.BW BW (S BW GT GT GT ~V 1;.x#..T .T JY +W +W JY JY JY BW 'w L+.+@..@.)Y %` G$.JY BW @W rG 'w 0x 8R )w WG WG Du ]V jt nt %s ht bz dz fz .w 3x jz 2x jz *w uB jB cR ^L &` R&./ .-I 2;.}K CP ;w tC XE 3;.4;.5R 5R ^x 'w ot 5;.6;.@9 zJ 7;.7;.7;.wt wn vn Gn 8;.9;.0;.a;.cC b;.U*.P=.c;.V-.X-.h&.d;.d;.e;.f;._#.n*.g;.g%.Z%.h;.0c Q~ q*.lq i;.i-.%;.j;.k;.l;.                  ",
"                                                                                             m;.n;.~U eP wN cP TU iP yI o;.p;.%-.F+._+.yV ==.q;.r;.s-.--.V@.y*.(*.D&.D&.D&.(*.V@.V@.y*.s;.t;.O..O..3+.3+.;$.$y t$.-$.t$.-$.t$.-$.u$.,$.u;.v;.F&.j` >$.,$.P..4+.Ds Ds b@.A*.A*.'` w;.x;.>W y;.z;.A;.B;.6M C;.D;.yP oC %s FP *C (S BW #` BW %` HT HT HT [=..T .T .T E=.JY .T .T .T JY 9R f..^K ^K &J /D &J JY ~V f../D %J wu iy Au O .rG L .Bu QF 0z lz ot kt ht (x by 8x kA -w -w qA oA _x JP [x XO 4x vC yQ TO E;.qB LO kA F;.G;.H;.<x ZN OD PF yu gt K=.I;.J;.wt K;.]s L;.Q-.4-.4-.P=.V%.M;.N;.O;. -.O=.a*.a*.P=.P;.Q;.V-.9-.0-.ou f;.lq R;.S;.T;.KO 2c U;.%;.lq lq V;.q*.i-.i;.W;.X;.                  ",
"                                                                                                m;.Y;.Z;.eP -R cP [U BI );.);.`;.F+.F+.DV =-. >..>.+>.@>.(*.(*.];.D&.#>.(*.V@.V@.y*.y*.s;.t$.t$.t$.3+.B%.,$.W@.t$.-$.-$.t$.-$.-$.v$.$>.v;.u$.W@.0@.F&.F&.0@.X@.;-.4+.b@.z*.a@.>-.w;.%>.&>.*>.=>.->.;>.j] C$.8M >>.,` ^x xu 'w &J (S (S #` BW GT HT HT E=.dU ($.+W HT JY x#..T dU +W HT f..&J +@.@W /D ^K %#.fX #` &J ^D L .yu Au rG ,>./K yu jt kt xu lz qt %s kt lA lB hy .w =w 1y 1y az =J sC tC FC HC xQ ;I PO iA ;w 7x '>.)>.=J {L !>.pA xu ot ,M sW ~>.,V {>.]s ]>.^>./>.4-.4-.H@.]@.wn U*.U*.0*.4-.4-.4-.a*.P=.c;.c;.mq (>._>.e;.q*.:>.<>.[>.}>.0C j$.V;.j-.j-.q*.|>.%;.1>.2>.3>.                  ",
"                                                                                                   4>.5>.6>.KL -R cP Sx 7>.&-.zw ,;.F+.F+.8>.9>. >.0>.a>.V@.k#.--.--.--.(*.V@.V@.(*.(*.y*.y*.y%.t$.t$.!%.n#.z%.y%.u$.y%.y%.y%.-$.n#.b>.z%.z%.3+.B%.v;.B%.B%.F&.)=.X@.b@.b@.c>.A*.^;.x-.d>.e>.f>.g>.h>.XP @P cK i>.j>.>w PF yu /D )Y BW #` #` %` 9R JY ~V +W dU GT .@.+W ($.9R ~V GT GT (S +@.P&.*C xu fX GT ^K #` BW /D { .L .yu { .&J L+.^D xu %s lz ax lz lz /x ft ^V ^V lB tD &w 1x uB _x OD {Y 7x <x LD 2M BC $w CP k>.l>.m>.2x }x 7x gz TD n>.o>.p>.q>.wt r>.r>.]>.{>.7;.s>.H@.t>.H@.4-.wt 4-.H@.H@.u>.4-.u>.4-.P=.P=.c;.mq qS Rv v>.e=.w>.x>.y>.-*.j-.q*.2b V;.q*.z>.A>.B>.C>.D>.                  ",
"                                                                                                   E>.F>.Z;.#R LL -R GI G>.H>.G>.WR E+.F+.I>.0>.J>.K>.@>.x%.y%.=$.--.--.(*.(*.V@.(*.L>.x%.V@.(*.t$.y%.B%.z%.x%.[&.t$.x%.x%.x%.[&.n#.b>.t$.t$.3+.)=.X@.W@.B%.M>.B%.X@.4+.4+.Ds N>.>-.O>.P>.Q>.R>.S>.T>.U>.lX V>.W>.X>.by Zv wu WG ^K %` BW #` BW GT ~V HT ~V dU fX { .BW JY GT GT GT HT 9R %` GT /x Y>.JY )Y %J ++.@W WG %J Cu Cu /K &J ++.^D L .OF xu zu zu xu %s ht 6y ay mA ay  w cy -w ;w 3x jz 6x tB }x HC 2y @w ey }K Z>..w MO ey $w bz kz by `>.gQ V2 ]s  ,..,.+,.4-.Q-./>./>./>.t>.H@.@,.Q-.7;.#,.H@.u>.4-.4-.u>.4-.P=.mq mq qS _>.ou e;.9X 3Z $,.%,.@;.g*.$*.@;.b;.S#.&,.*,.=,.                  ",
"                                                                                                      -,.;,.@R LL 1Q XJ >,.,,./K +S yV yV I>.J>.',.',.),.L>.|..=-.];.(*.--.--.V@.D&.L>.!,.];.x%.y%.y%.z%.PJ L>.x%.PJ L>.L>.x%.y%.B%.PZ z%.t$.$u ;-.4+.X@.B%.B%.B%.X@.X@.X@.;-.b@.~,.O>.{,.],.^,./,.(,._,.:N jR :,.<,.[,.ht lz 0x /D BW GT #` (S %` GT GT +W dU &J *s BW JY GT GT JY },.(S /K |,.|y $A dU )Y 9Z it @W ^K ]K /K ++.c+.U@./K /K WG )w )w yu xu xu xu vu Yv 0z mt %s kt 9y lA 8y by tD tD pC &w ;w cy yB 2y jB yB lA 1x rA ay EE lA 1,.^q )S yT  ,.2,. ,.L;.H@.H@.#,.#,.t>.^>.L;.7;./>.#,.t>.Q-.3,.P=.4,.H@.4-.c;.mq mq c;.mq qS qS Rv ou ou $,.5,.5,.%,.%p %;.S#.6,.7,.                     ",
"                                                                                                         8,.cT WJ tI 9,.CI ,,.,,.[D e` F+.0,.a,.',.',.K>.D&.b,.|..a>.--.--.V@.V@.L>.];.D&.L>.x%.D&.L>.!,.c,.L>.L>.(*.L>.x%.[&._*.[&.z%.d,.x%.z%.n#.,$.)=.B%.F&.v;.v;.F&.F&.e,.f,.N>.g,.h,.i,.j,.]j k,.l,.m,.#H OE n,.o,.(K Zv {V &C )Y %` BW BW %` %` 9R JY JY { .wu 9R (S Au ^K ($..T dU JY ^V 9Z p,.+W f..(K L .eU (S @W &J (S 5&.#` ^K ++.rG 0x *J %J lz xu )w zu OF wu wu lz ot kz Yv >w >w mU 6y qC nA 6y 7y yB &w q,.!Y bz 3x jt ft hB +w 0g rr r,.]>. ,.2,.s,.t,.^>.H@.4-.4-.H@.u,.v,.yT w,.4-.w,.7;.x,.~S 4,.@,.u>.wn c;.mq c;.mq mq mq y,.qS Rv ou z,.q*.5,.5,.yJ 5,.A,.B,.                     ",
"                                                                                                            C,.D,.~D tI lO ,,.E,.%B /X yV yV k#.F,.G,.',.a>.'%.'%.'%.a>.=$.@>.H,.];.a>.];.x%.L>.b,.c,.b,.|..!,.!,.!,.PJ -$.-$.[&.[&.L>.!,.PJ z%.B%.v;.$u u$.B%.u$.M>.B%.B%.I,.J,.f,.K,..z L,.>W M,.N,.O,.P,.:N +I Q,.R,.&P gt Fu %J ++.^K (S %` %` BW GT ~V 9R 9R GT +W 9R )Y fX x#.dU .T GT Zv Bu %` +W }%.(S GT M .)Y &J ^K fX BW (S GT (S ]K Cu ]K rG xu iy 0x %J )w Du iy Eu ot *s kt ay mA (x 8y 8y bz bz by cz ^V ft lz dy 7y qt EE 7y S,.uP T,.KK U,.G@.s,.s,.U,.^>.4-.H@.v,.Cn U,.yT KK s>.3,.w,./>.t>.WS x,.#,.@,.3,.u>.P=.P=.c;.V,.c;.&p y,.W,._>.X,.q*.Y,.5,.9X Z,.`,. '.                     ",
"                                                                                                               ;,.{D tI tI .'._&.+'.TU XX e` [&.G,.G,.G,.@>.'%.@'.'%.b,.a>.--.H,.D&.a>.];.L>.b,.yI #'.#'.b,.$'.!,.L>.L>.z%._*.B%.[&.$'.$'.d,.u$.u$.u$.z%.xq [&.z%.u$.u$.u$.%'.&'.*'.='.-'.;'.>'.,'.''.)'.!'.~'.{'.:,.]'.}T lA iB wu 'w KY f..GT GT (S BW GT 9R GT GT i@.HT JY $` .T +W ~V %` 'w KY JY $` }%.+W 9R BW #` )Y #` fX BW (S GT f..}D WG /K rG %J 0x )w 'w L .)w 0x zu ax -s ^x 9y ^'.>w 8y 0y QF lA by lA qt OF QF &w dt /x lA /'.('.[R zT r>.l$.dB G@.t,.U,.7;._'.:'.8r |X <'.{s ,K w,.u,.['.v,./>./>.w,.{>.#,.#,.3,.}'.P=.(>.y,.&p &p mq y,.W,.ou |>.3Z 3Z 5,.|'.1'.                        ",
"                                                                                                                  2'.3'.~D 4E 4'.5'.Sx /X e` Aq G,.6'.7'.8'.'%.'%.'%.b,.b,.a>.|..c,.D&.|..#'.9'.0'.#'.#'.yI yI $'.c,.$'.(*.y%.F&.PJ yI ,A !,.x%._*._*.z%.$u _*.[&.z%.z%.-$.a'.%'.b'.f,.='.c'.d'.e'.f'.g'.h'.i'.9{ j'.k'.d2 l'.gt ot Bu ^D @W +@.GT fX BW %` gX %` %` %` GT +W dU dU +W ~V $` 5&.+W %` +W G$.$` 9R GT HT f..{ .&J #` %` GT &J { .WG *J WG O .yu *J 'w *J 'w 'w 0x yN m'.ot dt ft kt iB >w 6y lA lA ^x wu OF rA 7y OF ht n'.o'.}R p'.8U q'.Cn VN G@.r'.*p s'.t'.u'.Cv v'.w'.>T x'.y'.z'.A'./>.B'.u,.u,.{>./>.t>.3,.c;.P=.C'.&p ~S D'.&p E'.F'.G'.}T G'.T#.H'.I'.J'.                        ",
"                                                                                                                  K'.L'.M'.tI N'.O'.pG iP /X I>.G,.P'.Q'.F,.R'.S'.'%.'%.R'.b,.b,.#'.b,.0'.T'.9'.9'.9'.9'.BI yI yI yI b,.c,.[&.y%.!,.$'.$'.$'.!,.!,.L>.y%._*.PJ _*._*.[&.t$.u$.%'.Ds U'.V'.-'.W'.X'.Y'.Z'.`'. ).XP .H  G .).+).D-.kt TD 0x /D +@.(S BW %` GT BW BW %` %` GT HT +W BW GT ++.(S $` .T %` }%.@)..T JY $` dU 'w ot )w )Y fX fX )Y /D @W @W ^D *J 0x /K ]K 'w rG rG *J Du xu mt /x kz *s ax EE #).LO kt xu lz (K 1y Zv iB qC $).#N 2R %).&).Dn Dn Cn dB l$.*).=).-).;).>[ ZT >).,).X .').)).s,.#,.@,.Yr ^>.7;.v,.w,.3,.4,.c;.qS !).~).Lu &p D'.{).[y ]).T%.}T ^)./).().                        ",
"                                                                                                                     _).:).<).4E [).}).TR iP I>.|).P'.1).Q'.--.'%.'%.'%.a>.2).0'.9'.9'.T'.==.T'.9'.9'.==.9'.0'.yI yI b,.c,.y%.!,.$'.!,.!,.!,.!,.PJ PJ PJ !,.L>.!,.PJ _*.3).4).a'.&'.5).U'.6).7).8).9).0).a).b).c).9{ d).JT e).X,.f).mt wu WG M .&J @W GT fX )Y BW %` %` GT ~V ~V %` dU ++.5&..T _S _S g).h).i).IY j)._S F=.!Y $#.^K GT GT #` ^K .@.&J ^D WG WG KY  @.*J nH { .L .Bu OF qt *s 9x zu OF Bu PF jt Eu Bu 8x 3x qA (K ay k).l).m).n).En Cn KF Dn Dn Cn *).o).A8 p).]c nD >[ 3-.q).)K eA r).s).t).{>.v,.,K ^>.xn u,.3,.P=.3,.u).u).~).u).u).!).&p W,.[y v).w).x).y).                           ",
"                                                                                                                        z).A).uN B).C).D).TR vV y%.E).E).F).=$.S'.'%.'%.b,.@'.0'.T'.G).H).T'.T'.T'.T'.9'.9'.0'.0'.yI yI $'.c,.b,.yI I).PJ !,.9v Cw $z PJ !,.!,.!,.PJ Cw s;.z%.4).a'.J).*'.K).L).W'.M).N).O).P).Q).R).#P bZ S).!: T).ft ] .yu /D M .<=.fX .@.f..BW %` (S BW 9R ~V E=..T dU },.dU dU },.i).h).@).U).@).@).5&.OF L .BW ~V BW #` BW %` ^K @W )Y KY #` U@.^D WG *J |,.0x 0x 9x )w *C 'w %J 8R ax ax Bu |y MD 7x qA ay &w V).W).>m X).oq KF KF KF KF oq G@.pu 85 Y).Z).`).Kk cB  !..!.SN +!.@!.#!.)). ,.o).Yr ]>.Yr w,.3,.3,.yM AE yM ~).~).u).D'..J ]).$!.%!.&!.*!.                           ",
"                                                                                                                           =!.jO `A r-.mH }Q TR x%.1).E).1).{;.@'.'%.a>.b,.@'.-!.9'.H).H).9'.==.G).T'.T'.@'.#'.0'.0'.BI yI yI yI #'.!,.!,.!,.!,.!,.d,.!,.!,.,A 9v Cw _*.y%.3).4).;!.>!.5).,!.='.c'.'!.)!.!!.~!.82 {!.XP +I [L ]!.^!.8y dt Eu %J /D #` BW L+.#` P&.P&.%` BW %` HT dU JY ~V JY $` $` $` },./!._S dU (!._S +W ^K ++.BW i@.^K M .BW fX ^K ^K (S BW #` #` @W ^D &#.'w _!._!.{ .++.KY { .)w PF ay kt 6y OD <M }x rC :!.<!.~. [!.V+.Dn !x KF KF y'.y'.KF Cn 9t }!.}T |!.1!.2!.*t 3!.4!. !.5!.v'.6!.=F 7!.y'.o).]>.Yr u,.w,.WS s>.>V s>.yM 8!.=M ; ._'..J 9!.0!.a!.                              ",
"                                                                                                                              b!.jO #C c!.vN d!.!,.1).e!.E).|).a>.{;.f!.2).b,.T'.T'.(D H).BI ==.g!.H).T'.@'.#'.BI BI 9'.9'.BI BI 9'.$'.b,.!,.!,.zI $'.$'.$'.$'.9v _*.PJ y*._*.3).4).a'.h!.h!.i!.j!.k!.l!.m!.n!.o!.p!.q!.9{ QE r!.s!.t!.| .%s OF O .&J BW ^K ^K GT GT 5&.%` BW GT dU +W HT +W _S _S $` _S u!..T ~V +W $` 9R )Y /D ^K P&.GT %` %` BW &J /K KY %` GT #` ++. @.rG WG ++.++.^D ++.L+./D *J Yv 0y >w ;w pQ &` +w 2x v!.w!.[!.x!.9t Zr Zr y!.y'.oq y'.KF Dn dB z!.A!.; .YZ B!.C!.D!.E!.F!.G!.H!..-.}y gA :Y y'.]>.w,.xn xn yT yT yT >V I!.I!.AE V+.PH s'.J!.K!.L!.                              ",
"                                                                                                                              M!.N!.O!.P!.6E vN uG 7'.Q!.R!.P'.a>.R'.a>.#>.a>.0'.(D (D g!.v*.g!.G).H).H).9'.#'.0'.==.9'.BI ==.BI 9'.#'.$'.c,.!,.S!.$'.!,.$'.$'.9v PJ (*.PJ Cw s;.3).4).T!.h!.5).V'.L).W'.U!.V!.W!.X!.Y!.Z!.@H `!.) . ~..~.QF nt {V rG &J f..(S %` 5&.BW BW %` BW fX GT GT +W .T .T dU _S +~.E=.+W +W $` 9R (S ^K )Y P&.},.GT BW @W ++./K M .BW %` #` @W ^K KY ++.#` #` ^K )Y (S BW f..*J ht $w sC jB 7x jz @~.#~.LH .&.)x y!.$~.%~.%~.Zr KF y'.y'.KF Dn QH QH 9t &~.*~.wa =~.VM -~.H!.V+.;~. !.EP >~.ct ,~.Yr v,.,K xn yM yT '~.>V I!.)~.=M PH fV !~.~~.                                 ",
"                                                                                                                                 {~.]~.^~./~.KL cP |).Q!.Q!.7'.'%.'%.a>.];.a>.9'.9'.T'.g!.(~.g!.mH g!.g!.H).b,.b,.==.==.==.H).Bw 9'.S!.!,.$'.,A $'.yI yI yI yI !,.PJ y*._*.Cw _*.s;._~.;!.T!.h!.i!.:~.c'.<~.[~.}~.|~.1~.2~.~_ AQ 3~.4~.5~.6~.oC PF yu $A 7~.(S BW eU BW fX fX P&.%` BW 5&.JY ($.dU $` .T }%._S },.$` +W 9R %` (S (S 9R JY GT (S eU )Y f..(S %` BW BW BW BW BW BW GT fX BW BW %` GT #` gt 8~.9~.0~.6x _x a~.b~.HF h;.oD Zr pq pq pq %~.c~.y'.TG Zr Zr KF KF KF QH dB 9t wW G0 3Y Z! q).V+.G!.d~.7U e~.M$.JC f~.y'.pu Yr g~.h~.'~.I!.i~.=M =M s'.P-.j~.k~.                                 ",
"                                                                                                                                    l~. A m~.tI KL #>.n~.o~.p~.q~.R'.{;.'%.a>.@'.b,.T'.G).g!.g!.mH g!.g!.g!.9'.yI Aw ==.==.H).9'.yI 9'.yI yI yI yI r~.r~.yI 0v ,A PJ _*._*.Cw s~.t~._~.;!.T!.T!.u~.v~.j!.w~.P>.x~.y~.z~.A~.B~.C~.+I D~.E~.F~.G~.H~.] .Bu rG eU (S #` %` GT GT %` 'w ot ^D 9R JY dU +W $` .T _S dU +W 9R GT %` %` GT +W dU GT %` %` %` %` %` GT i@.+W HT fX GT %` fX #` #` GT fX ++.ft CW I~.4L $F 1x J~.K~.L~.M~.V+.N~.O~.P~.P~.O~.%~.Ku }#.Q~.:A R~. s ~x S~.T~.U~.V~.F@.@N W~.X~.7U 9*.Y~.Z~.;~.`~.'K  {.8z ').%~.o)..{..{.'~.+{.[y W,._'..J D'.@{.                                    ",
"                                                                                                                                       #{.${.%{.tI 2).&{.*{.n~.={.a>.'%.b,.'%.b,.b,.0'.mH g!.mH g!.g!.g!.Aw Aw H).H).H).==.H).==.yI BI 9'.yI yI 9'.9'.r~.$'.9v !,.!,.x%.-{.s~.)C xq ;{._~.>{.,{.h!.5).i!.j!.;'.'{.){.!{.~{.{{.]{.~_ jR ~J ^{./{.({.6y %s iy ^D L+.^K c+.^K #` /D _{.8y L .(S GT GT 9R 9R ~V JY HT GT GT gX fX 9R +W dU dU HT %` BW (S BW GT $` .T $` 9R %` #` f..+@.^K #` ~V Eu ^V 5x :{.WN <{.IP [{.}{.|{.1{.2{.3{.4{.5{.P~.O~.$~.c~.1#.0o cQ yY |X 6{.o#.7{.o#.e@.e@. #.lP RS z@.+9 2R 8{.9{.0{.a{.H!.7U b{.c{.=F pu d{.A!.d{.D'.[y [y 7S [y e{.f{.                                    ",
"                                                                                                                                          g{.h{.@C $C p~.i{.j{.={.'%.'%.b,.S'.'%.0'.G).fF fF g!.fF (~.g!.H).Aw g!.H).H).9'.H).H).9'.9'.BI yI BI BI 9'.r~.!,.!,.$'.!,.PJ -{.t~.t~.t~.3).t;.k{.4).l{.u~.h!.5).j!.=+.m{.n{.o{.p{.q{.r{.s{.t{.u{.#G v{.]/ w{.kz OF L .++.eU <=.)Y WG TD FT *C ++.)Y f..BW 9R 9R 9R 9R GT GT ~ .fX HT JY .T +W GT BW )Y )Y #` %` GT ~V fX %` BW )Y ^K )Y fX +@.ax 5x ey [x tC GC 5x x{.K~.y{.z{.a{.A{.B{.C{.5{.P~.P~.pq %~.VS `4 Go [q D{.D{.yU E{.EP F{.G{.'K H{.SN *Y I{.J{.K{.L{.C!.M{.3-.<#.SN [q N{.dB >V A!.I!.y,..J .J 7S ]).O{.P{.                                    ",
"                                                                                                                                          Q{.R{.S{.dF T{.U{.U{.Q!.H,.@'.@'.T'.T'.G).fF =C rG =C fF fF g!.g!.g!.g!.H).H).H).g!.H).==.H).H).H).H).H).9'.r~.V{.$'.,A !,.!,.[&.z%._*._*.3)._*.;{._~.,{.T!.T!.>!.5).K,.W{.X{.Y{.Z{.`{. ]..].+].@].#].$].%].&].*].<I =].)w *C ^K )Y KY $A rG Cu /K )Y +@.5&.$` _S JY +W +W +W i@.GT 9R +W JY 9R GT BW &J KY c+.#` )Y #` BW %` %` (S BW GT )Y ] .kA MD RF @T #).-].;].>].,].Dk ']./w )].6!.C{.<p )].qu O~.<p =' !].f*.p*.p*.G{.<#.G{..;.*Y <#.<#.SN 'K VV QM ~].{].(C ]].^].<#.*Y @N @N /].pS }!.}!.=M F'.W,..J [y !~.(].                                       ",
"                                                                                                                                             _].:].Ry <].*{.[].U{.1).-!.p;.c!.G).(~.fF =C =C =C fF mH H).v*.(~.v*.H).H).g!.g!.#A H).H).H).H).H).H).Bw 9'.#'.#'.#'.!,.!,.[&._*.PJ (*.PJ }].s~._~._~._~.-C ;!.h!.i!.-'.{,.|].1].2].3].4].5].6].^J 7]..` Tb 8].9].TG $#.iy WG KY )Y )Y &J ^D i` *C (S %` +W 9R 9R HT +W $` 9R fX %` %` BW #` )Y +@.+@.(S 5&.(S (S BW fX GT 9R +W #` Eu ay qA tC 0].0Z 7x Z>.a].b].|q [4 c].d].pq qq e].P~.)].f].g].$~.h].i].0n j].k].l].m].n].o].p].q].r].SN s].t].TS u].<#.P-.C8 v].zg *Y VV w].|R x].)x y]..{.i~.E'.{).%).+;.z].A].                                       ",
"                                                                                                                                                B].'r C].D].E].[].*{.--.(D F].c!.mH fF G].H].qG mH G).H).g!.(~.g!.H).==.Aw g!.g!.H).H).H).H).H).Vx H).9'.r~.S!.yI S!.PJ -{.x%.(*.(*.I].J].J].K].s~._*.L].k{.T!.h!.i!.-'.M].N].Nl O].P].Q].R].S].T].U].V].%@.W].X].Y].(K xu %J /D Z].&J ++.^D ++.BW BW %` BW #` +@.`].BW (S )Y (S )Y )Y )Y +@.(S fX P&.gX %` fX GT GT HT 5&.)w k@.$w gy <x 7x 0Z nQ  ^..^.+^.@^.#^.#U }#.qu $^.qq ;p <p R~.%^.g].qu &^.8Y *^.=^.-^.;^.>^.=f ,^.'^.)^.!^.~^.E{.{^.rP $Y h~.ZT ]^.^^.~^.SN /^.l=.(^.V+.Sv .{.h~._^.>V V+.%).yP :^.                                          ",
"                                                                                                                                                   <^.-r [^.*{.[].}^.|^.2).1^.@'.c!.mH fF fF fF 2^.G).g!.(~.(~.g!.(D H).g!.fF g!.H).H).g!.g!.H).g!.Vx H).BI zI 9'.r~.PJ Cw I].!,.!,.I].J].I].}].}].PJ Cw L].-C :D >!.J).K,.M].3^.4^.5^.6^.7^.8^.9^.0^.a^.b^.c^.>G d^.%F e^.LY zu &C ^D  @. @.++.^K &J ^K ^K @W ++.^K KY ^K #` BW #` (S BW BW BW %` %` GT GT 9R 9R +W d&.^V 1y 2y uD gy OD tB f^.g^.h^.i^.j^.y8 _^.F@.k^.%^.l^.m^.n^.o^.R~.qu P~.o^.5{.V+.p^.q^.r^.s^.t^.u^.v^.'q w^.[A VV E{.4X pP x^.A!.ag y^.6q h-.*Y z^.xP A^.pS 0=.h~.d{.'L A!.V+.D'.B^.C^.                                          ",
"                                                                                                                                                      hw up 1).[].E].D^.E^.F].'%.F].T'.mH (~.fF G).G).(~.mH mH H).9'.g!.fF qG (~.H).G).g!.g!.H).Vx Vx Vx Vx BI r~.$'.PJ 9v #'.$'.$'.J].!,.I].I].J].PJ Cw ;{.k{.k{.:D >!.@u F^.G^.H^.I^.+@ WQ J^.K^.L^.M^.N^.O^.b..2L P^.Q^.R^.S^.T^.FP |,.L .rG /D _!.++.++.@W ++.+@.)Y ^K )Y #` #` BW .@.%` .@.fX 9R GT GT ++.lz :S qA 3y gy wB uD a&.U^.V^.W^.aA X^.Y^..&.Z^.qu `^.m^.l^.m^.f].o^.R~.;p pq )].$^.5{. /../.+/.@/.#/.$/.%/.>).&/.*/.=/.s` H{.-/.7{.W#.:'.;/.>/.h-.h-.6q xP ,/.'/.dB +N A!.&~.-M SG V+.)/.!/.                                             ",
"                                                                                                                                                      ~/.{/.]/.o~.[].^/.//.R'.T'.c!.T'.9'.==.fF 2^.mH (~.G).H).H).mH (~.(~.fF fF Aw v*.g!.g!.mH H).Vx Vx Vx Aw BI #'.V{.$'.#'.S!.$'.#>.J].I].I].I].!,.PJ s~._*.L]._~.a'.e,.u-.F^.(/.V#._/.:/.</.[/.}/.|/.1/.2/.3/.C#.'N o@.YH 4/.5/.6/.7/.nt $#.zu Cu 'w { .{ .^D ++.++.KY &J f..BW %` GT i@.BW ++.xu qt qC yB |x [x /V }x }x {L |-.8/.9/.>x 0/.L#.a/.k_ b/.C{.c/.m^.m^.m^.d/.$^.$^.c/.o^.e/.f/.f/.P~.&^.g/.h/.i/.+!.j/.W#.pD k/.l/.m/.n/.H{.o/.N{.p/.$V =z m].q/.+9 Hd r/. !.Dn Cn 9t &~.z!.AA ZT s/.t/.2]                                              ",
"                                                                                                                                                         u/.v/.P'.E].w/.&{.'%.x/.x/.mH c!.T'.G).fF fF (~.G).mH mH fF (~.g!.fF qG H).H).g!.g!.#A 9'.g!.g!.Vx Vx H).==.9'.#'.b,.$'.S!.V{.$'.S!.,A ,A I].J].9v }].Cw L].xq ;A 0t u-.F^.y/.K .z/.A/.B/.C/.D/.E/.F/.G/.H/.I/.J/.=I !M ,I K/.L/.M/.N/.-w MO O/.P/.kz Q/.xu yu Q/.0x )w yu PF Y>.R/.^V oA OD rB [x HC RF fy tC fy S/.T/.U/.aj bd 0/.`-.nD =M y'.B{.V/.l^.`^.W/.m^.d/.f].f/.4{.X/.f].Y/.f/.B{.Z/.`/.`/. (.}y .(.UG TG +(.@(.#(.$(.E{.s].%(.R+.BE +x +J &(.)S 2R *(.QH 1#.Dn =(.Z^.z!.W..3-.-(.;(.                                                ",
"                                                                                                                                                         >(.@k ,(.i{.U{.Q!.'(.c!.2^.fF 2^.G).fF fF fF (~.H).mH fF fF mH v*.(~.qG g!.H).G).g!.g!.H).g!.fF g!.g!.H).9'.9'.9'.0'.#'.#'.S!.,A S!.S!.S!.I].J].PJ }].}].Cw yq uq ;A ]p )(.t-.!(.~(.F{.{(.](.^(.e5 4_ /(.((._(.:(.<(.o} !H GW >H AU A0 [(.}(.|(./S 1(.2(.3(.7x 4(.gy 5x 5(.6(.7(.8(.LD ]L iz $F RF :x 4R 9(.0(.a(.b(.c(.d(.4t e(.f(.dA !x )).$^.g(.%^.c/.f].h(.m^.d/.c/.X/.)].DE m^.i(.V/.j(.j(.k(.l(.k^.B{.C{.qu UG m(.n(.o(.p(.:'.Cr D{.e~.E{.G{.{^.[R q(.r(.7/.pD 1#.b/.z!.h].=(.nN 4!.s(.t(.                                                ",
"                                                                                                                                                            -o ;r P'.j{.*{.u(.G).=C v(.(~.(~.fF fF v(.v(.H).mH mH mH mH w(.g!.v*.(~.(~.qG qG qG pG g!.g!.g!.g!.H).9'.9'.9'.9'.r~.r~.,A ,A x(.x(.#'.#'.V{.J].!,.PJ Cw -{.yq y(.Gq 0t .s u-.z(.7z A(.B(.C(.D(.S& $] E(.F(.G(.H(.I(.J(.K(.~H aZ (N GW w1 ,b L(.TP <J SO ~G ]G aJ R&.M(. O N(.O(.4y O*.P(.Q(.R(.S(.`o T(.U(.c(.V(.r&.H* W(.G'.U,.f].X(.`^.m^.l^.l^.l^.Y/.g(.l^.d/.l^.`^.`^.h(.g(.i(.V/.V~.V~.f/.c/.f].$^.)].X/.4{.g/.~>.Y(.Z(.`(. _.p*.._.h-. _.0g 9U +_.[#.@_.}#.pD v'.h].h].G{.#_.$_.%_.                                                   ",
"                                                                                                                                                            &_.al ,(.Q!.n~.F).*_.H>.}).fF H].H].qG =C H].2^.mH mH G).mH (~.v*.==.g!.(~.(~.w(.zw qG fF g!.H).#A 9'.r~.9'.9'.r~.x(.x(.yI 9'.dP Bw r~.r~.r~.S!.$'.Cw Cw Cw #u ky uq at ]p ]p ]p u-.t-.=_.-_.;_.%=.#l >_.,_.G2 '_.)_.!_.~_.{_.]_.^_./_.(_.__.:_.2$.^H 0J <_.[_.}_.|_.1_.+8 2_.O%.7K w@ 3_.4_.5_.6_.1g sE 7_.8_.9_.0_.}T *p n^.a_.=F b_.c_.d_.c_.RY `^.m^.$^.f].X(.e_.e_.e_.f_.qq i(.i(.i(.V/.V/.i(.c/.f/.C{.4{.X/.`/.d].g_.h_.i_.j_.Xa k_.l_.m_.Dk &/.'K &^.&^.@_.}#. /.d].F{.n_.o_.p_.                                                      ",
"                                                                                                                                                               q_.r_.s_.t_.p~.)%.u_.}).fF v(.fF fF fF =C fF 2^.G).G).G).(~.(~.g!.qG qG qG g!.qG fF g!.Vx H).(D (D Bw H).H).9'.#'.#'.9'.H).Bw H).dP x(.r~.yI S!.I].Cw -{.#u ky v_.w_.+s +s at ]p tq ]p ~p Tv W#.x_.um y_.B/.Sg z_.A_.B_.C_.D_.E_.F_.G_.H_.I_.J_.K_.[< L_.M_.N_.O_.P_.Q_.R_.S_.T_.-&.U_.V_.b=.7b W_.X_.Y_.sn z,.Cn %^.Z_.`_. :.`P DE d_.b_.:Y :Y l^.6!.e/.a_..:.gB >T :Y f_.e].eA i(.V/.+:.i(.g(.l^.f].4{.@:.B{.C{.}y d].#:.$:.%:.Bh &:.*:.=:.J;.h].F@.,).F@.W#.W#.j/.-:.*].;:.>:.                                                         ",
"                                                                                                                                                                  ,:.,(.Q'.|).k#.'%.=C fF }).(~.2^.(~.qG fF (~.2^.G).fF fF qG qG =C qG qG qG qG (~.(~.Vx mH G).H).H).#A Vx H).yI S!.#A Vx Vx Bw Bw Bw Bw Bw S!.,A Cq Aq Bq zq zq ky v_.y(.y(.+s ':.':.ky at u;.):.,).X).{(.kq /W B/.!:.~:.{:.]:.^:./:.(:._:.::.<:.[:.}:.|:.1:.2:.3:.4:.5:.6:.7:.q7 =H 8:.Y{ 9:.0:.%,.s>.!x 7!.a:.b:.c:.d:.e:.@!.d_.gB gB `_.X .f_.c/.x'.gB f:.Z_.a:.gB .:.f_.e].g(.eA ~x eA g(.`^.%^.C{.f/.c/.f/.X/.g:.h:.h].QV i:.j:.k:.y6 }#. {.,).i/.%(.i/.i/.W#.pD D{.l:.*=                                                          ",
"                                                                                                                                                                  m:.n:.o:.@>.@>.p:.q:.=C G>.fF fF H].=C =C v(.fF mH mH G).G).mH =C qG qG rG qG (~.qG g!.fF g!.fF g!.pG fF Vx 9'.Bw r:.zw r:.#A Vx Aw Wx Bw yI ,A Cq Cq I>.Bq Bq zq s:.v_.t:.ky #u #u #u u:.$u ]p ~p oX T~.}#.v:.u@.w:.x:.y:.z:.A:.B:.C:.D:.E:.F:.G:.H:.I:.~l J:./4 K:.<i qM L:.Gc |m X..&p U,.<p `^.gB gA e:.M:.e:.d:.d:.e:.b:.N$.b:. :. :.N:.:Y e_.gB a:.Z_.@!.@!.a:.Z_..:.qq DE h(.g(.Y/.g(.c/.f].V/.Y/.Y/.c/.V/.j(.k(.O:.g/.W#.*].F@. {..(..(.5{. {. {. {. {.+!.j/.P:.Q:.                                                            ",
"                                                                                                                                                                     R:.ps |..=$.];.@'.}).=C H].=C }).}).}).=C fF c!.T'.T'.T'.fF =C qG qG G>.qG w(.qG qG qG pG pG S:.G].G].zw pG qG G].zw Vx #A Vx Bw -B r~.r~.,A SJ Cq I>.I>.I>.Bq T:.u:.zq Aq Cq Cq Aq #u $z ':.+s Gq ]p u;.=_.U:.V:.B(.oK W:.X:.Y:.B>.wy Z:.`:./T  <..<.+<.@<.k%.um n=.$*.qS v,.Dn :p e_.a:./p M:.d:..V {x d:.r).r).c:.e:.#<.d:.c:.#<.d:.N:.gB a:.`_.=F N$.N:.=F $<.Z_.>~.W/.7!.X(.e_.DE h(.`^.qq m^.m^.%<.Y/.%^.f/.f/.B{.C{.Z/.`/.C{.k(.g:.g/.}y .(.i/..(. {.+!.,).A].:#                                                             ",
"                                                                                                                                                                        &<.*<.|..)%.=<.F].fF fF CI }).>,.>,.=C (~.x/.c!.mH fF >,.}).(~.=C rG qG qG qG qG G].zw zw &C %B `y `y `y &C &C G].Vx Vx Vx `;.0v zI -B -<.-<.-<.iP Cq Cq I>.;<.Bq Aq Cq SJ Cq Aq Aq #u u:.':.':.y(.w_.]p u;.><.~$.,<.'<.)<.!<.~<.{<.]<.^<.oD oD /<.0=.(<.Ku P~.4{.$^.R~.X .@!.e:._<.tu r).{x _<.tu .V _<.:<.{x 8z `_.<<.r).e:.[<.r).b:.>T JC  :.gA gA b:.N:.N$.a:.>~.|V RY sD >T e_.qq l^.}<.d_.f_.h(.|<.i(.V/.j(.B{.f/.B{.B{.B{.B{.`/.}y 4{.$~.i/.1<.g/. {.2<.3<.4<.                                                            ",
"                                                                                                                                                                        5<.6<.--.E&.7<.8<.fF =C CI }).G>.>,.}).H].(~.fF qG rG >,.G>.H].rG rG G].%B rG rG rG &C &C &C %B %B %B %B `y `y S:.pG Vx Vx Wx Bw -B Wx Wx Vx Wx `;.iP SJ Cq I>.I>.o-.0v 0v SJ Cq Cq Cw -{.t~.zq ky y(.+s 9<.Vv Vv u-.%u '` 0<.F^.%u a<.b<.oX N{.)p !p [<._<.u;.u;./p {x 9<._<.c<.bt 9<.r).:<.9<.Vv _<._<.:<.{x d<.e:..V {x e:.{x d:.c:.N:.N:. :.c:.c:.c:.b:.8z @!..:.gB gB `P a:.:Y R~.f_..:.f_.f_.f_.g(.i(.6z V/.+:.e<.c/.c/.f/.j(.f<.f<.C{.5{.g/.O:.1<.g<._k 5'                                                                ",
"                                                                                                                                                                              h<.'%.=$.i<.#>.>,.H>.H>./K H>.CI =C =C >,.^D 7E >,.>,.>,.^D =C G].>,.>,.^D ^D ^D %B ^D $A %B %B %B %B `y G].zw zw zw zw Wx +S `;.;B [D [D Wx `;.SJ o-.I>.o-.j<.-<.-<.0v ,A SJ Cq Cw Cw Dq zq t:.+s @s bt y(.at u;.~p Hq ]p at at c<.]p c<.at bt QL QL bt c<.k<.c<.@s bt QL QL bt 9<.Vv c<.@s @s l<.:<._<.9<.9<.9<.r).e:.e:.c:.fJ m<.d:.d:./p b:.d:.n<.N:.N$.gB @!.a:.a:.=F >T d_.f_.d_._p f_.f_.e].e].e].h(.6z i(.Y/.Y/.i(.o<.p<.j(.`/.g/.1<.`/.A(.q<.r<.                                                                  ",
"                                                                                                                                                                              Fi s<.-!.2).t<.CI +'.7E ,,.7E >,.>,./K 7E 7E 7E >,.%B 7E *C >,.>,.u<.u<.u<.u<.u<.u<.u<.^D %B &C `y $A Tx G].zw pG zw &C Vx `;.+S Wx [D [D [D Bw iP o-.o-.2Q `;.`;.-<.0v 0v 0v 0v SJ vV vV wG s:.;s QL +s w_.bt _<..V 9<.+s t:.v_.v_.v_.QL QL t:.RL RL QL +s v<.QL bt bt t:.t:.QL bt c<.c<.w<.@s Vv :<.9<.w<.w<.9<.[<.r).{x d:.l<.l<._<.m<.d:.gA {x d:.X .=F N:.b:.=F a:.N:.=F Z_..:.m^.`^.R~.>~.f_.f_.f_.h(.eA i(.c/.e<.i(.o<.p<.j(.}y `/.x<.y<.e&.+g z<.                                                                  ",
"                                                                                                                                                                                  d A<.c!.8<.f!.}).,,.7E 7E 7E 7E 7E ,>.B<.7E ^D ^D 7E 7E u<.^D /K B<.B<.I+.I+.$B $B u<.u<.`y &C Zy Tx G].G].&C G].[D Wx `;.`;.Wx Ux [D [D Wx 2Q %-.j<.`;.Wx lF -<.SJ 0v 2Q 2Q 0v 0v vV C<.s:.RL t:.t:.t:.+s c<.c<.+s s:.s:.u:.zq zq u:.s:.s:.s:.s:.t:.QL t:.QL QL QL ;s v<.v<.QL v<.@s @s c<.:<.c<.bt v<.+s @s _<.c<.9<._<.l<.l<.l<._<._<.#<.m<. :.gB a:.N$.M:.8z `_.gA N:.`_.a:.d_.D<.d_.>~.E<.}<.}<.F<.6!.V/.B{.B{.G<.G<.p<.`/.1<.H<.I<.J<.K<.L<.                                                                     ",
"                                                                                                                                                                                    Bp x/.x/.T'.fF 7E u<.7E 7E *C ,>.B<.B<.,>.B<.*C 7E 7E 7E 7E 7E B<.M<.M<.B<.$B $B $B $B Zy ^D Zy %B G].&C Tx G].Vx Wx Wx `;.Wx Ux Ux N<.Wx 2Q O<.lF Wx Wx `;.-<.-<.`;.-<.-<.-<.2Q o-.`K P<.s:.s:.;s s:.v_.QL QL ;s T:.wG wG wG T:.zq zq T:.T:.Q<.;s QL t:.;s QL QL ;s t:.;s ;s v<.v<.QL bt c<.@s v<.QL v<.v<.9<.k<.9<.9<.9<.{x c:._<.l<._<.m<.dM =F `_.R<.e:.M:.e:.c:.d<.gA a:.F<.S<.a:.Z_.>~.>~.gB }<.g(.i(.e<.V~.+:.+:.G<.}y lC 7+.T<.U<.V<.                                                                        ",
"                                                                                                                                                                                    W<.X<.2^.G).G).%B 7E *C ,>.,>./D *C Y<.Y<.Y<.F=.,>.B<.,>.,>.,>.,>.B<.B<.B<.B<.I+.$B $B I+.$A $A $A %B Zy `y zw Vx Wx Wx Wx [D Ux Ux [D Wx Wx Wx MS [D Vx Wx `;.`;.`;.`;.`;.+S 2Q SJ C<.`K `K T:.s:.T:.u:.s:.s:.s:.C<.;<.;<.wG wG T:.T:.Bq Bq T:.s:.s:.RL QL QL Z<.s:.Q<.s:.;s ;s QL ;s QL bt 9<.@s QL t:.v<.@s tu tu 9<.Vv {x d:.l<.k<._<.m<.e:.e:.e:.{x d:.e:.d:.e:.e:.d<.@!.h(.Z_.c{.Z_..:.>~.a:.>~.F<.`<.`<.e].6z ~x G<.x<.x<. [..[.+[.                                                                           ",
"                                                                                                                                                                                       he @[.H].fF fF 7E ,>.,>.,>.,,.*C Y<.7~.7~.Y<.Y<.,>.,>.,>.Y<.,>.#[.B<.B<.$[.Zy $B $B $B $A &C &C Tx Tx Ux [D [D [D [D Ux &C `y Ux [D lF Wx [D [D [D [D [D Wx `;.-B lF `;.`;.O<.SJ I>.I>.C<.T:.T:.;<.C<.T:.Q<.Q<.;<.vV %[.;<.;<.Bq I>.C<.C<.`K T:.s:.s:.t:.;s Q<.T:.T:.T:.s:.s:.s:.s:.;s QL @s w<.QL t:.@s @s w<.@s @s Vv 9<.9<.k<.9<.Vv r).r).{x .V _<.e:.r).m<.d:.e:.d<.Z_.e_.@!.c{.gB >~.&[.@!.>~.`<.*[.*[.6z =[.6z mC -[.5..;[.^@                                                                               ",
"                                                                                                                                                                                          >[.(D (~.g!.=C ,[.,[.,>./D F=.7~.7~.7~.7~.'[.,[.,>.B<.)[.Y<.B<.B<.B<.B<.I+.B<.#[.$B u<.G].&C Ux Ux zw Ux Ux [D Wx Ux Zy `y `y S:.MS MS Ux N<.[D N<.[D Vx `;.Bw Wx lF `;.-B SJ o-.yN C<.C<.I>.SJ o-.C<.T:.T:.I>.SJ o-.%[.%[.Cq o-.I>.I>.C<.wG u:.;s ;s s:.wG C<.wG T:.T:.T:.s:.;s ;s ;s s:.s:.;s s:.bt @s +s bt c<.c<.@s 9<.tu .V _<.c:.r)..V _<._<.r)._<.tu {x {x d<.Z_.`_.b:.N$.![.Z_.c{.&[.~[.`<.6z G<.6z =[.=[.U~.-[.{[.][.                                                                                 ",
"                                                                                                                                                                                             ^[.(~.(~.c!./[.7~.7~.([.7~.'[.'[.Y<.Y<.Y<.,[.B<.B<.B<.Y<.Y<.I+.B<.B<.B<.B<.#[.u<.%B %B rG &C zw zw [D [D [D [D &C Zy Tx Tx N<.[D Ux Ux Ux Ux Ux [D [D Wx Vx Vx Wx lF -<.%-.o-.o-.yN yN %-.2Q SJ C<.;<.I>.%[._[.SJ o-.o-.SJ SJ Cq Cq I>.C<.T:.P<.s:.s:.C<.C<.T:.s:.T:.wG zq s:.s:.T:.s:.s:.s:.;s QL bt +s bt @s bt +s c<._<.:<._<.e:.e:..V tu 9<.9<.9<.tu .V r).8z @!.e:.tY R<.@!.c{.&[.p/.~[.:[.`<.6z Tv :[.=[.U~.@L <[.[[.                                                                                 ",
"                                                                                                                                                                                             }[.A<.(~.(~.(~.,>.|[.1[.1[.1[.7~.Y<.Y<.Y<.,[.7E F=.Y<.Y<.B<.B<.B<.B<.B<.M<.$B u<.%B %B `y &C Ux zw [D [D zw Ux Tx Zy dE HI N<.Ux `y &C Tx Ux Ux [D Wx Wx [D [D [D Wx -<.%-.o-.o-.SJ j<.O<.O<.j<.I>.%[.Cq SJ j<.0v SJ SJ 2[.SJ o-.%[.I>.I>.C<.wG T:.wG ;<.I>.T:.t:.T:.#u s:.u:.T:.T:.zq Q<.s:.;s t:.+s +s @s bt QL t:.c<.:<.:<.Vv _<._<.e:._<.c<.c<.9<.9<.tu r).@!.8z e:.tY R<.@!.Z_.3[.4[.E<.p/.`<.5[.3%.6[.E<.x;.7[.                                                                                       ",
"                                                                                                                                                                                                lb 8[.x/.(~.H].,>.|[.9[.1[.'[.7~.'[.'[.,>.*C ,[.Y<.Y<.B<.B<.Y<.Y<.M<.M<.M<.u<.%B %B %B &C Ux Ux Ux zw Ux Ux Tx Zy dE Ux [D Ux `y Tx Tx Tx Ux [D Vx [D N<.[D [D Wx -<.%-.%-.j<.j<.-B `;.`;.O<.,A SJ SJ iP j<.j<.0v j<.j<.%-.SJ %[.I>.Cq C<.wG wG wG ;<.I>.Bq u:.u:.u:.u:.u:.wG T:.s:.s:.;s v<.QL +s +s c<.QL ;s QL c<._<._<..V c<.c<.r).9<.c<.c<.c<.c<.9<.tu e:.{x {x tY R<.c{.&[.Fs Fs 4[.N{..:.p/.=_.{%.0[.a[.b[.                                                                                       ",
"                                                                                                                                                                                                   c[./~.);.G).v(.7~.9[.9[.9[.'[.'[.'[.d[.d[.d[.Y<.Y<.M<.Y<.Y<.Y<.|+.|+.#[.TJ u<.u<.$A Tx &C Ux Ux zw &C Ux Tx Zy Zy Ux N<.Tx Tx Zy Tx Tx Tx Ux Ux Ux N<.Ux Ux [D `;.e[.O<.-<.j<.j<.`;.AI -B j<.0v ,A j<.j<.j<.j<.j<.2Q j<.j<.SJ SJ Cq Aq wG `K wG ;<.;<.#u u:.u:.u:.u:.u:.u:.T:.;s RL s:.w<.bt +s +s QL ;s RL ;s bt bt @s @s bt Vv Vv c<.c<.c<.c<.c<.c<.c<.Vv .V [<.Uv ZJ c{.ZJ R<.aQ fA ZJ f[.p/.3[.g[.{a h[.                                                                                          ",
"                                                                                                                                                                                                      i[.F].==.@'.,,.|[.9[.9[.j[.'[.Y<.d[.j[.j[.Y<.Y<.d[.d[.d[.Y<.|+.B<.$B u<.u<.u<.$A Tx &C Ux Ux Ux HI Ux HI Tx Zy Ux HI Zy Zy Zy Tx Tx Tx Tx Tx Ux Ux Ux [D Wx Wx +S +S O<.+S AI AI `;.j<.2[.0v 0v zI O<.-<.O<.-<.j<.j<.j<.iP SJ Cq wG wG Bq ;<.I>.Aq u:.v_.#u u:.wG u:.#u wG T:.s:.QL @s @s @s RL s:.s:.RL RL ;s bt QL QL bt c<.c<.c<.c<.c<.c<.c<.c<.c<.c<.Wv :<.Uv c{.R<.k[.aQ Uv ZJ ZJ fA ~$.o#.l[.p.                                                                                              ",
"                                                                                                                                                                                                         m[.0'.D&.H).,[.n[.9[.9[.'[.Y<.Y<.'[.'[.Y<.Y<.d[.d[.d[.M<.$B $B u<.u<.u<.u<.$A Tx Tx &C Ux HI HI Tx Ux Ux Tx Ux Zy $B o[.Zy Tx Tx Tx Tx Tx Tx Ux Ux [D `;.O<.e[.e[.+S Vx Wx `;.2Q %[.j<.zI zI O<.O<.O<.O<.O<.j<.j<.%-.j<.SJ %[.;<.wG #u Bq C<.wG u:.s:.#u wG wG wG wG ;<.`K s:.+s QL v<.@s QL t:.t:.RL t:.;s bt +s +s +s bt c<.c<.bt bt bt bt c<.c<.c<.c<..V tY k[.Uv 3[.Uv tY tY Uv aQ o#.p[.q[.                                                                                                ",
"                                                                                                                                                                                                         r[.s[.b,.,=.fF '[.9[.9[.9[.'[.d[.,[.Y<.Y<.'[.'[.d[.Y<.,[.B<.B<.u<.u<.u<.Zy $A Tx Tx Tx Tx &C &C Tx Tx Ux Ux Tx Zy $B $B Zy Zy Zy Tx Zy Tx Tx Ux Ux zw AI O<.e[.O<.Wx Bw O<.e[.j<.2[.-<.zI zI -B -B `;.-B O<.-<.j<.SJ %-.0v 8>.I>.!C #u T:.u:.#u #u wG #u I>.!C ;<.C<.C<.T:.t:.v<.s:.s:.w<.;s t:.t:.RL t:.QL w_.QL t:.+s bt c<.bt bt bt bt bt c<.c<.c<.c<.Vv [<.tY aQ fA Uv tY tY aQ [*.t[.u[.                                                                                                   ",
"                                                                                                                                                                                                            i[.@>.V@.k#.H).7E j[.9[.9[.v[.d[.d[.'[.'[.j[.d[.d[.d[.d[.M<.#[.u<.u<.Zy $A Tx Tx Tx Tx &C `y Zy $A Ux Tx $A Tx $B $B I+.I+.I+.Zy Zy $A Tx Tx Tx Ux lF +S +S `;.Wx ;B O<.e[.e[.O<.`;.-B -B -B `;.`;.-B -B -<.j<.o-.2[.0v SJ o-.Cq w[.;<.#u $z ;<.Aq Aq Cq Cq Cq ;<.wG wG ;s P<.u:.;s t:.u:.u:.RL s:.s:.RL QL v_.RL w_.bt c<.+s bt bt bt c<.c<.c<.c<.c<.Vv .V :<.ZJ ZJ fA Uv x[.y[.z[.A[.                                                                                                      ",
"                                                                                                                                                                                                               B[.C[.Q'.D[.|..B<.9[.9[.9[.9[.v[.'[.j[.v[.d[.Y<.M<.d[.M<.u<.u<.u<.Zy `y `y Tx Tx Tx Tx Tx Zy Tx Zy Zy &C `y $B $B $B $B $B I+.Zy Zy Zy Zy Tx [D AI lF AI Wx Wx AI O<.O<.e[.O<.Bw `;.`;.`;.lF AI -B -B -B e[.%-.O<.j<.j<.j<.SJ Cq Cw -{.#u Cq Cq Cq !C Cq Cq wG T:.Bq T:.;<.wG s:.t:.T:.wG ;s s:.wG u:.v_.RL RL w_.bt bt +s bt bt bt bt c<.c<.c<.c<.Vv .V :<.tY Uv fA Uv !=.E[.F[.                                                                                                         ",
"                                                                                                                                                                                                                  G[.H[.R!.t_.V@.^D j[.9[.9[.j[.j[.j[.v[.Y<.B<.Y<.,[.$[.B<.u<.u<.$A Tx &C Tx Zy Zy Zy Tx Tx Tx Zy $B u<.Zy $B $B $B $B I+.I+.Zy Zy Zy Zy Tx [D lF lF lF Wx ;B AI O<.r$.O<.`;.Bw `;.`;.Wx Wx Wx `;.-B -B O<.O<.O<.2Q j<.j<.,A 8>.Cw $z Aq SJ 8>.!C ;<.vV o-.;<.Cq I>.;<.C<.wG s:.t:.wG wG ;s zq $z u:.u:.u:.RL t:.+s |D QL bt w_.bt bt I[.c<.c<.c<.Vv .V .V :<.Uv u;.v-.J[.K[.                                                                                                            ",
"                                                                                                                                                                                                                     L[.M[.N[.O[.P[.H].'[.j[.j[.v[.v[.d[.M<.B<.B<.,>.$[.B<.u<.$A &C &C `y Zy Zy Zy Zy Zy Tx Zy $B B<.u<.u<.$B $B $B u<.u<.u<.Zy Zy Zy Zy Zy Ux MS lF lF MS Wx AI AI AI +S `;.Bw Bw Bw Vx Vx Wx `;.-B -B `;.-B -B O<.-<.0v ,A 9v Cq Aq Cq SJ Cq Cq ;<.I>.Cq Cq ;<.;<.wG Bq s:.;s ;s wG s:.t:.$z YK |D v_.;s QL +s t:.RL QL w_.|D +s bt b>.I[.c<.c<.]p Q[..V .V R[.S[.T[.U[.                                                                                                               ",
"                                                                                                                                                                                                                        V[.W[.X[.[].E).);.'[.j[.j[.d[.,[.$B 7E 7E 7E $[.#[.u<.$A %B Zy I+.$B I+.I+.I+.Zy Tx I+.$B B<.B<.|+.$B $B $B $B Zy u<.$A $A Tx Ux Tx Tx Ux MS O .[D AI AI AI AI AI lF Wx Bw Bw Vx Aw Bw ;B AI AI `;.`;.`;.`;.`;.zI ,A 9v ,A !C Cq SJ %[.!C C<.wG Cq !C Aq wG wG P<.RL RL T:.Aq t:.QL QL +s +s QL t:.+s w_.u:.u:.v_.v_.|D QL bt ]p PZ Y[.b>.]p Q[.Q[.eE Z[.*d `[.                                                                                                                  ",
"                                                                                                                                                                                                                               }..}.+}.U{.];.7E '[.d[.$[.u<.7E 7E $[.B<.B<.B<.u<.u<.$B $B $B Zy %B I+.$B $B $B M<.|+.Y<.|+.|+.B<.B<.B<.$B u<.Tx Tx Tx Ux Zy Zy Tx [D Cu Wx lF AI AI AI AI ;B Vx Wx Bw Vx Vx Wx Wx `;.`;.Bw Wx Wx `;.`;.-<.,A ,A _[.9v Cq ,A 9v Cq wG ;<.SJ 9v Aq Aq wG P<.Q<.T:.Aq wG ;s QL QL QL QL RL T:.@}.@}.u:.u:.RL v_.|D v_.av ]p PZ PZ PZ PZ PZ c>.#}.$}.                                                                                                                        ",
"                                                                                                                                                                                                                                 %}.&}.*}.w/.=$.B<.,[.TJ %B u<.7E B<.,[.,[.B<.B<.I+.B<.$B M<.B<.#[.B<.Y<.B<.|+.d[.d[.d[.Y<.|+.|+.)[.)[.)[.B<.Zy Tx Ux Tx I+.Zy Tx [D [D Wx Wx lF AI AI AI Wx [D [D Wx [D Vx [D Vx Bw Bw Wx Wx Wx Wx `;.zI ,A ,A ,A !,.9v ,A SJ Cq Aq vV Cq Cq Cw w[.wG T:.C<.wG u:.YK RL |D w_.+s w_.YK wG w[.$z ZK $z v_.v_.v_.v_.av ]p ]p Vv $>.$>.=}.-}.;}.                                                                                                                           ",
"                                                                                                                                                                                                                                    >}.,}.'}.}^.P[.H].>,.%B 7E M<.M<.,[.B<.B<.,[.B<.Y<.|+.d[.,[.#[.M<.Y<.Y<.Y<.d[.d[.d[.Y<.Y<.)[.)[.)[.)[.)[.Zy &C Ux I+.$B Zy Ux [D [D Vx Vx Wx O .AI Wx [D [D [D [D zw [D [D [D Vx Vx Wx Vx Wx Wx Wx -B ,A ,A ,A !,.SJ ,A 9v !C Cq Cq Cq Cq Cw Cw w[.`K ;<.w[.YK $z wG v_.w_.+s QL $z w[.Aq w[.w[.$z u:.YK YK @}.$u b>.b>.v;.$>.)}.!}.~}.                                                                                                                              ",
"                                                                                                                                                                                                                                       {}.]}.*}.^}./}.==.>,.,>.Y<.B<.B<.B<.d[.d[.,[.,[.d[.d[.,[.B<.M<.(}.(}.(}.(}.(}.d[.Y<.Y<.Y<.|+.|+.)[.)[.I+.&C Tx I+.Zy Tx [D [D [D [D [D O .Wx Wx Vx [D [D [D [D Ux zw Ux zw Vx Vx [D [D Vx Vx ;B -B ,A ,A ,A ,A j<.,A 9v 9v SJ ,A 9v Cq Cq Cq %[.SJ 9v ;<.YK Bq _}.u:.QL w_.t:.u:.!C Aq Aq #u yq @}.@}.QL w_.av PZ ;-.b@.:}.il                                                                                                                                     ",
"                                                                                                                                                                                                                                          <}.[}.}}.+}.Q!.(~.'[.,[.B<.B<.d[.j[.d[.,[.,[.d[.,[.B<.,[.d[.j[.j[.(}.(}.(}.(}.Y<.Y<.|+.Y<.Y<.|+.)[.)[.I+.)[.Zy &C Ux N<.[D [D [D [D [D Cu Wx [D Ux [D [D Ux Tx &C Ux zw [D [D [D [D [D [D Vx Bw zI ,A zI -B zI RJ !,.,A ,A ,A 9v !C !C 8>.0v j<.SJ ;<.P<.Aq !C $z QL v_.u:.w[.Cw Aq Aq $z v_.z%.@}.|D $u v;.v;.|}.1}.2}.                                                                                                                                       ",
"                                                                                                                                                                                                                                             3}.4}.'}.*}.i{.=-.>,.Y<.d[.j[.d[.M<.M<.d[.d[.,[.,>.,[.(}.j[.j[.(}.(}.(}.(}.(}.d[.Y<.Y<.Y<.|+.|+.)[.)[.)[.$A Ux Ux Ux Ux [D [D [D [D [D Vx zw Ux &C zw Ux Tx &C &C Ux zw zw Ux [D [D [D Vx Bw $'.,A zI -B -<.,A q=.,A j<.,A 9v 9v 9v ,A j<.j<.0v SJ !C !C !C u:.t:.$z Cw Aq !C Cw #u $z $z $z t~.z%.v;.;-.'` 5}.6}.                                                                                                                                          ",
"                                                                                                                                                                                                                                                   7}.8}.9}.U{.|).G).B<.v[.d[.,[.M<.,[.,[.$[.B<.Y<.v[.0}.d[.Y<.(}.(}.(}.Y<.Y<.)[.)[.|+.Y<.Y<.Y<.|+.$B Tx &C &C Ux Ux N<.N<.[D [D [D zw &C &C &C &C Ux Tx Tx Tx &C &C Ux Ux [D [D [D Vx Bw zI RJ -B -B -<.zI -B -<.j<.9v 9v 0v ,A ,A j<.j<.j<.0v 9v Cw Cw w[.#u w[.d,.d,.d,.Cw -{.-{.-{.#u [&.$u w-.a}.b}.c}.                                                                                                                                             ",
"                                                                                                                                                                                                                                                      d}.e}.'}.f}.e!.|..rG B<.,[.,[.,[.$[.$[.Y<.d[.d[.d[.d[.1[.1[.d[.d[.Y<.Y<.Y<.Y<.(}.Y<.Y<.Y<.F=.$B Tx Tx &C Ux Ux Ux Ux Ux Ux Ux Ux &C &C &C &C &C Tx Tx Tx Tx &C &C &C zw zw [D Vx Vx -B zI -B `;.-B -B -B zI ,A ,A SJ j<.,A 8>.j<.j<.j<.0v SJ !C Cw Cw Cw -{.t~._*.-{._*._*._*.-{.4+.b'.-'.g}.h}.                                                                                                                                                   ",
"                                                                                                                                                                                                                                                            i}.j}.+}.w/.Q'.o;.TJ B<.,>.$[.,[.1[.j[.j[.j[.j[.j[.,[.d[.d[.|+.(}.Y<.Y<.(}.(}.Y<.)[.I+.Zy Tx Tx Ux Ux &C &C Ux Ux Ux Ux &C &C &C &C Ux Ux &C Tx Tx Tx &C qG qG qG Ux [D Wx Vx Bw r~.-B -B BI Bw `;.-<.,A ,A _[.,A 9v 8>.0v j<.j<.0v ,A 9v Cw Cq !C -{.-{._*.-{.[&._*.d,.$u k}.8).l}.                                                                                                                                                         ",
"                                                                                                                                                                                                                                                                   }.m}.n}.i{.o}.(~.7E ,[.v[.9[.9[.9[.9[.j[.j[.v[.0}.(}.Y<.1[.1[.Y<.Y<.Y<.Y<.B<.Zy Zy Zy Zy Tx Tx Tx &C Ux Ux Ux Ux &C `y `y Tx Tx Tx %B $A Zy Tx &C zw zw &C &C zw Vx Bw Bw `;.Bw -B Wx Wx Wx -<.,A zI -B zI SJ j<.,A ,A 0v SJ 9v 9v 9v 9v !C #u Cw Cw Cw [&. Y F^.MT p}.q}.                                                                                                                                                            ",
"                                                                                                                                                                                                                                                                     r}.s}.t}.w/.u}.),.H].n[.9[.9[.j[.d[.d[.d[.j[.j[.(}.(}.j[.1[.d[.d[.Y<.Y<.$B Zy Zy Zy Zy dE dE Tx Tx Tx Tx &C Ux `y %A `y Ux Tx I+.I+.I+.$A &C G].G].zw zw &C zw zw Bw Bw Bw Bw Bw Wx Wx Vx Bw -B Bw -B ,A _[.zI 9v 9v 0v !,.9v 9v ,A 9v Aq w[.PJ _*.[&.)=.x-.v}.w}.                                                                                                                                                                  ",
"                                                                                                                                                                                                                                                                           x}.y}.z}.A}.p~.=-.7E 9[.j[.Y<.Y<.d[.1[.1[.B}.1[.j[.j[.j[.j[.d[.|+.$B Zy Zy Zy Zy Zy Zy Zy Tx Tx Tx Tx Tx Tx Zy Tx Zy Zy I+.I+.I+.I+.&C zw &C Ux &C &C &C qG Vx Vx Aw Aw Vx Vx Vx Vx Wx Bw `;.-<.0v zI zI 9v 9v zI RJ I).9v 9v 9v d,.9v Cw %u gZ C}.D}.                                                                                                                                                                        ",
"                                                                                                                                                                                                                                                                                 E}.F}.|^.&{.G}.E&.^D d[.j[.H}.1[.H}.H}.H}.j[.(}.j[.j[.d[.B<.Zy Zy Zy Zy Zy Zy Zy Zy Zy Tx Tx Tx Tx Tx Zy Zy $B )[.$B I+.I+.I+.$A &C Tx Tx Tx Tx Tx Ux zw zw Vx Vx [D [D Vx Vx Vx `;.zI zI zI zI zI zI ,A !,.!,.!,.!,.,A ,A $u I,.v;.bv I}.                                                                                                                                                                              ",
"                                                                                                                                                                                                                                                                                       J}.K}.7<.o~.G,.o;./D H}.H}.H}.H}.L}.B}.M}.(}.M}.d[.)[.$B $B o[.Zy Zy Zy Zy Zy Zy Zy Tx Tx Tx Zy Zy I+.$B $B I+.I+.I+.I+.u<.&C &C &C Tx Tx Tx Ux Ux &C [D Cu zw [D Vx Wx Bw Bw zI -B zI zI -B -B ,A ,A 9v !,.PJ PJ Aq 'p N}.O}.                                                                                                                                                                                    ",
"                                                                                                                                                                                                                                                                                          r}.P}.Q}.R}.7'.G,.S}.7>.*C 7~.9[.H}.H}.(}.(}.Y<.|+.|+.T}.$B $B o[.$B o[.Zy Zy Tx Tx Tx Tx Zy u<.$B B<.u<.u<.I+.B<.I+.$A &C &C Ux $A &C &C zw zw Ux [D zw &C Ux Vx Bw Bw Bw `;.-B zI yI -B zI $'.,A ]p Aq Hu wq ly U}.V}.                                                                                                                                                                                       ",
"                                                                                                                                                                                                                                                                                                W}.X}.Y}.Z}.A}.u}.Q'.{;.p;.G>.7~.d[.Y<.|+.|+.|+.|+.|+.$B $B $B $B I+.Zy Zy Tx Zy Zy u<.B<.|+.B<.I+.I+.B<.B<.B<.$A &C &C $A $A &C &C [D &C zw Vx zw &C Ux [D Vx Aw Bw -B yI zI ,A Bw X@.Ds `}.^&. |..|.+|.                                                                                                                                                                                                ",
"                                                                                                                                                                                                                                                                                                         @|.#|.$|.$|.%|.e!.|).',.*_.=C ^D B<.)[.$B |+.|+.|+.$B $B $B $B Zy Zy Zy I+.$B B<.Y<.B<.$B )[.)[.)[.B<.u<.$A &C ^D ^D rG zw zw &C &C zw &C zw zw Bw Vx Aw Bw PJ yI 3).&|.x(.*|.=|.-|.;|.                                                                                                                                                                                                         ",
"                                                                                                                                                                                                                                                                                                                  >|.,|.'|.|^.)|.!|.E).K>.~|.==.rG B<.|+.|+.$B $B $B $B $B Zy I+.I+.u<.B<.Y<.B<.B<.B<.)[.B<.B<.u<.$A $A ^D $A $A &C &C $A $A &C [D [D Aw -B $'.D&.2).{|.]|.os ^|./|.R:.                                                                                                                                                                                                                  ",
"                                                                                                                                                                                                                                                                                                                              (|._|.:|.:|.G}.F,.<|. >.v(.>,.rG u<.u<.I+.I+.^D ^D ^D I+.B<.B<.7E B<.,>.F=.B<.B<.B<.u<.^D &C &C %B &C &C G].qG nH Aw Aw ==.x/.[|.}|.||.1|.2|.3|.                                                                                                                                                                                                                           ",
"                                                                                                                                                                                                                                                                                                                                       4|.5|.6|.7|.8|.9|.{;.0|.*_.u_.a|.H].v(.v(.=C G>.7E >,.=C $A /K B<.$B u<.%B rG H].(~.(~.(~.G).v(.a|.r-.b|.c|.d|.r_.e|.f|.g|.                                                                                                                                                                                                                                       ",
"                                                                                                                                                                                                                                                                                                                                             h|.i|.j|.k|.l|.m|.n|.o|.p|.,(.q|.]/.r|.s|.t|.r-.!;.!;.C).}).=C a|.u_.u|.s|.v|.w|.x|.r_.y|.y|.z|.z|.A|.B|.C|.                                                                                                                                                                                                                                                ",
"                                                                                                                                                                                                                                                                                                                                                                           D|.E|.F|.G|.H|.2|.I|.J|.K|.L|.M|.N|.H|.g|.O|.P|.Q|.R|.                                                                                                                                                                                                                                                                        ",
"                                                                                                                                                                                                                                                                                                                                                                                                                                                                                                                                                                                                                                                                                                         "};
