/* XPM */
static char * bullet_xpm[] = {
"32 32 662 2",
"  	c None",
". 	c #998D73",
"+ 	c #989078",
"@ 	c #867C67",
"# 	c #645B49",
"$ 	c #67583B",
"% 	c #615335",
"& 	c #5D5136",
"* 	c #514630",
"= 	c #4F442E",
"- 	c #776C4C",
"; 	c #6D6343",
"> 	c #695E39",
", 	c #645936",
"' 	c #665B37",
") 	c #665B39",
"! 	c #76693E",
"~ 	c #615735",
"{ 	c #5F5635",
"] 	c #5B5234",
"^ 	c #544C34",
"/ 	c #554D36",
"( 	c #4A4332",
"_ 	c #807250",
": 	c #A08F5D",
"< 	c #897947",
"[ 	c #73663D",
"} 	c #74683E",
"| 	c #7A6D41",
"1 	c #76693F",
"2 	c #75683C",
"3 	c #817344",
"4 	c #76683A",
"5 	c #776B42",
"6 	c #6A6039",
"7 	c #695E3A",
"8 	c #80744E",
"9 	c #594F32",
"0 	c #4B432C",
"a 	c #6B6046",
"b 	c #857951",
"c 	c #76683D",
"d 	c #7F7244",
"e 	c #7F7242",
"f 	c #807341",
"g 	c #837544",
"h 	c #897D49",
"i 	c #897C4A",
"j 	c #8C7E4B",
"k 	c #7E703E",
"l 	c #827442",
"m 	c #7D7041",
"n 	c #786B3E",
"o 	c #796B3F",
"p 	c #726538",
"q 	c #6B5F38",
"r 	c #685C39",
"s 	c #574D30",
"t 	c #75684C",
"u 	c #7C6E46",
"v 	c #7C7047",
"w 	c #766A3F",
"x 	c #847644",
"y 	c #948651",
"z 	c #8D814F",
"A 	c #8B804F",
"B 	c #827649",
"C 	c #7D7042",
"D 	c #7E7142",
"E 	c #7F7243",
"F 	c #867A4A",
"G 	c #817341",
"H 	c #75683A",
"I 	c #6C613D",
"J 	c #6A5E3B",
"K 	c #645939",
"L 	c #615947",
"M 	c #857859",
"N 	c #71643E",
"O 	c #746842",
"P 	c #837645",
"Q 	c #958650",
"R 	c #8B7D4B",
"S 	c #978954",
"T 	c #837745",
"U 	c #8A7E4A",
"V 	c #7E7245",
"W 	c #807345",
"X 	c #7A6E40",
"Y 	c #817545",
"Z 	c #786D41",
"` 	c #7F7143",
" .	c #857747",
"..	c #796C42",
"+.	c #6B5F39",
"@.	c #756941",
"#.	c #75683D",
"$.	c #736947",
"%.	c #544D3B",
"&.	c #8A8166",
"*.	c #756944",
"=.	c #786B40",
"-.	c #827446",
";.	c #8C7D49",
">.	c #9B8B56",
",.	c #847749",
"'.	c #8E814D",
").	c #7B7146",
"!.	c #675E37",
"~.	c #6E653F",
"{.	c #655B35",
"].	c #6A6038",
"^.	c #6F643B",
"/.	c #7B7044",
"(.	c #766B40",
"_.	c #7A6F44",
":.	c #71653C",
"<.	c #75693E",
"[.	c #776B43",
"}.	c #6F6239",
"|.	c #726B4F",
"1.	c #8C8268",
"2.	c #85784F",
"3.	c #75683E",
"4.	c #7C7042",
"5.	c #978851",
"6.	c #8F7F4F",
"7.	c #7E7044",
"8.	c #7D7142",
"9.	c #72673D",
"0.	c #7B6C3A",
"a.	c #917E46",
"b.	c #8F7D46",
"c.	c #968448",
"d.	c #9A874A",
"e.	c #8E7D45",
"f.	c #837442",
"g.	c #70663D",
"h.	c #6D6239",
"i.	c #71663B",
"j.	c #786B42",
"k.	c #786C43",
"l.	c #6E633B",
"m.	c #7B6F43",
"n.	c #7F765D",
"o.	c #5F553E",
"p.	c #9A8E6C",
"q.	c #7E7046",
"r.	c #72663F",
"s.	c #867744",
"t.	c #9E8E55",
"u.	c #89784A",
"v.	c #71653B",
"w.	c #70653A",
"x.	c #95844A",
"y.	c #94834F",
"z.	c #736642",
"A.	c #625639",
"B.	c #5A4F35",
"C.	c #5F5439",
"D.	c #635733",
"E.	c #84733F",
"F.	c #988649",
"G.	c #75683B",
"H.	c #796E43",
"I.	c #73673D",
"J.	c #766A41",
"K.	c #72653C",
"L.	c #6E6238",
"M.	c #796C40",
"N.	c #928D74",
"O.	c #9A8F72",
"P.	c #8C7E52",
"Q.	c #857544",
"R.	c #74683F",
"S.	c #978650",
"T.	c #827241",
"U.	c #827344",
"V.	c #776A40",
"W.	c #9A8750",
"X.	c #7F7146",
"Y.	c #6D654C",
"Z.	c #7F7964",
"`.	c #827C6B",
" +	c #645D4E",
".+	c #605949",
"++	c #5E5541",
"@+	c #615942",
"#+	c #6D6240",
"$+	c #918147",
"%+	c #887B4C",
"&+	c #7D7148",
"*+	c #73673C",
"=+	c #776A3E",
"-+	c #7D713E",
";+	c #70643B",
">+	c #6E613A",
",+	c #8C846B",
"'+	c #888266",
")+	c #9F8E6E",
"!+	c #7F7145",
"~+	c #796B41",
"{+	c #867844",
"]+	c #837341",
"^+	c #72673C",
"/+	c #A18F56",
"(+	c #76673B",
"_+	c #97937E",
":+	c #D5D1C2",
"<+	c #C0BEAE",
"[+	c #7B7B71",
"}+	c #5D5E58",
"|+	c #585750",
"1+	c #6F6D63",
"2+	c #828073",
"3+	c #8E8A76",
"4+	c #665B3C",
"5+	c #A38F52",
"6+	c #857A4D",
"7+	c #6F6640",
"8+	c #776B3F",
"9+	c #857949",
"0+	c #776B41",
"a+	c #807352",
"b+	c #827961",
"c+	c #695F4A",
"d+	c #8D7F5B",
"e+	c #897948",
"f+	c #7B6E42",
"g+	c #807143",
"h+	c #807040",
"i+	c #7E7141",
"j+	c #8E8152",
"k+	c #A18E54",
"l+	c #918C7B",
"m+	c #F3F2E9",
"n+	c #D0CFC6",
"o+	c #707169",
"p+	c #5F605A",
"q+	c #66665D",
"r+	c #5F5E57",
"s+	c #5D5D55",
"t+	c #686961",
"u+	c #B8B7AA",
"v+	c #BBB7A5",
"w+	c #796B3D",
"x+	c #AE9C5A",
"y+	c #72693F",
"z+	c #7F7345",
"A+	c #918550",
"B+	c #807246",
"C+	c #8E866E",
"D+	c #877C68",
"E+	c #7A6D44",
"F+	c #7E6F42",
"G+	c #786C3E",
"H+	c #72683E",
"I+	c #BCAA6B",
"J+	c #746840",
"K+	c #E3E2D9",
"L+	c #EDEDE8",
"M+	c #676560",
"N+	c #5B5C55",
"O+	c #676761",
"P+	c #78786F",
"Q+	c #67675F",
"R+	c #595A53",
"S+	c #606059",
"T+	c #66665F",
"U+	c #EEEDE4",
"V+	c #7A7562",
"W+	c #C0AC6A",
"X+	c #847848",
"Y+	c #796F43",
"Z+	c #897D4C",
"`+	c #7E7143",
" @	c #7A6C3F",
".@	c #867F69",
"+@	c #928564",
"@@	c #74673F",
"#@	c #7F7142",
"$@	c #807243",
"%@	c #827445",
"&@	c #695F37",
"*@	c #D6C587",
"=@	c #96917E",
"-@	c #FDFDFB",
";@	c #B1B1AB",
">@	c #707068",
",@	c #64645E",
"'@	c #6E6E66",
")@	c #6F6F68",
"!@	c #6D6D65",
"~@	c #6D6D63",
"{@	c #5E5E57",
"]@	c #606058",
"^@	c #CDCDBD",
"/@	c #B2B0A3",
"(@	c #9D8C51",
"_@	c #A6985D",
":@	c #70673E",
"<@	c #73673B",
"[@	c #887B4B",
"}@	c #85794D",
"|@	c #7B745B",
"1@	c #8B7F61",
"2@	c #75673D",
"3@	c #75673E",
"4@	c #77693D",
"5@	c #817445",
"6@	c #908251",
"7@	c #7B7043",
"8@	c #C2B786",
"9@	c #908C7C",
"0@	c #FBFBF5",
"a@	c #61615A",
"b@	c #565752",
"c@	c #6A6B63",
"d@	c #67685F",
"e@	c #838277",
"f@	c #959386",
"g@	c #616159",
"h@	c #65655E",
"i@	c #4B4C46",
"j@	c #969690",
"k@	c #DCDAD0",
"l@	c #958958",
"m@	c #B6A767",
"n@	c #726940",
"o@	c #73673A",
"p@	c #887C4B",
"q@	c #8D8664",
"r@	c #867E60",
"s@	c #806F4A",
"t@	c #71623C",
"u@	c #71633A",
"v@	c #776A3C",
"w@	c #857845",
"x@	c #8B7C46",
"y@	c #887E50",
"z@	c #C5BE92",
"A@	c #A5A18C",
"B@	c #F0EFE4",
"C@	c #66655B",
"D@	c #52534E",
"E@	c #666761",
"F@	c #5B5C57",
"G@	c #68695F",
"H@	c #98978A",
"I@	c #60615B",
"J@	c #5C5E58",
"K@	c #8A8B80",
"L@	c #E0DFCF",
"M@	c #897D50",
"N@	c #C6B779",
"O@	c #6E6539",
"P@	c #7A6F43",
"Q@	c #8A7D4D",
"R@	c #776A3B",
"S@	c #7D6F40",
"T@	c #938E79",
"U@	c #878165",
"V@	c #7F724E",
"W@	c #75673C",
"X@	c #74673C",
"Y@	c #76683B",
"Z@	c #887A45",
"`@	c #7C7145",
" #	c #D0C493",
".#	c #8B8775",
"+#	c #E3E1D0",
"@#	c #6E6C5D",
"##	c #52524D",
"$#	c #5E5E56",
"%#	c #5E5E59",
"&#	c #656660",
"*#	c #62635C",
"=#	c #5E6059",
"-#	c #5E605A",
";#	c #585A55",
">#	c #A5A59C",
",#	c #C3C0AD",
"'#	c #A49B6A",
")#	c #B5AB73",
"!#	c #877A4A",
"~#	c #8B7C45",
"{#	c #796D40",
"]#	c #746942",
"^#	c #978E77",
"/#	c #7C7762",
"(#	c #756A4B",
"_#	c #7B6E41",
":#	c #8A7D49",
"<#	c #675D36",
"[#	c #E2DAAB",
"}#	c #71674A",
"|#	c #D8D4C4",
"1#	c #9F9D8D",
"2#	c #4C4A41",
"3#	c #595850",
"4#	c #61635E",
"5#	c #75776F",
"6#	c #5E615C",
"7#	c #595B54",
"8#	c #545651",
"9#	c #B8B7A8",
"0#	c #918B74",
"a#	c #B9B083",
"b#	c #9F9565",
"c#	c #998C5C",
"d#	c #9F915E",
"e#	c #8E8355",
"f#	c #8D8157",
"g#	c #7D714C",
"h#	c #8E8365",
"i#	c #73694B",
"j#	c #82754C",
"k#	c #837343",
"l#	c #665C33",
"m#	c #C1BA8F",
"n#	c #998F64",
"o#	c #A7A18B",
"p#	c #C8C3B0",
"q#	c #706D60",
"r#	c #666458",
"s#	c #65645A",
"t#	c #64655E",
"u#	c #5A5C58",
"v#	c #656862",
"w#	c #575955",
"x#	c #89877A",
"y#	c #BAB6A3",
"z#	c #6D623C",
"A#	c #E5DBA4",
"B#	c #827848",
"C#	c #7F7448",
"D#	c #807445",
"E#	c #7A6E42",
"F#	c #766B49",
"G#	c #6F633B",
"H#	c #767058",
"I#	c #665F49",
"J#	c #7D7044",
"K#	c #6F6237",
"L#	c #73653A",
"M#	c #817543",
"N#	c #7A6F3F",
"O#	c #776D41",
"P#	c #CCBD86",
"Q#	c #685E3C",
"R#	c #B9B49E",
"S#	c #B6B19E",
"T#	c #858272",
"U#	c #767567",
"V#	c #5E5E53",
"W#	c #666861",
"X#	c #5C5D55",
"Y#	c #8D897A",
"Z#	c #ADA893",
"`#	c #7C7357",
" $	c #B8AE7C",
".$	c #C6BC89",
"+$	c #8C7F52",
"@$	c #8F7F49",
"#$	c #685D34",
"$$	c #71643D",
"%$	c #746D5B",
"&$	c #827349",
"*$	c #74673A",
"=$	c #75693B",
"-$	c #776C3F",
";$	c #685F39",
">$	c #9A8E5E",
",$	c #ADA06B",
"'$	c #62593D",
")$	c #A19B82",
"!$	c #AEA993",
"~$	c #9F9A87",
"{$	c #9C9783",
"]$	c #999480",
"^$	c #A49E8A",
"/$	c #9E9882",
"($	c #736B50",
"_$	c #887C51",
":$	c #DCD296",
"<$	c #6C6138",
"[$	c #7E7547",
"}$	c #958555",
"|$	c #8B7D50",
"1$	c #716848",
"2$	c #6D6136",
"3$	c #7A6C46",
"4$	c #6D6858",
"5$	c #695E41",
"6$	c #766738",
"7$	c #817345",
"8$	c #867845",
"9$	c #867945",
"0$	c #877B47",
"a$	c #665E37",
"b$	c #867C4B",
"c$	c #7D703D",
"d$	c #584F30",
"e$	c #79725A",
"f$	c #88826C",
"g$	c #958F79",
"h$	c #8C8570",
"i$	c #797158",
"j$	c #5F5638",
"k$	c #817647",
"l$	c #CCBF81",
"m$	c #857B4C",
"n$	c #837642",
"o$	c #887C4A",
"p$	c #807451",
"q$	c #786D43",
"r$	c #71653A",
"s$	c #71664B",
"t$	c #78683E",
"u$	c #8B7E4C",
"v$	c #7F7241",
"w$	c #8D814E",
"x$	c #92854F",
"y$	c #7B703F",
"z$	c #625A33",
"A$	c #6D6339",
"B$	c #71653D",
"C$	c #645937",
"D$	c #665B36",
"E$	c #796D42",
"F$	c #A09457",
"G$	c #9B8C4C",
"H$	c #786D3C",
"I$	c #928655",
"J$	c #A7975F",
"K$	c #A89962",
"L$	c #93854F",
"M$	c #76693C",
"N$	c #7C6E49",
"O$	c #605A46",
"P$	c #615639",
"Q$	c #7C6E42",
"R$	c #7F7347",
"S$	c #827444",
"T$	c #877A45",
"U$	c #91824A",
"V$	c #877A46",
"W$	c #766B3E",
"X$	c #857A4B",
"Y$	c #5A522F",
"Z$	c #675E3B",
"`$	c #605731",
" %	c #675D34",
".%	c #776E3F",
"+%	c #787042",
"@%	c #70673B",
"#%	c #83794B",
"$%	c #968750",
"%%	c #9F905F",
"&%	c #857745",
"*%	c #766A3B",
"=%	c #695D3B",
"-%	c #827648",
";%	c #796C3E",
">%	c #857644",
",%	c #93864B",
"'%	c #96864F",
")%	c #857740",
"!%	c #7E7443",
"~%	c #6D6138",
"{%	c #686036",
"]%	c #6F6537",
"^%	c #6B6134",
"/%	c #877D48",
"(%	c #847844",
"_%	c #918149",
":%	c #81723A",
"<%	c #958652",
"[%	c #786B3F",
"}%	c #665A3C",
"|%	c #625B46",
"1%	c #71633E",
"2%	c #7A6D40",
"3%	c #7D6F41",
"4%	c #7D6F3F",
"5%	c #857744",
"6%	c #81733E",
"7%	c #978951",
"8%	c #817444",
"9%	c #7F7140",
"0%	c #716232",
"a%	c #7C6F3B",
"b%	c #82743F",
"c%	c #807442",
"d%	c #7B6D3B",
"e%	c #887B47",
"f%	c #92854C",
"g%	c #7C6F3D",
"h%	c #7C703E",
"i%	c #786A3E",
"j%	c #6A5D3B",
"k%	c #645F4D",
"l%	c #504833",
"m%	c #685B39",
"n%	c #80713F",
"o%	c #796B39",
"p%	c #796C3B",
"q%	c #7A6E3D",
"r%	c #756838",
"s%	c #87763E",
"t%	c #8F804A",
"u%	c #7E6F3B",
"v%	c #877943",
"w%	c #837543",
"x%	c #80713C",
"y%	c #786C3B",
"z%	c #7B6E3E",
"A%	c #776B3E",
"B%	c #74683C",
"C%	c #776A38",
"D%	c #766839",
"E%	c #6B5E39",
"F%	c #57503B",
"G%	c #625431",
"H%	c #7F703F",
"I%	c #857746",
"J%	c #7D7141",
"K%	c #7E7140",
"L%	c #7C6D3A",
"M%	c #7F713F",
"N%	c #776A39",
"O%	c #6E6138",
"P%	c #635939",
"Q%	c #615A46",
"R%	c #65593E",
"S%	c #786B43",
"T%	c #7D6E3E",
"U%	c #786A38",
"V%	c #7A6C40",
"W%	c #746738",
"X%	c #6B6036",
"Y%	c #6F6339",
"Z%	c #706438",
"`%	c #7D6F3D",
" &	c #726438",
".&	c #776A3D",
"+&	c #6F623C",
"@&	c #655A39",
"#&	c #5E563C",
"$&	c #60563F",
"%&	c #695E3F",
"&&	c #655935",
"*&	c #695C35",
"=&	c #6B5E36",
"-&	c #6D6139",
";&	c #7C7148",
">&	c #635837",
",&	c #575039",
"'&	c #615B4A",
")&	c #5D5747",
"!&	c #5F5B4B",
"~&	c #4D4732",
"                                                                ",
"                      . + @ # $ % & * =                         ",
"                  - ; > , ' ) , ! ~ { ] ^ / (                   ",
"              _ : < [ ! } | 1 2 3 4 5 6 7 8 9 0                 ",
"            a b c d e f g h i j k l m n o p q r s               ",
"          t u v w n x y z A B C D E F i D G H I J K             ",
"        L M N O P Q R S T U V W X C Y Z `  ...+.@.#.$.          ",
"      %.&.*.=.-.;.>.,.'.).!.~.{.].^./.(._.! :.<.5 [.}.|.        ",
"      1.2.3.4.5.6.7.8.9.0.a.b.c.d.e.f.g.h.} i.j.k.l.m.k.n.      ",
"    o.p.q.r.s.t.u.v.w.x.y.z.A.B.C.D.E.F.G.H.I.J.K.v.L.M.N.      ",
"    O.P.Q.R.S.T.U.V.W.X.Y.Z.`. +.+++@+#+$+%+&+*+=+-+;+>+,+'+    ",
"    )+!+~+j.{+]+^+/+(+_+:+<+[+}+|+1+2+3+4+5+6+7+8+9+0+I.a+b+    ",
"  c+d+e+f+g+h+i+j+k+l+m+n+o+p+q+r+s+t+u+v+w+x+y+z+A+I.B+;+C+    ",
"  D+E+F+G+C P H+I+J+K+L+M+N+O+P+Q+R+S+T+U+V+W+X+Y+Z+/.`+ @.@    ",
"  +@@@#@C $@%@&@*@=@-@;@>@,@'@)@!@~@{@]@^@/@(@_@:@<@[@n `+}@|@  ",
"  1@2@3@4@5@6@7@8@9@0@a@b@c@d@e@f@g@h@i@j@k@l@m@n@o@p@z+| q@r@  ",
"  s@t@u@v@w@x@y@z@A@B@C@D@E@F@G@H@}+I@J@K@L@M@N@O@P@Q@R@S@T@U@  ",
"  V@W@X@Y@Z@R `@ #.#+#@###$#%#&#*#=#-#;#>#,#'#)#!#~#{#]#(.^#/#  ",
"  (#X@_#f+:#%@<#[#}#|#1#2#3#b@4#5#6#7#8#9#0#a#b#c#d#e#f#g#h#    ",
"  i#j#[ ..k k#l#m#n#o#p#q#r#s#t#u#v#w#x#y#z#A#B#C#D#E#F#G#H#    ",
"  I#J#K#L#w+M#N#O#P#Q#R#S#T#U#V#W#X#Y#Z#`# $.$+$@$8.} #$$$%$    ",
"    &$X@*$G.=$-$;$>$,$'$)$!$~${$]$^$/$($_$:$<$[$}$|$1$2$3$4$    ",
"    5$ .6$7$8$9$0$a$b$c$d$e$f$g$h$i$j$k$l$m$n$o$'.p$q$r$s$      ",
"      t$u$f+v$w$x$y$y+z$A$B$C$D$Q#E$F$G$H$I$J$K$L$M$K#N$O$      ",
"      P$Q$H R$S$T$U$V$W$X$Y$Z$`$ %.%+%n@@%#%$%%%&%*%=.5$        ",
"        =%-%n ;%>%,%'%)%!%h.~%{%]%*+^%/%(%_%:%<%Q@[%}%|%        ",
"          1%2%3%4%5%6%7%8%9%0%a%b%c%d%e%f%g%h%n i%j%k%          ",
"          l%m%n%o%p%q%r%s%t%u%v%w%x%y%z%A%B%C%D%E%F%            ",
"              G%H%I%J%y%T$K%R@L%e%M%g%N%<@r$O%P%Q%              ",
"                R%S%T%U%V%W%X%Y%Z%`% &.&+&@&#&                  ",
"                    $&%&&&*&=&-&;&B$>&] ,&                      ",
"                            '&)&!&~&                            "};
