/* XPM */
static char * bullet_front_xpm[] = {
"194 176 9636 3",
"   	c None",
".  	c #867D68",
"+  	c #8B8169",
"@  	c #90866C",
"#  	c #96896D",
"$  	c #9E9170",
"%  	c #A39573",
"&  	c #A09372",
"*  	c #A09371",
"=  	c #797262",
"-  	c #7F7665",
";  	c #988D71",
">  	c #A09476",
",  	c #A39674",
"'  	c #AC9D77",
")  	c #A89A76",
"!  	c #AA9B76",
"~  	c #A99B75",
"{  	c #A79973",
"]  	c #A89974",
"^  	c #A89A75",
"/  	c #A79974",
"(  	c #A49571",
"_  	c #A99973",
":  	c #A2916E",
"<  	c #9F8E6B",
"[  	c #9E8D6A",
"}  	c #9B8A67",
"|  	c #968767",
"1  	c #B2A581",
"2  	c #BAAC84",
"3  	c #BBAC83",
"4  	c #B4A67E",
"5  	c #B0A17B",
"6  	c #AC9E78",
"7  	c #AA9C77",
"8  	c #A89975",
"9  	c #A69773",
"0  	c #A59772",
"a  	c #A79874",
"b  	c #A59673",
"c  	c #A09270",
"d  	c #9E8F6E",
"e  	c #998B6B",
"f  	c #9B8B6A",
"g  	c #9B8B69",
"h  	c #998A67",
"i  	c #968664",
"j  	c #968563",
"k  	c #958461",
"l  	c #948463",
"m  	c #A49A7D",
"n  	c #B6A985",
"o  	c #C1B38A",
"p  	c #C6B78C",
"q  	c #C5B68C",
"r  	c #C5B58B",
"s  	c #BCAD85",
"t  	c #B4A57E",
"u  	c #B0A27C",
"v  	c #AEA079",
"w  	c #AC9D78",
"x  	c #A69875",
"y  	c #A19473",
"z  	c #998D70",
"A  	c #91866D",
"B  	c #8A7F6A",
"C  	c #847B69",
"D  	c #7C7466",
"E  	c #777064",
"F  	c #777062",
"G  	c #797062",
"H  	c #756E60",
"I  	c #6C655B",
"J  	c #6C6558",
"K  	c #675F53",
"L  	c #6F6655",
"M  	c #6D6351",
"N  	c #6F6551",
"O  	c #766952",
"P  	c #837559",
"Q  	c #978361",
"R  	c #9B8461",
"S  	c #9D8665",
"T  	c #958F7C",
"U  	c #96907C",
"V  	c #B4A786",
"W  	c #CBBC90",
"X  	c #CDBE91",
"Y  	c #C9BA8F",
"Z  	c #C9B88E",
"`  	c #C6B78D",
" . 	c #C7B88D",
".. 	c #BCAE85",
"+. 	c #B5A67F",
"@. 	c #AB9E7A",
"#. 	c #857C69",
"$. 	c #807868",
"%. 	c #7D7566",
"&. 	c #7E7567",
"*. 	c #7E7667",
"=. 	c #7F7768",
"-. 	c #7E7668",
";. 	c #7D7567",
">. 	c #7A7366",
",. 	c #787164",
"'. 	c #756E62",
"). 	c #736C60",
"!. 	c #706A5D",
"~. 	c #6B6559",
"{. 	c #666054",
"]. 	c #615A4F",
"^. 	c #5B554A",
"/. 	c #565046",
"(. 	c #514B43",
"_. 	c #675C4B",
":. 	c #7E6C55",
"<. 	c #987F5E",
"[. 	c #9F8566",
"}. 	c #9B9482",
"|. 	c #9B9581",
"1. 	c #ABA184",
"2. 	c #C6B68C",
"3. 	c #CFBD90",
"4. 	c #CCBD90",
"5. 	c #CABB90",
"6. 	c #C8B98E",
"7. 	c #CABA8E",
"8. 	c #C3B38B",
"9. 	c #A99D7C",
"0. 	c #8E8671",
"a. 	c #837D6B",
"b. 	c #827C6B",
"c. 	c #817968",
"d. 	c #817868",
"e. 	c #807767",
"f. 	c #817869",
"g. 	c #807869",
"h. 	c #7B7466",
"i. 	c #797265",
"j. 	c #777063",
"k. 	c #746D61",
"l. 	c #716A5E",
"m. 	c #6D675A",
"n. 	c #696356",
"o. 	c #645D52",
"p. 	c #5E574C",
"q. 	c #595248",
"r. 	c #534D45",
"s. 	c #524B42",
"t. 	c #574F43",
"u. 	c #7B684F",
"v. 	c #87735C",
"w. 	c #9A9383",
"x. 	c #9F9886",
"y. 	c #A89E86",
"z. 	c #BCAC87",
"A. 	c #C7B58A",
"B. 	c #C3B389",
"C. 	c #CBBA8F",
"D. 	c #CDBD91",
"E. 	c #CCBD91",
"F. 	c #CCBE91",
"G. 	c #BAAE8A",
"H. 	c #A19981",
"I. 	c #908A79",
"J. 	c #8E8876",
"K. 	c #8D8775",
"L. 	c #888271",
"M. 	c #857E6D",
"N. 	c #837C6B",
"O. 	c #827B6A",
"P. 	c #827A69",
"Q. 	c #807867",
"R. 	c #817969",
"S. 	c #817A6A",
"T. 	c #81796A",
"U. 	c #7B7365",
"V. 	c #787163",
"W. 	c #766E61",
"X. 	c #736C5F",
"Y. 	c #716A5C",
"Z. 	c #6D6658",
"`. 	c #6A6355",
" + 	c #635C50",
".+ 	c #5F564C",
"++ 	c #595247",
"@+ 	c #544D43",
"#+ 	c #4D473F",
"$+ 	c #534B3E",
"%+ 	c #615B51",
"&+ 	c #9D9787",
"*+ 	c #A8A08C",
"=+ 	c #AAA18C",
"-+ 	c #B1A382",
";+ 	c #BEAC82",
">+ 	c #BFAE85",
",+ 	c #C7B58B",
"'+ 	c #CBBA8E",
")+ 	c #CDBC90",
"!+ 	c #CEBE91",
"~+ 	c #BFB28D",
"{+ 	c #A39B86",
"]+ 	c #A09A86",
"^+ 	c #9D9682",
"/+ 	c #9B9682",
"(+ 	c #96907E",
"_+ 	c #918B79",
":+ 	c #8D8876",
"<+ 	c #8A8574",
"[+ 	c #8A8472",
"}+ 	c #898371",
"|+ 	c #867F6E",
"1+ 	c #847E6C",
"2+ 	c #847C6B",
"3+ 	c #827969",
"4+ 	c #837A6A",
"5+ 	c #837B6A",
"6+ 	c #827A6A",
"7+ 	c #807768",
"8+ 	c #7B7364",
"9+ 	c #787162",
"0+ 	c #736C5E",
"a+ 	c #70695A",
"b+ 	c #6D6657",
"c+ 	c #686154",
"d+ 	c #635B4E",
"e+ 	c #5E564B",
"f+ 	c #5A5247",
"g+ 	c #534D42",
"h+ 	c #524A41",
"i+ 	c #544D45",
"j+ 	c #5E5953",
"k+ 	c #A8A28F",
"l+ 	c #AFA794",
"m+ 	c #ADA287",
"n+ 	c #B2A27B",
"o+ 	c #B7A57D",
"p+ 	c #B9AA81",
"q+ 	c #BDAD85",
"r+ 	c #C1B087",
"s+ 	c #CAB98D",
"t+ 	c #C4B58E",
"u+ 	c #AEA48A",
"v+ 	c #A49D89",
"w+ 	c #A59D89",
"x+ 	c #A39C88",
"y+ 	c #A19B87",
"z+ 	c #9F9985",
"A+ 	c #9C9683",
"B+ 	c #9A9581",
"C+ 	c #9A9582",
"D+ 	c #97937F",
"E+ 	c #928C7A",
"F+ 	c #8E8977",
"G+ 	c #8C8674",
"H+ 	c #898472",
"I+ 	c #87806F",
"J+ 	c #867E6D",
"K+ 	c #837A69",
"L+ 	c #837B69",
"M+ 	c #847B6A",
"N+ 	c #7D7565",
"O+ 	c #746D5E",
"P+ 	c #71695B",
"Q+ 	c #6E6759",
"R+ 	c #6B6355",
"S+ 	c #655E51",
"T+ 	c #60584C",
"U+ 	c #5A5448",
"V+ 	c #564F44",
"W+ 	c #524B41",
"X+ 	c #4C463C",
"Y+ 	c #4D473E",
"Z+ 	c #5A564F",
"`+ 	c #928E83",
" @ 	c #B1AB98",
".@ 	c #B5AF9A",
"+@ 	c #B0A385",
"@@ 	c #AD9C76",
"#@ 	c #B0A07A",
"$@ 	c #B4A47D",
"%@ 	c #B8A780",
"&@ 	c #BCAB84",
"*@ 	c #C0B087",
"=@ 	c #C2B38B",
"-@ 	c #B6AA8F",
";@ 	c #ADA691",
">@ 	c #ACA38F",
",@ 	c #AAA28E",
"'@ 	c #A8A18D",
")@ 	c #A79F8B",
"!@ 	c #A39D89",
"~@ 	c #A39C89",
"{@ 	c #A29C89",
"]@ 	c #A19B88",
"^@ 	c #A09A87",
"/@ 	c #A09B87",
"(@ 	c #9F9A86",
"_@ 	c #9C9883",
":@ 	c #97927F",
"<@ 	c #928D7A",
"[@ 	c #8D8776",
"}@ 	c #8B8573",
"|@ 	c #898270",
"1@ 	c #87806E",
"2@ 	c #857D6B",
"3@ 	c #847C6A",
"4@ 	c #837A68",
"5@ 	c #827A66",
"6@ 	c #827A67",
"7@ 	c #827A68",
"8@ 	c #827968",
"9@ 	c #807766",
"0@ 	c #7C7465",
"a@ 	c #797263",
"b@ 	c #766E60",
"c@ 	c #726B5C",
"d@ 	c #6F6759",
"e@ 	c #675F52",
"f@ 	c #615A4D",
"g@ 	c #5C5549",
"h@ 	c #585045",
"i@ 	c #534B42",
"j@ 	c #4D473D",
"k@ 	c #494238",
"l@ 	c #4A443C",
"m@ 	c #5A5751",
"n@ 	c #ABA698",
"o@ 	c #BBB5A1",
"p@ 	c #BAB29F",
"q@ 	c #AB9E80",
"r@ 	c #A79672",
"s@ 	c #AA9976",
"t@ 	c #AF9E79",
"u@ 	c #B3A37D",
"v@ 	c #B6A681",
"w@ 	c #BCAC86",
"x@ 	c #BBAF8F",
"y@ 	c #BBB39D",
"z@ 	c #BCB49E",
"A@ 	c #B6AE98",
"B@ 	c #B4AC96",
"C@ 	c #B0A994",
"D@ 	c #ACA490",
"E@ 	c #A9A18D",
"F@ 	c #A6A08C",
"G@ 	c #A59F8B",
"H@ 	c #A49E8A",
"I@ 	c #A19C88",
"J@ 	c #9E9985",
"K@ 	c #9B9783",
"L@ 	c #999480",
"M@ 	c #97927E",
"N@ 	c #948E7A",
"O@ 	c #8F8976",
"P@ 	c #8D8773",
"Q@ 	c #8A8470",
"R@ 	c #88826F",
"S@ 	c #87806C",
"T@ 	c #857E6B",
"U@ 	c #847C69",
"V@ 	c #837B68",
"W@ 	c #857C6B",
"X@ 	c #857C6C",
"Y@ 	c #7D7465",
"Z@ 	c #7A7263",
"`@ 	c #776F61",
" # 	c #726B5D",
".# 	c #70685A",
"+# 	c #6C6557",
"@# 	c #686053",
"## 	c #645C4F",
"$# 	c #60584B",
"%# 	c #544E44",
"&# 	c #514A40",
"*# 	c #4D463C",
"=# 	c #474036",
"-# 	c #4C463E",
";# 	c #555049",
"># 	c #AAA495",
",# 	c #CBC4B0",
"'# 	c #C1B9A4",
")# 	c #A59777",
"!# 	c #A59573",
"~# 	c #A99976",
"{# 	c #AE9E7B",
"]# 	c #B3A37F",
"^# 	c #BBAC89",
"/# 	c #CBC3A8",
"(# 	c #D0C8B2",
"_# 	c #CFCAB1",
":# 	c #CCC5AD",
"<# 	c #C1B9A2",
"[# 	c #BAB29C",
"}# 	c #B4AC97",
"|# 	c #AFA793",
"1# 	c #AFA792",
"2# 	c #B0A893",
"3# 	c #AEA792",
"4# 	c #ABA490",
"5# 	c #AAA490",
"6# 	c #A9A38F",
"7# 	c #A8A28E",
"8# 	c #A8A28D",
"9# 	c #A39E89",
"0# 	c #A19C87",
"a# 	c #A09B86",
"b# 	c #9E9983",
"c# 	c #9A9580",
"d# 	c #8F8975",
"e# 	c #8E8773",
"f# 	c #89826F",
"g# 	c #87806D",
"h# 	c #867E6B",
"i# 	c #867D6C",
"j# 	c #847B6B",
"k# 	c #7F7667",
"l# 	c #756D5E",
"m# 	c #726A5C",
"n# 	c #6E6658",
"o# 	c #665E51",
"p# 	c #635A4E",
"q# 	c #5D544A",
"r# 	c #595046",
"s# 	c #544C42",
"t# 	c #50483F",
"u# 	c #4B443C",
"v# 	c #464036",
"w# 	c #524C46",
"x# 	c #58544E",
"y# 	c #AFAA9B",
"z# 	c #C8C0AC",
"A# 	c #CDC3AD",
"B# 	c #A29475",
"C# 	c #9C8D6C",
"D# 	c #A0906F",
"E# 	c #A49474",
"F# 	c #AA9A79",
"G# 	c #AF9F7E",
"H# 	c #C4B697",
"I# 	c #ECE4CA",
"J# 	c #EFE9CF",
"K# 	c #EFE8CD",
"L# 	c #E8E1C7",
"M# 	c #D1CAB2",
"N# 	c #C9C2AB",
"O# 	c #C5BDA6",
"P# 	c #BFB8A1",
"Q# 	c #BFB7A0",
"R# 	c #BBB39C",
"S# 	c #B9B29B",
"T# 	c #B4AD97",
"U# 	c #AFA893",
"V# 	c #ACA691",
"W# 	c #ABA58F",
"X# 	c #ABA48F",
"Y# 	c #A9A38E",
"Z# 	c #9F9A85",
"`# 	c #938C79",
" $ 	c #8F8874",
".$ 	c #8B8371",
"+$ 	c #88816E",
"@$ 	c #877F6C",
"#$ 	c #857D6A",
"$$ 	c #837B67",
"%$ 	c #857C6A",
"&$ 	c #867D6B",
"*$ 	c #877D6C",
"=$ 	c #7E7665",
"-$ 	c #7B7363",
";$ 	c #787061",
">$ 	c #756D5C",
",$ 	c #716859",
"'$ 	c #6D6556",
")$ 	c #6A6154",
"!$ 	c #675E50",
"~$ 	c #62594C",
"{$ 	c #5C5448",
"]$ 	c #4F473E",
"^$ 	c #4B443B",
"/$ 	c #453F36",
"($ 	c #473F36",
"_$ 	c #514C46",
":$ 	c #5D5A54",
"<$ 	c #A9A494",
"[$ 	c #C5BDA8",
"}$ 	c #BBB19A",
"|$ 	c #9A896A",
"1$ 	c #9A8B6B",
"2$ 	c #9C8E6D",
"3$ 	c #A09171",
"4$ 	c #A59677",
"5$ 	c #AB9C7E",
"6$ 	c #CCC2A4",
"7$ 	c #FFFEEB",
"8$ 	c #FFFFE9",
"9$ 	c #FEFDEB",
"0$ 	c #FEFDE7",
"a$ 	c #E5DEC5",
"b$ 	c #D8D2BB",
"c$ 	c #D2CCB4",
"d$ 	c #D1CBB2",
"e$ 	c #D1C9B2",
"f$ 	c #CDC5AD",
"g$ 	c #C9C1AA",
"h$ 	c #B9B19B",
"i$ 	c #B8B19A",
"j$ 	c #B6AF99",
"k$ 	c #B2AC96",
"l$ 	c #AFAA93",
"m$ 	c #AFA892",
"n$ 	c #ACA690",
"o$ 	c #ACA590",
"p$ 	c #A7A18C",
"q$ 	c #A39F88",
"r$ 	c #A09B85",
"s$ 	c #9E9883",
"t$ 	c #99937E",
"u$ 	c #958F7B",
"v$ 	c #928C78",
"w$ 	c #8B8470",
"x$ 	c #88816D",
"y$ 	c #867C6A",
"z$ 	c #867D6A",
"A$ 	c #7D7464",
"B$ 	c #7A7161",
"C$ 	c #776F5E",
"D$ 	c #736A5B",
"E$ 	c #706858",
"F$ 	c #6D6455",
"G$ 	c #696152",
"H$ 	c #665D4F",
"I$ 	c #60574B",
"J$ 	c #5B5347",
"K$ 	c #564E43",
"L$ 	c #524A3F",
"M$ 	c #4F473D",
"N$ 	c #4C443A",
"O$ 	c #463F36",
"P$ 	c #524C45",
"Q$ 	c #99917F",
"R$ 	c #B9AE9A",
"S$ 	c #BAAF9A",
"T$ 	c #958666",
"U$ 	c #978869",
"V$ 	c #98896A",
"W$ 	c #9C8D6E",
"X$ 	c #A09172",
"Y$ 	c #A69678",
"Z$ 	c #D1C9AF",
"`$ 	c #FFFFF5",
" % 	c #FFFFFC",
".% 	c #F8F6DB",
"+% 	c #EBE5CB",
"@% 	c #E5DFC6",
"#% 	c #E8E2C8",
"$% 	c #F4EFD4",
"%% 	c #EBE4CA",
"&% 	c #DBD4BB",
"*% 	c #D0C8B1",
"=% 	c #CEC6AF",
"-% 	c #C5BEA7",
";% 	c #C3BBA4",
">% 	c #BEB79F",
",% 	c #BCB59E",
"'% 	c #B9B29A",
")% 	c #B5AF98",
"!% 	c #B1AB94",
"~% 	c #B0AA93",
"{% 	c #AEA891",
"]% 	c #ADA690",
"^% 	c #ACA58F",
"/% 	c #AAA48E",
"(% 	c #A8A28C",
"_% 	c #A7A08A",
":% 	c #A39E87",
"<% 	c #A19C85",
"[% 	c #9E9982",
"}% 	c #9C9680",
"|% 	c #96907B",
"1% 	c #918A76",
"2% 	c #8C8570",
"3% 	c #89816E",
"4% 	c #857D69",
"5% 	c #847B68",
"6% 	c #877D6B",
"7% 	c #857B69",
"8% 	c #7E7564",
"9% 	c #7B7262",
"0% 	c #786F5F",
"a% 	c #756C5C",
"b% 	c #72695A",
"c% 	c #6F6656",
"d% 	c #6B6254",
"e% 	c #685F51",
"f% 	c #635B4D",
"g% 	c #5F574A",
"h% 	c #5A5246",
"i% 	c #514A3F",
"j% 	c #4C443B",
"k% 	c #484037",
"l% 	c #484138",
"m% 	c #514B45",
"n% 	c #5E5A55",
"o% 	c #B1ADA8",
"p% 	c #AD9F88",
"q% 	c #A89D87",
"r% 	c #9E9071",
"s% 	c #A6987A",
"t% 	c #DAD5BC",
"u% 	c #FFFFFD",
"v% 	c #FFFFFF",
"w% 	c #FFFFF6",
"x% 	c #FEFEE9",
"y% 	c #FDFAE1",
"z% 	c #FEFAE1",
"A% 	c #FDFBE0",
"B% 	c #F6EFD5",
"C% 	c #E7E0C6",
"D% 	c #E4DDC3",
"E% 	c #E0D8C0",
"F% 	c #DDD5BD",
"G% 	c #D6CDB6",
"H% 	c #CEC6AE",
"I% 	c #D1CAB1",
"J% 	c #D2CBB2",
"K% 	c #C6BEA5",
"L% 	c #BAB29B",
"M% 	c #B7B099",
"N% 	c #B3AE97",
"O% 	c #B3AC95",
"P% 	c #B2AB95",
"Q% 	c #B1AA93",
"R% 	c #AFA992",
"S% 	c #AEA791",
"T% 	c #ADA68F",
"U% 	c #ABA48E",
"V% 	c #A8A28B",
"W% 	c #A7A089",
"X% 	c #A59F88",
"Y% 	c #9D9881",
"Z% 	c #97917C",
"`% 	c #938B77",
" & 	c #8F8773",
".& 	c #8C8470",
"+& 	c #8A826E",
"@& 	c #877E6C",
"#& 	c #877E6B",
"$& 	c #817867",
"%& 	c #7F7765",
"&& 	c #7C7363",
"*& 	c #79705F",
"=& 	c #776E5E",
"-& 	c #746B5B",
";& 	c #716858",
">& 	c #6D6456",
",& 	c #6B6253",
"'& 	c #665C4D",
")& 	c #62594B",
"!& 	c #5D5446",
"~& 	c #595043",
"{& 	c #544B3F",
"]& 	c #50483D",
"^& 	c #4C453A",
"/& 	c #494037",
"(& 	c #514B44",
"_& 	c #AD9982",
":& 	c #AF9E88",
"<& 	c #99896D",
"[& 	c #948465",
"}& 	c #938465",
"|& 	c #958667",
"1& 	c #998B6C",
"2& 	c #A19375",
"3& 	c #D0C9AF",
"4& 	c #EAE6D1",
"5& 	c #F0EBDD",
"6& 	c #FBFAED",
"7& 	c #FFFFFB",
"8& 	c #FFFFF7",
"9& 	c #FFFFED",
"0& 	c #FEFBE1",
"a& 	c #F9F3D9",
"b& 	c #F6F0D6",
"c& 	c #F3EDD2",
"d& 	c #EEE8CD",
"e& 	c #F0EBD1",
"f& 	c #F2EDD0",
"g& 	c #E4DDC2",
"h& 	c #D3CBB3",
"i& 	c #D0C8AF",
"j& 	c #CCC4AC",
"k& 	c #C8C1A8",
"l& 	c #C2BBA2",
"m& 	c #BFB8A0",
"n& 	c #BEB79E",
"o& 	c #BBB49B",
"p& 	c #B7B098",
"q& 	c #B4AD96",
"r& 	c #B4AD95",
"s& 	c #B2AB93",
"t& 	c #B0A991",
"u& 	c #AEA78F",
"v& 	c #ADA68E",
"w& 	c #ACA58E",
"x& 	c #A9A28B",
"y& 	c #A49F88",
"z& 	c #A09A84",
"A& 	c #9C9580",
"B& 	c #98917C",
"C& 	c #938C77",
"D& 	c #908873",
"E& 	c #8D8570",
"F& 	c #8B846F",
"G& 	c #8A826D",
"H& 	c #88806C",
"I& 	c #867D69",
"J& 	c #857C68",
"K& 	c #847B67",
"L& 	c #817966",
"M& 	c #7F7764",
"N& 	c #7C7461",
"O& 	c #7A7160",
"P& 	c #786F5D",
"Q& 	c #766D5B",
"R& 	c #726958",
"S& 	c #706756",
"T& 	c #6E6555",
"U& 	c #6B6252",
"V& 	c #685F4F",
"W& 	c #665D4D",
"X& 	c #63594B",
"Y& 	c #5E5546",
"Z& 	c #595143",
"`& 	c #554D40",
" * 	c #534A3E",
".* 	c #4F463A",
"+* 	c #4A4237",
"@* 	c #484036",
"#* 	c #524C44",
"$* 	c #A7917D",
"%* 	c #B29B83",
"&* 	c #A28F75",
"** 	c #928162",
"=* 	c #938364",
"-* 	c #97896B",
";* 	c #CDC5AB",
">* 	c #FDFDE4",
",* 	c #FFFFFE",
"'* 	c #FEFEFA",
")* 	c #F4F1E4",
"!* 	c #FCFAEC",
"~* 	c #FEFFFF",
"{* 	c #FFFFFA",
"]* 	c #FFFFF3",
"^* 	c #FFFEEA",
"/* 	c #FFFFEA",
"(* 	c #F5EFD3",
"_* 	c #EAE3C9",
":* 	c #E5DFC5",
"<* 	c #E1DAC0",
"[* 	c #DDD5BB",
"}* 	c #DAD3B9",
"|* 	c #D6CFB5",
"1* 	c #D3CCB2",
"2* 	c #CEC7AD",
"3* 	c #C8C1A7",
"4* 	c #C0B9A0",
"5* 	c #BDB69D",
"6* 	c #B6AF97",
"7* 	c #B1A992",
"8* 	c #AFA890",
"9* 	c #ABA58E",
"0* 	c #A39D86",
"a* 	c #9F9982",
"b* 	c #9B947E",
"c* 	c #968F79",
"d* 	c #928A75",
"e* 	c #908973",
"f* 	c #8B836F",
"g* 	c #887F6B",
"h* 	c #877E6A",
"i* 	c #887E6A",
"j* 	c #877D6A",
"k* 	c #857B68",
"l* 	c #837A67",
"m* 	c #827966",
"n* 	c #807764",
"o* 	c #7A725F",
"p* 	c #78705D",
"q* 	c #756D5B",
"r* 	c #736A58",
"s* 	c #716857",
"t* 	c #6F6654",
"u* 	c #6D6452",
"v* 	c #6B6150",
"w* 	c #655C4D",
"x* 	c #625848",
"y* 	c #5C5345",
"z* 	c #585042",
"A* 	c #554C3E",
"B* 	c #51493C",
"C* 	c #4A4135",
"D* 	c #524D45",
"E* 	c #C2B5A7",
"F* 	c #B5957A",
"G* 	c #AB9479",
"H* 	c #928161",
"I* 	c #938263",
"J* 	c #938365",
"K* 	c #948566",
"L* 	c #ACA085",
"M* 	c #F9F6DB",
"N* 	c #FFFEF2",
"O* 	c #FFFFF9",
"P* 	c #FEFFFD",
"Q* 	c #FBF9EE",
"R* 	c #FFFFEC",
"S* 	c #FEFDEA",
"T* 	c #FEFDE8",
"U* 	c #FDFCE0",
"V* 	c #FBFADD",
"W* 	c #FBF7DA",
"X* 	c #F8F5D9",
"Y* 	c #F5EFD2",
"Z* 	c #E9E2C6",
"`* 	c #DCD6BA",
" = 	c #CFC9AE",
".= 	c #D2CBAF",
"+= 	c #CEC7AB",
"@= 	c #C5BEA4",
"#= 	c #BDB59C",
"$= 	c #B8B198",
"%= 	c #B4AD94",
"&= 	c #B1A991",
"*= 	c #AFA891",
"== 	c #ACA58D",
"-= 	c #AAA38B",
";= 	c #A7A189",
">= 	c #A29C84",
",= 	c #9F9A82",
"'= 	c #9B957F",
")= 	c #958F79",
"!= 	c #928A76",
"~= 	c #8F8772",
"{= 	c #8C836E",
"]= 	c #89816D",
"^= 	c #867C68",
"/= 	c #877D69",
"(= 	c #867C69",
"_= 	c #847B66",
":= 	c #837A65",
"<= 	c #817864",
"[= 	c #7E7663",
"}= 	c #7B735F",
"|= 	c #79715E",
"1= 	c #776E5C",
"2= 	c #756C5A",
"3= 	c #726957",
"4= 	c #706755",
"5= 	c #6A614F",
"6= 	c #685F4E",
"7= 	c #675D4C",
"8= 	c #655B4A",
"9= 	c #605747",
"0= 	c #594F41",
"a= 	c #544C3E",
"b= 	c #524A3D",
"c= 	c #50473A",
"d= 	c #4E4539",
"e= 	c #483F35",
"f= 	c #4B4338",
"g= 	c #565047",
"h= 	c #9D8C7E",
"i= 	c #C2977C",
"j= 	c #B6947A",
"k= 	c #958463",
"l= 	c #938262",
"m= 	c #928262",
"n= 	c #918163",
"o= 	c #9B8C6F",
"p= 	c #C7BCA3",
"q= 	c #D5CEB4",
"r= 	c #EFE9CD",
"s= 	c #FBF8DD",
"t= 	c #F9F7EA",
"u= 	c #F5F0DA",
"v= 	c #FCF9ED",
"w= 	c #FFFEFB",
"x= 	c #FFFFF8",
"y= 	c #FFFFF1",
"z= 	c #FEFEE5",
"A= 	c #F9F4D5",
"B= 	c #F0EACC",
"C= 	c #EFE9CC",
"D= 	c #EBE4C6",
"E= 	c #E9E1C4",
"F= 	c #DED7BA",
"G= 	c #CDC6AB",
"H= 	c #C3BCA2",
"I= 	c #BCB49B",
"J= 	c #BAB29A",
"K= 	c #B8B097",
"L= 	c #B6AE95",
"M= 	c #B4AC93",
"N= 	c #B1AA91",
"O= 	c #AFA88F",
"P= 	c #AEA78E",
"Q= 	c #ADA58D",
"R= 	c #ABA48C",
"S= 	c #A8A189",
"T= 	c #A49E85",
"U= 	c #9F9981",
"V= 	c #9B967E",
"W= 	c #98917B",
"X= 	c #938B75",
"Y= 	c #8F8771",
"Z= 	c #8C846F",
"`= 	c #89826C",
" - 	c #857C67",
".- 	c #857B67",
"+- 	c #847A66",
"@- 	c #837965",
"#- 	c #827A65",
"$- 	c #827965",
"%- 	c #7F7762",
"&- 	c #7E7561",
"*- 	c #7B725D",
"=- 	c #776E5A",
"-- 	c #756C59",
";- 	c #736A57",
">- 	c #736956",
",- 	c #706655",
"'- 	c #69604E",
")- 	c #6B604E",
"!- 	c #6A5F4C",
"~- 	c #736854",
"{- 	c #6A604F",
"]- 	c #685E4D",
"^- 	c #635A48",
"/- 	c #5B5244",
"(- 	c #595041",
"_- 	c #544B3E",
":- 	c #51483B",
"<- 	c #4F4538",
"[- 	c #4C4337",
"}- 	c #453C31",
"|- 	c #443B30",
"1- 	c #504942",
"2- 	c #C6987B",
"3- 	c #C99D81",
"4- 	c #9E8869",
"5- 	c #968464",
"6- 	c #958363",
"7- 	c #948365",
"8- 	c #AF9F86",
"9- 	c #BFB39B",
"0- 	c #CCC2AA",
"a- 	c #D9D0B7",
"b- 	c #E8E0C5",
"c- 	c #F8F4D8",
"d- 	c #FEFCE3",
"e- 	c #FEFCF9",
"f- 	c #FEFEF0",
"g- 	c #FEFCF1",
"h- 	c #FFFFF4",
"i- 	c #FFFFF2",
"j- 	c #FFFFEF",
"k- 	c #FEFCE1",
"l- 	c #F7F1D2",
"m- 	c #E8E1C3",
"n- 	c #D8D1B5",
"o- 	c #CEC7AC",
"p- 	c #C9C2A7",
"q- 	c #C4BDA1",
"r- 	c #C0B89E",
"s- 	c #BBB399",
"t- 	c #B7AF96",
"u- 	c #B3AB93",
"v- 	c #B3AB92",
"w- 	c #ADA78E",
"x- 	c #ACA58C",
"y- 	c #ABA38C",
"z- 	c #A8A188",
"A- 	c #A49D85",
"B- 	c #A09B82",
"C- 	c #9B957D",
"D- 	c #98907A",
"E- 	c #88806B",
"F- 	c #867E69",
"G- 	c #837964",
"H- 	c #827964",
"I- 	c #817862",
"J- 	c #807862",
"K- 	c #807760",
"L- 	c #7E7560",
"M- 	c #7C735E",
"N- 	c #7B715C",
"O- 	c #7A705A",
"P- 	c #797058",
"Q- 	c #796E56",
"R- 	c #776C53",
"S- 	c #756A51",
"T- 	c #776C50",
"U- 	c #74684E",
"V- 	c #766A50",
"W- 	c #7A6E53",
"X- 	c #786D50",
"Y- 	c #796D51",
"Z- 	c #776B4F",
"`- 	c #796D52",
" ; 	c #7B7157",
".; 	c #81785B",
"+; 	c #7F765C",
"@; 	c #81795F",
"#; 	c #7D735A",
"$; 	c #786E58",
"%; 	c #716853",
"&; 	c #4F473A",
"*; 	c #5F5A55",
"=; 	c #C5BBB5",
"-; 	c #CB9A7B",
";; 	c #B49273",
">; 	c #978565",
",; 	c #948263",
"'; 	c #A99177",
"); 	c #B3A189",
"!; 	c #B7AB92",
"~; 	c #C0B59C",
"{; 	c #C8BEA5",
"]; 	c #D6CDB4",
"^; 	c #E3DBC2",
"/; 	c #F1EACF",
"(; 	c #FFFFF0",
"_; 	c #FEFDE2",
":; 	c #F4EDCF",
"<; 	c #EAE2C5",
"[; 	c #E0D9BC",
"}; 	c #D6CFB3",
"|; 	c #D1C9AE",
"1; 	c #CDC6AA",
"2; 	c #C8C1A5",
"3; 	c #C3BBA0",
"4; 	c #C1B99E",
"5; 	c #BCB59A",
"6; 	c #B8B096",
"7; 	c #B0A990",
"8; 	c #AEA68E",
"9; 	c #ACA48C",
"0; 	c #AAA38A",
"a; 	c #A8A288",
"b; 	c #A09981",
"c; 	c #9D967E",
"d; 	c #99927B",
"e; 	c #978F78",
"f; 	c #928A74",
"g; 	c #8E8770",
"h; 	c #8B836D",
"i; 	c #888069",
"j; 	c #867D67",
"k; 	c #857B66",
"l; 	c #847A64",
"m; 	c #837A63",
"n; 	c #827962",
"o; 	c #807660",
"p; 	c #7D745C",
"q; 	c #7D7158",
"r; 	c #7A7055",
"s; 	c #7C7054",
"t; 	c #7D7154",
"u; 	c #7C7154",
"v; 	c #827759",
"w; 	c #83775B",
"x; 	c #8B7E5F",
"y; 	c #908161",
"z; 	c #918363",
"A; 	c #908060",
"B; 	c #8E7F5F",
"C; 	c #8C7D5D",
"D; 	c #8B7C5D",
"E; 	c #8B7B5C",
"F; 	c #8C7F5F",
"G; 	c #8E8060",
"H; 	c #8F8060",
"I; 	c #8F8160",
"J; 	c #918563",
"K; 	c #918564",
"L; 	c #8B8163",
"M; 	c #8A8063",
"N; 	c #8E856B",
"O; 	c #786F5E",
"P; 	c #635A4C",
"Q; 	c #4E463B",
"R; 	c #514A42",
"S; 	c #CDA58B",
"T; 	c #978665",
"U; 	c #948161",
"V; 	c #968463",
"W; 	c #958263",
"X; 	c #A48B6E",
"Y; 	c #B99A81",
"Z; 	c #B09D84",
"`; 	c #B1A48B",
" > 	c #B7AA92",
".> 	c #C7BDA4",
"+> 	c #D3C9B1",
"@> 	c #E0D7BD",
"#> 	c #EEE6CC",
"$> 	c #FBF8DC",
"%> 	c #FEFEEE",
"&> 	c #FFFFEE",
"*> 	c #FEFEE4",
"=> 	c #FEFCDE",
"-> 	c #F6F0D0",
";> 	c #ECE6C7",
">> 	c #EBE3C5",
",> 	c #E1DABC",
"'> 	c #D4CDB1",
")> 	c #D1CAAD",
"!> 	c #CEC7AA",
"~> 	c #C5BDA1",
"{> 	c #BEB79C",
"]> 	c #BAB398",
"^> 	c #B5AD93",
"/> 	c #B2AB91",
"(> 	c #AEA68D",
"_> 	c #A7A087",
":> 	c #A49C84",
"<> 	c #9E967D",
"[> 	c #979078",
"}> 	c #938B73",
"|> 	c #908871",
"1> 	c #8E866E",
"2> 	c #8A826B",
"3> 	c #887F68",
"4> 	c #857D66",
"5> 	c #827761",
"6> 	c #7A6F56",
"7> 	c #786C51",
"8> 	c #796C52",
"9> 	c #817559",
"0> 	c #8F8363",
"a> 	c #968968",
"b> 	c #958868",
"c> 	c #988968",
"d> 	c #978967",
"e> 	c #968867",
"f> 	c #958766",
"g> 	c #948565",
"h> 	c #938363",
"i> 	c #928362",
"j> 	c #8E7F5E",
"k> 	c #8D7E5E",
"l> 	c #8C7C5D",
"m> 	c #8B7B5B",
"n> 	c #8C7B5B",
"o> 	c #8D7C5C",
"p> 	c #8F7D5D",
"q> 	c #927C5C",
"r> 	c #937C5C",
"s> 	c #9D8867",
"t> 	c #A59A75",
"u> 	c #968A69",
"v> 	c #91886B",
"w> 	c #877F6A",
"x> 	c #695F4E",
"y> 	c #645E53",
"z> 	c #B0937E",
"A> 	c #CA9B7D",
"B> 	c #B29071",
"C> 	c #998665",
"D> 	c #978463",
"E> 	c #9B8667",
"F> 	c #BD997E",
"G> 	c #B5997F",
"H> 	c #AF9B81",
"I> 	c #AF9E84",
"J> 	c #B2A38A",
"K> 	c #B6A88E",
"L> 	c #BCB198",
"M> 	c #C4B9A1",
"N> 	c #D0C7AD",
"O> 	c #DBD3B9",
"P> 	c #ECE5CA",
"Q> 	c #F9F6DA",
"R> 	c #FEFFEC",
"S> 	c #FFFFEB",
"T> 	c #FFFFE8",
"U> 	c #FBF5D5",
"V> 	c #F2EBCD",
"W> 	c #ECE5C6",
"X> 	c #E4DCBE",
"Y> 	c #DCD4B7",
"Z> 	c #CBC3A7",
"`> 	c #C4BCA1",
" , 	c #C0B89D",
"., 	c #B4AC92",
"+, 	c #B3AB91",
"@, 	c #B1A98F",
"#, 	c #ACA48A",
"$, 	c #A9A187",
"%, 	c #A69E84",
"&, 	c #A29980",
"*, 	c #9E957C",
"=, 	c #9A9279",
"-, 	c #978E75",
";, 	c #948B72",
">, 	c #8C836B",
",, 	c #80765E",
"', 	c #746A52",
"), 	c #807358",
"!, 	c #8B7E61",
"~, 	c #978A69",
"{, 	c #988A69",
"], 	c #978867",
"^, 	c #938666",
"/, 	c #918465",
"(, 	c #908265",
"_, 	c #85775F",
":, 	c #7B6F58",
"<, 	c #6D6151",
"[, 	c #64584C",
"}, 	c #675A4C",
"|, 	c #62574A",
"1, 	c #574C43",
"2, 	c #615647",
"3, 	c #675B49",
"4, 	c #655747",
"5, 	c #6A5F4A",
"6, 	c #76674F",
"7, 	c #837355",
"8, 	c #857356",
"9, 	c #8B7859",
"0, 	c #927E5E",
"a, 	c #957E5D",
"b, 	c #967F5E",
"c, 	c #967D5C",
"d, 	c #987C5C",
"e, 	c #A28463",
"f, 	c #BFA881",
"g, 	c #C9B98E",
"h, 	c #9A8E6C",
"i, 	c #8E8465",
"j, 	c #7A6E52",
"k, 	c #706759",
"l, 	c #B99175",
"m, 	c #C1987B",
"n, 	c #968564",
"o, 	c #978363",
"p, 	c #958262",
"q, 	c #958161",
"r, 	c #928060",
"s, 	c #BC9678",
"t, 	c #BC997C",
"u, 	c #B4987C",
"v, 	c #B1997E",
"w, 	c #B09A81",
"x, 	c #B19D84",
"y, 	c #B2A289",
"z, 	c #B5A88E",
"A, 	c #BBAF96",
"B, 	c #C4B8A0",
"C, 	c #CEC2AA",
"D, 	c #E8E1C6",
"E, 	c #F8F3D7",
"F, 	c #FCF9DA",
"G, 	c #F4EDCE",
"H, 	c #EFE6C9",
"I, 	c #E9E0C2",
"J, 	c #DBD4B7",
"K, 	c #D2CBAE",
"L, 	c #CBC3A6",
"M, 	c #C7BFA2",
"N, 	c #C4BCA0",
"O, 	c #BFB89C",
"P, 	c #BBB498",
"Q, 	c #B6AE93",
"R, 	c #B2AA8F",
"S, 	c #AEA78C",
"T, 	c #ACA389",
"U, 	c #AAA086",
"V, 	c #A79E83",
"W, 	c #A29A7F",
"X, 	c #9A9278",
"Y, 	c #897F66",
"Z, 	c #7B6F56",
"`, 	c #766B52",
" ' 	c #7E7056",
".' 	c #8A7D5F",
"+' 	c #988B6A",
"@' 	c #958768",
"#' 	c #8B7F67",
"$' 	c #7E7264",
"%' 	c #786B62",
"&' 	c #766961",
"*' 	c #6F635E",
"=' 	c #6D615C",
"-' 	c #6C605A",
";' 	c #6C5F59",
">' 	c #695C56",
",' 	c #665954",
"'' 	c #655852",
")' 	c #645650",
"!' 	c #61534D",
"~' 	c #5D4F49",
"{' 	c #594C46",
"]' 	c #534742",
"^' 	c #4F443E",
"/' 	c #4C413B",
"(' 	c #473D38",
"_' 	c #433A35",
":' 	c #493F36",
"<' 	c #443A33",
"[' 	c #625241",
"}' 	c #846F54",
"|' 	c #92795A",
"1' 	c #9D805E",
"2' 	c #9B7C5C",
"3' 	c #9E7D5C",
"4' 	c #A27D5C",
"5' 	c #AB805E",
"6' 	c #C29C77",
"7' 	c #C6AF89",
"8' 	c #B7AD89",
"9' 	c #847A60",
"0' 	c #746C5E",
"a' 	c #C1BDBB",
"b' 	c #B18A6D",
"c' 	c #AA8C6E",
"d' 	c #968362",
"e' 	c #968262",
"f' 	c #958162",
"g' 	c #A28868",
"h' 	c #C69B7E",
"i' 	c #BC997B",
"j' 	c #B8987C",
"k' 	c #B3997D",
"l' 	c #B29A7F",
"m' 	c #B29A80",
"n' 	c #AF9C83",
"o' 	c #B0A187",
"p' 	c #B4A68D",
"q' 	c #BAAE94",
"r' 	c #C2B69E",
"s' 	c #C9C0A7",
"t' 	c #D5CCB3",
"u' 	c #E3DBC0",
"v' 	c #F0EACE",
"w' 	c #FDFCE2",
"x' 	c #FFFFE7",
"y' 	c #FDF9DA",
"z' 	c #F9F2D2",
"A' 	c #F2E8CA",
"B' 	c #EBE2C4",
"C' 	c #E4DABC",
"D' 	c #DFD7B9",
"E' 	c #D4CDAF",
"F' 	c #C4BB9E",
"G' 	c #C1B89B",
"H' 	c #BBB397",
"I' 	c #B7B093",
"J' 	c #B3AA8E",
"K' 	c #B3A88C",
"L' 	c #A69C81",
"M' 	c #8A7F64",
"N' 	c #7D7157",
"O' 	c #83775C",
"P' 	c #8F8364",
"Q' 	c #9E916F",
"R' 	c #9F916E",
"S' 	c #9C8F6E",
"T' 	c #9A8D6B",
"U' 	c #96896A",
"V' 	c #8D8069",
"W' 	c #807266",
"X' 	c #796C66",
"Y' 	c #7B6D69",
"Z' 	c #81726C",
"`' 	c #83756F",
" ) 	c #82746E",
".) 	c #80726D",
"+) 	c #7D706A",
"@) 	c #7C6E68",
"#) 	c #786C66",
"$) 	c #776A63",
"%) 	c #746560",
"&) 	c #70645D",
"*) 	c #665953",
"=) 	c #62554F",
"-) 	c #60524C",
";) 	c #5C4F48",
">) 	c #574A44",
",) 	c #544641",
"') 	c #50433F",
")) 	c #4C423C",
"!) 	c #4A403A",
"~) 	c #463D37",
"{) 	c #453A35",
"]) 	c #433931",
"^) 	c #544539",
"/) 	c #7B654B",
"() 	c #997758",
"_) 	c #A77F5F",
":) 	c #B08360",
"<) 	c #B0815F",
"[) 	c #B68260",
"}) 	c #C18865",
"|) 	c #C5A781",
"1) 	c #B3A883",
"2) 	c #887C60",
"3) 	c #B29C8A",
"4) 	c #AB876D",
"5) 	c #928061",
"6) 	c #BD9678",
"7) 	c #C49A7D",
"8) 	c #BF9A7D",
"9) 	c #BB997C",
"0) 	c #BA9B7F",
"a) 	c #B6977D",
"b) 	c #B4987D",
"c) 	c #B0997F",
"d) 	c #B09D83",
"e) 	c #B1A288",
"f) 	c #B3A78D",
"g) 	c #B8AC92",
"h) 	c #BEB29A",
"i) 	c #D1C8AE",
"j) 	c #DED6BB",
"k) 	c #EEE7CB",
"l) 	c #FAF6D8",
"m) 	c #FEFDE4",
"n) 	c #FEFEE8",
"o) 	c #FEFDDD",
"p) 	c #FAF2D2",
"q) 	c #EDE3C4",
"r) 	c #E2DABB",
"s) 	c #DCD4B5",
"t) 	c #D7CEB0",
"u) 	c #D0C8A9",
"v) 	c #D0C7A7",
"w) 	c #C6BD9F",
"x) 	c #BFB698",
"y) 	c #9D9378",
"z) 	c #7F745C",
"A) 	c #877B60",
"B) 	c #9D9070",
"C) 	c #A79876",
"D) 	c #A49674",
"E) 	c #A29471",
"F) 	c #A0926F",
"G) 	c #9D8F6E",
"H) 	c #90846A",
"I) 	c #7F7265",
"J) 	c #786B65",
"K) 	c #796C67",
"L) 	c #7F706A",
"M) 	c #83746E",
"N) 	c #867671",
"O) 	c #887873",
"P) 	c #877772",
"Q) 	c #867872",
"R) 	c #847570",
"S) 	c #82736D",
"T) 	c #7E716B",
"U) 	c #7C6F68",
"V) 	c #796B65",
"W) 	c #766861",
"X) 	c #73665F",
"Y) 	c #70625B",
"Z) 	c #6D5F59",
"`) 	c #6B5D57",
" ! 	c #685A53",
".! 	c #665851",
"+! 	c #62554D",
"@! 	c #5E5049",
"#! 	c #594C45",
"$! 	c #554842",
"%! 	c #52443E",
"&! 	c #4F423D",
"*! 	c #4D413B",
"=! 	c #4A3F39",
"-! 	c #463B35",
";! 	c #423831",
">! 	c #3F352F",
",! 	c #504036",
"'! 	c #755A46",
")! 	c #A5795A",
"!! 	c #BE8663",
"~! 	c #C38764",
"{! 	c #CA8965",
"]! 	c #D18E69",
"^! 	c #BA9A77",
"/! 	c #9B906E",
"(! 	c #867B5F",
"_! 	c #9B7D65",
":! 	c #9B8265",
"<! 	c #927F5F",
"[! 	c #927E60",
"}! 	c #9F8567",
"|! 	c #C69A7D",
"1! 	c #C59B7E",
"2! 	c #C7A183",
"3! 	c #C29E80",
"4! 	c #BA997D",
"5! 	c #B7987C",
"6! 	c #B3987D",
"7! 	c #B19B80",
"8! 	c #B09F86",
"9! 	c #B1A38A",
"0! 	c #B6A98F",
"a! 	c #BBB097",
"b! 	c #CFC5AB",
"c! 	c #D6CDB3",
"d! 	c #DED6BC",
"e! 	c #F3EACD",
"f! 	c #FCF9DB",
"g! 	c #FEFCDC",
"h! 	c #FCF7D7",
"i! 	c #FBF5D3",
"j! 	c #F4EBC8",
"k! 	c #F0E9C5",
"l! 	c #EEE5C1",
"m! 	c #C9C0A0",
"n! 	c #897E65",
"o! 	c #867B61",
"p! 	c #9E9171",
"q! 	c #AD9F7B",
"r! 	c #A99B78",
"s! 	c #A79976",
"t! 	c #A69776",
"u! 	c #9D9072",
"v! 	c #8A7F6E",
"w! 	c #7C6F67",
"x! 	c #796E67",
"y! 	c #83736E",
"z! 	c #867670",
"A! 	c #867871",
"B! 	c #897974",
"C! 	c #80726C",
"D! 	c #7D6F69",
"E! 	c #7A6C66",
"F! 	c #786963",
"G! 	c #756660",
"H! 	c #72635D",
"I! 	c #6F6059",
"J! 	c #6C5E57",
"K! 	c #6A5B55",
"L! 	c #685953",
"M! 	c #665651",
"N! 	c #60524B",
"O! 	c #5C4D47",
"P! 	c #584A44",
"Q! 	c #544640",
"R! 	c #52453F",
"S! 	c #51443E",
"T! 	c #50423C",
"U! 	c #4E413B",
"V! 	c #4B3F38",
"W! 	c #463A33",
"X! 	c #433730",
"Y! 	c #41352F",
"Z! 	c #624C3F",
"`! 	c #A47D5D",
" ~ 	c #CF8E68",
".~ 	c #D68F69",
"+~ 	c #D88F69",
"@~ 	c #DC946D",
"#~ 	c #C09975",
"$~ 	c #AC9976",
"%~ 	c #8C7460",
"&~ 	c #957860",
"*~ 	c #907D5F",
"=~ 	c #8F7E5E",
"-~ 	c #907D5E",
";~ 	c #8F7D5E",
">~ 	c #B59074",
",~ 	c #C3987B",
"'~ 	c #C79C7D",
")~ 	c #C89D7F",
"!~ 	c #D3A787",
"~~ 	c #C39B7E",
"{~ 	c #C09B7E",
"]~ 	c #BC9A7E",
"^~ 	c #B89B7F",
"/~ 	c #B59B7F",
"(~ 	c #B29B80",
"_~ 	c #AF9B82",
":~ 	c #B09F85",
"<~ 	c #B0A289",
"[~ 	c #B5A78E",
"}~ 	c #C0B49B",
"|~ 	c #C3B99F",
"1~ 	c #CEC4AA",
"2~ 	c #DED5BA",
"3~ 	c #EBE2C6",
"4~ 	c #F8F1D3",
"5~ 	c #FCFBDF",
"6~ 	c #FEFFE7",
"7~ 	c #F0EECA",
"8~ 	c #AFA387",
"9~ 	c #8D8166",
"0~ 	c #9A8D70",
"a~ 	c #B0A27E",
"b~ 	c #AD9E7B",
"c~ 	c #AC9D7A",
"d~ 	c #9F9074",
"e~ 	c #8B8079",
"f~ 	c #8A7D79",
"g~ 	c #8B7E7A",
"h~ 	c #8A7D77",
"i~ 	c #897C76",
"j~ 	c #897B75",
"k~ 	c #897A74",
"l~ 	c #887772",
"m~ 	c #877671",
"n~ 	c #84746F",
"o~ 	c #82726C",
"p~ 	c #7E7069",
"q~ 	c #7B6C66",
"r~ 	c #72635C",
"s~ 	c #6C5D57",
"t~ 	c #6A5B54",
"u~ 	c #685952",
"v~ 	c #675851",
"w~ 	c #65564F",
"x~ 	c #61524B",
"y~ 	c #5C4E47",
"z~ 	c #594B45",
"A~ 	c #574943",
"B~ 	c #52443F",
"C~ 	c #50433D",
"D~ 	c #4D4039",
"E~ 	c #42352F",
"F~ 	c #564337",
"G~ 	c #AF785A",
"H~ 	c #DB916B",
"I~ 	c #E2956E",
"J~ 	c #E5956D",
"K~ 	c #D7926D",
"L~ 	c #B79976",
"M~ 	c #AD9F7F",
"N~ 	c #866A52",
"O~ 	c #8D755C",
"P~ 	c #8B795B",
"Q~ 	c #8D795B",
"R~ 	c #8B795A",
"S~ 	c #8C7A5B",
"T~ 	c #967E61",
"U~ 	c #BD9478",
"V~ 	c #C3987A",
"W~ 	c #C69B7D",
"X~ 	c #CFA283",
"Y~ 	c #D5A786",
"Z~ 	c #C89E80",
"`~ 	c #C79F81",
" { 	c #C49F81",
".{ 	c #C09D80",
"+{ 	c #BA9C80",
"@{ 	c #B69C80",
"#{ 	c #B29B7F",
"${ 	c #B09A80",
"%{ 	c #B3A58C",
"&{ 	c #B5A990",
"*{ 	c #BAAD94",
"={ 	c #C1B69C",
"-{ 	c #CDC3AA",
";{ 	c #D6CCB2",
">{ 	c #E0D8BD",
",{ 	c #F3ECCE",
"'{ 	c #F7F1D1",
"){ 	c #FEFDE6",
"!{ 	c #FDFDE0",
"~{ 	c #FAFAF9",
"{{ 	c #D3CEC4",
"]{ 	c #92886F",
"^{ 	c #958B6F",
"/{ 	c #B0A27F",
"({ 	c #B2A380",
"_{ 	c #AFA07D",
":{ 	c #A99B7C",
"<{ 	c #9A8D81",
"[{ 	c #938684",
"}{ 	c #998B87",
"|{ 	c #9B8E89",
"1{ 	c #9A8D87",
"2{ 	c #998B86",
"3{ 	c #988A85",
"4{ 	c #968883",
"5{ 	c #90827C",
"6{ 	c #8E7F79",
"7{ 	c #8C7D77",
"8{ 	c #887A73",
"9{ 	c #887671",
"0{ 	c #867570",
"a{ 	c #84746E",
"b{ 	c #81716B",
"c{ 	c #7E6F68",
"d{ 	c #7B6B65",
"e{ 	c #796963",
"f{ 	c #75665F",
"g{ 	c #6E5F58",
"h{ 	c #6B5C55",
"i{ 	c #695A54",
"j{ 	c #675752",
"k{ 	c #665750",
"l{ 	c #64554F",
"m{ 	c #5A4C45",
"n{ 	c #584A43",
"o{ 	c #574842",
"p{ 	c #53453E",
"q{ 	c #4D3F39",
"r{ 	c #473933",
"s{ 	c #443730",
"t{ 	c #43352E",
"u{ 	c #594137",
"v{ 	c #B5785A",
"w{ 	c #E2946E",
"x{ 	c #E8976F",
"y{ 	c #E6946E",
"z{ 	c #D5936E",
"A{ 	c #BFA680",
"B{ 	c #785F47",
"C{ 	c #867358",
"D{ 	c #887658",
"E{ 	c #887758",
"F{ 	c #867456",
"G{ 	c #837255",
"H{ 	c #A48368",
"I{ 	c #B68F73",
"J{ 	c #BE9578",
"K{ 	c #C3997B",
"L{ 	c #D5A685",
"M{ 	c #D0A383",
"N{ 	c #CEA282",
"O{ 	c #D1A584",
"P{ 	c #CBA182",
"Q{ 	c #CBA384",
"R{ 	c #C49F82",
"S{ 	c #BD9E81",
"T{ 	c #B69B7E",
"U{ 	c #B49B7F",
"V{ 	c #B19980",
"W{ 	c #B09C82",
"X{ 	c #B0A086",
"Y{ 	c #B2A68C",
"Z{ 	c #B9AD94",
"`{ 	c #C8BDA3",
" ] 	c #D5CCB1",
".] 	c #D9D2B5",
"+] 	c #DFD8BA",
"@] 	c #E7E0C3",
"#] 	c #E7E0C2",
"$] 	c #EBE9DC",
"%] 	c #A39983",
"&] 	c #9B9077",
"*] 	c #AD9F80",
"=] 	c #B3A583",
"-] 	c #B2A482",
";] 	c #B2A481",
">] 	c #B0A280",
",] 	c #A59783",
"'] 	c #9A8D8A",
")] 	c #9D908C",
"!] 	c #A29491",
"~] 	c #A69894",
"{] 	c #A89A96",
"]] 	c #A69793",
"^] 	c #A79793",
"/] 	c #A49591",
"(] 	c #9F918C",
"_] 	c #9A8C86",
":] 	c #948681",
"<] 	c #91827D",
"[] 	c #8E7F7A",
"}] 	c #8C7C77",
"|] 	c #8A7974",
"1] 	c #877670",
"2] 	c #85746F",
"3] 	c #85746E",
"4] 	c #81716A",
"5] 	c #83736B",
"6] 	c #7E6E67",
"7] 	c #7C6C66",
"8] 	c #76665F",
"9] 	c #72625B",
"0] 	c #6B5C56",
"a] 	c #64554E",
"b] 	c #62534D",
"c] 	c #61524C",
"d] 	c #60514B",
"e] 	c #5E4F4A",
"f] 	c #5C4F47",
"g] 	c #564842",
"h] 	c #564841",
"i] 	c #56463F",
"j] 	c #51433B",
"k] 	c #493B34",
"l] 	c #473831",
"m] 	c #44352F",
"n] 	c #513D34",
"o] 	c #BA795C",
"p] 	c #E69670",
"q] 	c #E69771",
"r] 	c #B69672",
"s] 	c #9C9583",
"t] 	c #CDCAC6",
"u] 	c #715943",
"v] 	c #827054",
"w] 	c #837154",
"x] 	c #837155",
"y] 	c #867457",
"z] 	c #8C765A",
"A] 	c #A7856A",
"B] 	c #AE8A6F",
"C] 	c #B48E72",
"D] 	c #C1977A",
"E] 	c #D0A382",
"F] 	c #D1A483",
"G] 	c #D2A484",
"H] 	c #D2A584",
"I] 	c #D3A685",
"J] 	c #D5A887",
"K] 	c #CDA484",
"L] 	c #C7A284",
"M] 	c #BF9D80",
"N] 	c #B99C80",
"O] 	c #B59C7F",
"P] 	c #B19B81",
"Q] 	c #AF9C82",
"R] 	c #B2A48B",
"S] 	c #B6AA91",
"T] 	c #BCB197",
"U] 	c #C0B69C",
"V] 	c #C8C1A6",
"W] 	c #CCC5A8",
"X] 	c #DCD5B6",
"Y] 	c #F9F3D3",
"Z] 	c #FCFCFB",
"`] 	c #C2BBAD",
" ^ 	c #A09680",
".^ 	c #AB9E83",
"+^ 	c #B7A889",
"@^ 	c #B5A786",
"#^ 	c #B2A383",
"$^ 	c #B3A482",
"%^ 	c #AC9F85",
"&^ 	c #9D908B",
"*^ 	c #9F928F",
"=^ 	c #AC9C99",
"-^ 	c #AF9F9C",
";^ 	c #AF9E9B",
">^ 	c #AE9D99",
",^ 	c #AB9B98",
"'^ 	c #A99996",
")^ 	c #A59692",
"!^ 	c #A3938F",
"~^ 	c #9E8E89",
"{^ 	c #9B8C87",
"]^ 	c #988782",
"^^ 	c #94837E",
"/^ 	c #8F7F79",
"(^ 	c #8C7B76",
"_^ 	c #897772",
":^ 	c #84736D",
"<^ 	c #83726B",
"[^ 	c #84736C",
"}^ 	c #83726C",
"|^ 	c #806F68",
"1^ 	c #7D6C65",
"2^ 	c #7B6A63",
"3^ 	c #786861",
"4^ 	c #75655F",
"5^ 	c #73625C",
"6^ 	c #64544E",
"7^ 	c #60514A",
"8^ 	c #5F5049",
"9^ 	c #5C4D46",
"0^ 	c #5A4C47",
"a^ 	c #5B4D46",
"b^ 	c #584B44",
"c^ 	c #564741",
"d^ 	c #574841",
"e^ 	c #54453E",
"f^ 	c #51423A",
"g^ 	c #4C3D36",
"h^ 	c #493931",
"i^ 	c #473830",
"j^ 	c #5B4438",
"k^ 	c #C68563",
"l^ 	c #E29770",
"m^ 	c #E0956E",
"n^ 	c #BF9975",
"o^ 	c #A19A84",
"p^ 	c #ACA197",
"q^ 	c #75614C",
"r^ 	c #7F6E51",
"s^ 	c #7F6D51",
"t^ 	c #806F52",
"u^ 	c #8D735B",
"v^ 	c #9E7F65",
"w^ 	c #A38268",
"x^ 	c #AE896E",
"y^ 	c #BA9174",
"z^ 	c #C59A7C",
"A^ 	c #CA9D7F",
"B^ 	c #D0A282",
"C^ 	c #DBAB8A",
"D^ 	c #DBAB89",
"E^ 	c #D4A786",
"F^ 	c #D1A685",
"G^ 	c #C9A183",
"H^ 	c #C3A082",
"I^ 	c #BA9E81",
"J^ 	c #B69E81",
"K^ 	c #B09B81",
"L^ 	c #AF9F85",
"M^ 	c #B4A88E",
"N^ 	c #B6AB91",
"O^ 	c #B9AF95",
"P^ 	c #BAB297",
"Q^ 	c #BFB79C",
"R^ 	c #C5BEA2",
"S^ 	c #E5DDC0",
"T^ 	c #F6EECF",
"U^ 	c #F5F0D0",
"V^ 	c #FEFEE1",
"W^ 	c #FBFAFA",
"X^ 	c #BAB2A3",
"Y^ 	c #A39883",
"Z^ 	c #B3A489",
"`^ 	c #B6A588",
" / 	c #B4A586",
"./ 	c #B5A685",
"+/ 	c #B2A487",
"@/ 	c #A79A8F",
"#/ 	c #A59794",
"$/ 	c #AB9D99",
"%/ 	c #B1A19D",
"&/ 	c #B9A8A5",
"*/ 	c #BDACA8",
"=/ 	c #B9A8A4",
"-/ 	c #B6A5A1",
";/ 	c #B4A39F",
">/ 	c #B1A09D",
",/ 	c #AF9E9A",
"'/ 	c #AB9A97",
")/ 	c #A89894",
"!/ 	c #A6948F",
"~/ 	c #A3918C",
"{/ 	c #9E8D88",
"]/ 	c #9A8984",
"^/ 	c #95837E",
"// 	c #91807A",
"(/ 	c #8E7D77",
"_/ 	c #817069",
":/ 	c #806E67",
"</ 	c #7E6C65",
"[/ 	c #7C6A64",
"}/ 	c #7B6962",
"|/ 	c #786660",
"1/ 	c #76655F",
"2/ 	c #73635C",
"3/ 	c #71615B",
"4/ 	c #6E5E57",
"5/ 	c #6A5A53",
"6/ 	c #675750",
"7/ 	c #63544C",
"8/ 	c #5E4F48",
"9/ 	c #5A4B44",
"0/ 	c #564942",
"a/ 	c #554641",
"b/ 	c #554742",
"c/ 	c #53453F",
"d/ 	c #534540",
"e/ 	c #564740",
"f/ 	c #554740",
"g/ 	c #584841",
"h/ 	c #56473F",
"i/ 	c #504139",
"j/ 	c #4B3C35",
"k/ 	c #45362E",
"l/ 	c #63483C",
"m/ 	c #C18563",
"n/ 	c #DA956D",
"o/ 	c #C39470",
"p/ 	c #C2B591",
"q/ 	c #7F7163",
"r/ 	c #73614C",
"s/ 	c #78674B",
"t/ 	c #78664B",
"u/ 	c #79674C",
"v/ 	c #7C694E",
"w/ 	c #8A6E57",
"x/ 	c #95775E",
"y/ 	c #997A61",
"z/ 	c #A48267",
"A/ 	c #AF8A6E",
"B/ 	c #B99074",
"C/ 	c #C19679",
"D/ 	c #CC9F7F",
"E/ 	c #D5A584",
"F/ 	c #DEAC8A",
"G/ 	c #DDAB8A",
"H/ 	c #DCAC8A",
"I/ 	c #D8AA88",
"J/ 	c #D2A686",
"K/ 	c #CEA586",
"L/ 	c #C4A283",
"M/ 	c #BC9F82",
"N/ 	c #B89C80",
"O/ 	c #B39B80",
"P/ 	c #AF9A7F",
"Q/ 	c #AE9E84",
"R/ 	c #AEA187",
"S/ 	c #B0A489",
"T/ 	c #B1A68C",
"U/ 	c #B3AA8F",
"V/ 	c #B8AE94",
"W/ 	c #BCB499",
"X/ 	c #D9D2B4",
"Y/ 	c #E1D9BB",
"Z/ 	c #FAF3D3",
"`/ 	c #FEFDDE",
" ( 	c #F6F5F3",
".( 	c #AFA796",
"+( 	c #A49883",
"@( 	c #B1A187",
"#( 	c #B1A287",
"$( 	c #B0A084",
"%( 	c #B4A588",
"&( 	c #B2A398",
"*( 	c #B2A3A2",
"=( 	c #B9AAA7",
"-( 	c #BFAFAC",
";( 	c #C6B4B1",
">( 	c #CFBEBB",
",( 	c #CBB9B6",
"'( 	c #C0AEAB",
")( 	c #BBAAA6",
"!( 	c #BAA8A5",
"~( 	c #B5A4A0",
"{( 	c #B3A29F",
"]( 	c #AC9B97",
"^( 	c #AA9893",
"/( 	c #A79590",
"(( 	c #A2918C",
"_( 	c #9F8D88",
":( 	c #9B8984",
"<( 	c #978580",
"[( 	c #93827C",
"}( 	c #8F7E78",
"|( 	c #8B7B75",
"1( 	c #887872",
"2( 	c #86746E",
"3( 	c #84726C",
"4( 	c #82716A",
"5( 	c #817068",
"6( 	c #7F6D66",
"7( 	c #7D6B64",
"8( 	c #7A6862",
"9( 	c #796760",
"0( 	c #76645D",
"a( 	c #705F58",
"b( 	c #6C5C56",
"c( 	c #695952",
"d( 	c #65554E",
"e( 	c #61514A",
"f( 	c #5D4E46",
"g( 	c #5B4B43",
"h( 	c #584941",
"i( 	c #55463E",
"j( 	c #52433C",
"k( 	c #51433C",
"l( 	c #50423B",
"m( 	c #4F413A",
"n( 	c #4E403A",
"o( 	c #53443C",
"p( 	c #55453E",
"q( 	c #574740",
"r( 	c #514239",
"s( 	c #493A32",
"t( 	c #45362F",
"u( 	c #42352D",
"v( 	c #745544",
"w( 	c #C08964",
"x( 	c #C4906B",
"y( 	c #B6AA89",
"z( 	c #675849",
"A( 	c #716048",
"B( 	c #756349",
"C( 	c #766349",
"D( 	c #78654B",
"E( 	c #866D56",
"F( 	c #8C6F59",
"G( 	c #92745D",
"H( 	c #9D7C62",
"I( 	c #A58367",
"J( 	c #B0896E",
"K( 	c #B78F73",
"L( 	c #C5997B",
"M( 	c #D0A181",
"N( 	c #DCAA88",
"O( 	c #DCAA89",
"P( 	c #E0AE8C",
"Q( 	c #DCAB89",
"R( 	c #DAAA89",
"S( 	c #D9AA88",
"T( 	c #D0A786",
"U( 	c #C2A183",
"V( 	c #BD9E80",
"W( 	c #B49C7F",
"X( 	c #AE9A7F",
"Y( 	c #AD9B80",
"Z( 	c #AC9D82",
"`( 	c #AC9F84",
" _ 	c #ACA086",
"._ 	c #B1A68B",
"+_ 	c #B1A78D",
"@_ 	c #B6AC91",
"#_ 	c #BDB499",
"$_ 	c #C3BB9F",
"%_ 	c #C5BDA0",
"&_ 	c #DBD3B6",
"*_ 	c #F0E9C9",
"=_ 	c #FBF7D6",
"-_ 	c #FCF8D9",
";_ 	c #FEFDE1",
">_ 	c #F1EFD9",
",_ 	c #AEA58F",
"'_ 	c #A79B84",
")_ 	c #B1A087",
"!_ 	c #B1A186",
"~_ 	c #B7A690",
"{_ 	c #BFAFAE",
"]_ 	c #CABBB9",
"^_ 	c #D9C7C5",
"/_ 	c #DCCBC9",
"(_ 	c #E6D3D0",
"__ 	c #E9D5D2",
":_ 	c #E4D0CE",
"<_ 	c #E2CFCC",
"[_ 	c #D7C5C2",
"}_ 	c #CEBCB8",
"|_ 	c #CBB8B5",
"1_ 	c #C7B5B2",
"2_ 	c #C4B2AE",
"3_ 	c #C2B0AC",
"4_ 	c #BCAAA6",
"5_ 	c #B9A7A2",
"6_ 	c #B4A29E",
"7_ 	c #B09E99",
"8_ 	c #AC9A94",
"9_ 	c #A89690",
"0_ 	c #A08F8A",
"a_ 	c #968580",
"b_ 	c #92817A",
"c_ 	c #8C7B75",
"d_ 	c #897873",
"e_ 	c #887670",
"f_ 	c #83716B",
"g_ 	c #816F68",
"h_ 	c #816F67",
"i_ 	c #7C6A63",
"j_ 	c #715F58",
"k_ 	c #6F5E57",
"l_ 	c #6B5B54",
"m_ 	c #685750",
"n_ 	c #63534C",
"o_ 	c #5F5048",
"p_ 	c #5D4D45",
"q_ 	c #5A4A42",
"r_ 	c #59483F",
"s_ 	c #57463D",
"t_ 	c #53443B",
"u_ 	c #4F4139",
"v_ 	c #4C3E37",
"w_ 	c #4B3D36",
"x_ 	c #4D3F38",
"y_ 	c #53433B",
"z_ 	c #55443C",
"A_ 	c #56453D",
"B_ 	c #54443C",
"C_ 	c #504138",
"D_ 	c #493B33",
"E_ 	c #45372F",
"F_ 	c #725946",
"G_ 	c #B88665",
"H_ 	c #C9B08A",
"I_ 	c #736A60",
"J_ 	c #5F503F",
"K_ 	c #715F46",
"L_ 	c #715E45",
"M_ 	c #756149",
"N_ 	c #816A53",
"O_ 	c #856B54",
"P_ 	c #8B6E58",
"Q_ 	c #94765D",
"R_ 	c #9C7B61",
"S_ 	c #A58266",
"T_ 	c #B08A6D",
"U_ 	c #BB9274",
"V_ 	c #CA9C7C",
"W_ 	c #D1A181",
"X_ 	c #D9A786",
"Y_ 	c #DFAB89",
"Z_ 	c #DFAC8A",
"`_ 	c #E1AD8B",
" : 	c #DFAE8B",
".: 	c #D8AB88",
"+: 	c #CDA685",
"@: 	c #C5A282",
"#: 	c #C2A181",
"$: 	c #BA9D80",
"%: 	c #B39B7F",
"&: 	c #AD997D",
"*: 	c #AB9B7F",
"=: 	c #AA9C80",
"-: 	c #ACA186",
";: 	c #B0A58B",
">: 	c #B5AB91",
",: 	c #B6AD92",
"': 	c #CAC3A5",
"): 	c #D1CAAC",
"!: 	c #DAD3B5",
"~: 	c #DFD8B9",
"{: 	c #E3DBBC",
"]: 	c #F5EFCD",
"^: 	c #FDFADA",
"/: 	c #FFFFE5",
"(: 	c #EBE9CC",
"_: 	c #AAA088",
":: 	c #AD9B83",
"<: 	c #AE9D84",
"[: 	c #AF9D86",
"}: 	c #BFAD9C",
"|: 	c #D9C9C9",
"1: 	c #E6D7D6",
"2: 	c #F7E8E7",
"3: 	c #F9ECEC",
"4: 	c #FCF1F1",
"5: 	c #FCF1F0",
"6: 	c #FBEDED",
"7: 	c #F1DDDE",
"8: 	c #EBD6D6",
"9: 	c #EBD6D5",
"0: 	c #E5D0CE",
"a: 	c #D9C6C3",
"b: 	c #D6C3BF",
"c: 	c #D0BCBA",
"d: 	c #C8B5B2",
"e: 	c #C2AFAB",
"f: 	c #BCA9A4",
"g: 	c #B5A29D",
"h: 	c #AF9B97",
"i: 	c #A89691",
"j: 	c #A5938E",
"k: 	c #A08E89",
"l: 	c #97847F",
"m: 	c #92807A",
"n: 	c #907F78",
"o: 	c #8D7B75",
"p: 	c #8A7872",
"q: 	c #85736D",
"r: 	c #85736C",
"s: 	c #827069",
"t: 	c #7A6861",
"u: 	c #74615B",
"v: 	c #73605A",
"w: 	c #6E5D55",
"x: 	c #6A5952",
"y: 	c #66554E",
"z: 	c #63524B",
"A: 	c #5F4E47",
"B: 	c #5D4C44",
"C: 	c #5B4941",
"D: 	c #59473F",
"E: 	c #58463D",
"F: 	c #514139",
"G: 	c #4B3C34",
"H: 	c #4A3C35",
"I: 	c #4D3E37",
"J: 	c #4F3F38",
"K: 	c #52423B",
"L: 	c #56453C",
"M: 	c #54453B",
"N: 	c #4F4037",
"O: 	c #483B32",
"P: 	c #44372F",
"Q: 	c #443932",
"R: 	c #785C48",
"S: 	c #BEB18B",
"T: 	c #A4A08C",
"U: 	c #5F5346",
"V: 	c #5E4F3C",
"W: 	c #6E5A42",
"X: 	c #6D5A42",
"Y: 	c #6C5941",
"Z: 	c #6D5942",
"`: 	c #725E49",
" < 	c #7B6550",
".< 	c #7E6550",
"+< 	c #846A54",
"@< 	c #8B6F57",
"#< 	c #93745C",
"$< 	c #9E7C61",
"%< 	c #B28A6D",
"&< 	c #BF9576",
"*< 	c #C69979",
"=< 	c #D0A07F",
"-< 	c #D9A684",
";< 	c #DFAB88",
">< 	c #E2AE8B",
",< 	c #E4B08C",
"'< 	c #DFAE8A",
")< 	c #D7AB88",
"!< 	c #CCA584",
"~< 	c #C09F80",
"{< 	c #B79C7E",
"]< 	c #AE997D",
"^< 	c #AB997D",
"/< 	c #AA9A7E",
"(< 	c #AA9B7F",
"_< 	c #A99B7F",
":< 	c #AA9E82",
"<< 	c #ADA186",
"[< 	c #AEA288",
"}< 	c #B2A88D",
"|< 	c #B7AF94",
"1< 	c #BCB398",
"2< 	c #C2BA9E",
"3< 	c #C7C0A3",
"4< 	c #D6CEB0",
"5< 	c #F0E8C7",
"6< 	c #F8F3D0",
"7< 	c #FDFAD6",
"8< 	c #FEFEE2",
"9< 	c #FDFCDD",
"0< 	c #FDFCDC",
"a< 	c #FCF7D4",
"b< 	c #F8F1CC",
"c< 	c #DAD0B1",
"d< 	c #A99E84",
"e< 	c #A99B82",
"f< 	c #AA9882",
"g< 	c #AC9C84",
"h< 	c #B0A089",
"i< 	c #CFC0B4",
"j< 	c #EEE0E2",
"k< 	c #FBF6F6",
"l< 	c #FFFEFE",
"m< 	c #FDF8F7",
"n< 	c #FCF0F0",
"o< 	c #FDF6F6",
"p< 	c #FBEDEE",
"q< 	c #F6E1E0",
"r< 	c #ECD7D6",
"s< 	c #EAD5D2",
"t< 	c #E3CFCC",
"u< 	c #DEC9C7",
"v< 	c #D4BFBC",
"w< 	c #CEB9B5",
"x< 	c #C4B0AB",
"y< 	c #BBA7A2",
"z< 	c #B3A19B",
"A< 	c #AE9A95",
"B< 	c #A6948E",
"C< 	c #A18F89",
"D< 	c #9C8A84",
"E< 	c #96847E",
"F< 	c #93817A",
"G< 	c #8D7B74",
"H< 	c #88756E",
"I< 	c #88766F",
"J< 	c #88766E",
"K< 	c #86746D",
"L< 	c #84726B",
"M< 	c #7E6C64",
"N< 	c #77655E",
"O< 	c #77655D",
"P< 	c #705E58",
"Q< 	c #6E5C55",
"R< 	c #6A5851",
"S< 	c #67564F",
"T< 	c #64524B",
"U< 	c #614F48",
"V< 	c #5E4C44",
"W< 	c #5D4B42",
"X< 	c #5B4940",
"Y< 	c #5A483F",
"Z< 	c #5A483D",
"`< 	c #57453C",
" [ 	c #524138",
".[ 	c #4D3E36",
"+[ 	c #4B3B33",
"@[ 	c #4A3A33",
"#[ 	c #4A3B33",
"$[ 	c #4F3E37",
"%[ 	c #524239",
"&[ 	c #54443B",
"*[ 	c #4B3E34",
"=[ 	c #413730",
"-[ 	c #4B3E33",
";[ 	c #BBAA86",
">[ 	c #534636",
",[ 	c #5F4F3C",
"'[ 	c #6A553D",
")[ 	c #68553E",
"![ 	c #67543D",
"~[ 	c #6D5A47",
"{[ 	c #745F4B",
"][ 	c #77604C",
"^[ 	c #7D654F",
"/[ 	c #846953",
"([ 	c #8C6F57",
"_[ 	c #96765D",
":[ 	c #A78266",
"<[ 	c #B1896C",
"[[ 	c #BB9171",
"}[ 	c #C69878",
"|[ 	c #D09F7E",
"1[ 	c #DAA583",
"2[ 	c #E0AB87",
"3[ 	c #E1AD89",
"4[ 	c #E1AF89",
"5[ 	c #DBAC88",
"6[ 	c #D9AA87",
"7[ 	c #D5A886",
"8[ 	c #C8A282",
"9[ 	c #BC9D7D",
"0[ 	c #B59B7C",
"a[ 	c #AC987C",
"b[ 	c #AB987B",
"c[ 	c #AA987C",
"d[ 	c #A9987C",
"e[ 	c #A9997E",
"f[ 	c #A99C81",
"g[ 	c #A89C82",
"h[ 	c #AFA388",
"i[ 	c #AFA48A",
"j[ 	c #B7AE92",
"k[ 	c #B9B094",
"l[ 	c #C1B99D",
"m[ 	c #C8BFA2",
"n[ 	c #D2CBAC",
"o[ 	c #DAD2B3",
"p[ 	c #E4DCBA",
"q[ 	c #EEE4C3",
"r[ 	c #F3EAC8",
"s[ 	c #EFE8C5",
"t[ 	c #EAE2BF",
"u[ 	c #EDE5C2",
"v[ 	c #EAE1BF",
"w[ 	c #E7DDBB",
"x[ 	c #C5BA9C",
"y[ 	c #A79B82",
"z[ 	c #A4977E",
"A[ 	c #A5947D",
"B[ 	c #A89881",
"C[ 	c #AE9E87",
"D[ 	c #DBD4CB",
"E[ 	c #FCF0EF",
"F[ 	c #FAEDED",
"G[ 	c #FCF2F0",
"H[ 	c #FCEFED",
"I[ 	c #F4E1DF",
"J[ 	c #EDD8D5",
"K[ 	c #E4CDCB",
"L[ 	c #CFBAB6",
"M[ 	c #C9B4AF",
"N[ 	c #BFABA6",
"O[ 	c #B4A09B",
"P[ 	c #A4918C",
"Q[ 	c #A08E88",
"R[ 	c #9E8B86",
"S[ 	c #9A8882",
"T[ 	c #94827C",
"U[ 	c #907E78",
"V[ 	c #897770",
"W[ 	c #86746C",
"X[ 	c #89766F",
"Y[ 	c #83716A",
"Z[ 	c #78665E",
"`[ 	c #74625B",
" } 	c #705E57",
".} 	c #6D5B54",
"+} 	c #6A5850",
"@} 	c #66544C",
"#} 	c #64524A",
"$} 	c #614F46",
"%} 	c #5F4D44",
"&} 	c #5E4B42",
"*} 	c #5D4B40",
"=} 	c #5D4A3F",
"-} 	c #5D4A3E",
";} 	c #5A473C",
">} 	c #544238",
",} 	c #503E34",
"'} 	c #4D3C33",
")} 	c #4A3A32",
"!} 	c #4F3F37",
"~} 	c #53423A",
"{} 	c #55443B",
"]} 	c #57463B",
"^} 	c #54453A",
"/} 	c #4D3E35",
"(} 	c #433830",
"_} 	c #40372D",
":} 	c #504435",
"<} 	c #5F4C38",
"[} 	c #66523B",
"}} 	c #65513B",
"|} 	c #64513C",
"1} 	c #6A5745",
"2} 	c #6B5846",
"3} 	c #715B48",
"4} 	c #7F6650",
"5} 	c #836952",
"6} 	c #8D7058",
"7} 	c #94745B",
"8} 	c #9E7B61",
"9} 	c #A68166",
"0} 	c #BA9070",
"a} 	c #C49777",
"b} 	c #CD9D7C",
"c} 	c #D4A280",
"d} 	c #DDA885",
"e} 	c #DEAA86",
"f} 	c #DBAB87",
"g} 	c #DFAD88",
"h} 	c #DAAB87",
"i} 	c #CFA584",
"j} 	c #C5A080",
"k} 	c #BC9C7E",
"l} 	c #B0987B",
"m} 	c #AE977A",
"n} 	c #AC967A",
"o} 	c #A99579",
"p} 	c #A8977C",
"q} 	c #A6997D",
"r} 	c #A89B80",
"s} 	c #A99D82",
"t} 	c #AB9F84",
"u} 	c #AEA489",
"v} 	c #B8B094",
"w} 	c #BDB498",
"x} 	c #C5BC9F",
"y} 	c #CBC2A5",
"z} 	c #D2CAAB",
"A} 	c #D7CFAF",
"B} 	c #DDD3B3",
"C} 	c #D9D0AF",
"D} 	c #D7CEAD",
"E} 	c #D5CDAC",
"F} 	c #B7AE90",
"G} 	c #A69A7F",
"H} 	c #A0917A",
"I} 	c #A1907A",
"J} 	c #A69680",
"K} 	c #AC9C88",
"L} 	c #E0DBD5",
"M} 	c #FFFEFD",
"N} 	c #FDF8F8",
"O} 	c #F8E8E6",
"P} 	c #EFD9D6",
"Q} 	c #DFCAC7",
"R} 	c #CFBBB6",
"S} 	c #C1ADA8",
"T} 	c #B6A39E",
"U} 	c #B09D98",
"V} 	c #AD9993",
"W} 	c #9E8983",
"X} 	c #917B75",
"Y} 	c #937F78",
"Z} 	c #927E77",
"`} 	c #8F7C74",
" | 	c #8E7B73",
".| 	c #8D7B73",
"+| 	c #89776F",
"@| 	c #86736B",
"#| 	c #837068",
"$| 	c #7E6B64",
"%| 	c #7E6B63",
"&| 	c #7D6961",
"*| 	c #7D6B62",
"=| 	c #76625B",
"-| 	c #736159",
";| 	c #726059",
">| 	c #6C5A52",
",| 	c #695750",
"'| 	c #68564E",
")| 	c #65534C",
"!| 	c #625047",
"~| 	c #604E45",
"{| 	c #604D43",
"]| 	c #5F4C41",
"^| 	c #5E4B3F",
"/| 	c #5A463B",
"(| 	c #554337",
"_| 	c #4F3E35",
":| 	c #4E3C33",
"<| 	c #4B3B32",
"[| 	c #4B3C33",
"}| 	c #4D3D35",
"|| 	c #514038",
"1| 	c #57463C",
"2| 	c #514338",
"3| 	c #3D322B",
"4| 	c #3E352F",
"5| 	c #433524",
"6| 	c #5E4C36",
"7| 	c #624F38",
"8| 	c #635039",
"9| 	c #645039",
"0| 	c #614F3C",
"a| 	c #645342",
"b| 	c #655241",
"c| 	c #6B5745",
"d| 	c #725C48",
"e| 	c #775F4B",
"f| 	c #7D644E",
"g| 	c #846952",
"h| 	c #8A6D56",
"i| 	c #93745A",
"j| 	c #9D7C61",
"k| 	c #A98366",
"l| 	c #AE876A",
"m| 	c #B98F6F",
"n| 	c #BF9473",
"o| 	c #CA9A79",
"p| 	c #D3A280",
"q| 	c #D8A783",
"r| 	c #DBA884",
"s| 	c #E2AD88",
"t| 	c #DDAB87",
"u| 	c #D1A683",
"v| 	c #D0A483",
"w| 	c #BD9B7D",
"x| 	c #B6997B",
"y| 	c #B7997B",
"z| 	c #B1987A",
"A| 	c #AB9579",
"B| 	c #A59479",
"C| 	c #A9987B",
"D| 	c #A7987D",
"E| 	c #A6997E",
"F| 	c #A89C81",
"G| 	c #ADA388",
"H| 	c #B1A78B",
"I| 	c #BFB599",
"J| 	c #C5BC9E",
"K| 	c #CAC0A2",
"L| 	c #CBC3A3",
"M| 	c #CBC0A1",
"N| 	c #CBC2A2",
"O| 	c #CBC2A1",
"P| 	c #B6AC8C",
"Q| 	c #A79C80",
"R| 	c #9B8C74",
"S| 	c #9B8A75",
"T| 	c #A1917D",
"U| 	c #AC9C8A",
"V| 	c #E9E2DE",
"W| 	c #FDF6F4",
"X| 	c #FDF7F4",
"Y| 	c #FEFCFB",
"Z| 	c #FBEDEC",
"`| 	c #F2D9D7",
" 1 	c #E2CCC9",
".1 	c #CDB8B3",
"+1 	c #C1ABA6",
"@1 	c #B09A94",
"#1 	c #B19C96",
"$1 	c #AE9992",
"%1 	c #A9958F",
"&1 	c #A48F88",
"*1 	c #9E8882",
"=1 	c #98847D",
"-1 	c #948078",
";1 	c #907D75",
">1 	c #8D7A72",
",1 	c #8C7A72",
"'1 	c #8B7971",
")1 	c #8A7871",
"!1 	c #78665F",
"~1 	c #6F5D56",
"{1 	c #65534A",
"]1 	c #645147",
"^1 	c #624F45",
"/1 	c #614E43",
"(1 	c #604C40",
"_1 	c #5F4A3E",
":1 	c #5E493D",
"<1 	c #5B473B",
"[1 	c #564338",
"}1 	c #513F35",
"|1 	c #4E3F37",
"11 	c #55453D",
"21 	c #534239",
"31 	c #493B32",
"41 	c #382E27",
"51 	c #4A4340",
"61 	c #403322",
"71 	c #5F4A34",
"81 	c #614D36",
"91 	c #614C36",
"01 	c #624C36",
"a1 	c #5B4B3A",
"b1 	c #5C4C3D",
"c1 	c #5F4D3E",
"d1 	c #665341",
"e1 	c #6C5744",
"f1 	c #705B47",
"g1 	c #77604B",
"h1 	c #7E654F",
"i1 	c #836851",
"j1 	c #8C6D55",
"k1 	c #9F7D61",
"l1 	c #A28063",
"m1 	c #AC8768",
"n1 	c #B48C6D",
"o1 	c #C19473",
"p1 	c #C99B78",
"q1 	c #D1A17E",
"r1 	c #D6A380",
"s1 	c #DAA783",
"t1 	c #DBA985",
"u1 	c #DBAA85",
"v1 	c #D5A785",
"w1 	c #BE9C7D",
"x1 	c #C09C7D",
"y1 	c #C09C7C",
"z1 	c #B5987A",
"A1 	c #AA9477",
"B1 	c #AA9679",
"C1 	c #A79579",
"D1 	c #A5967A",
"E1 	c #A5977C",
"F1 	c #A5987D",
"G1 	c #A79A7F",
"H1 	c #A79B81",
"I1 	c #B2A88C",
"J1 	c #B5AB8F",
"K1 	c #BBB094",
"L1 	c #BDB496",
"M1 	c #BEB697",
"N1 	c #C1B898",
"O1 	c #C4BB9A",
"P1 	c #BCB392",
"Q1 	c #AFA484",
"R1 	c #988A71",
"S1 	c #988872",
"T1 	c #9E8E7A",
"U1 	c #AEA190",
"V1 	c #F1EEEB",
"W1 	c #FDFBFB",
"X1 	c #FEFAFA",
"Y1 	c #EDD6D3",
"Z1 	c #E5D2CD",
"`1 	c #EBD2CE",
" 2 	c #DEC7C3",
".2 	c #CEB8B3",
"+2 	c #C3ADA8",
"@2 	c #BAA49F",
"#2 	c #A9928C",
"$2 	c #A38E87",
"%2 	c #9C8780",
"&2 	c #96817A",
"*2 	c #937E77",
"=2 	c #8F7A73",
"-2 	c #8D7972",
";2 	c #8A7870",
">2 	c #87756E",
",2 	c #82706A",
"'2 	c #726159",
")2 	c #6B5952",
"!2 	c #65534B",
"~2 	c #635149",
"{2 	c #645249",
"]2 	c #645247",
"^2 	c #635045",
"/2 	c #614D42",
"(2 	c #5F4B3F",
"_2 	c #5E4A3D",
":2 	c #5D483C",
"<2 	c #5A473B",
"[2 	c #564339",
"}2 	c #514036",
"|2 	c #4E3D34",
"12 	c #4D3D36",
"22 	c #4F4039",
"32 	c #56473E",
"42 	c #3F332C",
"52 	c #372D27",
"62 	c #39302B",
"72 	c #3D2F1D",
"82 	c #5F4934",
"92 	c #624C35",
"02 	c #614C35",
"a2 	c #624D35",
"b2 	c #564737",
"c2 	c #564738",
"d2 	c #5B4A3A",
"e2 	c #5F4D3D",
"f2 	c #655240",
"g2 	c #6A5643",
"h2 	c #705A47",
"i2 	c #846A52",
"j2 	c #8C6F56",
"k2 	c #95765B",
"l2 	c #9C7B5E",
"m2 	c #AC8668",
"n2 	c #B68D6D",
"o2 	c #C89B79",
"p2 	c #CF9F7D",
"q2 	c #D3A27E",
"r2 	c #D6A480",
"s2 	c #DCA884",
"t2 	c #D4A682",
"u2 	c #C69E7D",
"v2 	c #C99F7E",
"w2 	c #C39E7E",
"x2 	c #B9987A",
"y2 	c #AA9578",
"z2 	c #AB9478",
"A2 	c #A89377",
"B2 	c #A59478",
"C2 	c #A49478",
"D2 	c #A4957A",
"E2 	c #A4967B",
"F2 	c #A4987D",
"G2 	c #A79B80",
"H2 	c #A99D83",
"I2 	c #A89F83",
"J2 	c #ADA387",
"K2 	c #B5AA8D",
"L2 	c #B8AE90",
"M2 	c #BDB293",
"N2 	c #BCB192",
"O2 	c #B7AC8A",
"P2 	c #A09376",
"Q2 	c #90816B",
"R2 	c #978873",
"S2 	c #ADA192",
"T2 	c #F8F7F7",
"U2 	c #FEFCFA",
"V2 	c #FBEFED",
"W2 	c #FDF9F7",
"X2 	c #FBEFEC",
"Y2 	c #EFD7D3",
"Z2 	c #D9C2BF",
"`2 	c #CDB8B2",
" 3 	c #BFA9A4",
".3 	c #B39E97",
"+3 	c #AD9790",
"@3 	c #A59089",
"#3 	c #9D8881",
"$3 	c #97827B",
"%3 	c #947F78",
"&3 	c #8E7A73",
"*3 	c #8A766D",
"=3 	c #89756E",
"-3 	c #89766E",
";3 	c #88756D",
">3 	c #87746C",
",3 	c #84726A",
"'3 	c #847169",
")3 	c #826F68",
"!3 	c #75635C",
"~3 	c #73615A",
"{3 	c #726058",
"]3 	c #65524A",
"^3 	c #624F43",
"/3 	c #5D493C",
"(3 	c #554339",
"_3 	c #503F36",
":3 	c #4D3D34",
"<3 	c #4A3B34",
"[3 	c #4E3F38",
"}3 	c #51423B",
"|3 	c #55463F",
"13 	c #52433B",
"23 	c #453831",
"33 	c #3A2E28",
"43 	c #362B25",
"53 	c #4F4946",
"63 	c #372915",
"73 	c #614B35",
"83 	c #614C34",
"93 	c #504334",
"03 	c #534436",
"a3 	c #564637",
"b3 	c #604E3D",
"c3 	c #62503F",
"d3 	c #6B5744",
"e3 	c #735D48",
"f3 	c #7E664F",
"g3 	c #846A53",
"h3 	c #8D7157",
"i3 	c #95775C",
"j3 	c #9B7B5F",
"k3 	c #A38063",
"l3 	c #AD8668",
"m3 	c #B78E6E",
"n3 	c #BD9271",
"o3 	c #C49775",
"p3 	c #CA9A78",
"q3 	c #D19F7C",
"r3 	c #D7A581",
"s3 	c #D2A380",
"t3 	c #CCA17E",
"u3 	c #CA9F7D",
"v3 	c #C29C7B",
"w3 	c #B79678",
"x3 	c #B19778",
"y3 	c #B09477",
"z3 	c #AE9477",
"A3 	c #A79276",
"B3 	c #A59376",
"C3 	c #A39377",
"D3 	c #A39479",
"E3 	c #A3967B",
"F3 	c #A5997E",
"G3 	c #AAA084",
"H3 	c #B3A98B",
"I3 	c #B7AC8E",
"J3 	c #BBB091",
"K3 	c #BDB38F",
"L3 	c #ADA180",
"M3 	c #8B7C64",
"N3 	c #8F806A",
"O3 	c #9C8C7A",
"P3 	c #F6F6F4",
"Q3 	c #FCF8F6",
"R3 	c #FEFCFC",
"S3 	c #F8E5E2",
"T3 	c #E6CDCA",
"U3 	c #CEB7B2",
"V3 	c #C0ABA5",
"W3 	c #B29D96",
"X3 	c #AB958E",
"Y3 	c #9E8981",
"Z3 	c #98837B",
"`3 	c #947F77",
" 4 	c #8E7870",
".4 	c #8B766D",
"+4 	c #88736B",
"@4 	c #857068",
"#4 	c #847068",
"$4 	c #806E66",
"%4 	c #7D6B63",
"&4 	c #75645D",
"*4 	c #74635C",
"=4 	c #6C5A51",
"-4 	c #67544B",
";4 	c #645047",
">4 	c #644F44",
",4 	c #614D41",
"'4 	c #5D493E",
")4 	c #5C483D",
"!4 	c #59453B",
"~4 	c #544239",
"{4 	c #4E3E35",
"]4 	c #51423C",
"^4 	c #574840",
"/4 	c #55463D",
"(4 	c #3C2F29",
"_4 	c #352924",
":4 	c #463E3B",
"<4 	c #342712",
"[4 	c #604A34",
"}4 	c #614B34",
"|4 	c #604A33",
"14 	c #4B4032",
"24 	c #4F4233",
"34 	c #524335",
"44 	c #574637",
"54 	c #5A4839",
"64 	c #604E3E",
"74 	c #675442",
"84 	c #6C5845",
"94 	c #715B47",
"04 	c #78614B",
"a4 	c #7F654F",
"b4 	c #866C53",
"c4 	c #8E7158",
"d4 	c #9D7C5F",
"e4 	c #A58063",
"f4 	c #AB8667",
"g4 	c #B38B6B",
"h4 	c #BC9170",
"i4 	c #BF9372",
"j4 	c #C99977",
"k4 	c #CF9E7B",
"l4 	c #D0A07D",
"m4 	c #CDA07D",
"n4 	c #C89D7B",
"o4 	c #C79C7B",
"p4 	c #B59676",
"q4 	c #BB9979",
"r4 	c #B59678",
"s4 	c #AE9476",
"t4 	c #AB9275",
"u4 	c #A79175",
"v4 	c #A49276",
"w4 	c #A29377",
"x4 	c #A39478",
"y4 	c #A3957A",
"z4 	c #A79D81",
"A4 	c #AAA285",
"B4 	c #B4AA8B",
"C4 	c #B7AC8D",
"D4 	c #C4B994",
"E4 	c #BFB38F",
"F4 	c #8D7F65",
"G4 	c #8A7C65",
"H4 	c #8D7D68",
"I4 	c #D4C4BF",
"J4 	c #FCF5F7",
"K4 	c #FFFCFB",
"L4 	c #FBEBEA",
"M4 	c #EBD2D0",
"N4 	c #DBC3BF",
"O4 	c #BFA9A3",
"P4 	c #A8928C",
"Q4 	c #9D8780",
"R4 	c #99837C",
"S4 	c #958078",
"T4 	c #917C73",
"U4 	c #8D786F",
"V4 	c #8A756D",
"W4 	c #87726A",
"X4 	c #846E66",
"Y4 	c #816D65",
"Z4 	c #7F6C63",
"`4 	c #7F6B63",
" 5 	c #7C6961",
".5 	c #73625B",
"+5 	c #6F5D55",
"@5 	c #6E5C53",
"#5 	c #6D5A52",
"$5 	c #6A584E",
"%5 	c #635148",
"&5 	c #604D44",
"*5 	c #5F4C43",
"=5 	c #5E4B40",
"-5 	c #5C493E",
";5 	c #58453B",
">5 	c #55433A",
",5 	c #504037",
"'5 	c #50413B",
")5 	c #54453F",
"!5 	c #564742",
"~5 	c #3E322C",
"{5 	c #372C26",
"]5 	c #403833",
"^5 	c #342610",
"/5 	c #634B34",
"(5 	c #614B33",
"_5 	c #614A33",
":5 	c #604933",
"<5 	c #493C2F",
"[5 	c #4D3F31",
"}5 	c #4E4132",
"|5 	c #524435",
"15 	c #5D4C3C",
"25 	c #625140",
"35 	c #675441",
"45 	c #725D48",
"55 	c #79604B",
"65 	c #806851",
"75 	c #8A7056",
"85 	c #8D6F56",
"95 	c #927359",
"05 	c #A17E62",
"a5 	c #AD8767",
"b5 	c #AF8768",
"c5 	c #B68C6C",
"d5 	c #BF9371",
"e5 	c #C89976",
"f5 	c #CA9C78",
"g5 	c #CA9D7A",
"h5 	c #C89D7A",
"i5 	c #C39A79",
"j5 	c #C19B79",
"k5 	c #C49B7A",
"l5 	c #B89677",
"m5 	c #B29475",
"n5 	c #AD9274",
"o5 	c #A99275",
"p5 	c #A59276",
"q5 	c #A49075",
"r5 	c #A39176",
"s5 	c #A29378",
"t5 	c #A2957A",
"u5 	c #A3977C",
"v5 	c #A89D81",
"w5 	c #AFA587",
"x5 	c #B2A88A",
"y5 	c #C9BF99",
"z5 	c #D5CBA1",
"A5 	c #8F8266",
"B5 	c #877860",
"C5 	c #887A62",
"D5 	c #A7978A",
"E5 	c #DFCDCE",
"F5 	c #F7E7E9",
"G5 	c #FEFDFD",
"H5 	c #F4DFDC",
"I5 	c #E5CCC8",
"J5 	c #D3BCB7",
"K5 	c #B39D98",
"L5 	c #A5918A",
"M5 	c #9F8B83",
"N5 	c #99847C",
"O5 	c #937E76",
"P5 	c #917C74",
"Q5 	c #907B72",
"R5 	c #8C776E",
"S5 	c #877269",
"T5 	c #826E65",
"U5 	c #7D6A61",
"V5 	c #7B6861",
"W5 	c #7A675F",
"X5 	c #6D5A53",
"Y5 	c #6B584F",
"Z5 	c #69564D",
"`5 	c #6A574E",
" 6 	c #604E44",
".6 	c #5E4C42",
"+6 	c #5C493F",
"@6 	c #5A473D",
"#6 	c #58463C",
"$6 	c #4F4038",
"%6 	c #50413A",
"&6 	c #584942",
"*6 	c #594A43",
"=6 	c #4E4039",
"-6 	c #3F332D",
";6 	c #392E28",
">6 	c #372712",
",6 	c #644C34",
"'6 	c #624B34",
")6 	c #624B33",
"!6 	c #5F4A33",
"~6 	c #463A2D",
"{6 	c #4A3D2F",
"]6 	c #4C3F31",
"^6 	c #4F4132",
"/6 	c #554637",
"(6 	c #594A3A",
"_6 	c #63513F",
":6 	c #665241",
"<6 	c #6D5945",
"[6 	c #715C47",
"}6 	c #7B654E",
"|6 	c #846B53",
"16 	c #866B52",
"26 	c #8A6D55",
"36 	c #9A7A5E",
"46 	c #A58163",
"56 	c #A48062",
"66 	c #AE8667",
"76 	c #B78D6C",
"86 	c #C09371",
"96 	c #C69875",
"06 	c #C89A76",
"a6 	c #C49A78",
"b6 	c #CA9E7A",
"c6 	c #C39A78",
"d6 	c #BB9776",
"e6 	c #B59475",
"f6 	c #B39375",
"g6 	c #AB9174",
"h6 	c #A89174",
"i6 	c #A68F74",
"j6 	c #A49074",
"k6 	c #A19277",
"l6 	c #A3967A",
"m6 	c #A69A7E",
"n6 	c #AEA385",
"o6 	c #B3A98A",
"p6 	c #C4BB98",
"q6 	c #F4EBBA",
"r6 	c #A09374",
"s6 	c #86775E",
"t6 	c #85755E",
"u6 	c #90806E",
"v6 	c #BAA9A6",
"w6 	c #D4C2C2",
"x6 	c #E8D4D4",
"y6 	c #F6E2E3",
"z6 	c #F8EAEA",
"A6 	c #FBECED",
"B6 	c #FDF5F5",
"C6 	c #FEFBFB",
"D6 	c #FEF9F9",
"E6 	c #FDF3F3",
"F6 	c #FDF3F1",
"G6 	c #FCF4F2",
"H6 	c #FDF5F4",
"I6 	c #FEFAF9",
"J6 	c #FFFDFD",
"K6 	c #FFFEFC",
"L6 	c #F9EDEB",
"M6 	c #EAD1CD",
"N6 	c #E4CCC8",
"O6 	c #CDB5B1",
"P6 	c #B5A09A",
"Q6 	c #AB9690",
"R6 	c #9B877F",
"S6 	c #99857D",
"T6 	c #97837B",
"U6 	c #968179",
"V6 	c #937D76",
"W6 	c #8F7A71",
"X6 	c #8C786F",
"Y6 	c #87736A",
"Z6 	c #7C6860",
"`6 	c #79665E",
" 7 	c #6D5B53",
".7 	c #6B5951",
"+7 	c #69564E",
"@7 	c #68564B",
"#7 	c #68554C",
"$7 	c #6B5950",
"%7 	c #66544B",
"&7 	c #59473E",
"*7 	c #56443B",
"=7 	c #53433A",
"-7 	c #53443D",
";7 	c #5D4D47",
">7 	c #5E4E49",
",7 	c #5C4C45",
"'7 	c #443930",
")7 	c #3B3029",
"!7 	c #362B26",
"~7 	c #56514E",
"{7 	c #C4C5C5",
"]7 	c #3B2B17",
"^7 	c #664D34",
"/7 	c #624A33",
"(7 	c #44372B",
"_7 	c #473B2D",
":7 	c #514234",
"<7 	c #5A4A3A",
"[7 	c #5E4D3C",
"}7 	c #61503E",
"|7 	c #6F5B47",
"17 	c #77624C",
"27 	c #7B644D",
"37 	c #826851",
"47 	c #8E7157",
"57 	c #927459",
"67 	c #9A795E",
"77 	c #9D7A5D",
"87 	c #A78062",
"97 	c #AE8567",
"07 	c #B98D6D",
"a7 	c #BD916F",
"b7 	c #C39673",
"c7 	c #C89975",
"d7 	c #C79A77",
"e7 	c #BF9877",
"f7 	c #B69575",
"g7 	c #B79475",
"h7 	c #B19273",
"i7 	c #AC9173",
"j7 	c #A89073",
"k7 	c #A79074",
"l7 	c #A19275",
"m7 	c #A7997C",
"n7 	c #ACA083",
"o7 	c #B1A588",
"p7 	c #B9AF8E",
"q7 	c #F8F8CB",
"r7 	c #DED6AA",
"s7 	c #84765C",
"t7 	c #84755D",
"u7 	c #84755F",
"v7 	c #A09088",
"w7 	c #B5A3A2",
"x7 	c #C6B4B2",
"y7 	c #D3C0BE",
"z7 	c #DECBCA",
"A7 	c #DBC7C5",
"B7 	c #ECD6D5",
"C7 	c #F0DCDB",
"D7 	c #F7E2E2",
"E7 	c #F9EEEE",
"F7 	c #FDF9F9",
"G7 	c #F6E9E8",
"H7 	c #F3DEDC",
"I7 	c #F3DFDD",
"J7 	c #EFD8D6",
"K7 	c #EFD9D8",
"L7 	c #EED9D7",
"M7 	c #F2DDDB",
"N7 	c #F9E8E8",
"O7 	c #F9E9E8",
"P7 	c #F9E7E6",
"Q7 	c #FEF9F8",
"R7 	c #FDF7F6",
"S7 	c #FAE6E3",
"T7 	c #FDF9F8",
"U7 	c #F6E5E2",
"V7 	c #EAD2CF",
"W7 	c #F2D9D6",
"X7 	c #DAC3BF",
"Y7 	c #CAB4AF",
"Z7 	c #B29D97",
"`7 	c #AD9892",
" 8 	c #A7928C",
".8 	c #9E8A82",
"+8 	c #9B8780",
"@8 	c #98847B",
"#8 	c #907C73",
"$8 	c #8B776E",
"%8 	c #867269",
"&8 	c #7D6A62",
"*8 	c #7B6860",
"=8 	c #78655D",
"-8 	c #76645C",
";8 	c #75635B",
">8 	c #6A574F",
",8 	c #6D5A51",
"'8 	c #69574F",
")8 	c #645149",
"!8 	c #625048",
"~8 	c #614E46",
"{8 	c #5E4C43",
"]8 	c #56443C",
"^8 	c #54433C",
"/8 	c #5B4C44",
"(8 	c #60504A",
"_8 	c #64534C",
":8 	c #5F4F48",
"<8 	c #463A34",
"[8 	c #3C312B",
"}8 	c #4F4945",
"|8 	c #3C2E1C",
"18 	c #674C33",
"28 	c #644B33",
"38 	c #634B33",
"48 	c #5F4832",
"58 	c #43372B",
"68 	c #46392C",
"78 	c #483C2E",
"88 	c #4A3D30",
"98 	c #4D4031",
"08 	c #514434",
"a8 	c #554737",
"b8 	c #5F4E3D",
"c8 	c #645240",
"d8 	c #6C5A46",
"e8 	c #705C48",
"f8 	c #7C644E",
"g8 	c #7F664E",
"h8 	c #886D54",
"i8 	c #907157",
"j8 	c #97765A",
"k8 	c #9D7A5E",
"l8 	c #A68163",
"m8 	c #B08868",
"n8 	c #B88D6C",
"o8 	c #BE916F",
"p8 	c #C59875",
"q8 	c #C99976",
"r8 	c #C99A76",
"s8 	c #C09876",
"t8 	c #BD9675",
"u8 	c #BC9675",
"v8 	c #B79474",
"w8 	c #B39274",
"x8 	c #AE9173",
"y8 	c #A99073",
"z8 	c #A59074",
"A8 	c #A99B7D",
"B8 	c #AFA284",
"C8 	c #B7AC8C",
"D8 	c #EEEDC8",
"E8 	c #EFEDCD",
"F8 	c #8A7B62",
"G8 	c #84755C",
"H8 	c #817259",
"I8 	c #96847C",
"J8 	c #A1908D",
"K8 	c #B09E9C",
"L8 	c #BBAAA7",
"M8 	c #CCB8B6",
"N8 	c #D8C4C2",
"O8 	c #DAC5C3",
"P8 	c #DFCCC9",
"Q8 	c #E1CDCB",
"R8 	c #E1CCCA",
"S8 	c #EAD5D3",
"T8 	c #F5ECEC",
"U8 	c #DAC7C3",
"V8 	c #DAC5C2",
"W8 	c #DEC9C6",
"X8 	c #DCC7C4",
"Y8 	c #DEC9C5",
"Z8 	c #DDC9C5",
"`8 	c #DFCBC8",
" 9 	c #E0CBC6",
".9 	c #E0CAC8",
"+9 	c #E3CDCA",
"@9 	c #F2DAD8",
"#9 	c #EFD9D7",
"$9 	c #EBD3D1",
"%9 	c #E1CBC7",
"&9 	c #EDD6D2",
"*9 	c #ECD4D1",
"=9 	c #EAD6D3",
"-9 	c #F8EBE5",
";9 	c #DEC6C3",
">9 	c #E0C8C4",
",9 	c #D6BFBB",
"'9 	c #C1ABA5",
")9 	c #B7A09B",
"!9 	c #AD9891",
"~9 	c #A9948E",
"{9 	c #A38F88",
"]9 	c #A18C85",
"^9 	c #9E8982",
"/9 	c #9C8880",
"(9 	c #9C877F",
"_9 	c #9A857D",
":9 	c #907B73",
"<9 	c #857168",
"[9 	c #806C64",
"}9 	c #7B685F",
"|9 	c #79655D",
"19 	c #77645D",
"29 	c #6E5C54",
"39 	c #69574E",
"49 	c #67554E",
"59 	c #5D4B43",
"69 	c #594841",
"79 	c #5A4B43",
"89 	c #5F4F47",
"99 	c #66544D",
"09 	c #62514A",
"a9 	c #453933",
"b9 	c #3D322C",
"c9 	c #382B25",
"d9 	c #433C39",
"e9 	c #604832",
"f9 	c #654B33",
"g9 	c #654B34",
"h9 	c #42362A",
"i9 	c #45392C",
"j9 	c #473A2D",
"k9 	c #4B3E2F",
"l9 	c #4D4032",
"m9 	c #534435",
"n9 	c #574939",
"o9 	c #5A4B3B",
"p9 	c #604F3E",
"q9 	c #685744",
"r9 	c #6C5B47",
"s9 	c #755F49",
"t9 	c #7A634C",
"u9 	c #826850",
"v9 	c #876D54",
"w9 	c #896C54",
"x9 	c #A17E61",
"y9 	c #AA8565",
"z9 	c #BA906F",
"A9 	c #C09471",
"B9 	c #C39572",
"C9 	c #C59A77",
"D9 	c #C59977",
"E9 	c #C09776",
"F9 	c #B89474",
"G9 	c #B29273",
"H9 	c #A79174",
"I9 	c #A89578",
"J9 	c #AC9D7F",
"K9 	c #B0A284",
"L9 	c #D6D1B3",
"M9 	c #FCFBDE",
"N9 	c #96896E",
"O9 	c #87785E",
"P9 	c #82735A",
"Q9 	c #8A7969",
"R9 	c #978581",
"S9 	c #A18F8D",
"T9 	c #AC9A97",
"U9 	c #B8A6A3",
"V9 	c #BBA9A6",
"W9 	c #BEACAA",
"X9 	c #C5B1AF",
"Y9 	c #C8B4B1",
"Z9 	c #CBB7B4",
"`9 	c #CDBAB6",
" 0 	c #CFBCB8",
".0 	c #D0BBB8",
"+0 	c #D5C0BD",
"@0 	c #D3BEBA",
"#0 	c #DECFCB",
"$0 	c #F3EAEB",
"%0 	c #D2BBB9",
"&0 	c #D3BDBA",
"*0 	c #D5BFBB",
"=0 	c #D6C0BC",
"-0 	c #D7C1BF",
";0 	c #D8C3BF",
">0 	c #D4BEBA",
",0 	c #D4BFBA",
"'0 	c #D4BDB9",
")0 	c #E5D5D1",
"!0 	c #D1BBB6",
"~0 	c #CDB6B1",
"{0 	c #BDA7A2",
"]0 	c #B9A49E",
"^0 	c #AE9893",
"/0 	c #9F8A83",
"(0 	c #9D8981",
"_0 	c #9D8880",
":0 	c #9D887F",
"<0 	c #9B867E",
"[0 	c #8E7970",
"}0 	c #88756B",
"|0 	c #847067",
"10 	c #7E6A62",
"20 	c #7A665E",
"30 	c #79665D",
"40 	c #6A584F",
"50 	c #6B5850",
"60 	c #6F5D54",
"70 	c #705E56",
"80 	c #715F57",
"90 	c #614F47",
"00 	c #5F4D45",
"a0 	c #5E4D45",
"b0 	c #5E4E46",
"c0 	c #604F47",
"d0 	c #63534B",
"e0 	c #695851",
"f0 	c #64534D",
"g0 	c #594942",
"h0 	c #473A34",
"i0 	c #3E332C",
"j0 	c #3F3835",
"k0 	c #5B4631",
"l0 	c #5D4631",
"m0 	c #403529",
"n0 	c #44382B",
"o0 	c #45392B",
"p0 	c #46382C",
"q0 	c #483B2D",
"r0 	c #4B3D30",
"s0 	c #4F4133",
"t0 	c #574A39",
"u0 	c #5E4E3D",
"v0 	c #645341",
"w0 	c #675744",
"x0 	c #6D5845",
"y0 	c #745F4A",
"z0 	c #7A644D",
"A0 	c #826952",
"B0 	c #826650",
"C0 	c #8B6C54",
"D0 	c #8E7056",
"E0 	c #9B7B5E",
"F0 	c #AB8566",
"G0 	c #BE9370",
"H0 	c #C29471",
"I0 	c #C59773",
"J0 	c #C69A77",
"K0 	c #C59976",
"L0 	c #BE9675",
"M0 	c #BA9474",
"N0 	c #B49374",
"O0 	c #AC9779",
"P0 	c #B09D80",
"Q0 	c #B5A88B",
"R0 	c #BBB291",
"S0 	c #87785F",
"T0 	c #83745B",
"U0 	c #84735E",
"V0 	c #957F7A",
"W0 	c #9E8C87",
"X0 	c #A99692",
"Y0 	c #AC9A95",
"Z0 	c #AF9D99",
"`0 	c #B4A09D",
" a 	c #B7A49F",
".a 	c #BBA8A4",
"+a 	c #BFACA8",
"@a 	c #C0ACA8",
"#a 	c #C5B1AD",
"$a 	c #C6B2AE",
"%a 	c #C9B5B0",
"&a 	c #CBB6B1",
"*a 	c #D0BCB8",
"=a 	c #E5DBD9",
"-a 	c #DED0CD",
";a 	c #CCB7B2",
">a 	c #CEB9B4",
",a 	c #CFBAB5",
"'a 	c #D1BCB7",
")a 	c #D2BDB8",
"!a 	c #D2BDB7",
"~a 	c #D2BCB7",
"{a 	c #D0BBB6",
"]a 	c #CFBAB4",
"^a 	c #CAB5B0",
"/a 	c #CDB7B2",
"(a 	c #DECDC8",
"_a 	c #B49F99",
":a 	c #AC9690",
"<a 	c #A9938D",
"[a 	c #A6918A",
"}a 	c #A48F87",
"|a 	c #A28D85",
"1a 	c #A18C84",
"2a 	c #9E8A81",
"3a 	c #9E8980",
"4a 	c #9B867D",
"5a 	c #97847A",
"6a 	c #917D75",
"7a 	c #8D7870",
"8a 	c #88746B",
"9a 	c #816D64",
"0a 	c #7F6A62",
"aa 	c #7B675F",
"ba 	c #6C5951",
"ca 	c #6A5750",
"da 	c #705E55",
"ea 	c #715E56",
"fa 	c #635249",
"ga 	c #625149",
"ha 	c #65544C",
"ia 	c #67554D",
"ja 	c #68574F",
"ka 	c #6A5951",
"la 	c #6C5A53",
"ma 	c #5A4B45",
"na 	c #4F413B",
"oa 	c #40342E",
"pa 	c #403936",
"qa 	c #716B5F",
"ra 	c #57432E",
"sa 	c #664B34",
"ta 	c #654A33",
"ua 	c #413529",
"va 	c #43372A",
"wa 	c #43362A",
"xa 	c #493B2E",
"ya 	c #544536",
"za 	c #5A4D3C",
"Aa 	c #635442",
"Ba 	c #6F5B46",
"Ca 	c #78644D",
"Da 	c #79644D",
"Ea 	c #7E644D",
"Fa 	c #856951",
"Ga 	c #896C53",
"Ha 	c #9C7C60",
"Ia 	c #A38162",
"Ja 	c #A98565",
"Ka 	c #AF8767",
"La 	c #B88C6B",
"Ma 	c #BB906E",
"Na 	c #C29672",
"Oa 	c #C79A76",
"Pa 	c #C69975",
"Qa 	c #C39876",
"Ra 	c #B99574",
"Sa 	c #B39374",
"Ta 	c #B29577",
"Ua 	c #B2987A",
"Va 	c #B59E81",
"Wa 	c #D6CFBE",
"Xa 	c #F4F2EA",
"Ya 	c #897A62",
"Za 	c #817058",
"`a 	c #967C75",
" b 	c #957E78",
".b 	c #9C8680",
"+b 	c #A5918C",
"@b 	c #A7938E",
"#b 	c #A8948F",
"$b 	c #AC9995",
"%b 	c #AE9B98",
"&b 	c #B3A09B",
"*b 	c #B8A5A1",
"=b 	c #BCA8A3",
"-b 	c #C1ADA7",
";b 	c #C7B3AE",
">b 	c #C9B4B0",
",b 	c #DED2CF",
"'b 	c #D6C4C0",
")b 	c #D3BDB8",
"!b 	c #D5BFBA",
"~b 	c #D6C0BB",
"{b 	c #D3BEB9",
"]b 	c #D0BBB5",
"^b 	c #EAD8D3",
"/b 	c #C8B0AB",
"(b 	c #C0AAA4",
"_b 	c #B8A39C",
":b 	c #B29E97",
"<b 	c #B09A95",
"[b 	c #AE9994",
"}b 	c #AA968E",
"|b 	c #A7928B",
"1b 	c #A59088",
"2b 	c #A38E86",
"3b 	c #A08B83",
"4b 	c #9F8A82",
"5b 	c #9F8A81",
"6b 	c #9C877E",
"7b 	c #927E75",
"8b 	c #8B766E",
"9b 	c #857268",
"0b 	c #806C63",
"ab 	c #7E6A61",
"bb 	c #7C6960",
"cb 	c #7C685F",
"db 	c #7A685F",
"eb 	c #79675F",
"fb 	c #74625A",
"gb 	c #715E57",
"hb 	c #68564F",
"ib 	c #5C4D45",
"jb 	c #3F342E",
"kb 	c #3B2F2A",
"lb 	c #503F2E",
"mb 	c #674C34",
"nb 	c #614932",
"ob 	c #423629",
"pb 	c #413429",
"qb 	c #433529",
"rb 	c #45382B",
"sb 	c #483A2D",
"tb 	c #554838",
"ub 	c #5A4C3C",
"vb 	c #5E4E3E",
"wb 	c #695643",
"xb 	c #725D49",
"yb 	c #78604B",
"zb 	c #846951",
"Ab 	c #8C7056",
"Bb 	c #96775C",
"Cb 	c #9A795D",
"Db 	c #9F7C5F",
"Eb 	c #A88364",
"Fb 	c #AC8566",
"Gb 	c #B18969",
"Hb 	c #BF9471",
"Ib 	c #C49774",
"Jb 	c #C79975",
"Kb 	c #C89B76",
"Lb 	c #C49976",
"Mb 	c #BE9977",
"Nb 	c #BA9776",
"Ob 	c #BC9E7F",
"Pb 	c #BFA68C",
"Qb 	c #FEFEFD",
"Rb 	c #BAB194",
"Sb 	c #887860",
"Tb 	c #807058",
"Ub 	c #937969",
"Vb 	c #9C7E76",
"Wb 	c #9D827B",
"Xb 	c #A28882",
"Yb 	c #A38C86",
"Zb 	c #A38C87",
"`b 	c #A28D87",
" c 	c #A48F8A",
".c 	c #A7948F",
"+c 	c #AA9793",
"@c 	c #AD9995",
"#c 	c #AF9C97",
"$c 	c #B49F9B",
"%c 	c #B9A49F",
"&c 	c #BEA9A4",
"*c 	c #C2ADA8",
"=c 	c #C5B1AC",
"-c 	c #C6B2AD",
";c 	c #D5C2BF",
">c 	c #F1EBE9",
",c 	c #D8C2BE",
"'c 	c #D5C0BB",
")c 	c #DAC4C0",
"!c 	c #E4CDC9",
"~c 	c #E3CDC9",
"{c 	c #E8D0CC",
"]c 	c #E4CECA",
"^c 	c #E8D1CD",
"/c 	c #DFC8C4",
"(c 	c #DDC6C1",
"_c 	c #EADBD7",
":c 	c #D8C0BA",
"<c 	c #C9B2AC",
"[c 	c #BFA8A3",
"}c 	c #BBA49D",
"|c 	c #B6A19A",
"1c 	c #B19D95",
"2c 	c #AA948D",
"3c 	c #968279",
"4c 	c #938078",
"5c 	c #8E7972",
"6c 	c #8B7870",
"7c 	c #847168",
"8c 	c #77645C",
"9c 	c #746259",
"0c 	c #736059",
"ac 	c #75635A",
"bc 	c #726057",
"cc 	c #74635A",
"dc 	c #695951",
"ec 	c #5D4E47",
"fc 	c #483C36",
"gc 	c #3C2F2A",
"hc 	c #48413E",
"ic 	c #60503E",
"jc 	c #664B33",
"kc 	c #664C33",
"lc 	c #644A33",
"mc 	c #463729",
"nc 	c #413629",
"oc 	c #403428",
"pc 	c #413428",
"qc 	c #44372A",
"rc 	c #483B2E",
"sc 	c #493C2E",
"tc 	c #4B3E30",
"uc 	c #564839",
"vc 	c #5B4D3C",
"wc 	c #655442",
"xc 	c #6B5844",
"yc 	c #6C5743",
"zc 	c #725C47",
"Ac 	c #79614B",
"Bc 	c #80674F",
"Cc 	c #886E55",
"Dc 	c #94755A",
"Ec 	c #99785C",
"Fc 	c #A07E5F",
"Gc 	c #C39774",
"Hc 	c #C49773",
"Ic 	c #C89C78",
"Jc 	c #C69C79",
"Kc 	c #C29A79",
"Lc 	c #CBA281",
"Mc 	c #CAA484",
"Nc 	c #DCCFC3",
"Oc 	c #F7F5F1",
"Pc 	c #8F816C",
"Qc 	c #82725B",
"Rc 	c #806F58",
"Sc 	c #AA8379",
"Tc 	c #A28177",
"Uc 	c #A2857D",
"Vc 	c #A48982",
"Wc 	c #A38982",
"Xc 	c #A18983",
"Yc 	c #9F8A84",
"Zc 	c #A18C87",
"`c 	c #A18D88",
" d 	c #A28F8A",
".d 	c #A79490",
"+d 	c #AB9894",
"@d 	c #B29E99",
"#d 	c #B8A39F",
"$d 	c #BDA8A3",
"%d 	c #D9C2BE",
"&d 	c #DFC7C3",
"*d 	c #ECE0DD",
"=d 	c #EFE4E1",
"-d 	c #F1D9D6",
";d 	c #F6E2DD",
">d 	c #F9E6E1",
",d 	c #F9E5E1",
"'d 	c #FBEDEA",
")d 	c #FAEBE8",
"!d 	c #FCF1EE",
"~d 	c #F7E5E0",
"{d 	c #F9E7E3",
"]d 	c #F8E3DF",
"^d 	c #F4DBD7",
"/d 	c #F4E9E3",
"(d 	c #D8C1BC",
"_d 	c #D6C1BC",
":d 	c #D4BDB7",
"<d 	c #D0B9B3",
"[d 	c #C5AFA8",
"}d 	c #B09A93",
"|d 	c #A9938C",
"1d 	c #A69088",
"2d 	c #A28D84",
"3d 	c #A08B82",
"4d 	c #8D7871",
"5d 	c #88746C",
"6d 	c #837067",
"7d 	c #816E65",
"8d 	c #7A675E",
"9d 	c #76635B",
"0d 	c #75625A",
"ad 	c #76645B",
"bd 	c #756259",
"cd 	c #77655C",
"dd 	c #79675E",
"ed 	c #685851",
"fd 	c #483C37",
"gd 	c #3D302B",
"hd 	c #47403E",
"id 	c #584C3D",
"jd 	c #664932",
"kd 	c #684C34",
"ld 	c #433729",
"md 	c #403427",
"nd 	c #403327",
"od 	c #524636",
"pd 	c #584B3A",
"qd 	c #61513F",
"rd 	c #635240",
"sd 	c #665441",
"td 	c #6D5844",
"ud 	c #735E49",
"vd 	c #7B634D",
"wd 	c #816850",
"xd 	c #856B52",
"yd 	c #8A6D54",
"zd 	c #917258",
"Ad 	c #99775B",
"Bd 	c #9E7C5F",
"Cd 	c #A98566",
"Dd 	c #B18C6C",
"Ed 	c #C09573",
"Fd 	c #C29573",
"Gd 	c #C59775",
"Hd 	c #CD9F7B",
"Id 	c #CDA17C",
"Jd 	c #D3A681",
"Kd 	c #E0AE8B",
"Ld 	c #D9AF91",
"Md 	c #FDFEFE",
"Nd 	c #B9B099",
"Od 	c #857661",
"Pd 	c #7E6E56",
"Qd 	c #9A7A69",
"Rd 	c #AF8679",
"Sd 	c #A7857A",
"Td 	c #A2857C",
"Ud 	c #A4877E",
"Vd 	c #A2867F",
"Wd 	c #A0867F",
"Xd 	c #9E8984",
"Yd 	c #9F8A85",
"Zd 	c #9F8B86",
"`d 	c #A18E89",
" e 	c #A99791",
".e 	c #B19C97",
"+e 	c #B7A29E",
"@e 	c #C0AAA5",
"#e 	c #C6B1AB",
"$e 	c #E0CAC5",
"%e 	c #F2DBD7",
"&e 	c #F8E6E3",
"*e 	c #FCF3F1",
"=e 	c #FFFDFC",
"-e 	c #FDF8F5",
";e 	c #FEFBF8",
">e 	c #F7E9E5",
",e 	c #FAE8E4",
"'e 	c #F5DFDB",
")e 	c #EDD5CF",
"!e 	c #CEB7B1",
"~e 	c #BFA9A2",
"{e 	c #B49E97",
"]e 	c #AC968F",
"^e 	c #A8928A",
"/e 	c #A48F86",
"(e 	c #9D877E",
"_e 	c #99847B",
":e 	c #89756D",
"<e 	c #816E66",
"[e 	c #78655C",
"}e 	c #77635B",
"|e 	c #78665D",
"1e 	c #7C6A61",
"2e 	c #806D64",
"3e 	c #7C6A62",
"4e 	c #75645C",
"5e 	c #6B5B53",
"6e 	c #5F514A",
"7e 	c #544741",
"8e 	c #6A6252",
"9e 	c #624730",
"0e 	c #634931",
"ae 	c #654A32",
"be 	c #493A2A",
"ce 	c #3F3227",
"de 	c #3F3327",
"ee 	c #413528",
"fe 	c #443A2C",
"ge 	c #4A3E2F",
"he 	c #4E4232",
"ie 	c #564939",
"je 	c #584A3A",
"ke 	c #5F4D3B",
"le 	c #614E3D",
"me 	c #675341",
"ne 	c #74604B",
"oe 	c #79624B",
"pe 	c #7F654E",
"qe 	c #856952",
"re 	c #97775C",
"se 	c #A17F61",
"te 	c #AB8768",
"ue 	c #B68F6E",
"ve 	c #BF9573",
"we 	c #CC9E7B",
"xe 	c #D0A27E",
"ye 	c #D8A984",
"ze 	c #E8B38D",
"Ae 	c #ECB691",
"Be 	c #ECD5C6",
"Ce 	c #F3F1ED",
"De 	c #857561",
"Ee 	c #81715B",
"Fe 	c #806E57",
"Ge 	c #BE8D7E",
"He 	c #BB8B7E",
"Ie 	c #B68B7F",
"Je 	c #AC8980",
"Ke 	c #A8877E",
"Le 	c #A1857D",
"Me 	c #9F857E",
"Ne 	c #9D857F",
"Oe 	c #9C8681",
"Pe 	c #9D8883",
"Qe 	c #9E8985",
"Re 	c #A28D88",
"Se 	c #A99691",
"Te 	c #B09C97",
"Ue 	c #C0ABA6",
"Ve 	c #DBC4C0",
"We 	c #E3CCC8",
"Xe 	c #F0DAD6",
"Ye 	c #FAEAE5",
"Ze 	c #FFFDFB",
"`e 	c #F9E8E2",
" f 	c #EDD7D2",
".f 	c #E3CAC5",
"+f 	c #CCB4AE",
"@f 	c #C3ACA5",
"#f 	c #B9A39C",
"$f 	c #B39C95",
"%f 	c #A79289",
"&f 	c #A18C83",
"*f 	c #9A857C",
"=f 	c #907C75",
"-f 	c #8A766E",
";f 	c #847269",
">f 	c #7E6C63",
",f 	c #7B675E",
"'f 	c #78645C",
")f 	c #7A6860",
"!f 	c #7E6B62",
"~f 	c #816F66",
"{f 	c #826F67",
"]f 	c #7A6961",
"^f 	c #554741",
"/f 	c #453A34",
"(f 	c #40342F",
"_f 	c #3F322D",
":f 	c #4C4542",
"<f 	c #5B422D",
"[f 	c #624931",
"}f 	c #4F3D2B",
"|f 	c #43382A",
"1f 	c #4C4031",
"2f 	c #4E4133",
"3f 	c #544737",
"4f 	c #594838",
"5f 	c #5D4B3B",
"6f 	c #624F3E",
"7f 	c #685542",
"8f 	c #6E5946",
"9f 	c #79634C",
"0f 	c #876C53",
"af 	c #8A6E55",
"bf 	c #93765C",
"cf 	c #96775B",
"df 	c #A38264",
"ef 	c #AF8C6C",
"ff 	c #B99272",
"gf 	c #CBA07D",
"hf 	c #D5AA85",
"if 	c #E2B38C",
"jf 	c #F2C098",
"kf 	c #F1C09B",
"lf 	c #FEFEFE",
"mf 	c #B9B098",
"nf 	c #82725D",
"of 	c #7B6B55",
"pf 	c #9A7A65",
"qf 	c #C18C7D",
"rf 	c #C49182",
"sf 	c #C09083",
"tf 	c #B68B80",
"uf 	c #AB877D",
"vf 	c #A4857C",
"wf 	c #9F837C",
"xf 	c #9D837D",
"yf 	c #9D8782",
"zf 	c #A08B86",
"Af 	c #A38E89",
"Bf 	c #AB9893",
"Cf 	c #B5A09B",
"Df 	c #BDA7A3",
"Ef 	c #CEB8B4",
"Ff 	c #D4BEB9",
"Gf 	c #E0C9C5",
"Hf 	c #EBD3CE",
"If 	c #F5DED9",
"Jf 	c #FCF3F0",
"Kf 	c #FEF8F7",
"Lf 	c #FEFBFA",
"Mf 	c #FEFBF7",
"Nf 	c #F5DEDA",
"Of 	c #E0C7C1",
"Pf 	c #CFB7B0",
"Qf 	c #BFA8A1",
"Rf 	c #B6A099",
"Sf 	c #B19A93",
"Tf 	c #AC968E",
"Uf 	c #A69188",
"Vf 	c #9E8880",
"Wf 	c #85726A",
"Xf 	c #7F6C64",
"Yf 	c #78645D",
"Zf 	c #7A665D",
"`f 	c #7B6960",
" g 	c #7D6960",
".g 	c #806D63",
"+g 	c #816E64",
"@g 	c #806F66",
"#g 	c #7B6A62",
"$g 	c #655751",
"%g 	c #524640",
"&g 	c #433833",
"*g 	c #413530",
"=g 	c #3F322C",
"-g 	c #4E4744",
";g 	c #544332",
">g 	c #604730",
",g 	c #604830",
"'g 	c #55412E",
")g 	c #423628",
"!g 	c #493E2F",
"~g 	c #4C3F30",
"{g 	c #524334",
"]g 	c #554636",
"^g 	c #584838",
"/g 	c #614F3E",
"(g 	c #685441",
"_g 	c #6C5844",
":g 	c #866D53",
"<g 	c #8F745A",
"[g 	c #92755A",
"}g 	c #9D7E62",
"|g 	c #A9886A",
"1g 	c #B69372",
"2g 	c #C19A7A",
"3g 	c #CFA884",
"4g 	c #D5AB87",
"5g 	c #EBBE96",
"6g 	c #F4CEA1",
"7g 	c #F7DFCD",
"8g 	c #F8F6EF",
"9g 	c #8D7F6B",
"0g 	c #7D6D58",
"ag 	c #7D6955",
"bg 	c #AF8171",
"cg 	c #BC897A",
"dg 	c #C99282",
"eg 	c #C29082",
"fg 	c #B88B7E",
"gg 	c #AC867C",
"hg 	c #A5847B",
"ig 	c #9F827B",
"jg 	c #9E827C",
"kg 	c #9E857F",
"lg 	c #9F8982",
"mg 	c #A6918C",
"ng 	c #A7928D",
"og 	c #C6B1AC",
"pg 	c #DFC9C4",
"qg 	c #F2D9D5",
"rg 	c #F9E6E2",
"sg 	c #FCF1EC",
"tg 	c #EFD6D1",
"ug 	c #CCB5AE",
"vg 	c #B09A92",
"wg 	c #A9938B",
"xg 	c #A18B83",
"yg 	c #9C867E",
"zg 	c #97827A",
"Ag 	c #937F77",
"Bg 	c #8C7871",
"Cg 	c #87746B",
"Dg 	c #7B6961",
"Eg 	c #77645B",
"Fg 	c #736058",
"Gg 	c #7D685F",
"Hg 	c #826F66",
"Ig 	c #89746B",
"Jg 	c #837066",
"Kg 	c #857167",
"Lg 	c #847167",
"Mg 	c #87746A",
"Ng 	c #88756C",
"Og 	c #87746D",
"Pg 	c #85736B",
"Qg 	c #7C6B64",
"Rg 	c #73645E",
"Sg 	c #63554F",
"Tg 	c #4E423E",
"Ug 	c #433732",
"Vg 	c #413631",
"Wg 	c #3C312C",
"Xg 	c #60584A",
"Yg 	c #60462F",
"Zg 	c #5F4630",
"`g 	c #5B4430",
" h 	c #3F3226",
".h 	c #423729",
"+h 	c #463B2D",
"@h 	c #493D2F",
"#h 	c #4D4132",
"$h 	c #4F4031",
"%h 	c #554535",
"&h 	c #594938",
"*h 	c #6F5A46",
"=h 	c #7C654E",
"-h 	c #816952",
";h 	c #886E56",
">h 	c #94765C",
",h 	c #9E8064",
"'h 	c #B08F70",
")h 	c #BF9D7A",
"!h 	c #D0AC88",
"~h 	c #E3BB94",
"{h 	c #F5D2A6",
"]h 	c #F5D3AA",
"^h 	c #B8AF90",
"/h 	c #7F715C",
"(h 	c #776751",
"_h 	c #917260",
":h 	c #B48374",
"<h 	c #C28B7C",
"[h 	c #CB9382",
"}h 	c #C08D7F",
"|h 	c #B88A7D",
"1h 	c #AE877B",
"2h 	c #A7837A",
"3h 	c #A28279",
"4h 	c #9F857F",
"5h 	c #A58D87",
"6h 	c #A08983",
"7h 	c #A58E89",
"8h 	c #AA9590",
"9h 	c #C4AFAA",
"0h 	c #F1DAD6",
"ah 	c #FBEEEB",
"bh 	c #F8ECEA",
"ch 	c #FAECE6",
"dh 	c #DCC3BE",
"eh 	c #D0B9B2",
"fh 	c #C1ACA3",
"gh 	c #BDA7A0",
"hh 	c #AB958D",
"ih 	c #9E8881",
"jh 	c #98837A",
"kh 	c #7F6D65",
"lh 	c #735F58",
"mh 	c #705D55",
"nh 	c #6E5B53",
"oh 	c #746059",
"ph 	c #8D7A70",
"qh 	c #8F7B70",
"rh 	c #88736A",
"sh 	c #89756C",
"th 	c #89756B",
"uh 	c #8B786E",
"vh 	c #8C7A71",
"wh 	c #86756D",
"xh 	c #766760",
"yh 	c #62544E",
"zh 	c #4C403B",
"Ah 	c #433731",
"Bh 	c #615751",
"Ch 	c #59452F",
"Dh 	c #5C442E",
"Eh 	c #5B442F",
"Fh 	c #403429",
"Gh 	c #413628",
"Hh 	c #473C2D",
"Ih 	c #47392C",
"Jh 	c #4D3F30",
"Kh 	c #5B4C3A",
"Lh 	c #76614C",
"Mh 	c #7C6650",
"Nh 	c #826C53",
"Oh 	c #8E745A",
"Ph 	c #9A7E63",
"Qh 	c #AA8D6E",
"Rh 	c #C0A280",
"Sh 	c #D0B18C",
"Th 	c #F0CCA2",
"Uh 	c #F8DDAF",
"Vh 	c #FAE7D3",
"Wh 	c #F6F5DF",
"Xh 	c #7F6F5A",
"Yh 	c #7A6A54",
"Zh 	c #7B6752",
"`h 	c #AF7E70",
" i 	c #B68273",
".i 	c #C48C7C",
"+i 	c #C8907F",
"@i 	c #C18E7E",
"#i 	c #BA8A7C",
"$i 	c #B1877A",
"%i 	c #A98379",
"&i 	c #A28379",
"*i 	c #A3847B",
"=i 	c #A2857E",
"-i 	c #A38A84",
";i 	c #A38983",
">i 	c #A78F8A",
",i 	c #AC9590",
"'i 	c #B49F9A",
")i 	c #DEC9C4",
"!i 	c #FAE8E5",
"~i 	c #FCF8F8",
"{i 	c #FAF6F4",
"]i 	c #FDF5F1",
"^i 	c #ECD2CD",
"/i 	c #D4BCB5",
"(i 	c #CBB4AD",
"_i 	c #BCA69F",
":i 	c #B59F98",
"<i 	c #AC978F",
"[i 	c #806D65",
"}i 	c #69554D",
"|i 	c #725F56",
"1i 	c #746158",
"2i 	c #7F6C62",
"3i 	c #8C7970",
"4i 	c #927D74",
"5i 	c #8C786E",
"6i 	c #907D73",
"7i 	c #8F7D74",
"8i 	c #5F524C",
"9i 	c #493E39",
"0i 	c #443933",
"ai 	c #5B534F",
"bi 	c #6F6150",
"ci 	c #5B432E",
"di 	c #5C452F",
"ei 	c #49392B",
"fi 	c #423529",
"gi 	c #413427",
"hi 	c #453A2C",
"ii 	c #534334",
"ji 	c #574737",
"ki 	c #5A4A39",
"li 	c #695744",
"mi 	c #77624D",
"ni 	c #7E6750",
"oi 	c #846C53",
"pi 	c #8B7259",
"qi 	c #92795E",
"ri 	c #A68D6F",
"si 	c #BFA482",
"ti 	c #D9BC96",
"ui 	c #F4D4AB",
"vi 	c #F9E2B5",
"wi 	c #C8C39D",
"xi 	c #786854",
"yi 	c #74644E",
"zi 	c #8F6F5E",
"Ai 	c #A17567",
"Bi 	c #B68372",
"Ci 	c #C58C7A",
"Di 	c #C68E7D",
"Ei 	c #C48E7D",
"Fi 	c #BE8C7C",
"Gi 	c #B5887B",
"Hi 	c #AE8679",
"Ii 	c #AA847A",
"Ji 	c #A9857C",
"Ki 	c #A9877E",
"Li 	c #A88A82",
"Mi 	c #A98E87",
"Ni 	c #AB918B",
"Oi 	c #AE9691",
"Pi 	c #BEA8A3",
"Qi 	c #E5CECB",
"Ri 	c #F7E2E0",
"Si 	c #FDFAFA",
"Ti 	c #F7E3DE",
"Ui 	c #DFC6C0",
"Vi 	c #D0B7B1",
"Wi 	c #C1AAA3",
"Xi 	c #B8A099",
"Yi 	c #96827A",
"Zi 	c #8E7A72",
"`i 	c #655149",
" j 	c #614D45",
".j 	c #614D46",
"+j 	c #6B574E",
"@j 	c #705B54",
"#j 	c #735F57",
"$j 	c #76625A",
"%j 	c #7C695F",
"&j 	c #816D63",
"*j 	c #947F76",
"=j 	c #937E75",
"-j 	c #8A756C",
";j 	c #8E7A71",
">j 	c #927F76",
",j 	c #907D76",
"'j 	c #8F7D75",
")j 	c #756661",
"!j 	c #5D504A",
"~j 	c #483D37",
"{j 	c #403630",
"]j 	c #564B47",
"^j 	c #5E5956",
"/j 	c #58412B",
"(j 	c #5A432E",
"_j 	c #533F2C",
":j 	c #423429",
"<j 	c #423427",
"[j 	c #44392B",
"}j 	c #574938",
"|j 	c #5C4D3C",
"1j 	c #665442",
"2j 	c #6C5946",
"3j 	c #715D49",
"4j 	c #78634D",
"5j 	c #816B53",
"6j 	c #856E56",
"7j 	c #90785E",
"8j 	c #A48C6E",
"9j 	c #C0A886",
"0j 	c #E3CAA2",
"aj 	c #F7DDB1",
"bj 	c #F8E4BB",
"cj 	c #FEFDD9",
"dj 	c #85765E",
"ej 	c #766550",
"fj 	c #75624D",
"gj 	c #986F62",
"hj 	c #A07566",
"ij 	c #B78272",
"jj 	c #C28A78",
"kj 	c #C58D7C",
"lj 	c #C68E7E",
"mj 	c #C38D7D",
"nj 	c #BB8B7C",
"oj 	c #B8887B",
"pj 	c #B3877B",
"qj 	c #B1887D",
"rj 	c #B38A81",
"sj 	c #B08C84",
"tj 	c #AE8F88",
"uj 	c #AE918B",
"vj 	c #AF9690",
"wj 	c #B69E99",
"xj 	c #D1BBB7",
"yj 	c #E2CBC7",
"zj 	c #F9E6E3",
"Aj 	c #F7ECE9",
"Bj 	c #F9E8E3",
"Cj 	c #E1C8C2",
"Dj 	c #CEB6AF",
"Ej 	c #C0A9A2",
"Fj 	c #B59E97",
"Gj 	c #AD9890",
"Hj 	c #958179",
"Ij 	c #917D76",
"Jj 	c #88746D",
"Kj 	c #68554D",
"Lj 	c #635047",
"Mj 	c #5F4B43",
"Nj 	c #655048",
"Oj 	c #6A564D",
"Pj 	c #6F5C53",
"Qj 	c #7C675F",
"Rj 	c #7D6A60",
"Sj 	c #7E6A60",
"Tj 	c #806B61",
"Uj 	c #826D63",
"Vj 	c #8F7B71",
"Wj 	c #947E76",
"Xj 	c #8D7970",
"Yj 	c #907C72",
"Zj 	c #927F75",
"`j 	c #948179",
" k 	c #917F78",
".k 	c #887771",
"+k 	c #5A4D48",
"@k 	c #4A3E39",
"#k 	c #6D645F",
"$k 	c #66615F",
"%k 	c #54412E",
"&k 	c #58422E",
"*k 	c #403227",
"=k 	c #403528",
"-k 	c #473A2C",
";k 	c #5B4B3B",
">k 	c #73604B",
",k 	c #7C6751",
"'k 	c #806A52",
")k 	c #8F7960",
"!k 	c #A28D70",
"~k 	c #BFA987",
"{k 	c #EED7AD",
"]k 	c #F8E3B6",
"^k 	c #F2DEAF",
"/k 	c #EDDEAE",
"(k 	c #7A6A53",
"_k 	c #6E5D49",
":k 	c #7C6351",
"<k 	c #916B5D",
"[k 	c #9F7466",
"}k 	c #B58272",
"|k 	c #BE8877",
"1k 	c #CA907F",
"2k 	c #C78F7F",
"3k 	c #C58F80",
"4k 	c #C28E7F",
"5k 	c #BD8C7F",
"6k 	c #BF8E82",
"7k 	c #BE8F85",
"8k 	c #BB9086",
"9k 	c #B59188",
"0k 	c #B3938B",
"ak 	c #B29790",
"bk 	c #BAA19D",
"ck 	c #C3ABA7",
"dk 	c #CFB8B4",
"ek 	c #E0C9C6",
"fk 	c #FDF7F7",
"gk 	c #F1D7D2",
"hk 	c #DDC4BE",
"ik 	c #C9B3AC",
"jk 	c #C0AAA3",
"kk 	c #B39D96",
"lk 	c #AD978F",
"mk 	c #A8938B",
"nk 	c #98847C",
"ok 	c #86736A",
"pk 	c #725F57",
"qk 	c #705C55",
"rk 	c #655249",
"sk 	c #604D45",
"tk 	c #68534A",
"uk 	c #7F6B60",
"vk 	c #7F6B61",
"wk 	c #806C62",
"xk 	c #826C62",
"yk 	c #836D63",
"zk 	c #887269",
"Ak 	c #907B71",
"Bk 	c #917B72",
"Ck 	c #8E786F",
"Dk 	c #927E74",
"Ek 	c #948076",
"Fk 	c #938077",
"Gk 	c #948178",
"Hk 	c #95817A",
"Ik 	c #70625C",
"Jk 	c #7B716D",
"Kk 	c #6F6765",
"Lk 	c #5B4F44",
"Mk 	c #59422D",
"Nk 	c #59442E",
"Ok 	c #493929",
"Pk 	c #433528",
"Qk 	c #423428",
"Rk 	c #3F3428",
"Sk 	c #3F3527",
"Tk 	c #433629",
"Uk 	c #45372A",
"Vk 	c #493B2D",
"Wk 	c #4C4030",
"Xk 	c #524535",
"Yk 	c #5B4C3C",
"Zk 	c #655342",
"`k 	c #6E5C48",
" l 	c #75604C",
".l 	c #7E6953",
"+l 	c #8F7A61",
"@l 	c #A38F72",
"#l 	c #BBA785",
"$l 	c #E0CCA4",
"%l 	c #F7E1B5",
"&l 	c #D6C69C",
"*l 	c #B8A580",
"=l 	c #6F5D48",
"-l 	c #6A5A45",
";l 	c #826254",
">l 	c #8F695C",
",l 	c #A07567",
"'l 	c #B28171",
")l 	c #B98676",
"!l 	c #C48D7D",
"~l 	c #C89080",
"{l 	c #CB9281",
"]l 	c #CB9383",
"^l 	c #CC9384",
"/l 	c #CD9486",
"(l 	c #CC9587",
"_l 	c #D0988B",
":l 	c #C9978A",
"<l 	c #C2968B",
"[l 	c #BA958C",
"}l 	c #B79992",
"|l 	c #BBA39D",
"1l 	c #BFA6A1",
"2l 	c #C8B1AD",
"3l 	c #DFC8C5",
"4l 	c #F7E3E1",
"5l 	c #FDF6F2",
"6l 	c #FAECE7",
"7l 	c #F9E3DE",
"8l 	c #E2C8C3",
"9l 	c #CBB3AD",
"0l 	c #B6A09A",
"al 	c #AE9891",
"bl 	c #A9948C",
"cl 	c #87736B",
"dl 	c #826E66",
"el 	c #6C5952",
"fl 	c #68564D",
"gl 	c #635048",
"hl 	c #665249",
"il 	c #68544B",
"jl 	c #746159",
"kl 	c #7F6B62",
"ll 	c #816C63",
"ml 	c #826D64",
"nl 	c #826E64",
"ol 	c #836E64",
"pl 	c #846F64",
"ql 	c #856F64",
"rl 	c #8A756B",
"sl 	c #927D73",
"tl 	c #978279",
"ul 	c #907A71",
"vl 	c #8D776F",
"wl 	c #937F76",
"xl 	c #99857C",
"yl 	c #98857C",
"zl 	c #928179",
"Al 	c #8F7E77",
"Bl 	c #80706A",
"Cl 	c #6C5E59",
"Dl 	c #574A45",
"El 	c #5E534D",
"Fl 	c #6E6663",
"Gl 	c #3F3733",
"Hl 	c #5A4631",
"Il 	c #56412D",
"Jl 	c #53402C",
"Kl 	c #433427",
"Ll 	c #3F3427",
"Ml 	c #423528",
"Nl 	c #45382C",
"Ol 	c #524536",
"Pl 	c #594A39",
"Ql 	c #604F3F",
"Rl 	c #6A5946",
"Sl 	c #715E4B",
"Tl 	c #796651",
"Ul 	c #8D7B61",
"Vl 	c #9F8D71",
"Wl 	c #BAA786",
"Xl 	c #D5C29D",
"Yl 	c #E3D0A6",
"Zl 	c #CDBB91",
"`l 	c #827056",
" m 	c #675641",
".m 	c #7F5E53",
"+m 	c #8A6659",
"@m 	c #9B7465",
"#m 	c #A97B6C",
"$m 	c #B38373",
"%m 	c #C08C7C",
"&m 	c #C78F80",
"*m 	c #CC9483",
"=m 	c #D19787",
"-m 	c #D79C8A",
";m 	c #DC9E8D",
">m 	c #E0A090",
",m 	c #E2A191",
"'m 	c #DB9F91",
")m 	c #CD9B8F",
"!m 	c #C2998F",
"~m 	c #B99A92",
"{m 	c #B99C96",
"]m 	c #BBA19B",
"^m 	c #C6AEA9",
"/m 	c #D7C1BD",
"(m 	c #F4DCD9",
"_m 	c #FBEBE8",
":m 	c #F3DBD6",
"<m 	c #E9D1CB",
"[m 	c #D5BDB7",
"}m 	c #C6AFA8",
"|m 	c #BCA79F",
"1m 	c #B5A099",
"2m 	c #AF9A92",
"3m 	c #857067",
"4m 	c #7E6960",
"5m 	c #806B62",
"6m 	c #856F66",
"7m 	c #857066",
"8m 	c #867066",
"9m 	c #877268",
"0m 	c #887369",
"am 	c #897368",
"bm 	c #8A7368",
"cm 	c #8E796F",
"dm 	c #968077",
"em 	c #9B857C",
"fm 	c #958077",
"gm 	c #A28E85",
"hm 	c #9F8C84",
"im 	c #96837A",
"jm 	c #927F77",
"km 	c #7B6C67",
"lm 	c #665853",
"mm 	c #4E413C",
"nm 	c #5F5450",
"om 	c #514745",
"pm 	c #4C4645",
"qm 	c #605243",
"rm 	c #533E2A",
"sm 	c #443427",
"tm 	c #413327",
"um 	c #3D3226",
"vm 	c #3E3126",
"wm 	c #3F3326",
"xm 	c #44382A",
"ym 	c #46382B",
"zm 	c #504233",
"Am 	c #5A4C3A",
"Bm 	c #5E4D3D",
"Cm 	c #675644",
"Dm 	c #6B5A47",
"Em 	c #76644F",
"Fm 	c #88785E",
"Gm 	c #9B8B6F",
"Hm 	c #B3A281",
"Im 	c #C4B28F",
"Jm 	c #CBB992",
"Km 	c #BCA680",
"Lm 	c #6B5943",
"Mm 	c #64513E",
"Nm 	c #675241",
"Om 	c #775A4F",
"Pm 	c #856358",
"Qm 	c #977063",
"Rm 	c #A17769",
"Sm 	c #AD8071",
"Tm 	c #BA897A",
"Um 	c #C59081",
"Vm 	c #CD9687",
"Wm 	c #D69D8C",
"Xm 	c #DEA292",
"Ym 	c #E8A796",
"Zm 	c #EFAA98",
"`m 	c #EFAB99",
" n 	c #EAA898",
".n 	c #DAA295",
"+n 	c #C89C92",
"@n 	c #BE9A91",
"#n 	c #BA9A92",
"$n 	c #BA9E99",
"%n 	c #C2A9A5",
"&n 	c #D1BAB6",
"*n 	c #E7D0CC",
"=n 	c #FDF6F3",
"-n 	c #F9E3DF",
";n 	c #F5DBD7",
">n 	c #F6E3DE",
",n 	c #EED6D1",
"'n 	c #DBC4BE",
")n 	c #D2BBB5",
"!n 	c #C8B1AA",
"~n 	c #BEA9A2",
"{n 	c #B9A29B",
"]n 	c #B29C95",
"^n 	c #A8938C",
"/n 	c #A58F88",
"(n 	c #927D75",
"_n 	c #89736B",
":n 	c #867168",
"<n 	c #846F66",
"[n 	c #836E65",
"}n 	c #6F5C55",
"|n 	c #725E57",
"1n 	c #74615A",
"2n 	c #836F65",
"3n 	c #867268",
"4n 	c #8B756C",
"5n 	c #8D776E",
"6n 	c #8E786E",
"7n 	c #8D776D",
"8n 	c #8E776D",
"9n 	c #967F76",
"0n 	c #A28C84",
"an 	c #A69089",
"bn 	c #AC9890",
"cn 	c #A5928B",
"dn 	c #98857D",
"en 	c #927E76",
"fn 	c #917E78",
"gn 	c #85756F",
"hn 	c #786863",
"in 	c #635551",
"jn 	c #554743",
"kn 	c #726763",
"ln 	c #483F3B",
"mn 	c #5A4937",
"nn 	c #55412C",
"on 	c #493829",
"pn 	c #433327",
"qn 	c #45382A",
"rn 	c #443629",
"sn 	c #3E3226",
"tn 	c #3D3025",
"un 	c #42372A",
"vn 	c #564838",
"wn 	c #594B3A",
"xn 	c #625441",
"yn 	c #665744",
"zn 	c #72624D",
"An 	c #96866A",
"Bn 	c #AA9B7B",
"Cn 	c #BBAA88",
"Dn 	c #C6AC87",
"En 	c #B29C77",
"Fn 	c #65533E",
"Gn 	c #62503C",
"Hn 	c #695144",
"In 	c #73584D",
"Jn 	c #816156",
"Kn 	c #916C60",
"Ln 	c #9B7468",
"Mn 	c #A77D70",
"Nn 	c #B58678",
"On 	c #C89688",
"Pn 	c #CE9A8B",
"Qn 	c #DBA394",
"Rn 	c #E6AA99",
"Sn 	c #EFB09F",
"Tn 	c #F1B4A1",
"Un 	c #F0B09F",
"Vn 	c #E5A99A",
"Wn 	c #D0A195",
"Xn 	c #C49C91",
"Yn 	c #BD9B92",
"Zn 	c #BA9D96",
"`n 	c #BFA5A0",
" o 	c #CAB3AF",
".o 	c #DDC5C1",
"+o 	c #F5E0DC",
"@o 	c #FFFCFA",
"#o 	c #FDF4F1",
"$o 	c #FBEAE8",
"%o 	c #F8E3E0",
"&o 	c #F1D8D5",
"*o 	c #E7CFCB",
"=o 	c #EFDCD6",
"-o 	c #DDC4C0",
";o 	c #D1B9B3",
">o 	c #CAB3AC",
",o 	c #C3ADA6",
"'o 	c #BEA7A0",
")o 	c #B8A29A",
"!o 	c #AE9890",
"~o 	c #A9928B",
"{o 	c #A48E86",
"]o 	c #98827A",
"^o 	c #89736A",
"/o 	c #806B63",
"(o 	c #736057",
"_o 	c #746058",
":o 	c #877369",
"<o 	c #8C776D",
"[o 	c #917A71",
"}o 	c #957F75",
"|o 	c #9D877D",
"1o 	c #A68F88",
"2o 	c #AC958D",
"3o 	c #A08B84",
"4o 	c #AF9A93",
"5o 	c #B6A39B",
"6o 	c #AB9890",
"7o 	c #98857E",
"8o 	c #907E76",
"9o 	c #8D7C76",
"0o 	c #73655F",
"ao 	c #60524D",
"bo 	c #7E726E",
"co 	c #564C47",
"do 	c #514A48",
"eo 	c #523F2C",
"fo 	c #4F3D2C",
"go 	c #423426",
"ho 	c #3D3125",
"io 	c #4B3D2F",
"jo 	c #5D4F3E",
"ko 	c #625542",
"lo 	c #70614D",
"mo 	c #81725A",
"no 	c #918469",
"oo 	c #A69778",
"po 	c #B1A281",
"qo 	c #E1BF91",
"ro 	c #988061",
"so 	c #63513D",
"to 	c #604E3A",
"uo 	c #654F44",
"vo 	c #71554C",
"wo 	c #7D5F54",
"xo 	c #8A695E",
"yo 	c #946F64",
"zo 	c #A17B6E",
"Ao 	c #B0867A",
"Bo 	c #BF9284",
"Co 	c #D09F91",
"Do 	c #E2AB9B",
"Eo 	c #EBB2A2",
"Fo 	c #F1BAA9",
"Go 	c #F2BDAA",
"Ho 	c #F2BFAB",
"Io 	c #F2BAA8",
"Jo 	c #EFB2A1",
"Ko 	c #DCA699",
"Lo 	c #CCA194",
"Mo 	c #C19C92",
"No 	c #BA9C94",
"Oo 	c #BBA29C",
"Po 	c #C4ACA7",
"Qo 	c #D2BBB7",
"Ro 	c #FBECE9",
"So 	c #FEF9F5",
"To 	c #FCF2EE",
"Uo 	c #F9E4DF",
"Vo 	c #F6DDD9",
"Wo 	c #EFD6D3",
"Xo 	c #F0DEDB",
"Yo 	c #EEDBD7",
"Zo 	c #D9C0BB",
"`o 	c #D3BBB4",
" p 	c #C5AEA8",
".p 	c #C0A8A2",
"+p 	c #B9A39B",
"@p 	c #B49D96",
"#p 	c #AF9991",
"$p 	c #AA938B",
"%p 	c #A48E85",
"&p 	c #9E887F",
"*p 	c #927C74",
"=p 	c #8F7870",
"-p 	c #867067",
";p 	c #836E66",
">p 	c #826D65",
",p 	c #77655B",
"'p 	c #937E74",
")p 	c #947F75",
"!p 	c #9C837B",
"~p 	c #A79087",
"{p 	c #B29A93",
"]p 	c #BAA59E",
"^p 	c #96837C",
"/p 	c #8E7C76",
"(p 	c #897973",
"_p 	c #7E6F69",
":p 	c #6F615B",
"<p 	c #837772",
"[p 	c #5E5451",
"}p 	c #3E3530",
"|p 	c #5E5447",
"1p 	c #513E2A",
"2p 	c #4B3B2C",
"3p 	c #443326",
"4p 	c #443528",
"5p 	c #46392B",
"6p 	c #594C3B",
"7p 	c #5F5240",
"8p 	c #6B5F4A",
"9p 	c #786B54",
"0p 	c #84765D",
"ap 	c #9A8B6E",
"bp 	c #B49F7D",
"cp 	c #F3D5A1",
"dp 	c #695741",
"ep 	c #624F3A",
"fp 	c #5F4B3A",
"gp 	c #604A41",
"hp 	c #6D5249",
"ip 	c #7B5D53",
"jp 	c #86665C",
"kp 	c #8E6D62",
"lp 	c #9D786D",
"mp 	c #AA8578",
"np 	c #BA9185",
"op 	c #CDA194",
"pp 	c #DFAEA1",
"qp 	c #EEBAAA",
"rp 	c #F3C3B3",
"sp 	c #F4C8B5",
"tp 	c #F4CAB5",
"up 	c #F4C5B0",
"vp 	c #F2BCA9",
"wp 	c #E6B09F",
"xp 	c #D4A597",
"yp 	c #C59F94",
"zp 	c #B99B93",
"Ap 	c #B99D98",
"Bp 	c #BFA7A1",
"Cp 	c #C8B2AD",
"Dp 	c #DCC6C1",
"Ep 	c #F7E4E0",
"Fp 	c #FCF0EC",
"Gp 	c #FBEBE7",
"Hp 	c #FAE7E4",
"Ip 	c #F8E0DC",
"Jp 	c #F4DBD8",
"Kp 	c #ECD5D1",
"Lp 	c #EFDDD8",
"Mp 	c #EAD5D1",
"Np 	c #EAD4CF",
"Op 	c #E0C7C3",
"Pp 	c #D9C0BA",
"Qp 	c #CFB8B1",
"Rp 	c #C9B1AA",
"Sp 	c #C2AAA3",
"Tp 	c #B59F97",
"Up 	c #B09991",
"Vp 	c #AB948C",
"Wp 	c #A58E86",
"Xp 	c #A08A81",
"Yp 	c #9D867D",
"Zp 	c #998279",
"`p 	c #877168",
" q 	c #846F67",
".q 	c #947E74",
"+q 	c #937D73",
"@q 	c #947E75",
"#q 	c #9A837A",
"$q 	c #A38C83",
"%q 	c #B19991",
"&q 	c #BDA49E",
"*q 	c #B8A29B",
"=q 	c #BFAAA4",
"-q 	c #BBA9A3",
";q 	c #897872",
">q 	c #857670",
",q 	c #796A65",
"'q 	c #756864",
")q 	c #7A6E6C",
"!q 	c #4D4643",
"~q 	c #52412E",
"{q 	c #51402D",
"]q 	c #433225",
"^q 	c #403226",
"/q 	c #3E3125",
"(q 	c #5C4F3D",
"_q 	c #675B47",
":q 	c #6F624D",
"<q 	c #7A6D56",
"[q 	c #8E8064",
"}q 	c #EFDCA6",
"|q 	c #5E4B36",
"1q 	c #5C4839",
"2q 	c #5C463E",
"3q 	c #695148",
"4q 	c #755A51",
"5q 	c #81645A",
"6q 	c #88695F",
"7q 	c #95756B",
"8q 	c #A58177",
"9q 	c #B69186",
"0q 	c #CCA397",
"aq 	c #E9BAAC",
"bq 	c #F3C2B5",
"cq 	c #F5CCBC",
"dq 	c #F6D5C2",
"eq 	c #F6D5C0",
"fq 	c #F5CDB8",
"gq 	c #F3C4B1",
"hq 	c #F0B9A8",
"iq 	c #DAAB9C",
"jq 	c #C59F95",
"kq 	c #BB9B92",
"lq 	c #B99C95",
"mq 	c #BBA19C",
"nq 	c #C3ACA6",
"oq 	c #E1CAC6",
"pq 	c #F7E2DF",
"qq 	c #FCF4F1",
"rq 	c #FFFEFA",
"sq 	c #FFFEF9",
"tq 	c #FCF4F0",
"uq 	c #FDF4F0",
"vq 	c #FBEDE9",
"wq 	c #F8E4E0",
"xq 	c #F7DFDC",
"yq 	c #F7DEDA",
"zq 	c #FBF0ED",
"Aq 	c #F8E7E4",
"Bq 	c #F1D8D3",
"Cq 	c #E3CAC4",
"Dq 	c #DAC1BB",
"Eq 	c #D7BEB8",
"Fq 	c #CFB6B0",
"Gq 	c #C7AEA8",
"Hq 	c #BFA8A0",
"Iq 	c #B9A199",
"Jq 	c #B29B93",
"Kq 	c #AD978E",
"Lq 	c #A9928A",
"Mq 	c #A68E86",
"Nq 	c #A28B82",
"Oq 	c #9E877F",
"Pq 	c #99837A",
"Qq 	c #8F7970",
"Rq 	c #8C766D",
"Sq 	c #8A736B",
"Tq 	c #88726A",
"Uq 	c #836D65",
"Vq 	c #948176",
"Wq 	c #978177",
"Xq 	c #AF9891",
"Yq 	c #D6BDB7",
"Zq 	c #BDA6A0",
"`q 	c #BDA7A1",
" r 	c #8B7973",
".r 	c #84756F",
"+r 	c #7B6B67",
"@r 	c #776B67",
"#r 	c #645853",
"$r 	c #524844",
"%r 	c #4F3C2A",
"&r 	c #4D3D2C",
"*r 	c #47392B",
"=r 	c #3F3126",
"-r 	c #3E3326",
";r 	c #524635",
">r 	c #554839",
",r 	c #615442",
"'r 	c #71644E",
")r 	c #83765C",
"!r 	c #E1DFA9",
"~r 	c #DBCF9E",
"{r 	c #5D4B36",
"]r 	c #574439",
"^r 	c #59453E",
"/r 	c #654E46",
"(r 	c #71564D",
"_r 	c #7B5F56",
":r 	c #83665D",
"<r 	c #8F7167",
"[r 	c #A07E75",
"}r 	c #B39086",
"|r 	c #CAA398",
"1r 	c #E2B8AC",
"2r 	c #F3C7B9",
"3r 	c #F6D4C5",
"4r 	c #F8DCCB",
"5r 	c #F8DCC8",
"6r 	c #F7D7C2",
"7r 	c #F6D2BD",
"8r 	c #D8AC9F",
"9r 	c #CBA499",
"0r 	c #BF9E94",
"ar 	c #BA9B94",
"br 	c #BB9E98",
"cr 	c #CAB1AC",
"dr 	c #D9C1BD",
"er 	c #F3DBD8",
"fr 	c #FBECEA",
"gr 	c #FEFAF7",
"hr 	c #FFFDFA",
"ir 	c #FFFEFF",
"jr 	c #FCF1ED",
"kr 	c #FBEFEB",
"lr 	c #FCF2ED",
"mr 	c #F3DAD5",
"nr 	c #E6CDC7",
"or 	c #E7CDC7",
"pr 	c #DFC6BF",
"qr 	c #CBB2AC",
"rr 	c #C3ABA4",
"sr 	c #BBA49C",
"tr 	c #B59E96",
"ur 	c #B19A91",
"vr 	c #AE968E",
"wr 	c #AB938B",
"xr 	c #A68F86",
"yr 	c #A28A82",
"zr 	c #9A847B",
"Ar 	c #8D766D",
"Br 	c #8A746C",
"Cr 	c #877169",
"Dr 	c #7E6B61",
"Er 	c #8A766C",
"Fr 	c #917C72",
"Gr 	c #927C73",
"Hr 	c #968076",
"Ir 	c #C3ABA5",
"Jr 	c #DFC7C1",
"Kr 	c #E7CECA",
"Lr 	c #DDC5BF",
"Mr 	c #C9B3AD",
"Nr 	c #C7B1AB",
"Or 	c #AE9D98",
"Pr 	c #84726D",
"Qr 	c #80706B",
"Rr 	c #796A64",
"Sr 	c #7D706B",
"Tr 	c #5B4C47",
"Ur 	c #554843",
"Vr 	c #544C49",
"Wr 	c #5C5145",
"Xr 	c #4E3C2A",
"Yr 	c #4A3F31",
"Zr 	c #433326",
"`r 	c #45362A",
" s 	c #46382A",
".s 	c #463A2C",
"+s 	c #473C2E",
"@s 	c #4B3F30",
"#s 	c #4F4333",
"$s 	c #524537",
"%s 	c #5E513F",
"&s 	c #625543",
"*s 	c #6A5D49",
"=s 	c #82775C",
"-s 	c #F1F0B9",
";s 	c #A39570",
">s 	c #64523B",
",s 	c #5C4835",
"'s 	c #513F38",
")s 	c #56433C",
"!s 	c #624B44",
"~s 	c #6A524B",
"{s 	c #735751",
"]s 	c #7D625A",
"^s 	c #896C64",
"/s 	c #9A7C72",
"(s 	c #AE8E84",
"_s 	c #C5A397",
":s 	c #E0B9AE",
"<s 	c #F3CBBF",
"[s 	c #F7DBCC",
"}s 	c #F9E3D1",
"|s 	c #F9E5D3",
"1s 	c #F9E3CE",
"2s 	c #F8DEC9",
"3s 	c #F5CEBB",
"4s 	c #E0B3A4",
"5s 	c #D0A89C",
"6s 	c #C4A197",
"7s 	c #BF9D94",
"8s 	c #BB9D95",
"9s 	c #BDA19C",
"0s 	c #C3AAA5",
"as 	c #C9B0AC",
"bs 	c #D3BAB6",
"cs 	c #E1C9C5",
"ds 	c #F2DAD6",
"es 	c #F8E6E2",
"fs 	c #FAECE9",
"gs 	c #FBEBE9",
"hs 	c #FBEDEB",
"is 	c #FEFDFB",
"js 	c #FDF9F4",
"ks 	c #F2D9D4",
"ls 	c #DAC0BA",
"ms 	c #C7AEA7",
"ns 	c #BEA69F",
"os 	c #B8A098",
"ps 	c #B39C93",
"qs 	c #B09990",
"rs 	c #AD968D",
"ss 	c #A89088",
"ts 	c #A18A81",
"us 	c #937D74",
"vs 	c #8C766E",
"ws 	c #826C63",
"xs 	c #826F65",
"ys 	c #7D6860",
"zs 	c #927C72",
"As 	c #917B71",
"Bs 	c #957F76",
"Cs 	c #9A857B",
"Ds 	c #A38D84",
"Es 	c #BAA39C",
"Fs 	c #EDD4CF",
"Gs 	c #EFE5E2",
"Hs 	c #E1CCC7",
"Is 	c #E5CDC9",
"Js 	c #B5A49E",
"Ks 	c #7F6E69",
"Ls 	c #7C6C67",
"Ms 	c #786962",
"Ns 	c #6B5A55",
"Os 	c #443731",
"Ps 	c #594B3B",
"Qs 	c #4C3E2C",
"Rs 	c #423225",
"Ss 	c #463629",
"Ts 	c #443529",
"Us 	c #3D3225",
"Vs 	c #3D3024",
"Ws 	c #514435",
"Xs 	c #594C3C",
"Ys 	c #5B4E3D",
"Zs 	c #655845",
"`s 	c #83785C",
" t 	c #FDF9BE",
".t 	c #6B5840",
"+t 	c #624E39",
"@t 	c #594634",
"#t 	c #4D3C36",
"$t 	c #54423B",
"%t 	c #5E4841",
"&t 	c #674F48",
"*t 	c #6C544C",
"=t 	c #765C55",
"-t 	c #836860",
";t 	c #94776E",
">t 	c #A88A80",
",t 	c #BF9F95",
"'t 	c #D8B5AC",
")t 	c #F2CDC0",
"!t 	c #F8DDCF",
"~t 	c #FAE9D9",
"{t 	c #FBEEDC",
"]t 	c #FBECD8",
"^t 	c #FAE5D0",
"/t 	c #F7D6C3",
"(t 	c #EEC0B1",
"_t 	c #D4ACA1",
":t 	c #CCA79B",
"<t 	c #C3A096",
"[t 	c #C09E96",
"}t 	c #BEA099",
"|t 	c #BFA49F",
"1t 	c #C7ADA7",
"2t 	c #CCB3AF",
"3t 	c #DBC2BF",
"4t 	c #EAD2CE",
"5t 	c #F6DEDC",
"6t 	c #FAE5E2",
"7t 	c #FBEAE7",
"8t 	c #FBF6F4",
"9t 	c #F0E0DC",
"0t 	c #FAF0EC",
"at 	c #F7E7E2",
"bt 	c #F4DDD8",
"ct 	c #F0D5CF",
"dt 	c #D3BAB4",
"et 	c #C8AFA9",
"ft 	c #BFA79F",
"gt 	c #B9A198",
"ht 	c #B59D94",
"it 	c #AC958C",
"jt 	c #A69087",
"kt 	c #9F8980",
"lt 	c #988279",
"mt 	c #927B73",
"nt 	c #8B756D",
"ot 	c #8A746B",
"pt 	c #867068",
"qt 	c #816B63",
"rt 	c #806A61",
"st 	c #816B62",
"tt 	c #836D64",
"ut 	c #847066",
"vt 	c #7F6A61",
"wt 	c #86716A",
"xt 	c #89736C",
"yt 	c #8D786E",
"zt 	c #8F7A70",
"At 	c #958076",
"Bt 	c #9A847C",
"Ct 	c #D9C1BB",
"Dt 	c #F7ECE7",
"Et 	c #BDABA6",
"Ft 	c #A69591",
"Gt 	c #8F7F7A",
"Ht 	c #806F6A",
"It 	c #7A6A65",
"Jt 	c #61514B",
"Kt 	c #4C3D38",
"Lt 	c #574F4C",
"Mt 	c #56493B",
"Nt 	c #483829",
"Ot 	c #443426",
"Pt 	c #453629",
"Qt 	c #3C2F24",
"Rt 	c #3D2F25",
"St 	c #4F4334",
"Tt 	c #544939",
"Ut 	c #605341",
"Vt 	c #74674E",
"Wt 	c #E8D7A4",
"Xt 	c #594733",
"Yt 	c #5D4934",
"Zt 	c #544134",
"`t 	c #53413A",
" u 	c #594740",
".u 	c #604A44",
"+u 	c #675049",
"@u 	c #705851",
"#u 	c #7D635C",
"$u 	c #8D716A",
"%u 	c #A0837A",
"&u 	c #B99B91",
"*u 	c #D0B0A6",
"=u 	c #F1CDC1",
"-u 	c #F7DBCF",
";u 	c #FAEBDB",
">u 	c #FBEEDB",
",u 	c #FCF0DC",
"'u 	c #FAEAD6",
")u 	c #F7D9C8",
"!u 	c #F0C5B6",
"~u 	c #DFB5A7",
"{u 	c #D2AA9F",
"]u 	c #C9A197",
"^u 	c #C69F96",
"/u 	c #C19E96",
"(u 	c #C0A099",
"_u 	c #C0A49E",
":u 	c #C2A8A3",
"<u 	c #C8AFAB",
"[u 	c #CEB6B1",
"}u 	c #D6BEBB",
"|u 	c #DCC4C0",
"1u 	c #E3CAC7",
"2u 	c #ECD4D0",
"3u 	c #F5DDD9",
"4u 	c #FDF5F2",
"5u 	c #FCFAF9",
"6u 	c #FCF4EE",
"7u 	c #F4DAD5",
"8u 	c #E2C7C2",
"9u 	c #D3BAB3",
"0u 	c #BEA59E",
"au 	c #B8A198",
"bu 	c #B49D94",
"cu 	c #B39A91",
"du 	c #AB958C",
"eu 	c #826C64",
"fu 	c #7F6961",
"gu 	c #806A62",
"hu 	c #9C867D",
"iu 	c #A58F87",
"ju 	c #F2E3E0",
"ku 	c #FFFBFB",
"lu 	c #E0CCC8",
"mu 	c #B4A29F",
"nu 	c #938580",
"ou 	c #7A6B65",
"pu 	c #74635E",
"qu 	c #6B5B55",
"ru 	c #564641",
"su 	c #473A35",
"tu 	c #514333",
"uu 	c #493D31",
"vu 	c #453528",
"wu 	c #443829",
"xu 	c #3C3025",
"yu 	c #544938",
"zu 	c #584C3B",
"Au 	c #776A51",
"Bu 	c #BEAE85",
"Cu 	c #594531",
"Du 	c #5C4733",
"Eu 	c #503E31",
"Fu 	c #4A3933",
"Gu 	c #55423B",
"Hu 	c #5A463F",
"Iu 	c #614B45",
"Ju 	c #6A534C",
"Ku 	c #755D56",
"Lu 	c #856A63",
"Mu 	c #967B74",
"Nu 	c #AB9088",
"Ou 	c #C3A59C",
"Pu 	c #E1C1B6",
"Qu 	c #F5D6CA",
"Ru 	c #FAE8DA",
"Su 	c #FCF1E0",
"Tu 	c #FCF3E2",
"Uu 	c #F7DAC9",
"Vu 	c #F5D2C2",
"Wu 	c #E9BEB1",
"Xu 	c #D8AEA2",
"Yu 	c #D6AC9E",
"Zu 	c #D0A599",
"`u 	c #C19F96",
" v 	c #BDA099",
".v 	c #BBA09B",
"+v 	c #BCA49F",
"@v 	c #C2AAA5",
"#v 	c #C9B2AE",
"$v 	c #CFB7B3",
"%v 	c #F5DBD8",
"&v 	c #F9E7E2",
"*v 	c #F9EEEB",
"=v 	c #FEF9F4",
"-v 	c #F5DFD9",
";v 	c #C6AEA6",
">v 	c #BCA59C",
",v 	c #B8A097",
"'v 	c #B19990",
")v 	c #AA938A",
"!v 	c #A18A82",
"~v 	c #867169",
"{v 	c #7E6860",
"]v 	c #887169",
"^v 	c #846E65",
"/v 	c #7F6A60",
"(v 	c #968177",
"_v 	c #BEA8A1",
":v 	c #E7D1CC",
"<v 	c #FAF2F0",
"[v 	c #D5C1BD",
"}v 	c #A69693",
"|v 	c #837572",
"1v 	c #786965",
"2v 	c #746661",
"3v 	c #715F59",
"4v 	c #5F4F49",
"5v 	c #4D3D37",
"6v 	c #5A5351",
"7v 	c #514537",
"8v 	c #3C3024",
"9v 	c #473B2C",
"0v 	c #4B4131",
"av 	c #534737",
"bv 	c #554837",
"cv 	c #6D6149",
"dv 	c #978866",
"ev 	c #5B4530",
"fv 	c #4C3C30",
"gv 	c #473731",
"hv 	c #503E38",
"iv 	c #524039",
"jv 	c #56433D",
"kv 	c #5D4842",
"lv 	c #644F48",
"mv 	c #6E5750",
"nv 	c #7C645D",
"ov 	c #8D746C",
"pv 	c #A0867E",
"qv 	c #B79A91",
"rv 	c #CFB2A8",
"sv 	c #EDCDC1",
"tv 	c #F8DED2",
"uv 	c #FBECDD",
"vv 	c #FCF1E1",
"wv 	c #FBECDC",
"xv 	c #F9E5D5",
"yv 	c #F7D9CA",
"zv 	c #ECC1B3",
"Av 	c #E4B9AC",
"Bv 	c #DFB0A3",
"Cv 	c #D8A89C",
"Dv 	c #CDA297",
"Ev 	c #C59E94",
"Fv 	c #B59A95",
"Gv 	c #B69D99",
"Hv 	c #BAA39F",
"Iv 	c #C1A9A6",
"Jv 	c #EDD4D1",
"Kv 	c #FEFAF8",
"Lv 	c #F7EDEC",
"Mv 	c #FEFDFC",
"Nv 	c #FEF8F5",
"Ov 	c #F5DED7",
"Pv 	c #D1B8B1",
"Qv 	c #C4ACA4",
"Rv 	c #BBA39A",
"Sv 	c #AE978E",
"Tv 	c #A58F86",
"Uv 	c #927D76",
"Vv 	c #8E7871",
"Wv 	c #8B756E",
"Xv 	c #87716A",
"Yv 	c #7D675F",
"Zv 	c #7C665D",
"`v 	c #7E675F",
" w 	c #7F6960",
".w 	c #7E685F",
"+w 	c #88746A",
"@w 	c #968178",
"#w 	c #BAA29C",
"$w 	c #ECD9D5",
"%w 	c #FCF9F7",
"&w 	c #CAB9B6",
"*w 	c #948582",
"=w 	c #786B67",
"-w 	c #726560",
";w 	c #71635D",
">w 	c #675651",
",w 	c #53443F",
"'w 	c #4A3C2C",
")w 	c #443225",
"!w 	c #48392C",
"~w 	c #3D2F24",
"{w 	c #413729",
"]w 	c #4C4232",
"^w 	c #4F4434",
"/w 	c #685A46",
"(w 	c #786B50",
"_w 	c #59442F",
":w 	c #5C4632",
"<w 	c #47362D",
"[w 	c #45352F",
"}w 	c #4D3C35",
"|w 	c #53413B",
"1w 	c #58443F",
"2w 	c #5F4A44",
"3w 	c #67534C",
"4w 	c #735D56",
"5w 	c #836B64",
"6w 	c #937B73",
"7w 	c #A88E86",
"8w 	c #C2A69D",
"9w 	c #DABBB2",
"0w 	c #EFCFC3",
"aw 	c #F9E6D8",
"bw 	c #FBEBDD",
"cw 	c #FAEADC",
"dw 	c #FAE7D9",
"ew 	c #F9E0D1",
"fw 	c #F6D0C2",
"gw 	c #EDC3B5",
"hw 	c #E4B4A7",
"iw 	c #DEAB9E",
"jw 	c #D2A398",
"kw 	c #C59B92",
"lw 	c #B8978F",
"mw 	c #B2958F",
"nw 	c #B19792",
"ow 	c #B49C98",
"pw 	c #C2ABA7",
"qw 	c #CCB5B1",
"rw 	c #DCC4C2",
"sw 	c #ECD3D0",
"tw 	c #F8E1DE",
"uw 	c #FAF7F5",
"vw 	c #F2D8D2",
"ww 	c #DDC4BD",
"xw 	c #CDB4AD",
"yw 	c #C0A7A0",
"zw 	c #BAA299",
"Aw 	c #B69F96",
"Bw 	c #A89289",
"Cw 	c #8C766F",
"Dw 	c #89746D",
"Ew 	c #88726B",
"Fw 	c #7B655C",
"Gw 	c #7D675E",
"Hw 	c #846E64",
"Iw 	c #816B61",
"Jw 	c #7E685E",
"Kw 	c #7F6860",
"Lw 	c #978178",
"Mw 	c #AB968F",
"Nw 	c #F2E1DB",
"Ow 	c #C0AFAC",
"Pw 	c #817470",
"Qw 	c #726460",
"Rw 	c #6C5C55",
"Sw 	c #5B4B46",
"Tw 	c #473730",
"Uw 	c #493C2D",
"Vw 	c #443325",
"Ww 	c #48382A",
"Xw 	c #48392B",
"Yw 	c #3E3025",
"Zw 	c #4B4031",
"`w 	c #4E4332",
" x 	c #5D4F3C",
".x 	c #695A42",
"+x 	c #5D4732",
"@x 	c #42322B",
"#x 	c #43332E",
"$x 	c #493832",
"%x 	c #4D3B35",
"&x 	c #54413C",
"*x 	c #5A4640",
"=x 	c #614D47",
"-x 	c #6C5750",
";x 	c #77615B",
">x 	c #9D837B",
",x 	c #BA9E96",
"'x 	c #CCAEA4",
")x 	c #E3C4B9",
"!x 	c #F9E3D7",
"~x 	c #F9E5D8",
"{x 	c #F9E2D3",
"]x 	c #F7D5C9",
"^x 	c #F0C6B8",
"/x 	c #E3B4A7",
"(x 	c #D8A79B",
"_x 	c #CD9F93",
":x 	c #BF978E",
"<x 	c #B2928A",
"[x 	c #AC8F89",
"}x 	c #B39C98",
"|x 	c #BAA4A0",
"1x 	c #C4AEAA",
"2x 	c #D2BBB8",
"3x 	c #E0C7C4",
"4x 	c #FAE8E2",
"5x 	c #E7CEC8",
"6x 	c #C4AAA4",
"7x 	c #BBA39B",
"8x 	c #B7A098",
"9x 	c #927C75",
"0x 	c #8A766F",
"ax 	c #856F67",
"bx 	c #897269",
"cx 	c #867065",
"dx 	c #836C62",
"ex 	c #7F695F",
"fx 	c #89746A",
"gx 	c #A6928A",
"hx 	c #C3ABA6",
"ix 	c #D5BFB9",
"jx 	c #EBD5D0",
"kx 	c #F2E6E5",
"lx 	c #9D908D",
"mx 	c #756865",
"nx 	c #6D605B",
"ox 	c #6C5C57",
"px 	c #69564F",
"qx 	c #4C4033",
"rx 	c #443224",
"sx 	c #453628",
"tx 	c #4B4030",
"ux 	c #493D2E",
"vx 	c #544635",
"wx 	c #5E4E39",
"xx 	c #5C4630",
"yx 	c #3D2E29",
"zx 	c #41312C",
"Ax 	c #463530",
"Bx 	c #503F39",
"Cx 	c #55433D",
"Dx 	c #5C4943",
"Ex 	c #644F49",
"Fx 	c #6E5952",
"Gx 	c #7C665F",
"Hx 	c #8D766F",
"Ix 	c #A38981",
"Jx 	c #BB9F97",
"Kx 	c #CDB0A7",
"Lx 	c #EACBBF",
"Mx 	c #F5D6CB",
"Nx 	c #F8DDD0",
"Ox 	c #F9E2D4",
"Px 	c #F8DFD2",
"Qx 	c #F6D4C8",
"Rx 	c #EAC2B6",
"Sx 	c #DCB1A4",
"Tx 	c #D0A497",
"Ux 	c #C4998E",
"Vx 	c #B89288",
"Wx 	c #A88A84",
"Xx 	c #A58983",
"Yx 	c #A48B85",
"Zx 	c #A78F8B",
"`x 	c #AD9691",
" y 	c #B49E9A",
".y 	c #BDA7A4",
"+y 	c #CAB3B0",
"@y 	c #DAC1BF",
"#y 	c #FDF5F0",
"$y 	c #ECD3CD",
"%y 	c #BDA69F",
"&y 	c #B9A19A",
"*y 	c #B39D95",
"=y 	c #99847D",
"-y 	c #8E7971",
";y 	c #8E776E",
">y 	c #8C756B",
",y 	c #887167",
"'y 	c #846D63",
")y 	c #826C61",
"!y 	c #856F65",
"~y 	c #8F7972",
"{y 	c #99867F",
"]y 	c #A5908B",
"^y 	c #BBA29D",
"/y 	c #BFABA5",
"(y 	c #EBD4D0",
"_y 	c #D2C2C0",
":y 	c #847774",
"<y 	c #6D605D",
"[y 	c #6B5C57",
"}y 	c #66544E",
"|y 	c #65524B",
"1y 	c #52423C",
"2y 	c #483A33",
"3y 	c #463628",
"4y 	c #594632",
"5y 	c #5C4631",
"6y 	c #3D2D27",
"7y 	c #3F302A",
"8y 	c #45342E",
"9y 	c #483731",
"0y 	c #4A3934",
"ay 	c #52403B",
"by 	c #57443F",
"cy 	c #5E4B45",
"dy 	c #66534D",
"ey 	c #6F5B55",
"fy 	c #7D6760",
"gy 	c #927972",
"hy 	c #A18981",
"iy 	c #B49890",
"jy 	c #C8ABA2",
"ky 	c #DEC0B5",
"ly 	c #F0D1C5",
"my 	c #F3D4C8",
"ny 	c #F6D9CD",
"oy 	c #F2D0C4",
"py 	c #E3BEB2",
"qy 	c #D3ACA0",
"ry 	c #C79F93",
"sy 	c #AD8981",
"ty 	c #9F837D",
"uy 	c #9D827C",
"vy 	c #9D8580",
"wy 	c #A9928E",
"xy 	c #AE9995",
"yy 	c #B7A19D",
"zy 	c #C3ADA9",
"Ay 	c #D4BCB9",
"By 	c #E7CECB",
"Cy 	c #F8E0DD",
"Dy 	c #FDF8F4",
"Ey 	c #EFD5D0",
"Fy 	c #D8BFB9",
"Gy 	c #BAA39B",
"Hy 	c #B49E96",
"Iy 	c #AD968E",
"Jy 	c #907A70",
"Ky 	c #917970",
"Ly 	c #897369",
"My 	c #887168",
"Ny 	c #8A7771",
"Oy 	c #93807B",
"Py 	c #D1B6B0",
"Qy 	c #C8B4AE",
"Ry 	c #EDD8D3",
"Sy 	c #FAEFEC",
"Ty 	c #726661",
"Uy 	c #655854",
"Vy 	c #614F49",
"Wy 	c #574640",
"Xy 	c #4A3931",
"Yy 	c #5A5250",
"Zy 	c #423023",
"`y 	c #49382A",
" z 	c #3F3225",
".z 	c #43392B",
"+z 	c #4A3D2D",
"@z 	c #564230",
"#z 	c #5D4530",
"$z 	c #382926",
"%z 	c #3E2F2A",
"&z 	c #43322D",
"*z 	c #45342F",
"=z 	c #4B3A34",
"-z 	c #4E3D38",
";z 	c #594641",
">z 	c #604D47",
",z 	c #68554E",
"'z 	c #76605A",
")z 	c #937C75",
"!z 	c #A18780",
"~z 	c #B39891",
"{z 	c #BEA59C",
"]z 	c #D8BBB1",
"^z 	c #E3C6BB",
"/z 	c #F0CFC3",
"(z 	c #E7C7BC",
"_z 	c #D9B7AC",
":z 	c #C8A69B",
"<z 	c #BA978C",
"[z 	c #AD8A81",
"}z 	c #A3837B",
"|z 	c #9D8079",
"1z 	c #987D78",
"2z 	c #977F7B",
"3z 	c #A28C88",
"4z 	c #A8928E",
"5z 	c #B09B97",
"6z 	c #BCA6A2",
"7z 	c #CDB5B2",
"8z 	c #E2CAC7",
"9z 	c #F0D8D3",
"0z 	c #CCB4AD",
"az 	c #C2ABA4",
"bz 	c #BCA49E",
"cz 	c #AE978F",
"dz 	c #947D73",
"ez 	c #937B72",
"fz 	c #8F796E",
"gz 	c #8B756A",
"hz 	c #8C746B",
"iz 	c #866F67",
"jz 	c #806B64",
"kz 	c #806E68",
"lz 	c #8C7A77",
"mz 	c #A89591",
"nz 	c #C1ADA9",
"oz 	c #D3BEBB",
"pz 	c #D6C1BD",
"qz 	c #F1DEDA",
"rz 	c #827370",
"sz 	c #5E4C45",
"tz 	c #594741",
"uz 	c #4D403A",
"vz 	c #574D44",
"wz 	c #433123",
"xz 	c #453427",
"yz 	c #473629",
"zz 	c #3F3125",
"Az 	c #453929",
"Bz 	c #574231",
"Cz 	c #5E4631",
"Dz 	c #5E4530",
"Ez 	c #3B2B26",
"Fz 	c #3D2D29",
"Gz 	c #41302B",
"Hz 	c #44342E",
"Iz 	c #4B3A35",
"Jz 	c #503F3A",
"Kz 	c #55433E",
"Lz 	c #5B4943",
"Mz 	c #635049",
"Nz 	c #907972",
"Oz 	c #A48C84",
"Pz 	c #AD948C",
"Qz 	c #BEA49B",
"Rz 	c #CCB0A7",
"Sz 	c #DBBDB2",
"Tz 	c #D5B7AD",
"Uz 	c #CBACA2",
"Vz 	c #BB9C92",
"Wz 	c #AC8E84",
"Xz 	c #A2847B",
"Yz 	c #987C74",
"Zz 	c #937872",
"`z 	c #907771",
" A 	c #907975",
".A 	c #96817C",
"+A 	c #9C8783",
"@A 	c #AC9793",
"#A 	c #C7B0AC",
"$A 	c #D5BEBA",
"%A 	c #E9D0CD",
"&A 	c #F9E5E2",
"*A 	c #FEF8F6",
"=A 	c #F3DBD7",
"-A 	c #DEC6C0",
";A 	c #D1B9B2",
">A 	c #C6ADA6",
",A 	c #BEA69E",
"'A 	c #B7A097",
")A 	c #AE998F",
"!A 	c #9C857D",
"~A 	c #967E76",
"{A 	c #907A72",
"]A 	c #8B746C",
"^A 	c #978176",
"/A 	c #90786F",
"(A 	c #8C756D",
"_A 	c #7A6963",
":A 	c #867572",
"<A 	c #B8A19C",
"[A 	c #CDB8B6",
"}A 	c #E8D3D3",
"|A 	c #F5E0E0",
"1A 	c #E9D2CF",
"2A 	c #D9C4BF",
"3A 	c #F5E6E3",
"4A 	c #F0E3E1",
"5A 	c #A08F8B",
"6A 	c #6D5F5A",
"7A 	c #5D4B44",
"8A 	c #57463F",
"9A 	c #47362E",
"0A 	c #4D3E33",
"aA 	c #433124",
"bA 	c #453527",
"cA 	c #473729",
"dA 	c #4A392B",
"eA 	c #453729",
"fA 	c #403527",
"gA 	c #443727",
"hA 	c #5B4330",
"iA 	c #5C4531",
"jA 	c #342623",
"kA 	c #3C2C28",
"lA 	c #3F2F2A",
"mA 	c #43322E",
"nA 	c #493833",
"oA 	c #4D3C37",
"pA 	c #51403A",
"qA 	c #574540",
"rA 	c #5F4D47",
"sA 	c #6C5650",
"tA 	c #725E58",
"uA 	c #7E6962",
"vA 	c #8A746D",
"wA 	c #AC948A",
"xA 	c #B99F97",
"yA 	c #C7AAA0",
"zA 	c #C4A69C",
"AA 	c #B79B92",
"BA 	c #AC9087",
"CA 	c #9F847C",
"DA 	c #967C74",
"EA 	c #8F756E",
"FA 	c #8E736D",
"GA 	c #8A746F",
"HA 	c #907A76",
"IA 	c #947E7A",
"JA 	c #9B8681",
"KA 	c #A58F8B",
"LA 	c #B09A96",
"MA 	c #BCA5A1",
"NA 	c #CCB4B0",
"OA 	c #DCC3BF",
"PA 	c #FAEAE7",
"QA 	c #DCC3BD",
"RA 	c #D7BFB9",
"SA 	c #AE9991",
"TA 	c #927A72",
"UA 	c #8F786F",
"VA 	c #8B746D",
"WA 	c #89726A",
"XA 	c #968075",
"YA 	c #988277",
"ZA 	c #988177",
"`A 	c #937C73",
" B 	c #8B746B",
".B 	c #78635B",
"+B 	c #735F59",
"@B 	c #6F5D59",
"#B 	c #756461",
"$B 	c #9C8884",
"%B 	c #BBA8A5",
"&B 	c #E5D2D2",
"*B 	c #FEFBFC",
"=B 	c #F7E6E4",
"-B 	c #D9C3BF",
";B 	c #F3E2DF",
">B 	c #F6EFED",
",B 	c #786661",
"'B 	c #61514C",
")B 	c #5B4A44",
"!B 	c #54433D",
"~B 	c #4E3D36",
"{B 	c #4B3932",
"]B 	c #534843",
"^B 	c #463528",
"/B 	c #4A3A2B",
"(B 	c #433628",
"_B 	c #433626",
":B 	c #332522",
"<B 	c #3B2B27",
"[B 	c #3E2E29",
"}B 	c #40302B",
"|B 	c #42322D",
"1B 	c #44332E",
"2B 	c #473631",
"3B 	c #493834",
"4B 	c #513F3A",
"5B 	c #594742",
"6B 	c #604C46",
"7B 	c #645049",
"8B 	c #6A564F",
"9B 	c #745F58",
"0B 	c #7D6861",
"aB 	c #9A837B",
"bB 	c #AC948C",
"cB 	c #B89D95",
"dB 	c #AE938A",
"eB 	c #A68C84",
"fB 	c #947B73",
"gB 	c #8C746C",
"hB 	c #866E68",
"iB 	c #846D67",
"jB 	c #826C66",
"kB 	c #856F69",
"lB 	c #88736E",
"mB 	c #8D7773",
"nB 	c #98827E",
"oB 	c #9E8884",
"pB 	c #A8928D",
"qB 	c #B59E9A",
"rB 	c #C2AAA6",
"sB 	c #D1B8B5",
"tB 	c #E2C9C5",
"uB 	c #F4DCD8",
"vB 	c #FAE7E2",
"wB 	c #E5CBC6",
"xB 	c #CEB5AE",
"yB 	c #B8A199",
"zB 	c #AF9791",
"AB 	c #9E867E",
"BB 	c #978077",
"CB 	c #927971",
"DB 	c #907870",
"EB 	c #8F776F",
"FB 	c #8A736A",
"GB 	c #998278",
"HB 	c #947D74",
"IB 	c #8C756C",
"JB 	c #6D5A55",
"KB 	c #6A5A57",
"LB 	c #806F6C",
"MB 	c #998784",
"NB 	c #BAA7A8",
"OB 	c #F4E7E9",
"PB 	c #F0DBD8",
"QB 	c #D0BAB4",
"RB 	c #EDD7D4",
"SB 	c #F6E4E3",
"TB 	c #BFA9A6",
"UB 	c #8A726C",
"VB 	c #695651",
"WB 	c #5D4B45",
"XB 	c #4A3932",
"YB 	c #493932",
"ZB 	c #423124",
"`B 	c #473628",
" C 	c #4A382A",
".C 	c #403425",
"+C 	c #5C4530",
"@C 	c #5E4630",
"#C 	c #5D452F",
"$C 	c #362723",
"%C 	c #3A2A26",
"&C 	c #3D2D28",
"*C 	c #4B3934",
"=C 	c #52413C",
"-C 	c #584640",
";C 	c #5E4A44",
">C 	c #624E48",
",C 	c #7B665F",
"'C 	c #856F68",
")C 	c #947C75",
"!C 	c #9B837B",
"~C 	c #988078",
"{C 	c #957C74",
"]C 	c #907770",
"^C 	c #88716A",
"/C 	c #836D66",
"(C 	c #806A63",
"_C 	c #7E6861",
":C 	c #7D6761",
"<C 	c #7F6A64",
"[C 	c #836E69",
"}C 	c #8B7671",
"|C 	c #927C77",
"1C 	c #99837E",
"2C 	c #A28B87",
"3C 	c #BAA19E",
"4C 	c #C7AFAB",
"5C 	c #DFC6C2",
"6C 	c #F6DFDB",
"7C 	c #F8E1DC",
"8C 	c #E8CDC7",
"9C 	c #D6BBB6",
"0C 	c #C7AFA7",
"aC 	c #BBA29B",
"bC 	c #B19992",
"cC 	c #A58D86",
"dC 	c #9A8179",
"eC 	c #977D75",
"fC 	c #957B71",
"gC 	c #93796F",
"hC 	c #91776F",
"iC 	c #90766E",
"jC 	c #8F756D",
"kC 	c #8C736B",
"lC 	c #907970",
"mC 	c #988378",
"nC 	c #998379",
"oC 	c #9E877E",
"pC 	c #9F887F",
"qC 	c #9C847B",
"rC 	c #73615B",
"sC 	c #6A5A56",
"tC 	c #6F5F5C",
"uC 	c #887874",
"vC 	c #9C8A88",
"wC 	c #B4A3A4",
"xC 	c #F9F2F3",
"yC 	c #DAC3BE",
"zC 	c #C1ACA6",
"AC 	c #C7B1AD",
"BC 	c #B7A19C",
"CC 	c #95786F",
"DC 	c #765D56",
"EC 	c #5E4C46",
"FC 	c #493731",
"GC 	c #49372F",
"HC 	c #5B534B",
"IC 	c #433022",
"JC 	c #483729",
"KC 	c #4A392A",
"LC 	c #4A382B",
"MC 	c #413326",
"NC 	c #403326",
"OC 	c #5E4932",
"PC 	c #5D4630",
"QC 	c #3D2D25",
"RC 	c #3A2A25",
"SC 	c #3C2C27",
"TC 	c #453430",
"UC 	c #473632",
"VC 	c #56443F",
"WC 	c #5A4741",
"XC 	c #6A554F",
"YC 	c #715D56",
"ZC 	c #79655E",
"`C 	c #866F68",
" D 	c #826C65",
".D 	c #79635D",
"+D 	c #7A655F",
"@D 	c #7D6963",
"#D 	c #937C78",
"$D 	c #9B847F",
"%D 	c #B19993",
"&D 	c #C3A9A4",
"*D 	c #DAC0BD",
"=D 	c #DAC2BE",
"-D 	c #F9E2DF",
";D 	c #F3DBD5",
">D 	c #DFC5BF",
",D 	c #D2B9B2",
"'D 	c #C1A8A0",
")D 	c #A68D85",
"!D 	c #9D847C",
"~D 	c #9A8078",
"{D 	c #957B72",
"]D 	c #947970",
"^D 	c #91776E",
"/D 	c #8F756C",
"(D 	c #8D736A",
"_D 	c #8B7268",
":D 	c #8C7269",
"<D 	c #947B72",
"[D 	c #947D72",
"}D 	c #90796F",
"|D 	c #988278",
"1D 	c #9A847A",
"2D 	c #A18B84",
"3D 	c #8C7870",
"4D 	c #7B6864",
"5D 	c #72635F",
"6D 	c #877672",
"7D 	c #8E7D7B",
"8D 	c #827573",
"9D 	c #AA9A9A",
"0D 	c #EFE2E4",
"aD 	c #EFDDD9",
"bD 	c #C6B0AB",
"cD 	c #B39E99",
"dD 	c #AD938F",
"eD 	c #9C7E74",
"fD 	c #8E7063",
"gD 	c #62504A",
"hD 	c #58463F",
"iD 	c #4B3A33",
"jD 	c #493730",
"kD 	c #4A372F",
"lD 	c #5B5450",
"mD 	c #4F4238",
"nD 	c #423022",
"oD 	c #493729",
"pD 	c #4A3829",
"qD 	c #47382A",
"rD 	c #54432F",
"sD 	c #5D442E",
"tD 	c #5E472F",
"uD 	c #3A2A23",
"vD 	c #392925",
"wD 	c #41312D",
"xD 	c #4F3D38",
"yD 	c #54423D",
"zD 	c #64514A",
"AD 	c #6E5852",
"BD 	c #78635C",
"CD 	c #79635C",
"DD 	c #7A645D",
"ED 	c #756059",
"FD 	c #735E57",
"GD 	c #755E58",
"HD 	c #745F59",
"ID 	c #79645F",
"JD 	c #7F6A65",
"KD 	c #86716B",
"LD 	c #907A74",
"MD 	c #9A827D",
"ND 	c #AB928B",
"OD 	c #BFA7A0",
"PD 	c #C6ACA7",
"QD 	c #D0B5B0",
"RD 	c #F1D6D2",
"SD 	c #F9E4E0",
"TD 	c #EDD4CE",
"UD 	c #D6BEB6",
"VD 	c #C2A9A1",
"WD 	c #BCA39B",
"XD 	c #AD938C",
"YD 	c #B1978E",
"ZD 	c #A58A83",
"`D 	c #937971",
" E 	c #886E65",
".E 	c #866C62",
"+E 	c #856B62",
"@E 	c #866D63",
"#E 	c #8B7168",
"$E 	c #90756D",
"%E 	c #937970",
"&E 	c #967C72",
"*E 	c #977C73",
"=E 	c #927970",
"-E 	c #917A70",
";E 	c #937C72",
">E 	c #9A8379",
",E 	c #A48D84",
"'E 	c #AF978E",
")E 	c #CFB5B0",
"!E 	c #8C7C78",
"~E 	c #8F7E7B",
"{E 	c #92817F",
"]E 	c #736766",
"^E 	c #817373",
"/E 	c #998B8B",
"(E 	c #DDCCCC",
"_E 	c #F8EEEC",
":E 	c #A9958E",
"<E 	c #A37D73",
"[E 	c #A07C6E",
"}E 	c #6C564E",
"|E 	c #5A4842",
"1E 	c #4C3A34",
"2E 	c #46352E",
"3E 	c #4A372E",
"4E 	c #4E443F",
"5E 	c #453326",
"6E 	c #473528",
"7E 	c #51412E",
"8E 	c #5F4730",
"9E 	c #3F2E27",
"0E 	c #3A2A24",
"aE 	c #3C2C26",
"bE 	c #443430",
"cE 	c #463631",
"dE 	c #4D3B37",
"eE 	c #503E39",
"fE 	c #584540",
"gE 	c #5C4842",
"hE 	c #63504A",
"iE 	c #6A544E",
"jE 	c #6D5952",
"kE 	c #6E5A53",
"lE 	c #6C5852",
"mE 	c #6C5851",
"nE 	c #6B5852",
"oE 	c #705A56",
"pE 	c #705B55",
"qE 	c #715C56",
"rE 	c #765F5A",
"sE 	c #7A6560",
"tE 	c #8A736D",
"uE 	c #947C76",
"vE 	c #9E847E",
"wE 	c #A58B83",
"xE 	c #B3958E",
"yE 	c #C0A29B",
"zE 	c #D1B3AE",
"AE 	c #DABCB7",
"BE 	c #E2C4BE",
"CE 	c #F2D3CF",
"DE 	c #F9E5E0",
"EE 	c #FCF3EF",
"FE 	c #EBD2CC",
"GE 	c #D1B8B2",
"HE 	c #C1A8A1",
"IE 	c #B39A92",
"JE 	c #A78F86",
"KE 	c #B1978F",
"LE 	c #AC928A",
"ME 	c #9F867D",
"NE 	c #977E76",
"OE 	c #937A71",
"PE 	c #8F776E",
"QE 	c #897169",
"RE 	c #80675D",
"SE 	c #7D645A",
"TE 	c #7E665B",
"UE 	c #846B61",
"VE 	c #897066",
"WE 	c #8F756B",
"XE 	c #927A6F",
"YE 	c #937B71",
"ZE 	c #967F75",
"`E 	c #998378",
" F 	c #9B847A",
".F 	c #9C867C",
"+F 	c #D4BAB5",
"@F 	c #F7E5E2",
"#F 	c #F8EBEA",
"$F 	c #E4CECC",
"%F 	c #A99793",
"&F 	c #A1918F",
"*F 	c #8E7F7E",
"=F 	c #867978",
"-F 	c #827674",
";F 	c #8F8080",
">F 	c #B5A4A4",
",F 	c #F6EBEB",
"'F 	c #D5BDB9",
")F 	c #9F877E",
"!F 	c #9D7F77",
"~F 	c #B18276",
"{F 	c #7A625A",
"]F 	c #4E3C36",
"^F 	c #46342D",
"/F 	c #48352D",
"(F 	c #40312A",
"_F 	c #483628",
":F 	c #48382B",
"<F 	c #433426",
"[F 	c #503D2B",
"}F 	c #3E2D27",
"|F 	c #44332F",
"1F 	c #483732",
"2F 	c #4C3B36",
"3F 	c #55423D",
"4F 	c #5C4843",
"5F 	c #5F4B45",
"6F 	c #614E48",
"7F 	c #64504A",
"8F 	c #66524C",
"9F 	c #65524D",
"0F 	c #64524C",
"aF 	c #69544F",
"bF 	c #6A5550",
"cF 	c #6D5852",
"dF 	c #715C57",
"eF 	c #77625C",
"fF 	c #907670",
"gF 	c #997E77",
"hF 	c #A68881",
"iF 	c #BC9D96",
"jF 	c #CCADA7",
"kF 	c #D8B8B2",
"lF 	c #DDBEB7",
"mF 	c #EBC9C2",
"nF 	c #F6D7CF",
"oF 	c #F9E5DF",
"pF 	c #CAB1AB",
"qF 	c #BDA39B",
"rF 	c #B69C94",
"sF 	c #B59991",
"tF 	c #B0968E",
"uF 	c #A78D85",
"vF 	c #957B73",
"wF 	c #90776F",
"xF 	c #876E64",
"yF 	c #82695F",
"zF 	c #7E655B",
"AF 	c #7F665C",
"BF 	c #82695E",
"CF 	c #846C62",
"DF 	c #8A7167",
"EF 	c #8F766C",
"FF 	c #957B70",
"GF 	c #937B70",
"HF 	c #957D73",
"IF 	c #998177",
"JF 	c #9C857B",
"KF 	c #A58E85",
"LF 	c #E1D9D8",
"MF 	c #D3BFBE",
"NF 	c #C4B2B2",
"OF 	c #BBAAAA",
"PF 	c #A59595",
"QF 	c #918281",
"RF 	c #8D7F7D",
"SF 	c #998A8A",
"TF 	c #D0BABA",
"UF 	c #DBC3BE",
"VF 	c #AB938D",
"WF 	c #9D8279",
"XF 	c #A07C71",
"YF 	c #AD7C6F",
"ZF 	c #C08D80",
"`F 	c #846B63",
" G 	c #624E47",
".G 	c #45332D",
"+G 	c #47342C",
"@G 	c #44332B",
"#G 	c #412E20",
"$G 	c #473527",
"%G 	c #493728",
"&G 	c #4C3A2B",
"*G 	c #523E2B",
"=G 	c #6C543C",
"-G 	c #4F3B2B",
";G 	c #3E2E27",
">G 	c #412F29",
",G 	c #3E2E28",
"'G 	c #42312D",
")G 	c #53413C",
"!G 	c #54423C",
"~G 	c #56443E",
"{G 	c #5B4842",
"]G 	c #5D4A43",
"^G 	c #5F4C46",
"/G 	c #5F4C47",
"(G 	c #5E4C47",
"_G 	c #5F4D48",
":G 	c #614E49",
"<G 	c #66534E",
"[G 	c #67544E",
"}G 	c #6D5853",
"|G 	c #735E58",
"1G 	c #816A64",
"2G 	c #8B726C",
"3G 	c #A1837A",
"4G 	c #AD8D84",
"5G 	c #BC988F",
"6G 	c #CCA49B",
"7G 	c #DFB6AC",
"8G 	c #E8BEB3",
"9G 	c #F2C8BD",
"0G 	c #F5CFC6",
"aG 	c #F7DAD3",
"bG 	c #FAE9E4",
"cG 	c #DABFB9",
"dG 	c #D4B7AE",
"eG 	c #D3B6AD",
"fG 	c #CFB1A8",
"gG 	c #BDA199",
"hG 	c #B1968E",
"iG 	c #A0867D",
"jG 	c #90776E",
"kG 	c #8C736A",
"lG 	c #886F66",
"mG 	c #866B61",
"nG 	c #836A60",
"oG 	c #856C62",
"pG 	c #92786F",
"qG 	c #977E72",
"rG 	c #977C71",
"sG 	c #947A70",
"tG 	c #988075",
"uG 	c #9C847A",
"vG 	c #9F887E",
"wG 	c #A18980",
"xG 	c #A38B83",
"yG 	c #A79088",
"zG 	c #B49D95",
"AG 	c #D1B8B3",
"BG 	c #FAEEEB",
"CG 	c #EEE7E7",
"DG 	c #EEE7E5",
"EG 	c #FBF5F5",
"FG 	c #FBF8F9",
"GG 	c #F7EFEF",
"HG 	c #EAD7D8",
"IG 	c #BDAAA9",
"JG 	c #9F8E8B",
"KG 	c #978683",
"LG 	c #AB9895",
"MG 	c #D8C1BF",
"NG 	c #FCF2F2",
"OG 	c #FDF7F5",
"PG 	c #D5BBB6",
"QG 	c #AC9089",
"RG 	c #A17F76",
"SG 	c #AB8172",
"TG 	c #AC7A69",
"UG 	c #C79183",
"VG 	c #9B8178",
"WG 	c #69544D",
"XG 	c #52413A",
"YG 	c #45332C",
"ZG 	c #46332A",
"`G 	c #48362D",
" H 	c #534E4C",
".H 	c #564B45",
"+H 	c #453325",
"@H 	c #473426",
"#H 	c #4B3A2B",
"$H 	c #463527",
"%H 	c #4C3826",
"&H 	c #745D41",
"*H 	c #5A422D",
"=H 	c #4E3A2B",
"-H 	c #443129",
";H 	c #3E2D28",
">H 	c #44342F",
",H 	c #463531",
"'H 	c #4D3B36",
")H 	c #513F39",
"!H 	c #54413B",
"~H 	c #56423C",
"{H 	c #57443E",
"]H 	c #594640",
"^H 	c #5A4843",
"/H 	c #5D4B47",
"(H 	c #614F4A",
"_H 	c #67534E",
":H 	c #6D5953",
"<H 	c #7B655F",
"[H 	c #856D66",
"}H 	c #947871",
"|H 	c #9B7E76",
"1H 	c #B08D84",
"2H 	c #C29C92",
"3H 	c #D1A89D",
"4H 	c #E6B8AC",
"5H 	c #F4CABB",
"6H 	c #F6D1C3",
"7H 	c #F6D3C6",
"8H 	c #F6D5CC",
"9H 	c #F7D8D1",
"0H 	c #F8E0DB",
"aH 	c #FEF9F6",
"bH 	c #FDF7F3",
"cH 	c #EED2CC",
"dH 	c #D6BCB5",
"eH 	c #C8ABA4",
"fH 	c #C0A39C",
"gH 	c #B59B92",
"hH 	c #AB9189",
"iH 	c #A0867C",
"jH 	c #987E74",
"kH 	c #91766D",
"lH 	c #8C7268",
"mH 	c #886D63",
"nH 	c #846B60",
"oH 	c #80675C",
"pH 	c #81675D",
"qH 	c #866C61",
"rH 	c #8A7067",
"sH 	c #8C746A",
"tH 	c #90776D",
"uH 	c #967C73",
"vH 	c #997F75",
"wH 	c #987E73",
"xH 	c #9C8379",
"yH 	c #A38A80",
"zH 	c #A99187",
"AH 	c #AE958C",
"BH 	c #B0978F",
"CH 	c #B0988F",
"DH 	c #B39D94",
"EH 	c #C5AEA7",
"FH 	c #F1E6E3",
"GH 	c #FDFCFC",
"HH 	c #F2E4E4",
"IH 	c #C0ABA8",
"JH 	c #9D8A86",
"KH 	c #9B8884",
"LH 	c #A99492",
"MH 	c #D2BAB9",
"NH 	c #EED7D5",
"OH 	c #EDD5D0",
"PH 	c #C1A8A3",
"QH 	c #AD8D85",
"RH 	c #AB8075",
"SH 	c #B78372",
"TH 	c #B57E69",
"UH 	c #B58477",
"VH 	c #A2867E",
"WH 	c #68534C",
"XH 	c #503E37",
"YH 	c #44322B",
"ZH 	c #433028",
"`H 	c #49362E",
" I 	c #4A423F",
".I 	c #493B2F",
"+I 	c #463426",
"@I 	c #493628",
"#I 	c #4B392A",
"$I 	c #4C392B",
"%I 	c #503927",
"&I 	c #735E43",
"*I 	c #57402B",
"=I 	c #57412E",
"-I 	c #3F2D27",
";I 	c #47342B",
">I 	c #45322B",
",I 	c #413029",
"'I 	c #3F2E28",
")I 	c #402F29",
"!I 	c #40302A",
"~I 	c #42312C",
"{I 	c #453530",
"]I 	c #4A3833",
"^I 	c #503D37",
"/I 	c #513E38",
"(I 	c #533F39",
"_I 	c #54403A",
":I 	c #55423C",
"<I 	c #55443F",
"[I 	c #584642",
"}I 	c #5C4A45",
"|I 	c #6F5A54",
"1I 	c #77605A",
"2I 	c #7F6761",
"3I 	c #8B7069",
"4I 	c #987B72",
"5I 	c #AE8B82",
"6I 	c #C39C91",
"7I 	c #D7ADA2",
"8I 	c #EFC0B4",
"9I 	c #F6D6C7",
"0I 	c #F9E1CF",
"aI 	c #F8E0CF",
"bI 	c #F8DCCF",
"cI 	c #F7D9CE",
"dI 	c #F7D8CE",
"eI 	c #F7D8D0",
"fI 	c #F8DDD7",
"gI 	c #F7DFDA",
"hI 	c #FAEFEA",
"iI 	c #EED4CE",
"jI 	c #DABEB8",
"kI 	c #CEB1A9",
"lI 	c #C4A79E",
"mI 	c #BD9F96",
"nI 	c #B79991",
"oI 	c #AB9086",
"pI 	c #9D8278",
"qI 	c #92766D",
"rI 	c #8C7167",
"sI 	c #886D62",
"tI 	c #82675B",
"uI 	c #7F6356",
"vI 	c #7B6054",
"wI 	c #7D6255",
"xI 	c #81675A",
"yI 	c #8B7167",
"zI 	c #91766C",
"AI 	c #9D8379",
"BI 	c #9F847A",
"CI 	c #A0877C",
"DI 	c #A78E83",
"EI 	c #B0968D",
"FI 	c #BAA198",
"GI 	c #C7AEA5",
"HI 	c #CDB2AC",
"II 	c #C6ADA5",
"JI 	c #E1C8C4",
"KI 	c #F9EEEC",
"LI 	c #E4CECB",
"MI 	c #AB9591",
"NI 	c #947F7B",
"OI 	c #937F7A",
"PI 	c #9E8986",
"QI 	c #B29D9A",
"RI 	c #BFA8A5",
"SI 	c #BEA6A0",
"TI 	c #AD887E",
"UI 	c #BC8478",
"VI 	c #C28471",
"WI 	c #BB826A",
"XI 	c #9C7165",
"YI 	c #9F827A",
"ZI 	c #66524B",
"`I 	c #4E3C35",
" J 	c #44312A",
".J 	c #412F27",
"+J 	c #49362C",
"@J 	c #453C38",
"#J 	c #413124",
"$J 	c #443324",
"%J 	c #4B382A",
"&J 	c #4D3725",
"*J 	c #776246",
"=J 	c #58422D",
"-J 	c #3E2D26",
";J 	c #423029",
">J 	c #402E28",
",J 	c #41302A",
"'J 	c #493732",
")J 	c #4E3B35",
"!J 	c #4F3C36",
"~J 	c #513D37",
"{J 	c #523E38",
"]J 	c #53403A",
"^J 	c #53423D",
"/J 	c #584641",
"(J 	c #5C4B45",
"_J 	c #64504B",
":J 	c #6B5751",
"<J 	c #735C57",
"[J 	c #79625C",
"}J 	c #856B64",
"|J 	c #95776F",
"1J 	c #AA8880",
"2J 	c #CCA69C",
"3J 	c #E1B9AD",
"4J 	c #EAC2B5",
"5J 	c #F9E4D5",
"6J 	c #FCF1DF",
"7J 	c #FCF0DE",
"8J 	c #FCF0DF",
"9J 	c #F9E3D4",
"0J 	c #F7D9CF",
"aJ 	c #F6D5CE",
"bJ 	c #F6D6CC",
"cJ 	c #F3D1CB",
"dJ 	c #F4D6D1",
"eJ 	c #F9DFDB",
"fJ 	c #FBEEEA",
"gJ 	c #F9E8E5",
"hJ 	c #FCEFEB",
"iJ 	c #F6D9D2",
"jJ 	c #EBCDC7",
"kJ 	c #D9BBB4",
"lJ 	c #CBADA5",
"mJ 	c #C0A298",
"nJ 	c #B6998F",
"oJ 	c #AB8F85",
"pJ 	c #9F8379",
"qJ 	c #93776D",
"rJ 	c #8B7065",
"sJ 	c #876C60",
"tJ 	c #83675B",
"uJ 	c #7E6255",
"vJ 	c #795E51",
"wJ 	c #7A5E50",
"xJ 	c #84695D",
"yJ 	c #8A6E63",
"zJ 	c #8F7469",
"AJ 	c #93796E",
"BJ 	c #9C8278",
"CJ 	c #AA8E84",
"DJ 	c #AC9187",
"EJ 	c #A2887F",
"FJ 	c #A78D83",
"GJ 	c #AF978C",
"HJ 	c #BDA49B",
"IJ 	c #D7BBB3",
"JJ 	c #F5E1DB",
"KJ 	c #E8CEC7",
"LJ 	c #D4BBB5",
"MJ 	c #D9C2BD",
"NJ 	c #F6E7E4",
"OJ 	c #F7E7E5",
"PJ 	c #927E79",
"QJ 	c #88726C",
"RJ 	c #8E7974",
"SJ 	c #97817D",
"TJ 	c #A08982",
"UJ 	c #9B8079",
"VJ 	c #B7867A",
"WJ 	c #DE9381",
"XJ 	c #D48973",
"YJ 	c #B27964",
"ZJ 	c #8D6457",
"`J 	c #4C3932",
" K 	c #44312B",
".K 	c #402D27",
"+K 	c #49352B",
"@K 	c #4A3729",
"#K 	c #4B3625",
"$K 	c #826E51",
"%K 	c #533C28",
"&K 	c #56402C",
"*K 	c #3D2B25",
"=K 	c #47332B",
"-K 	c #4B362E",
";K 	c #433029",
">K 	c #422F29",
",K 	c #42302A",
"'K 	c #44322C",
")K 	c #4C3934",
"!K 	c #4D3A34",
"~K 	c #523F39",
"{K 	c #523F3A",
"]K 	c #55433F",
"^K 	c #574642",
"/K 	c #604E48",
"(K 	c #65524C",
"_K 	c #755F59",
":K 	c #7F655F",
"<K 	c #B29187",
"[K 	c #C29E94",
"}K 	c #DDB5A9",
"|K 	c #F1CDC0",
"1K 	c #FBEFE0",
"2K 	c #FDF8E7",
"3K 	c #FCF2E3",
"4K 	c #FBEFE1",
"5K 	c #F7D7CC",
"6K 	c #F6D6CE",
"7K 	c #F1CEC6",
"8K 	c #EFCAC2",
"9K 	c #EDCDC6",
"0K 	c #EBCBC4",
"aK 	c #EACCC6",
"bK 	c #E9CCC6",
"cK 	c #E9CDC8",
"dK 	c #EACFCA",
"eK 	c #EDD2CD",
"fK 	c #F0D5D1",
"gK 	c #FAE8E3",
"hK 	c #ECCDC8",
"iK 	c #F6D9D3",
"jK 	c #E6C8C1",
"kK 	c #D1B3AB",
"lK 	c #C3A59B",
"mK 	c #B89B90",
"nK 	c #AE9087",
"oK 	c #A5897D",
"pK 	c #9C8076",
"qK 	c #91756A",
"rK 	c #8B6F62",
"sK 	c #876A5D",
"tK 	c #836657",
"uK 	c #7A5E51",
"vK 	c #7F6256",
"wK 	c #83675A",
"xK 	c #886C60",
"yK 	c #8C7165",
"zK 	c #91766A",
"AK 	c #977C72",
"BK 	c #9E8378",
"CK 	c #A48A7D",
"DK 	c #B2958B",
"EK 	c #D9BCB2",
"FK 	c #D3B9B1",
"GK 	c #F0D7D0",
"HK 	c #F7E9E4",
"IK 	c #CDB6B0",
"JK 	c #CBB4AF",
"KK 	c #F1DBD8",
"LK 	c #F9EDEA",
"MK 	c #BDA6A1",
"NK 	c #917B76",
"OK 	c #816B64",
"PK 	c #7E6760",
"QK 	c #7F6862",
"RK 	c #856C65",
"SK 	c #92746B",
"TK 	c #C68B7C",
"UK 	c #ED9E8B",
"VK 	c #D78974",
"WK 	c #A76F5D",
"XK 	c #825C4F",
"YK 	c #836861",
"ZK 	c #4B3831",
"`K 	c #3F2C25",
" L 	c #5A514B",
".L 	c #413022",
"+L 	c #463425",
"@L 	c #483527",
"#L 	c #4C3524",
"$L 	c #725F45",
"%L 	c #4E3926",
"&L 	c #57422D",
"*L 	c #453227",
"=L 	c #46322A",
"-L 	c #4B362D",
";L 	c #45322A",
">L 	c #43302A",
",L 	c #4B3832",
"'L 	c #4C3933",
")L 	c #4D3933",
"!L 	c #4E3A34",
"~L 	c #503B35",
"{L 	c #513D36",
"]L 	c #503D38",
"^L 	c #52403C",
"/L 	c #5D4B46",
"(L 	c #6F5953",
"_L 	c #7A615C",
":L 	c #90746B",
"<L 	c #AE8F85",
"[L 	c #B29388",
"}L 	c #D6B5A9",
"|L 	c #F3D1C3",
"1L 	c #FDF7E8",
"2L 	c #FFFEF7",
"3L 	c #FEFAEF",
"4L 	c #FBEDDE",
"5L 	c #FAE8D9",
"6L 	c #F4CFC3",
"7L 	c #F3C9BE",
"8L 	c #EDC3B9",
"9L 	c #E7C3B9",
"0L 	c #E5C3BC",
"aL 	c #DFBEB8",
"bL 	c #D6B8B1",
"cL 	c #D9BEB9",
"dL 	c #DEC2BD",
"eL 	c #D8BCB7",
"fL 	c #E0C3BE",
"gL 	c #F2D7D2",
"hL 	c #F7DCD6",
"iL 	c #F5D6D1",
"jL 	c #F4D6CF",
"kL 	c #D7B8AD",
"lL 	c #C7A89E",
"mL 	c #BD9F94",
"nL 	c #B3958A",
"oL 	c #AA8D82",
"pL 	c #A1847A",
"qL 	c #977A6F",
"rL 	c #907366",
"sL 	c #8C6F61",
"tL 	c #86685B",
"uL 	c #7E6154",
"vL 	c #7D6153",
"wL 	c #826558",
"xL 	c #86695C",
"yL 	c #8C7064",
"zL 	c #92766A",
"AL 	c #977B70",
"BL 	c #9D8176",
"CL 	c #A1857A",
"DL 	c #A58A7F",
"EL 	c #B0948A",
"FL 	c #C0A59B",
"GL 	c #D2B8B0",
"HL 	c #F6E6DE",
"IL 	c #8F7975",
"JL 	c #7C655E",
"KL 	c #786059",
"LL 	c #745E55",
"ML 	c #745D55",
"NL 	c #785F57",
"OL 	c #927064",
"PL 	c #C98E7E",
"QL 	c #EEA593",
"RL 	c #CC8877",
"SL 	c #9D6A59",
"TL 	c #79564A",
"UL 	c #735A52",
"VL 	c #48362F",
"WL 	c #3F2C24",
"XL 	c #463128",
"YL 	c #40332D",
"ZL 	c #4C3D32",
"`L 	c #493627",
" M 	c #63523B",
".M 	c #4F3B28",
"+M 	c #55402C",
"@M 	c #4F3B2A",
"#M 	c #402D26",
"$M 	c #4C362D",
"%M 	c #48342C",
"&M 	c #46322B",
"*M 	c #45312A",
"=M 	c #46342E",
"-M 	c #4A3832",
";M 	c #4A3731",
">M 	c #4C3832",
",M 	c #4F3A33",
"'M 	c #4F3B35",
")M 	c #513E39",
"!M 	c #57453F",
"~M 	c #67534D",
"{M 	c #745B56",
"]M 	c #8E736A",
"^M 	c #9A7D75",
"/M 	c #AE9086",
"(M 	c #C0A297",
"_M 	c #E8C8BB",
":M 	c #FEFDF6",
"<M 	c #FAEADA",
"[M 	c #F9E3D3",
"}M 	c #F7D6C4",
"|M 	c #F3C1B2",
"1M 	c #F2C2B2",
"2M 	c #E9B7AD",
"3M 	c #DCB1A8",
"4M 	c #D2ABA2",
"5M 	c #CEAEA7",
"6M 	c #CDAEA7",
"7M 	c #CFB1AA",
"8M 	c #DEC1B9",
"9M 	c #F7E2DC",
"0M 	c #F8DDD8",
"aM 	c #F7D9D4",
"bM 	c #F8DED6",
"cM 	c #F2D2C9",
"dM 	c #DEBDB2",
"eM 	c #CEAEA2",
"fM 	c #C6A69B",
"gM 	c #BA9C90",
"hM 	c #B19488",
"iM 	c #A78B7F",
"jM 	c #9D7F73",
"kM 	c #97786B",
"lM 	c #947467",
"mM 	c #8E6D61",
"nM 	c #886A5B",
"oM 	c #87685B",
"pM 	c #8C6D60",
"qM 	c #8E7062",
"rM 	c #8E7164",
"sM 	c #927569",
"tM 	c #9B7E72",
"uM 	c #9E8175",
"vM 	c #A3867A",
"wM 	c #A98C80",
"xM 	c #B3968B",
"yM 	c #BCA297",
"zM 	c #D1B6AF",
"AM 	c #F1D8D1",
"BM 	c #F8EDEB",
"CM 	c #C0A9A5",
"DM 	c #E5CEC9",
"EM 	c #FEF9F7",
"FM 	c #F8E7E2",
"GM 	c #79635A",
"HM 	c #735B53",
"IM 	c #6E574F",
"JM 	c #6E564C",
"KM 	c #71574F",
"LM 	c #87685E",
"MM 	c #D09789",
"NM 	c #E3A69A",
"OM 	c #BB8677",
"PM 	c #8E6254",
"QM 	c #725046",
"RM 	c #654C46",
"SM 	c #46332D",
"TM 	c #422F28",
"UM 	c #402C25",
"VM 	c #452F27",
"WM 	c #423731",
"XM 	c #453224",
"YM 	c #4A3827",
"ZM 	c #543C29",
"`M 	c #513E2B",
" N 	c #533F2B",
".N 	c #523F2B",
"+N 	c #3B2823",
"@N 	c #483229",
"#N 	c #4B352C",
"$N 	c #4A352C",
"%N 	c #48332B",
"&N 	c #46312A",
"*N 	c #46352F",
"=N 	c #483630",
"-N 	c #483631",
";N 	c #493630",
">N 	c #4B3731",
",N 	c #4D3831",
"'N 	c #4E3933",
")N 	c #58453F",
"!N 	c #634F49",
"~N 	c #7B645C",
"{N 	c #887068",
"]N 	c #A88B82",
"^N 	c #D2B3A8",
"/N 	c #EECFC3",
"(N 	c #FDF6ED",
"_N 	c #FEF9E8",
":N 	c #F8E2CF",
"<N 	c #F5D0BE",
"[N 	c #F2BEAD",
"}N 	c #F1B4A4",
"|N 	c #E4AC9D",
"1N 	c #D7A699",
"2N 	c #CFA59A",
"3N 	c #CDA69B",
"4N 	c #D5ADA3",
"5N 	c #D7B5AA",
"6N 	c #EBCCC6",
"7N 	c #F2D5CF",
"8N 	c #FEFCF8",
"9N 	c #F3D5CF",
"0N 	c #F6D8D0",
"aN 	c #F8DDD5",
"bN 	c #F1CFC7",
"cN 	c #DEBCB1",
"dN 	c #D5B4A8",
"eN 	c #CDAB9F",
"fN 	c #BE9F93",
"gN 	c #B4968A",
"hN 	c #AC8E81",
"iN 	c #A28376",
"jN 	c #9A786C",
"kN 	c #A07C6F",
"lN 	c #987568",
"mN 	c #967466",
"nN 	c #997769",
"oN 	c #997A6B",
"pN 	c #97786C",
"qN 	c #987A6D",
"rN 	c #9A7D71",
"sN 	c #9E8073",
"tN 	c #A08276",
"uN 	c #A6887C",
"vN 	c #AF9185",
"wN 	c #BB9D93",
"xN 	c #C5A99F",
"yN 	c #CDB1A9",
"zN 	c #E4C7C1",
"AN 	c #FCF7F2",
"BN 	c #F9ECE9",
"CN 	c #BEA9A5",
"DN 	c #AD9792",
"EN 	c #C3ACA7",
"FN 	c #E6CEC9",
"GN 	c #DCC2BD",
"HN 	c #755D55",
"IN 	c #6F554D",
"JN 	c #6C524A",
"KN 	c #6C5249",
"LN 	c #6C534A",
"MN 	c #81655A",
"NN 	c #B99086",
"ON 	c #CFA198",
"PN 	c #A57F74",
"QN 	c #835E53",
"RN 	c #6B4B42",
"SN 	c #58423C",
"TN 	c #523F38",
"UN 	c #46332C",
"VN 	c #412F28",
"WN 	c #432E26",
"XN 	c #413123",
"YN 	c #483526",
"ZN 	c #4D3825",
"`N 	c #553E2B",
" O 	c #523E2A",
".O 	c #433025",
"+O 	c #432F27",
"@O 	c #49332A",
"#O 	c #4B342C",
"$O 	c #4A342B",
"%O 	c #48332A",
"&O 	c #47322A",
"*O 	c #45322C",
"=O 	c #473531",
"-O 	c #46342F",
";O 	c #47342F",
">O 	c #47342E",
",O 	c #48352F",
"'O 	c #4A3630",
")O 	c #4C3731",
"!O 	c #4D3832",
"~O 	c #4E3A33",
"{O 	c #503C35",
"]O 	c #533E38",
"^O 	c #5D4943",
"/O 	c #745D57",
"(O 	c #B0958C",
"_O 	c #D0B2A8",
":O 	c #F1D5C9",
"<O 	c #FEFBF3",
"[O 	c #FEFBEF",
"}O 	c #FAE5D4",
"|O 	c #F6D1C0",
"1O 	c #F4C9B7",
"2O 	c #F2BDAB",
"3O 	c #EFB29F",
"4O 	c #EBAA9A",
"5O 	c #E7A796",
"6O 	c #E0A694",
"7O 	c #DDA795",
"8O 	c #E7AE9A",
"9O 	c #DDB0A3",
"0O 	c #E2B3A6",
"aO 	c #EBC1B6",
"bO 	c #EBC3B8",
"cO 	c #F6DAD3",
"dO 	c #FCF5F2",
"eO 	c #F9E4DE",
"fO 	c #EED0C9",
"gO 	c #EBCDC5",
"hO 	c #F5D4CD",
"iO 	c #F7D9D0",
"jO 	c #F0CEC4",
"kO 	c #E0BDB2",
"lO 	c #DCB9AE",
"mO 	c #D1AFA4",
"nO 	c #C2A196",
"oO 	c #B9988B",
"pO 	c #B19083",
"qO 	c #AA877B",
"rO 	c #A17E71",
"sO 	c #9F7B6F",
"tO 	c #9F7B6E",
"uO 	c #A07B6E",
"vO 	c #A17D6F",
"wO 	c #A38072",
"xO 	c #A38073",
"yO 	c #9F8073",
"zO 	c #9F8174",
"AO 	c #A48679",
"BO 	c #A98B7F",
"CO 	c #AE9083",
"DO 	c #B5978B",
"EO 	c #C6A89E",
"FO 	c #D4B6AD",
"GO 	c #D1B5AC",
"HO 	c #D5BAB2",
"IO 	c #F1D8D2",
"JO 	c #F2E2DF",
"KO 	c #B8A3A0",
"LO 	c #9A8782",
"MO 	c #AD958F",
"NO 	c #DCC1BC",
"OO 	c #D1B7B1",
"PO 	c #B09892",
"QO 	c #977F78",
"RO 	c #846A61",
"SO 	c #725A50",
"TO 	c #694F46",
"UO 	c #694F45",
"VO 	c #664D45",
"WO 	c #785F58",
"XO 	c #AA8C85",
"YO 	c #BC9A94",
"ZO 	c #9D7D75",
"`O 	c #7B5A51",
" P 	c #63463D",
".P 	c #513B34",
"+P 	c #3E2B23",
"@P 	c #422E25",
"#P 	c #5A524C",
"$P 	c #412F21",
"%P 	c #463325",
"&P 	c #453426",
"*P 	c #473526",
"=P 	c #4B3727",
"-P 	c #563F2B",
";P 	c #625039",
">P 	c #503D2A",
",P 	c #4B3828",
"'P 	c #3E2A22",
")P 	c #473028",
"!P 	c #4B342B",
"~P 	c #48322A",
"{P 	c #49322A",
"]P 	c #47322B",
"^P 	c #44332D",
"/P 	c #44322D",
"(P 	c #49352F",
"_P 	c #4B3630",
":P 	c #503A34",
"<P 	c #513C36",
"[P 	c #543F39",
"}P 	c #5A4641",
"|P 	c #5F4B46",
"1P 	c #68544D",
"2P 	c #735D57",
"3P 	c #A18880",
"4P 	c #B49A92",
"5P 	c #D4B8AE",
"6P 	c #E1C5BA",
"7P 	c #F2D8CE",
"8P 	c #EED6CB",
"9P 	c #FBEFE3",
"0P 	c #FCF1E4",
"aP 	c #FCF1E3",
"bP 	c #F3C8B7",
"cP 	c #E6AFA0",
"dP 	c #E1A493",
"eP 	c #DC9F8C",
"fP 	c #DB9E8B",
"gP 	c #E1A38E",
"hP 	c #EDAF97",
"iP 	c #ECB099",
"jP 	c #F1C2A4",
"kP 	c #F1B8A0",
"lP 	c #E9BBAF",
"mP 	c #E8C1B7",
"nP 	c #F2D6CE",
"oP 	c #F8E3DE",
"pP 	c #F5E4E0",
"qP 	c #E9CFCA",
"rP 	c #DFC2BC",
"sP 	c #E4C6BF",
"tP 	c #F2D1C9",
"uP 	c #F6D4CC",
"vP 	c #ECC7BD",
"wP 	c #E3BEB4",
"xP 	c #DFBDB2",
"yP 	c #D3B1A6",
"zP 	c #C5A498",
"AP 	c #BE9C8F",
"BP 	c #B79487",
"CP 	c #B08C7F",
"DP 	c #A98577",
"EP 	c #A47F71",
"FP 	c #A68071",
"GP 	c #A57E6F",
"HP 	c #A57E70",
"IP 	c #A68173",
"JP 	c #AB8676",
"KP 	c #AB8576",
"LP 	c #A78577",
"MP 	c #A58678",
"NP 	c #A88A7D",
"OP 	c #B19387",
"PP 	c #B7988B",
"QP 	c #BD9E91",
"RP 	c #DDBEB4",
"SP 	c #D5B9AF",
"TP 	c #CEB3AB",
"UP 	c #DABEB6",
"VP 	c #F4DDD6",
"WP 	c #F9EEEA",
"XP 	c #EED8D4",
"YP 	c #937D77",
"ZP 	c #9F8781",
"`P 	c #A8918B",
" Q 	c #B59E98",
".Q 	c #BFA6A0",
"+Q 	c #AE958F",
"@Q 	c #967E78",
"#Q 	c #7C6259",
"$Q 	c #6F554C",
"%Q 	c #674D44",
"&Q 	c #634A41",
"*Q 	c #60483F",
"=Q 	c #5A443E",
"-Q 	c #9A7F7A",
";Q 	c #A58A84",
">Q 	c #90736C",
",Q 	c #75574E",
"'Q 	c #5B4038",
")Q 	c #4C3730",
"!Q 	c #4A362E",
"~Q 	c #3F2B23",
"{Q 	c #412C24",
"]Q 	c #3B2E27",
"^Q 	c #4D4239",
"/Q 	c #473425",
"(Q 	c #493526",
"_Q 	c #4C3422",
":Q 	c #6E5B41",
"<Q 	c #4D3927",
"[Q 	c #3B2720",
"}Q 	c #462F27",
"|Q 	c #483128",
"1Q 	c #4A332A",
"2Q 	c #43322C",
"3Q 	c #4B3631",
"4Q 	c #533D37",
"5Q 	c #56423D",
"6Q 	c #5A4742",
"7Q 	c #705C56",
"8Q 	c #7F6A63",
"9Q 	c #A88F86",
"0Q 	c #BCA198",
"aQ 	c #E4C7BD",
"bQ 	c #EBCCC2",
"cQ 	c #F2D0C5",
"dQ 	c #F0CEC2",
"eQ 	c #E7C3B8",
"fQ 	c #E1BBAF",
"gQ 	c #D5AEA1",
"hQ 	c #CCA093",
"iQ 	c #D5A090",
"jQ 	c #D39A89",
"kQ 	c #D89C89",
"lQ 	c #D79B86",
"mQ 	c #E4A88F",
"nQ 	c #EEB49B",
"oQ 	c #F1BD9F",
"pQ 	c #F2C0A7",
"qQ 	c #F3C4AD",
"rQ 	c #F2C1AC",
"sQ 	c #EABFB3",
"tQ 	c #E8C0B3",
"uQ 	c #EBCCC3",
"vQ 	c #EDCCC4",
"wQ 	c #E0C5BE",
"xQ 	c #F2E1DC",
"yQ 	c #D2B5AE",
"zQ 	c #D2B5AD",
"AQ 	c #DBBDB5",
"BQ 	c #ECCBC3",
"CQ 	c #EFCDC4",
"DQ 	c #E5C1B6",
"EQ 	c #E1BCB2",
"FQ 	c #DFBCB0",
"GQ 	c #D2B0A5",
"HQ 	c #C9A699",
"IQ 	c #C6A395",
"JQ 	c #BF9D90",
"KQ 	c #B79284",
"LQ 	c #B38C7C",
"MQ 	c #B08877",
"NQ 	c #AE8574",
"OQ 	c #AA8170",
"PQ 	c #A77F6F",
"QQ 	c #A88171",
"RQ 	c #A88476",
"SQ 	c #AA8576",
"TQ 	c #AA8678",
"UQ 	c #A9887A",
"VQ 	c #AE8E81",
"WQ 	c #B7988C",
"XQ 	c #BE9E92",
"YQ 	c #C4A397",
"ZQ 	c #D0B0A4",
"`Q 	c #DDBFB5",
" R 	c #D7B9AF",
".R 	c #C9ADA4",
"+R 	c #C9AEA6",
"@R 	c #D9BEB6",
"#R 	c #E5C7BF",
"$R 	c #DDC3BD",
"%R 	c #AC958F",
"&R 	c #917B73",
"*R 	c #98817A",
"=R 	c #A0857E",
"-R 	c #967A73",
";R 	c #886E67",
">R 	c #7E645D",
",R 	c #775B53",
"'R 	c #6A5047",
")R 	c #5E463E",
"!R 	c #574139",
"~R 	c #533F37",
"{R 	c #654F49",
"]R 	c #8B716C",
"^R 	c #8E7670",
"/R 	c #7E645E",
"(R 	c #6A4E47",
"_R 	c #573D35",
":R 	c #4A342D",
"<R 	c #412D26",
"[R 	c #3F2A23",
"}R 	c #412D24",
"|R 	c #3B2D28",
"1R 	c #443327",
"2R 	c #483425",
"3R 	c #493523",
"4R 	c #746147",
"5R 	c #4B3827",
"6R 	c #422E23",
"7R 	c #422D24",
"8R 	c #463028",
"9R 	c #4B332B",
"0R 	c #4A332B",
"aR 	c #42312B",
"bR 	c #523D37",
"cR 	c #594843",
"dR 	c #5F4D46",
"eR 	c #64514C",
"fR 	c #6D5A54",
"gR 	c #7D6A63",
"hR 	c #A48B83",
"iR 	c #B3998F",
"jR 	c #BEA198",
"kR 	c #CAACA3",
"lR 	c #D3B6AA",
"mR 	c #DEBDB1",
"nR 	c #D3AFA3",
"oR 	c #C49F94",
"pR 	c #B89186",
"qR 	c #B2897D",
"rR 	c #B08477",
"sR 	c #B68776",
"tR 	c #BC8A76",
"uR 	c #C48E7C",
"vR 	c #EBAF93",
"wR 	c #F1B79B",
"xR 	c #F4C5A4",
"yR 	c #F3C2AA",
"zR 	c #F3C7B4",
"AR 	c #F0C4B6",
"BR 	c #EEC1B5",
"CR 	c #E1B3A7",
"DR 	c #D5B3AB",
"ER 	c #D7B8B1",
"FR 	c #C9ABA2",
"GR 	c #CCAEA7",
"HR 	c #C6A9A1",
"IR 	c #CEB0A9",
"JR 	c #DCBCB3",
"KR 	c #E0BFB5",
"LR 	c #DAB7AC",
"MR 	c #DBB8AD",
"NR 	c #DCB8AD",
"OR 	c #D0AEA1",
"PR 	c #CBA799",
"QR 	c #CBA597",
"RR 	c #C8A295",
"SR 	c #BF988A",
"TR 	c #BB8F7E",
"UR 	c #BB8E7D",
"VR 	c #B48876",
"WR 	c #AB816F",
"XR 	c #A9806E",
"YR 	c #A87F6E",
"ZR 	c #AF8574",
"`R 	c #B48C7A",
" S 	c #B18B7C",
".S 	c #B28F80",
"+S 	c #B79486",
"@S 	c #BC9C8F",
"#S 	c #C4A396",
"$S 	c #C8A79A",
"%S 	c #D1B1A4",
"&S 	c #DEBEB3",
"*S 	c #D8B9AF",
"=S 	c #C8AAA0",
"-S 	c #BEA39B",
";S 	c #C6ABA3",
">S 	c #CFB2A9",
",S 	c #CAAEA7",
"'S 	c #A8908A",
")S 	c #9A7F78",
"!S 	c #A2837B",
"~S 	c #AA857C",
"{S 	c #AE837A",
"]S 	c #AB7E75",
"^S 	c #9B756A",
"/S 	c #86675F",
"(S 	c #7A5E57",
"_S 	c #70554D",
":S 	c #614A41",
"<S 	c #533E36",
"[S 	c #4B3933",
"}S 	c #5C463F",
"|S 	c #775F59",
"1S 	c #6F5651",
"2S 	c #60463F",
"3S 	c #513930",
"4S 	c #48322B",
"5S 	c #453028",
"6S 	c #453029",
"7S 	c #402D25",
"8S 	c #3F2A22",
"9S 	c #412C23",
"0S 	c #423024",
"aS 	c #5F4C37",
"bS 	c #4C3A29",
"cS 	c #4B3928",
"dS 	c #3D2921",
"eS 	c #462F26",
"fS 	c #483027",
"gS 	c #493129",
"hS 	c #493229",
"iS 	c #493329",
"jS 	c #483129",
"kS 	c #4B332A",
"lS 	c #40302C",
"mS 	c #44352E",
"nS 	c #45332E",
"oS 	c #4F3B36",
"pS 	c #4F3C37",
"qS 	c #55443E",
"rS 	c #5B4944",
"sS 	c #63514B",
"tS 	c #756159",
"uS 	c #867069",
"vS 	c #8C756E",
"wS 	c #9B8379",
"xS 	c #A58981",
"yS 	c #A88B81",
"zS 	c #A98A80",
"AS 	c #AD8B81",
"BS 	c #A68379",
"CS 	c #A27D71",
"DS 	c #A37A6E",
"ES 	c #A97C6D",
"FS 	c #B48271",
"GS 	c #AD7F6F",
"HS 	c #C28B79",
"IS 	c #CF9682",
"JS 	c #F0B79F",
"KS 	c #F1BDA8",
"LS 	c #F5CDB6",
"MS 	c #F8DECB",
"NS 	c #FAEAD9",
"OS 	c #E9BCAE",
"PS 	c #D8B0A4",
"QS 	c #BFA197",
"RS 	c #C0A29A",
"SS 	c #BC9E95",
"TS 	c #BC9E96",
"US 	c #C0A098",
"VS 	c #C7A79E",
"WS 	c #C6A79D",
"XS 	c #C4A49A",
"YS 	c #C9AA9E",
"ZS 	c #CEACA2",
"`S 	c #C9A79B",
" T 	c #C8A497",
".T 	c #CCA597",
"+T 	c #C8A294",
"@T 	c #C99E8F",
"#T 	c #C89885",
"$T 	c #C79582",
"%T 	c #BE8D79",
"&T 	c #AA7E6D",
"*T 	c #AC806E",
"=T 	c #A77C6A",
"-T 	c #B18775",
";T 	c #B28A79",
">T 	c #B58E7F",
",T 	c #BB9688",
"'T 	c #BE998C",
")T 	c #BE9D91",
"!T 	c #C7A599",
"~T 	c #CAA89B",
"{T 	c #D1AFA2",
"]T 	c #DCBBAF",
"^T 	c #D7B7AE",
"/T 	c #C5A79F",
"(T 	c #B69C93",
"_T 	c #B69B91",
":T 	c #B99D93",
"<T 	c #A1867E",
"[T 	c #9C8179",
"}T 	c #A37E75",
"|T 	c #AD8176",
"1T 	c #BC8479",
"2T 	c #CF8C7E",
"3T 	c #CA8A7D",
"4T 	c #B47F73",
"5T 	c #8D6B61",
"6T 	c #775B52",
"7T 	c #664D46",
"8T 	c #55413A",
"9T 	c #473630",
"0T 	c #644D46",
"aT 	c #644C46",
"bT 	c #5F4741",
"cT 	c #573F37",
"dT 	c #4D352C",
"eT 	c #472F28",
"fT 	c #412D25",
"gT 	c #402B23",
"hT 	c #3F2D1F",
"iT 	c #443223",
"jT 	c #483525",
"kT 	c #463222",
"lT 	c #4C3C2A",
"mT 	c #4E3B2A",
"nT 	c #39261E",
"oT 	c #442F25",
"pT 	c #463027",
"qT 	c #493128",
"rT 	c #4B3229",
"sT 	c #4C332A",
"tT 	c #42332E",
"uT 	c #4C3831",
"vT 	c #51403B",
"wT 	c #54433E",
"xT 	c #6B5851",
"yT 	c #745D58",
"zT 	c #78625B",
"AT 	c #816861",
"BT 	c #886C62",
"CT 	c #8F6E63",
"DT 	c #957064",
"ET 	c #9D7466",
"FT 	c #9E7467",
"GT 	c #A97B6E",
"HT 	c #C58F7E",
"IT 	c #DCA28E",
"JT 	c #F1B9A6",
"KT 	c #F5D1C1",
"LT 	c #F8DECE",
"MT 	c #F6D4C4",
"NT 	c #CCA99E",
"OT 	c #BF9F94",
"PT 	c #BD9C92",
"QT 	c #B6978E",
"RT 	c #BA988F",
"ST 	c #BC978D",
"TT 	c #B79389",
"UT 	c #AF9085",
"VT 	c #B7998E",
"WT 	c #BC9D91",
"XT 	c #C4A194",
"YT 	c #D0A394",
"ZT 	c #D0A495",
"`T 	c #DAA796",
" U 	c #E2A893",
".U 	c #DC9E89",
"+U 	c #CF967F",
"@U 	c #B1816E",
"#U 	c #A87C69",
"$U 	c #AA7F6D",
"%U 	c #B88774",
"&U 	c #C69482",
"*U 	c #C99B8B",
"=U 	c #C39B8C",
"-U 	c #C19B8D",
";U 	c #BD9C90",
">U 	c #C1A295",
",U 	c #C3A396",
"'U 	c #CAAA9D",
")U 	c #D2B2A6",
"!U 	c #D0B2A7",
"~U 	c #C1A49A",
"{U 	c #B1958C",
"]U 	c #AA8F87",
"^U 	c #A88C83",
"/U 	c #A1857B",
"(U 	c #9D8077",
"_U 	c #A38275",
":U 	c #AC8477",
"<U 	c #BD8475",
"[U 	c #D88B79",
"}U 	c #E08D7C",
"|U 	c #E99484",
"1U 	c #DC9384",
"2U 	c #C68D81",
"3U 	c #9B736A",
"4U 	c #745851",
"5U 	c #402F2B",
"6U 	c #483831",
"7U 	c #553F39",
"8U 	c #56413A",
"9U 	c #564038",
"0U 	c #543B32",
"aU 	c #4B322B",
"bU 	c #462E26",
"cU 	c #422D25",
"dU 	c #3F2A21",
"eU 	c #382B24",
"fU 	c #554A44",
"gU 	c #422F21",
"hU 	c #463224",
"iU 	c #473324",
"jU 	c #463323",
"kU 	c #4D3B29",
"lU 	c #412B23",
"mU 	c #452E25",
"nU 	c #493027",
"oU 	c #493127",
"pU 	c #493028",
"qU 	c #4D342A",
"rU 	c #463632",
"sU 	c #46332E",
"tU 	c #483530",
"uU 	c #4A3732",
"vU 	c #4C3B35",
"wU 	c #4C3C36",
"xU 	c #53423E",
"yU 	c #6A554E",
"zU 	c #69554E",
"AU 	c #6E5751",
"BU 	c #705952",
"CU 	c #725952",
"DU 	c #755A52",
"EU 	c #795C54",
"FU 	c #7E6057",
"GU 	c #8A665C",
"HU 	c #8E6A5F",
"IU 	c #9A7266",
"JU 	c #997164",
"KU 	c #AE887B",
"LU 	c #C69D92",
"MU 	c #F1C7B9",
"NU 	c #FBEEDE",
"OU 	c #F9E7D8",
"PU 	c #ECC8BC",
"QU 	c #CBA99D",
"RU 	c #BA998F",
"SU 	c #B5948B",
"TU 	c #BF9287",
"UU 	c #C69084",
"VU 	c #BB8A7D",
"WU 	c #A48177",
"XU 	c #9E8177",
"YU 	c #AF9186",
"ZU 	c #CAA395",
"`U 	c #CDA395",
" V 	c #EBB19C",
".V 	c #F2BBA0",
"+V 	c #F0AE94",
"@V 	c #E6A087",
"#V 	c #BB8671",
"$V 	c #AA7966",
"%V 	c #BC8670",
"&V 	c #D79881",
"*V 	c #EBAB95",
"=V 	c #E6AC98",
"-V 	c #CA9E8F",
";V 	c #BD998B",
">V 	c #B19286",
",V 	c #A88D82",
"'V 	c #B09287",
")V 	c #B7998D",
"!V 	c #BFA297",
"~V 	c #B99C92",
"{V 	c #AE9288",
"]V 	c #A4877D",
"^V 	c #AD8A7E",
"/V 	c #AB877A",
"(V 	c #B18879",
"_V 	c #C8907E",
":V 	c #D38D77",
"<V 	c #EB907A",
"[V 	c #EB907B",
"}V 	c #D28878",
"|V 	c #C79286",
"1V 	c #C09085",
"2V 	c #95736A",
"3V 	c #6D534B",
"4V 	c #56413B",
"5V 	c #513931",
"6V 	c #523930",
"7V 	c #452D25",
"8V 	c #432D25",
"9V 	c #3F2921",
"0V 	c #3E2B22",
"aV 	c #3E322E",
"bV 	c #47382E",
"cV 	c #473325",
"dV 	c #4E3C29",
"eV 	c #66553D",
"fV 	c #493828",
"gV 	c #3B2820",
"hV 	c #452F25",
"iV 	c #483026",
"jV 	c #473027",
"kV 	c #483833",
"lV 	c #574440",
"mV 	c #614C46",
"nV 	c #634D47",
"oV 	c #634E48",
"pV 	c #634C47",
"qV 	c #674F49",
"rV 	c #69514A",
"sV 	c #6D534C",
"tV 	c #7A5C53",
"uV 	c #7D6057",
"vV 	c #7A5D53",
"wV 	c #927268",
"xV 	c #907066",
"yV 	c #BB9488",
"zV 	c #C9A89D",
"AV 	c #D5B5A9",
"BV 	c #EBC7BB",
"CV 	c #C4A498",
"DV 	c #AC8F86",
"EV 	c #A4867C",
"FV 	c #AD8980",
"GV 	c #AE8E83",
"HV 	c #BD8C80",
"IV 	c #CE8F82",
"JV 	c #C6877A",
"KV 	c #A37A6F",
"LV 	c #95776C",
"MV 	c #997C71",
"NV 	c #A2857B",
"OV 	c #AF8F84",
"PV 	c #C09A8B",
"QV 	c #CF9F90",
"RV 	c #EFB39C",
"SV 	c #F4C8A9",
"TV 	c #F3C0A0",
"UV 	c #ECA68C",
"VV 	c #C68871",
"WV 	c #AB7662",
"XV 	c #C2866F",
"YV 	c #ECA68B",
"ZV 	c #F2BDA3",
"`V 	c #F1B5A0",
" W 	c #C69B8D",
".W 	c #AF9084",
"+W 	c #9D8178",
"@W 	c #A7897E",
"#W 	c #9D8277",
"$W 	c #A3857A",
"%W 	c #AE8B81",
"&W 	c #B29288",
"*W 	c #B4968B",
"=W 	c #AD8F86",
"-W 	c #A88A7F",
";W 	c #AD8C80",
">W 	c #CDA494",
",W 	c #D3A695",
"'W 	c #D1A08E",
")W 	c #D59781",
"!W 	c #D48773",
"~W 	c #DF8772",
"{W 	c #D4816E",
"]W 	c #B2796B",
"^W 	c #AF8379",
"/W 	c #9E7D75",
"(W 	c #58423D",
"_W 	c #3E2F29",
":W 	c #46322C",
"<W 	c #47332C",
"[W 	c #4D352E",
"}W 	c #50372D",
"|W 	c #482F27",
"1W 	c #432C25",
"2W 	c #4A3329",
"3W 	c #3F2920",
"4W 	c #4A413E",
"5W 	c #402E22",
"6W 	c #4C3829",
"7W 	c #3F2F21",
"8W 	c #816D52",
"9W 	c #493928",
"0W 	c #4D3C2A",
"aW 	c #3E2C22",
"bW 	c #3F2C23",
"cW 	c #462E25",
"dW 	c #452F26",
"eW 	c #4C3329",
"fW 	c #4A3229",
"gW 	c #443029",
"hW 	c #493934",
"iW 	c #453531",
"jW 	c #4E3E39",
"kW 	c #513F3B",
"lW 	c #56433E",
"mW 	c #5C4640",
"nW 	c #5B4640",
"oW 	c #5C4741",
"pW 	c #5E4742",
"qW 	c #5E4741",
"rW 	c #614A44",
"sW 	c #6B5149",
"tW 	c #775A52",
"uW 	c #7C5F56",
"vW 	c #785D54",
"wW 	c #977970",
"xW 	c #BEA095",
"yW 	c #C2A095",
"zW 	c #B5978E",
"AW 	c #B19489",
"BW 	c #B3948A",
"CW 	c #A8867C",
"DW 	c #9F7C74",
"EW 	c #A2766B",
"FW 	c #9B766D",
"GW 	c #B57F72",
"HW 	c #99736A",
"IW 	c #876C61",
"JW 	c #92756B",
"KW 	c #987B71",
"LW 	c #A38579",
"MW 	c #B49083",
"NW 	c #C49788",
"OW 	c #EAAA94",
"PW 	c #F3BFA3",
"QW 	c #F2C0A0",
"RW 	c #EAA489",
"SW 	c #C2856D",
"TW 	c #A7735F",
"UW 	c #BF816C",
"VW 	c #EDA78D",
"WW 	c #F3BEA4",
"XW 	c #F0B29E",
"YW 	c #C7998B",
"ZW 	c #AF8E83",
"`W 	c #AD8F84",
" X 	c #A1867B",
".X 	c #8C7066",
"+X 	c #8C6E64",
"@X 	c #AF8277",
"#X 	c #B48B82",
"$X 	c #B08D85",
"%X 	c #AB8C83",
"&X 	c #A7897F",
"*X 	c #BA968B",
"=X 	c #E5BBAE",
"-X 	c #EFC7B8",
";X 	c #E4B8A9",
">X 	c #C28D7B",
",X 	c #AB7462",
"'X 	c #AF705F",
")X 	c #A56A5A",
"!X 	c #906558",
"~X 	c #936E65",
"{X 	c #846861",
"]X 	c #664F49",
"^X 	c #422F2A",
"/X 	c #422E28",
"(X 	c #422E27",
"_X 	c #402F28",
":X 	c #412E27",
"<X 	c #4C342C",
"[X 	c #4F362C",
"}X 	c #432B25",
"|X 	c #442D24",
"1X 	c #3C2921",
"2X 	c #524C4B",
"3X 	c #402E21",
"4X 	c #443023",
"5X 	c #5C4F3A",
"6X 	c #4B3A29",
"7X 	c #4B3B29",
"8X 	c #38261F",
"9X 	c #442E24",
"0X 	c #482F26",
"aX 	c #4B3228",
"bX 	c #483028",
"cX 	c #442F28",
"dX 	c #432F28",
"eX 	c #4F3C35",
"fX 	c #4F3D36",
"gX 	c #473733",
"hX 	c #4C3B37",
"iX 	c #55413B",
"jX 	c #57423D",
"kX 	c #57423C",
"lX 	c #614943",
"mX 	c #654B45",
"nX 	c #6B524B",
"oX 	c #6D554E",
"pX 	c #715952",
"qX 	c #866D64",
"rX 	c #806860",
"sX 	c #866D65",
"tX 	c #7F675F",
"uX 	c #886E66",
"vX 	c #8B6F67",
"wX 	c #94766E",
"xX 	c #B48073",
"yX 	c #AE7C70",
"zX 	c #9A7267",
"AX 	c #8A6D63",
"BX 	c #81655C",
"CX 	c #80655B",
"DX 	c #8F7369",
"EX 	c #93766C",
"FX 	c #9F8074",
"GX 	c #B68B7C",
"HX 	c #D79E89",
"IX 	c #EBAA8F",
"JX 	c #EFAE90",
"KX 	c #D8957D",
"LX 	c #B97F69",
"MX 	c #A26E5B",
"NX 	c #B67D66",
"OX 	c #E39B82",
"PX 	c #F0AE97",
"QX 	c #E5A593",
"RX 	c #BE9284",
"SX 	c #A8887D",
"TX 	c #95746B",
"UX 	c #AE786E",
"VX 	c #B38076",
"WX 	c #AE877E",
"XX 	c #A6877F",
"YX 	c #B5958A",
"ZX 	c #DEB7AA",
"`X 	c #E9C7BA",
" Y 	c #CCA498",
".Y 	c #A87E6F",
"+Y 	c #95685A",
"@Y 	c #8A6052",
"#Y 	c #835B4E",
"$Y 	c #7B594F",
"%Y 	c #795D54",
"&Y 	c #71564F",
"*Y 	c #5E4740",
"=Y 	c #473229",
"-Y 	c #402E27",
";Y 	c #3F2D26",
">Y 	c #4C342D",
",Y 	c #4F372E",
"'Y 	c #462E27",
")Y 	c #462D26",
"!Y 	c #4C342B",
"~Y 	c #452C23",
"{Y 	c #3D281F",
"]Y 	c #3A2922",
"^Y 	c #4F4947",
"/Y 	c #59504A",
"(Y 	c #473A29",
"_Y 	c #4C3C2B",
":Y 	c #4D3D2B",
"<Y 	c #413224",
"[Y 	c #3D2821",
"}Y 	c #432E24",
"|Y 	c #482F25",
"1Y 	c #4A3127",
"2Y 	c #4C3328",
"3Y 	c #4A3128",
"4Y 	c #432E28",
"5Y 	c #4F3B33",
"6Y 	c #513E37",
"7Y 	c #4C3A35",
"8Y 	c #4F3E3A",
"9Y 	c #4D3C38",
"0Y 	c #4F3D37",
"aY 	c #4E3C37",
"bY 	c #4E3B36",
"cY 	c #513D38",
"dY 	c #513C37",
"eY 	c #56403B",
"fY 	c #5B443E",
"gY 	c #67504A",
"hY 	c #7C655D",
"iY 	c #6D564F",
"jY 	c #725953",
"kY 	c #725A53",
"lY 	c #725A52",
"mY 	c #785D56",
"nY 	c #806157",
"oY 	c #795E55",
"pY 	c #8C6F64",
"qY 	c #81665B",
"rY 	c #7C6057",
"sY 	c #96786D",
"tY 	c #927469",
"uY 	c #977568",
"vY 	c #B28271",
"wY 	c #DE9C84",
"xY 	c #C18670",
"yY 	c #A2715E",
"zY 	c #9C6D5B",
"AY 	c #966756",
"BY 	c #A6725E",
"CY 	c #C3856F",
"DY 	c #D79581",
"EY 	c #C28D7E",
"FY 	c #9D7F75",
"GY 	c #896D63",
"HY 	c #7C6056",
"IY 	c #85655C",
"JY 	c #94675D",
"KY 	c #93695F",
"LY 	c #9C776E",
"MY 	c #957770",
"NY 	c #B7968B",
"OY 	c #C4A59A",
"PY 	c #A48278",
"QY 	c #876459",
"RY 	c #7E594E",
"SY 	c #745247",
"TY 	c #6B4C42",
"UY 	c #684A41",
"VY 	c #634840",
"WY 	c #5E443D",
"XY 	c #533C35",
"YY 	c #4D3630",
"ZY 	c #4B342D",
"`Y 	c #473129",
" Z 	c #3F2C27",
".Z 	c #4D362E",
"+Z 	c #51382E",
"@Z 	c #4F362D",
"#Z 	c #4A3228",
"$Z 	c #442C23",
"%Z 	c #3C271E",
"&Z 	c #473C30",
"*Z 	c #3F2D20",
"=Z 	c #4A3A2A",
"-Z 	c #4A3C2B",
";Z 	c #7A674B",
">Z 	c #473827",
",Z 	c #392921",
"'Z 	c #402C23",
")Z 	c #442E25",
"!Z 	c #4D3329",
"~Z 	c #4F3931",
"{Z 	c #523C35",
"]Z 	c #553E37",
"^Z 	c #523E36",
"/Z 	c #4B3834",
"(Z 	c #4F3E39",
"_Z 	c #503D36",
":Z 	c #594540",
"<Z 	c #58433D",
"[Z 	c #59453F",
"}Z 	c #5D4640",
"|Z 	c #735C54",
"1Z 	c #725B54",
"2Z 	c #5F4842",
"3Z 	c #654D46",
"4Z 	c #684F48",
"5Z 	c #674F47",
"6Z 	c #604941",
"7Z 	c #6F564D",
"8Z 	c #7B5F55",
"9Z 	c #806257",
"0Z 	c #816053",
"aZ 	c #815F53",
"bZ 	c #9C7261",
"cZ 	c #B37D68",
"dZ 	c #B67F69",
"eZ 	c #885F50",
"fZ 	c #8F6554",
"gZ 	c #A2715F",
"hZ 	c #A47563",
"iZ 	c #9C7465",
"jZ 	c #8F6F63",
"kZ 	c #8B6E65",
"lZ 	c #82675F",
"mZ 	c #775C53",
"nZ 	c #73554C",
"oZ 	c #8F655C",
"pZ 	c #806359",
"qZ 	c #7E645C",
"rZ 	c #775F57",
"sZ 	c #7D645C",
"tZ 	c #886C64",
"uZ 	c #6D5148",
"vZ 	c #654940",
"wZ 	c #5E433A",
"xZ 	c #5C4037",
"yZ 	c #5A4037",
"zZ 	c #594037",
"AZ 	c #553D35",
"BZ 	c #503931",
"CZ 	c #4C362F",
"DZ 	c #4C352D",
"EZ 	c #50372E",
"FZ 	c #4D342B",
"GZ 	c #423028",
"HZ 	c #412E28",
"IZ 	c #543A30",
"JZ 	c #4F352B",
"KZ 	c #51372D",
"LZ 	c #4B3328",
"MZ 	c #432B22",
"NZ 	c #3A261E",
"OZ 	c #392D27",
"PZ 	c #402F22",
"QZ 	c #412F22",
"RZ 	c #463828",
"SZ 	c #5B4E39",
"TZ 	c #483A28",
"UZ 	c #4A3B29",
"VZ 	c #473727",
"WZ 	c #392820",
"XZ 	c #422C24",
"YZ 	c #432D24",
"ZZ 	c #472E26",
"`Z 	c #4D3328",
" ` 	c #4E3329",
".` 	c #4C372F",
"+` 	c #513A33",
"@` 	c #553E35",
"#` 	c #533D34",
"$` 	c #4E3A32",
"%` 	c #4D3A33",
"&` 	c #4E3D39",
"*` 	c #4A3935",
"=` 	c #5A433C",
"-` 	c #59423C",
";` 	c #5B433C",
">` 	c #59423B",
",` 	c #5D453E",
"'` 	c #5B453D",
")` 	c #5D453D",
"!` 	c #61463F",
"~` 	c #664B42",
"{` 	c #73564B",
"]` 	c #987060",
"^` 	c #7F5C4E",
"/` 	c #896151",
"(` 	c #B07B66",
"_` 	c #8B6252",
":` 	c #765448",
"<` 	c #7C5749",
"[` 	c #7D594B",
"}` 	c #835C4F",
"|` 	c #7C5D51",
"1` 	c #795C52",
"2` 	c #765B52",
"3` 	c #6B5249",
"4` 	c #684E45",
"5` 	c #654B43",
"6` 	c #6A4E45",
"7` 	c #6B4F46",
"8` 	c #694E45",
"9` 	c #6C5148",
"0` 	c #695048",
"a` 	c #634C44",
"b` 	c #664E46",
"c` 	c #624A44",
"d` 	c #5C443C",
"e` 	c #583F37",
"f` 	c #563D35",
"g` 	c #553B32",
"h` 	c #533A31",
"i` 	c #4F362F",
"j` 	c #50372F",
"k` 	c #4C352E",
"l` 	c #4B352E",
"m` 	c #4E362E",
"n` 	c #463129",
"o` 	c #49332C",
"p` 	c #543B31",
"q` 	c #573C31",
"r` 	c #50362C",
"s` 	c #55392D",
"t` 	c #52372C",
"u` 	c #402920",
"v` 	c #392D2A",
"w` 	c #3E2D22",
"x` 	c #4A3E2C",
"y` 	c #4B3C2A",
"z` 	c #493A28",
"A` 	c #3B2C22",
"B` 	c #3D2A22",
"C` 	c #493026",
"D` 	c #4E3328",
"E` 	c #422E26",
"F` 	c #442F29",
"G` 	c #4E382F",
"H` 	c #533B32",
"I` 	c #553D34",
"J` 	c #563D34",
"K` 	c #523C33",
"L` 	c #523B32",
"M` 	c #533C33",
"N` 	c #533D35",
"O` 	c #523E37",
"P` 	c #513C35",
"Q` 	c #4E3831",
"R` 	c #4F3731",
"S` 	c #4F3A34",
"T` 	c #4D3A35",
"U` 	c #533D36",
"V` 	c #5A423B",
"W` 	c #553E36",
"X` 	c #5B4239",
"Y` 	c #5D4239",
"Z` 	c #63483E",
"`` 	c #684C42",
"  .	c #694A3F",
". .	c #6A4B40",
"+ .	c #6F4F44",
"@ .	c #735347",
"# .	c #6F5145",
"$ .	c #6D5045",
"% .	c #725246",
"& .	c #775448",
"* .	c #715145",
"= .	c #6E5044",
"- .	c #6C4F44",
"; .	c #694D44",
"> .	c #5D443B",
", .	c #563E35",
"' .	c #573E34",
") .	c #594038",
"! .	c #5F453C",
"~ .	c #60463D",
"{ .	c #574038",
"] .	c #563E37",
"^ .	c #533C34",
"/ .	c #523A33",
"( .	c #4F372F",
"_ .	c #4E352D",
": .	c #4A322A",
"< .	c #48342D",
"[ .	c #4C352C",
"} .	c #43312A",
"| .	c #41312A",
"1 .	c #47362F",
"2 .	c #4B352D",
"3 .	c #573D31",
"4 .	c #5B3E32",
"5 .	c #563B2E",
"6 .	c #573A2E",
"7 .	c #53382B",
"8 .	c #493125",
"9 .	c #3D271E",
"0 .	c #362620",
"a .	c #4F4846",
"b .	c #5B554F",
"c .	c #3C2B1F",
"d .	c #4B3D2D",
"e .	c #4E402E",
"f .	c #685840",
"g .	c #483928",
"h .	c #483A2B",
"i .	c #392923",
"j .	c #402C24",
"k .	c #4B3227",
"l .	c #563C32",
"m .	c #573D32",
"n .	c #553C32",
"o .	c #543C32",
"p .	c #543C33",
"q .	c #543C34",
"r .	c #513C34",
"s .	c #503830",
"t .	c #513830",
"u .	c #513832",
"v .	c #513A34",
"w .	c #52403A",
"x .	c #47342D",
"y .	c #4B3730",
"z .	c #503A33",
"A .	c #4F3933",
"B .	c #513932",
"C .	c #533B33",
"D .	c #573D33",
"E .	c #5A3F34",
"F .	c #5D4136",
"G .	c #624339",
"H .	c #64453A",
"I .	c #65473C",
"J .	c #694C41",
"K .	c #6D4F45",
"L .	c #6C5146",
"M .	c #6A4F45",
"N .	c #6B4F44",
"O .	c #6C4E43",
"P .	c #6B4D41",
"Q .	c #674A3E",
"R .	c #65493E",
"S .	c #63473D",
"T .	c #5B4137",
"U .	c #584038",
"V .	c #553E34",
"W .	c #563C33",
"X .	c #553C34",
"Y .	c #4E3830",
"Z .	c #4B362F",
"` .	c #4F3730",
" ..	c #4E372E",
"...	c #442E27",
"+..	c #4F3930",
"@..	c #43322B",
"#..	c #44332C",
"$..	c #4D3B34",
"%..	c #513D35",
"&..	c #4E372F",
"*..	c #5B3F33",
"=..	c #5C3E32",
"-..	c #5A3D30",
";..	c #593C2F",
">..	c #4F3529",
",..	c #472F23",
"'..	c #39251D",
")..	c #34241F",
"!..	c #4D433A",
"~..	c #3F2E22",
"{..	c #483B2A",
"]..	c #77674C",
"^..	c #514639",
"/..	c #442D23",
"(..	c #472E24",
"_..	c #482F24",
":..	c #4A3126",
"<..	c #4C3227",
"[..	c #4E3327",
"}..	c #4B3127",
"|..	c #442D26",
"1..	c #53392F",
"2..	c #563C30",
"3..	c #563C31",
"4..	c #513B32",
"5..	c #513A32",
"6..	c #503930",
"7..	c #523931",
"8..	c #54413D",
"9..	c #47352F",
"0..	c #48352E",
"a..	c #49342E",
"b..	c #49352E",
"c..	c #4D3730",
"d..	c #4F3831",
"e..	c #503932",
"f..	c #4E3931",
"g..	c #533930",
"h..	c #553B31",
"i..	c #573C32",
"j..	c #5A3D32",
"k..	c #5E4035",
"l..	c #624337",
"m..	c #644338",
"n..	c #644539",
"o..	c #6B4C41",
"p..	c #6F5146",
"q..	c #6E5247",
"r..	c #6E5147",
"s..	c #6D5147",
"t..	c #6D4F44",
"u..	c #67483D",
"v..	c #66473B",
"w..	c #67483B",
"x..	c #65473A",
"y..	c #5E4237",
"z..	c #533B31",
"A..	c #51392F",
"B..	c #523A30",
"C..	c #4E352E",
"D..	c #4B332C",
"E..	c #482F28",
"F..	c #452E26",
"G..	c #422D26",
"H..	c #47322C",
"I..	c #48352C",
"J..	c #554038",
"K..	c #604133",
"L..	c #5C3E31",
"M..	c #5B3D30",
"N..	c #5A3B2D",
"O..	c #4E3428",
"P..	c #432B21",
"Q..	c #36241C",
"R..	c #31211C",
"S..	c #4A4036",
"T..	c #453828",
"U..	c #5D503B",
"V..	c #4A3C29",
"W..	c #493A29",
"X..	c #574C3F",
"Y..	c #3C2B24",
"Z..	c #442C24",
"`..	c #4D3327",
" +.	c #4A3026",
".+.	c #51372E",
"++.	c #563B30",
"@+.	c #583C31",
"#+.	c #553B30",
"$+.	c #52392F",
"%+.	c #50382F",
"&+.	c #503C34",
"*+.	c #4E3730",
"=+.	c #4D372F",
"-+.	c #52382F",
";+.	c #503831",
">+.	c #553930",
",+.	c #54392F",
"'+.	c #563A30",
")+.	c #583D32",
"!+.	c #5C3E33",
"~+.	c #5F4034",
"{+.	c #614236",
"]+.	c #634439",
"^+.	c #66483D",
"/+.	c #6F4E43",
"(+.	c #715146",
"_+.	c #705347",
":+.	c #705248",
"<+.	c #705146",
"[+.	c #6B4B40",
"}+.	c #66473C",
"|+.	c #68473B",
"1+.	c #68473A",
"2+.	c #634538",
"3+.	c #5E4135",
"4+.	c #5C3F33",
"5+.	c #4D362D",
"6+.	c #51382F",
"7+.	c #52382E",
"8+.	c #4E352C",
"9+.	c #472F27",
"0+.	c #49342C",
"a+.	c #543D34",
"b+.	c #5A3F35",
"c+.	c #5D4135",
"d+.	c #513B33",
"e+.	c #4D352D",
"f+.	c #533C32",
"g+.	c #583D33",
"h+.	c #624234",
"i+.	c #5E3D30",
"j+.	c #593A2C",
"k+.	c #4B3226",
"l+.	c #3F281F",
"m+.	c #32221D",
"n+.	c #433C38",
"o+.	c #44392F",
"p+.	c #4B3E2C",
"q+.	c #51463C",
"r+.	c #3E2C25",
"s+.	c #402B22",
"t+.	c #432C23",
"u+.	c #473026",
"v+.	c #4C3327",
"w+.	c #51362C",
"x+.	c #55392E",
"y+.	c #573B2F",
"z+.	c #543A2E",
"A+.	c #54392E",
"B+.	c #54382E",
"C+.	c #563A2F",
"D+.	c #553A2F",
"E+.	c #4E3630",
"F+.	c #4D3932",
"G+.	c #4F3B34",
"H+.	c #533B34",
"I+.	c #543B33",
"J+.	c #543A31",
"K+.	c #533A30",
"L+.	c #53382E",
"M+.	c #56392E",
"N+.	c #55382D",
"O+.	c #56382D",
"P+.	c #573A2F",
"Q+.	c #593B2F",
"R+.	c #5B3C30",
"S+.	c #5C3D32",
"T+.	c #5E3F34",
"U+.	c #604136",
"V+.	c #69493F",
"W+.	c #704F44",
"X+.	c #725146",
"Y+.	c #715247",
"Z+.	c #705247",
"`+.	c #715348",
" @.	c #725247",
".@.	c #6C4C41",
"+@.	c #64473C",
"@@.	c #63453A",
"#@.	c #66463A",
"$@.	c #684739",
"%@.	c #674538",
"&@.	c #604235",
"*@.	c #5E4033",
"=@.	c #5E3F33",
"-@.	c #5A3D31",
";@.	c #583D31",
">@.	c #573C30",
",@.	c #4D332A",
"'@.	c #4D352B",
")@.	c #553D33",
"!@.	c #594139",
"~@.	c #574037",
"{@.	c #573D34",
"]@.	c #614135",
"^@.	c #5A3E34",
"/@.	c #624539",
"(@.	c #583E34",
"_@.	c #5A3E31",
":@.	c #624233",
"<@.	c #5E3E30",
"[@.	c #5E3C2F",
"}@.	c #57382B",
"|@.	c #492F24",
"1@.	c #3A241C",
"2@.	c #31221C",
"3@.	c #493F32",
"4@.	c #493D2B",
"5@.	c #76654A",
"6@.	c #473927",
"7@.	c #4E443B",
"8@.	c #3F2B22",
"9@.	c #493025",
"0@.	c #4E3227",
"a@.	c #4B3128",
"b@.	c #4F352A",
"c@.	c #54382D",
"d@.	c #563A2E",
"e@.	c #53382D",
"f@.	c #4E352B",
"g@.	c #52382D",
"h@.	c #53392E",
"i@.	c #49342D",
"j@.	c #4F3830",
"k@.	c #523830",
"l@.	c #52372E",
"m@.	c #55382E",
"n@.	c #57392E",
"o@.	c #573B31",
"p@.	c #593D33",
"q@.	c #5D4137",
"r@.	c #63453C",
"s@.	c #725147",
"t@.	c #705147",
"u@.	c #725348",
"v@.	c #735247",
"w@.	c #6E4D42",
"x@.	c #604439",
"y@.	c #614338",
"z@.	c #654538",
"A@.	c #654537",
"B@.	c #624235",
"C@.	c #593E31",
"D@.	c #5D4032",
"E@.	c #593D30",
"F@.	c #553B2F",
"G@.	c #583B30",
"H@.	c #5F4033",
"I@.	c #634236",
"J@.	c #5D4338",
"K@.	c #5A3E32",
"L@.	c #624134",
"M@.	c #614134",
"N@.	c #5E4034",
"O@.	c #644235",
"P@.	c #664538",
"Q@.	c #634133",
"R@.	c #613F31",
"S@.	c #5F3C2F",
"T@.	c #503529",
"U@.	c #462D23",
"V@.	c #34221B",
"W@.	c #342723",
"X@.	c #473D31",
"Y@.	c #4E422F",
"Z@.	c #473928",
"`@.	c #4E4231",
" #.	c #463D35",
".#.	c #3C2B23",
"+#.	c #4C3226",
"@#.	c #4D3226",
"##.	c #52362B",
"$#.	c #55382C",
"%#.	c #56392D",
"&#.	c #57392D",
"*#.	c #51372C",
"=#.	c #50362B",
"-#.	c #4E352A",
";#.	c #4F362B",
">#.	c #4D342C",
",#.	c #4F362E",
"'#.	c #55392F",
")#.	c #56392F",
"!#.	c #54372D",
"~#.	c #51352C",
"{#.	c #57382D",
"]#.	c #56382C",
"^#.	c #57382C",
"/#.	c #55372C",
"(#.	c #54372B",
"_#.	c #54362B",
":#.	c #53362B",
"<#.	c #533931",
"[#.	c #62453C",
"}#.	c #735348",
"|#.	c #714F44",
"1#.	c #67483E",
"2#.	c #604339",
"3#.	c #5F4235",
"4#.	c #5E4134",
"5#.	c #5F3F32",
"6#.	c #5D3F32",
"7#.	c #614032",
"8#.	c #5F3F31",
"9#.	c #5E3E31",
"0#.	c #5B3E31",
"a#.	c #593C30",
"b#.	c #5F3E31",
"c#.	c #5C3D30",
"d#.	c #5D3D31",
"e#.	c #644234",
"f#.	c #674437",
"g#.	c #6A4739",
"h#.	c #5C3F34",
"i#.	c #5D3E32",
"j#.	c #634134",
"k#.	c #5E3F32",
"l#.	c #634234",
"m#.	c #674537",
"n#.	c #684538",
"o#.	c #5F4133",
"p#.	c #613E30",
"q#.	c #5C3B2D",
"r#.	c #402820",
"s#.	c #423A36",
"t#.	c #484034",
"u#.	c #4E4230",
"v#.	c #806E51",
"w#.	c #453827",
"x#.	c #4B3E2D",
"y#.	c #453C35",
"z#.	c #3B2B24",
"A#.	c #3C2A22",
"B#.	c #462D24",
"C#.	c #52352A",
"D#.	c #53372C",
"E#.	c #52372B",
"F#.	c #51362B",
"G#.	c #54382C",
"H#.	c #4C332B",
"I#.	c #4C332C",
"J#.	c #52372D",
"K#.	c #55372D",
"L#.	c #54362C",
"M#.	c #58392D",
"N#.	c #57372C",
"O#.	c #55362B",
"P#.	c #53352A",
"Q#.	c #51342A",
"R#.	c #4F342A",
"S#.	c #4E342B",
"T#.	c #584037",
"U#.	c #61453C",
"V#.	c #684B41",
"W#.	c #6B4F45",
"X#.	c #6C4F45",
"Y#.	c #704E43",
"Z#.	c #66483E",
"`#.	c #5D433A",
" $.	c #593F36",
".$.	c #5D3D30",
"+$.	c #604032",
"@$.	c #624032",
"#$.	c #603F31",
"$$.	c #664435",
"%$.	c #694738",
"&$.	c #654437",
"*$.	c #5D3F33",
"=$.	c #5F3E32",
"-$.	c #654335",
";$.	c #694636",
">$.	c #654334",
",$.	c #623F32",
"'$.	c #5F3D2F",
")$.	c #57382A",
"!$.	c #472E25",
"~$.	c #38251D",
"{$.	c #31231E",
"]$.	c #524D4B",
"^$.	c #494034",
"/$.	c #524632",
"($.	c #3A2F2A",
"_$.	c #3A2923",
":$.	c #452D24",
"<$.	c #4B3126",
"[$.	c #4C3126",
"}$.	c #492F26",
"|$.	c #513529",
"1$.	c #57392C",
"2$.	c #53372B",
"3$.	c #4F342B",
"4$.	c #54372C",
"5$.	c #55372B",
"6$.	c #56372B",
"7$.	c #57372B",
"8$.	c #55362A",
"9$.	c #513328",
"0$.	c #4F3329",
"a$.	c #4B322A",
"b$.	c #4C3830",
"c$.	c #4F3A32",
"d$.	c #64493F",
"e$.	c #684C41",
"f$.	c #694D43",
"g$.	c #674B41",
"h$.	c #6A4D42",
"i$.	c #5A4239",
"j$.	c #523A32",
"k$.	c #583B2E",
"l$.	c #593B2E",
"m$.	c #5B3B2F",
"n$.	c #634032",
"o$.	c #654233",
"p$.	c #684536",
"q$.	c #6B4839",
"r$.	c #6B4738",
"s$.	c #674435",
"t$.	c #634033",
"u$.	c #613F32",
"v$.	c #644133",
"w$.	c #644134",
"x$.	c #614033",
"y$.	c #624133",
"z$.	c #644233",
"A$.	c #4F3428",
"B$.	c #32221C",
"C$.	c #2F231E",
"D$.	c #4A4235",
"E$.	c #504330",
"F$.	c #7C684B",
"G$.	c #463827",
"H$.	c #483927",
"I$.	c #483E39",
"J$.	c #3B2922",
"K$.	c #432C24",
"L$.	c #4A3025",
"M$.	c #4C3125",
"N$.	c #4F3328",
"O$.	c #56392C",
"P$.	c #50352B",
"Q$.	c #52352B",
"R$.	c #54362A",
"S$.	c #53352B",
"T$.	c #533529",
"U$.	c #523429",
"V$.	c #503328",
"W$.	c #4E3127",
"X$.	c #493029",
"Y$.	c #4B3830",
"Z$.	c #4D3A32",
"`$.	c #554037",
" %.	c #5B443B",
".%.	c #5E463D",
"+%.	c #61483E",
"@%.	c #62483F",
"#%.	c #63483F",
"$%.	c #65493F",
"%%.	c #5F473D",
"&%.	c #594138",
"*%.	c #543E35",
"=%.	c #4C372E",
"-%.	c #51382C",
";%.	c #603E30",
">%.	c #623F31",
",%.	c #694536",
"'%.	c #6C4939",
")%.	c #6B4737",
"!%.	c #634132",
"~%.	c #654234",
"{%.	c #644334",
"]%.	c #55372A",
"^%.	c #37261F",
"/%.	c #31241F",
"(%.	c #342A25",
"_%.	c #494134",
":%.	c #564934",
"<%.	c #474039",
"[%.	c #382822",
"}%.	c #3E2A23",
"|%.	c #4B3125",
"1%.	c #492F25",
"2%.	c #4D3227",
"3%.	c #53362A",
"4%.	c #523529",
"5%.	c #52342A",
"6%.	c #4C3128",
"7%.	c #4A3027",
"8%.	c #48362E",
"9%.	c #4A3830",
"0%.	c #4D3931",
"a%.	c #553F37",
"b%.	c #59433B",
"c%.	c #5C453D",
"d%.	c #5D463D",
"e%.	c #5F463D",
"f%.	c #5C443B",
"g%.	c #523C34",
"h%.	c #4E3932",
"i%.	c #49352D",
"j%.	c #50352A",
"k%.	c #55392C",
"l%.	c #593A2D",
"m%.	c #5D3B2E",
"n%.	c #6A4636",
"o%.	c #674334",
"p%.	c #624132",
"q%.	c #59392C",
"r%.	c #483125",
"s%.	c #3B2920",
"t%.	c #32231E",
"u%.	c #322520",
"v%.	c #4B4644",
"w%.	c #4D4437",
"x%.	c #50422E",
"y%.	c #746046",
"z%.	c #463726",
"A%.	c #473A28",
"B%.	c #514944",
"C%.	c #372822",
"D%.	c #3A2721",
"E%.	c #3D2B23",
"F%.	c #422C25",
"G%.	c #56382B",
"H%.	c #54352A",
"I%.	c #50362A",
"J%.	c #452F28",
"K%.	c #5B463D",
"L%.	c #5D473E",
"M%.	c #5E473E",
"N%.	c #5E473F",
"O%.	c #5D473F",
"P%.	c #5B443C",
"Q%.	c #59423A",
"R%.	c #4F3C34",
"S%.	c #4A362F",
"T%.	c #46332B",
"U%.	c #4D362B",
"V%.	c #59392D",
"W%.	c #5A3A2D",
"X%.	c #5C3A2E",
"Y%.	c #674536",
"Z%.	c #624031",
"`%.	c #664334",
" &.	c #5F3F30",
".&.	c #614031",
"+&.	c #593B2D",
"@&.	c #352620",
"#&.	c #33241F",
"$&.	c #322721",
"%&.	c #5E5951",
"&&.	c #564933",
"*&.	c #443525",
"=&.	c #392C25",
"-&.	c #3B2D27",
";&.	c #392721",
">&.	c #452D23",
",&.	c #513429",
"'&.	c #56362B",
")&.	c #503228",
"!&.	c #4F3227",
"~&.	c #4C3127",
"{&.	c #433129",
"]&.	c #45332B",
"^&.	c #49362F",
"/&.	c #4C3931",
"(&.	c #534037",
"_&.	c #57423A",
":&.	c #59443C",
"<&.	c #5B453C",
"[&.	c #5D463E",
"}&.	c #5C453E",
"|&.	c #59433A",
"1&.	c #544138",
"2&.	c #513E36",
"3&.	c #593A2E",
"4&.	c #5F3E30",
"5&.	c #5B3C2F",
"6&.	c #52362A",
"7&.	c #382821",
"8&.	c #352621",
"9&.	c #32241F",
"0&.	c #4A4542",
"a&.	c #4F422E",
"b&.	c #8A7051",
"c&.	c #453726",
"d&.	c #443425",
"e&.	c #443625",
"f&.	c #453B33",
"g&.	c #362924",
"h&.	c #3B2A22",
"i&.	c #442D25",
"j&.	c #452C24",
"k&.	c #503429",
"l&.	c #513329",
"m&.	c #503329",
"n&.	c #4B3027",
"o&.	c #4D3127",
"p&.	c #49332B",
"q&.	c #503D35",
"r&.	c #534038",
"s&.	c #554239",
"t&.	c #58423A",
"u&.	c #47352D",
"v&.	c #493228",
"w&.	c #4B3329",
"x&.	c #5D3E31",
"y&.	c #614132",
"z&.	c #5D3C2F",
"A&.	c #5A3B2E",
"B&.	c #51372B",
"C&.	c #3A2A22",
"D&.	c #372923",
"E&.	c #352722",
"F&.	c #322722",
"G&.	c #5C5343",
"H&.	c #564531",
"I&.	c #725940",
"J&.	c #423423",
"K&.	c #3F362D",
"L&.	c #372721",
"M&.	c #3C2922",
"N&.	c #442E26",
"O&.	c #503428",
"P&.	c #4F3429",
"Q&.	c #472E27",
"R&.	c #432E27",
"S&.	c #44302A",
"T&.	c #47352E",
"U&.	c #4A3730",
"V&.	c #544139",
"W&.	c #56433B",
"X&.	c #57433B",
"Y&.	c #574039",
"Z&.	c #564139",
"`&.	c #56423A",
" *.	c #432F29",
".*.	c #583C2F",
"+*.	c #5C3C2F",
"@*.	c #4D3429",
"#*.	c #463127",
"$*.	c #3E2C26",
"%*.	c #392924",
"&*.	c #372924",
"**.	c #322521",
"=*.	c #554832",
"-*.	c #50402C",
";*.	c #443424",
">*.	c #483E37",
",*.	c #3A302D",
"'*.	c #372722",
")*.	c #392922",
"!*.	c #3D2C24",
"~*.	c #462D25",
"{*.	c #4C3228",
"]*.	c #4D3228",
"^*.	c #4E3429",
"/*.	c #4E332A",
"(*.	c #48312A",
"_*.	c #463029",
":*.	c #524037",
"<*.	c #59453D",
"[*.	c #59463D",
"}*.	c #5A453D",
"|*.	c #5A443C",
"1*.	c #57433C",
"2*.	c #54423A",
"3*.	c #503E36",
"4*.	c #4E3B33",
"5*.	c #4A342C",
"6*.	c #50382E",
"7*.	c #54392D",
"8*.	c #392A24",
"9*.	c #372A24",
"0*.	c #574E40",
"a*.	c #6F5940",
"b*.	c #463727",
"c*.	c #3B3129",
"d*.	c #3E3632",
"e*.	c #362823",
"f*.	c #3B2B25",
"g*.	c #49352C",
"h*.	c #412E26",
"i*.	c #4C3229",
"j*.	c #46342B",
"k*.	c #48342E",
"l*.	c #4F3D35",
"m*.	c #58433C",
"n*.	c #5C443D",
"o*.	c #57423B",
"p*.	c #54413A",
"q*.	c #534139",
"r*.	c #4C3A32",
"s*.	c #46312B",
"t*.	c #4F382F",
"u*.	c #4D372E",
"v*.	c #49342B",
"w*.	c #3E2F28",
"x*.	c #3A2B25",
"y*.	c #382B26",
"z*.	c #342823",
"A*.	c #453E3B",
"B*.	c #554834",
"C*.	c #87684B",
"D*.	c #443624",
"E*.	c #43382C",
"F*.	c #39302C",
"G*.	c #382C26",
"H*.	c #352622",
"I*.	c #45332A",
"J*.	c #412C25",
"K*.	c #402B24",
"L*.	c #55423A",
"M*.	c #553F38",
"N*.	c #564039",
"O*.	c #57413A",
"P*.	c #554039",
"Q*.	c #543F38",
"R*.	c #533F38",
"S*.	c #55433B",
"T*.	c #452F2A",
"U*.	c #4E3A31",
"V*.	c #4F3D34",
"W*.	c #4C3930",
"X*.	c #48372F",
"Y*.	c #46352D",
"Z*.	c #3A2C27",
"`*.	c #392C27",
" =.	c #352B27",
".=.	c #584D3A",
"+=.	c #6D553D",
"@=.	c #856748",
"#=.	c #413426",
"$=.	c #413833",
"%=.	c #3D2E28",
"&=.	c #3C2D27",
"*=.	c #4A352D",
"==.	c #422D27",
"-=.	c #443027",
";=.	c #42312A",
">=.	c #43312B",
",=.	c #4A3831",
"'=.	c #544039",
")=.	c #58413A",
"!=.	c #58433B",
"~=.	c #59443D",
"{=.	c #59433D",
"]=.	c #58453D",
"^=.	c #57443C",
"/=.	c #56423B",
"(=.	c #4F3C32",
"_=.	c #4F3C33",
":=.	c #432E29",
"<=.	c #4A3930",
"[=.	c #4B3A32",
"}=.	c #412D27",
"|=.	c #3B2E29",
"1=.	c #342A24",
"2=.	c #54504D",
"3=.	c #584932",
"4=.	c #907050",
"5=.	c #3F342C",
"6=.	c #3A2F2B",
"7=.	c #352923",
"8=.	c #3B2C27",
"9=.	c #3C2D28",
"0=.	c #3F2F29",
"a=.	c #42322C",
"b=.	c #45342D",
"c=.	c #55433C",
"d=.	c #58463E",
"e=.	c #5C4840",
"f=.	c #5C4941",
"g=.	c #5C4A42",
"h=.	c #57453E",
"i=.	c #57453D",
"j=.	c #524038",
"k=.	c #45302A",
"l=.	c #493831",
"m=.	c #432F2A",
"n=.	c #402C27",
"o=.	c #3D2F2A",
"p=.	c #3D302A",
"q=.	c #382D28",
"r=.	c #585245",
"s=.	c #574A38",
"t=.	c #382D2A",
"u=.	c #342824",
"v=.	c #3A2D28",
"w=.	c #3C2E29",
"x=.	c #3C2D29",
"y=.	c #402D28",
"z=.	c #493830",
"A=.	c #4B3931",
"B=.	c #54433B",
"C=.	c #53423B",
"D=.	c #4E3C34",
"E=.	c #45312B",
"F=.	c #422E29",
"G=.	c #3F302B",
"H=.	c #4E4746",
"I=.	c #5F5951",
"J=.	c #483E30",
"K=.	c #403733",
"L=.	c #3D2E2A",
"M=.	c #3B2D29",
"N=.	c #3E302B",
"O=.	c #3F312C",
"P=.	c #3E2F2B",
"Q=.	c #44342D",
"R=.	c #4C3B34",
"S=.	c #56443D",
"T=.	c #5A4840",
"U=.	c #5A4841",
"V=.	c #40312C",
"W=.	c #3D332D",
"X=.	c #423935",
"Y=.	c #413733",
"Z=.	c #3D312C",
"`=.	c #3D2F2B",
" -.	c #3E312B",
".-.	c #40322D",
"+-.	c #55403B",
"@-.	c #503C36",
"#-.	c #483730",
"$-.	c #44322A",
"%-.	c #42342E",
"&-.	c #413630",
"*-.	c #3F342F",
"=-.	c #403731",
"--.	c #4D4745",
";-.	c #3A2E29",
">-.	c #41342F",
",-.	c #3B2F29",
"'-.	c #40332E",
")-.	c #514039",
"!-.	c #513B36",
"~-.	c #503A35",
"{-.	c #4E3934",
"]-.	c #473832",
"^-.	c #453731",
"/-.	c #403530",
"(-.	c #392F2A",
"_-.	c #5C5756",
":-.	c #3C2F2B",
"<-.	c #3C302B",
"[-.	c #3B2C28",
"}-.	c #42302B",
"|-.	c #523C37",
"1-.	c #533D38",
"2-.	c #523D38",
"3-.	c #4C3B33",
"4-.	c #4C3C33",
"5-.	c #493B35",
"6-.	c #493C36",
"7-.	c #483A34",
"8-.	c #453832",
"9-.	c #3E342F",
"0-.	c #473F3E",
"a-.	c #352A25",
"b-.	c #473934",
"c-.	c #3C2B26",
"d-.	c #3D2C26",
"e-.	c #402F2A",
"f-.	c #58453E",
"g-.	c #5A4740",
"h-.	c #5B4942",
"i-.	c #5C4A43",
"j-.	c #5C4A41",
"k-.	c #57463E",
"l-.	c #4B3B35",
"m-.	c #4B3C36",
"n-.	c #4B3D37",
"o-.	c #3C322D",
"p-.	c #342A26",
"q-.	c #352723",
"r-.	c #3C302A",
"s-.	c #3B2E2B",
"t-.	c #3A2B27",
"u-.	c #42302C",
"v-.	c #503F38",
"w-.	c #51413A",
"x-.	c #56453E",
"y-.	c #58473F",
"z-.	c #604E46",
"A-.	c #5E4D44",
"B-.	c #5B4A42",
"C-.	c #4C3A33",
"D-.	c #4E3E37",
"E-.	c #4C3E38",
"F-.	c #4B3D38",
"G-.	c #493D37",
"H-.	c #453833",
"I-.	c #433A37",
"J-.	c #463F3E",
"K-.	c #332723",
"L-.	c #382A26",
"M-.	c #423531",
"N-.	c #443631",
"O-.	c #443633",
"P-.	c #40312E",
"Q-.	c #41322B",
"R-.	c #42332D",
"S-.	c #42342D",
"T-.	c #463730",
"U-.	c #504039",
"V-.	c #55443D",
"W-.	c #5E4D46",
"X-.	c #604E47",
"Y-.	c #625049",
"Z-.	c #5D4C45",
"`-.	c #5A4942",
" ;.	c #4C3D37",
".;.	c #4A3C37",
"+;.	c #473B36",
"@;.	c #443732",
"#;.	c #372C29",
"$;.	c #352825",
"%;.	c #3A2C28",
"&;.	c #41322D",
"*;.	c #43332F",
"=;.	c #43342D",
"-;.	c #3F302C",
";;.	c #3F2F2B",
">;.	c #43312C",
",;.	c #41322C",
"';.	c #44362F",
");.	c #443630",
"!;.	c #453730",
"~;.	c #463731",
"{;.	c #493933",
"];.	c #4C3C35",
"^;.	c #584740",
"/;.	c #5C4B43",
"(;.	c #524139",
"_;.	c #4D3D38",
":;.	c #4A3B36",
"<;.	c #493B36",
"[;.	c #453934",
"};.	c #403430",
"|;.	c #3F3633",
"1;.	c #56504F",
"2;.	c #524D4C",
"3;.	c #352A26",
"4;.	c #3A2A27",
"5;.	c #392A26",
"6;.	c #392B27",
"7;.	c #433530",
"8;.	c #463832",
"9;.	c #483832",
"0;.	c #4E3D37",
"a;.	c #4B3935",
"b;.	c #493A36",
"c;.	c #483A36",
"d;.	c #3D312D",
"e;.	c #3D322E",
"f;.	c #392C28",
"g;.	c #41332E",
"h;.	c #43352F",
"i;.	c #473932",
"j;.	c #463630",
"k;.	c #493530",
"l;.	c #52413B",
"m;.	c #483733",
"n;.	c #483935",
"o;.	c #443833",
"p;.	c #3F332F",
"q;.	c #443B37",
"r;.	c #585452",
"s;.	c #50403A",
"t;.	c #51413B",
"u;.	c #483834",
"v;.	c #413430",
"w;.	c #3D312F",
"x;.	c #463D3A",
"y;.	c #362926",
"z;.	c #382B27",
"A;.	c #3F312B",
"B;.	c #41342E",
"C;.	c #453732",
"D;.	c #483933",
"E;.	c #4F3E38",
"F;.	c #4A3834",
"G;.	c #483934",
"H;.	c #4A3B37",
"I;.	c #493D38",
"J;.	c #3F3330",
"K;.	c #534E4B",
"L;.	c #48403D",
"M;.	c #372A26",
"N;.	c #382B28",
"O;.	c #3A2D29",
"P;.	c #3C2E2A",
"Q;.	c #433630",
"R;.	c #443832",
"S;.	c #473B35",
"T;.	c #4A3C36",
"U;.	c #4A3B35",
"V;.	c #4E3E38",
"W;.	c #4A3D39",
"X;.	c #463935",
"Y;.	c #3D322D",
"Z;.	c #4F4A48",
"`;.	c #382C28",
" >.	c #3A2E2A",
".>.	c #3D302C",
"+>.	c #3E322D",
"@>.	c #42342F",
"#>.	c #443530",
"$>.	c #463833",
"%>.	c #4E3F39",
"&>.	c #4F403A",
"*>.	c #4A3C38",
"=>.	c #453935",
"->.	c #423A37",
";>.	c #382D29",
">>.	c #3B302C",
",>.	c #3C312D",
"'>.	c #3F332E",
")>.	c #483A35",
"!>.	c #4B3E38",
"~>.	c #4C3E39",
"{>.	c #4F3F39",
"]>.	c #493A35",
"^>.	c #493B37",
"/>.	c #493C37",
"(>.	c #413531",
"_>.	c #585350",
":>.	c #4C4544",
"<>.	c #382E2A",
"[>.	c #3D332F",
"}>.	c #423530",
"|>.	c #423630",
"1>.	c #463733",
"2>.	c #483A37",
"3>.	c #413732",
"4>.	c #49423F",
"5>.	c #4E4845",
"6>.	c #48423F",
"7>.	c #382E29",
"8>.	c #39302A",
"9>.	c #3E332E",
"0>.	c #3F3530",
"a>.	c #433631",
"b>.	c #433531",
"c>.	c #443531",
"d>.	c #453631",
"e>.	c #473834",
"f>.	c #473835",
"g>.	c #483B37",
"h>.	c #463B37",
"i>.	c #473B37",
"j>.	c #413632",
"k>.	c #403531",
"l>.	c #3E3732",
"m>.	c #4F4A49",
"n>.	c #544E4B",
"o>.	c #3F3732",
"p>.	c #3F3631",
"q>.	c #3D332E",
"r>.	c #3F3430",
"s>.	c #403631",
"t>.	c #423732",
"u>.	c #443733",
"v>.	c #433733",
"w>.	c #453834",
"x>.	c #443935",
"y>.	c #3E332F",
"z>.	c #3E3631",
"A>.	c #575350",
"B>.	c #494341",
"C>.	c #4D4644",
"                                                                                                                                                                                                                                                                                                                                                                                                                                                                                                                                                                                                      ",
"                                                                                                                                                                                                                                                                                                                                                                                                                                                                                                                                                                                                      ",
"                                                                                                                                                                                                                                                                                                                                                                                                                                                                                                                                                                                                      ",
"                                                                                                                                                                                                                                                                                                                                                                                                                                                                                                                                                                                                      ",
"                                                                                                                                                                                                                                                                                                                                                                                                                                                                                                                                                                                                      ",
"                                                                                                                                                                                                                                                                                                                                                                                                                                                                                                                                                                                                      ",
"                                                                                                                                                                                                                                                                                                                                                                                                                                                                                                                                                                                                      ",
"                                                                                                                                                                                                                                                                                                                                                                                                                                                                                                                                                                                                      ",
"                                                                                                                                                                                                                                                                                                                                                                                                                                                                                                                                                                                                      ",
"                                                                                                                                                                                                                                                                                                                                                                                                                                                                                                                                                                                                      ",
"                                                                                                                                                                                                                                                                                                                                                                                                                                                                                                                                                                                                      ",
"                                                                                                                                                                                                                                                                                                                                                                                                                                                                                                                                                                                                      ",
"                                                                                                                                          .  +  @  #  $  %  &  *                                                                                                                                                                                                                                                                                                                                                                                                                                      ",
"                                                                                                                     =  -  ;  >  ,  '  )  !  ~  {  ]  ^  ]  ^  /  (  _  :  <  [  }  |                                                                                                                                                                                                                                                                                                                                                                                                                 ",
"                                                                                                                     1  2  3  4  5  6  7  8  9  0  /  ]  ~  a  b  c  d  e  f  g  h  i  j  k  l                                                                                                                                                                                                                                                                                                                                                                                                        ",
"                                                                                                         m  n  o  p  q  r  s  t  u  v  w  x  y  z  A  B  C  D  E  F  G  H  I  J  K  L  M  N  O  P  Q  R  S                                                                                                                                                                                                                                                                                                                                                                                            ",
"                                                                                             T  U  V  W  X  Y  Z  `   . `  .. +. @. z  #. $. %. &. *. =. -. *. *. ;. >. ,. '. ). !. ~. {. ]. ^. /. (. _. :. <. [.                                                                                                                                                                                                                                                                                                                                                                                     ",
"                                                                                       }. |. 1. 2. 3. X  4. 5. 6. `  7. 8. 9. 0. a. b. c. $. $. d. e. $. f. g. g. =. =. *. h. i. j. k. l. m. n. o. p. q. r. s. t. u. v.                                                                                                                                                                                                                                                                                                                                                                               ",
"                                                                                 w. x. y. z. A. B. C. D. E. F. Y  G. H. I. J. K. L. M. b. N. O. P. c. Q. d. R. R. S. T. T. g. =. *. U. V. W. X. Y. Z. `.  + .+ ++ @+ #+ $+ %+                                                                                                                                                                                                                                                                                                                                                                         ",
"                                                                           &+ *+ =+ -+ ;+ >+ B. ,+ '+ )+ !+ ~+ {+ ]+ ^+ /+ (+ _+ :+ <+ [+ }+ |+ 1+ 2+ O. P. 3+ 3+ 3+ 4+ 5+ 4+ 6+ 3+ f. 7+ &. 8+ 9+ W. 0+ a+ b+ c+ d+ e+ f+ g+ h+ i+ j+                                                                                                                                                                                                                                                                                                                                                                ",
"                                                                        k+ l+ m+ n+ o+ p+ q+ r+ r  s+ t+ u+ v+ w+ x+ y+ z+ A+ B+ C+ D+ E+ F+ G+ H+ I+ J+ 2+ 2+ 5+ K+ K+ 4+ K+ 5+ L+ M+ K+ K+ d. e. N+ 8+ 9+ O+ P+ Q+ R+ S+ T+ U+ V+ W+ X+ Y+ Z+                                                                                                                                                                                                                                                                                                                                                       ",
"                                                                  `+  @ .@ +@ @@ #@ $@ %@ &@ *@ =@ -@ ;@ >@ ,@ '@ )@ !@ ~@ {@ ]@ ^@ /@ (@ _@ :@ <@ [@ }@ |@ 1@ J+ 2@ 3@ M+ K+ 4@ 5@ 6@ 7@ M+ M+ M+ K+ 8@ 9@ 0@ a@ b@ c@ d@ R+ e@ f@ g@ h@ i@ j@ k@ l@ m@                                                                                                                                                                                                                                                                                                                                              ",
"                                                               n@ o@ p@ q@ r@ s@ t@ u@ v@ w@ x@ y@ z@ A@ B@ C@ D@ E@ *+ '@ '@ F@ F@ G@ H@ I@ J@ K@ L@ M@ N@ O@ P@ Q@ R@ S@ T@ U@ V@ V@ 6@ V@ 3@ W@ W@ X@ M+ K+ 7+ Y@ Z@ `@  # .# +# @# ## $# f+ %# &# *# =# -# ;#                                                                                                                                                                                                                                                                                                                                     ",
"                                                            ># ,# '# )# :  !# ~# {# ]# ^# /# (# _# :# <# [# }# |# 1# 2# 3# 4# 5# 6# 7# 8# 7# 8# '@ 9# 0# a# b# c# N@ d# e# f# g# h# U@ U@ 3@ 3@ 2@ 2@ i# 2@ 2@ 2@ j# d. k# 8+ G  l# m# n# R+ o# p# q# r# s# t# u# v# u# w# x#                                                                                                                                                                                                                                                                                                                         ",
"                                                         y# z# A# B# C# D# E# F# G# H# I# J# K# L# M# N# O# P# Q# R# S# T# 2# U# ;@ ;@ V# W# X# X# Y# 8# F@ 9# Z# L@ U  `#  $ .$ +$ @$ h# #$ U@ U@ $$ 3@ %$ &$ i# *$ X@ 3@ 8@ Q. =$ -$ ;$ >$ ,$ '$ )$ !$ ~$ {$ h@ W+ ]$ ^$ /$ ($ _$ :$                                                                                                                                                                                                                                                                                                                ",
"                                                      <$ [$ }$ |$ 1$ 2$ 3$ 4$ 5$ 6$ 7$ 8$ 9$ 0$ a$ b$ c$ d$ e$ f$ g$ Q# h$ i$ j$ T# k$ l$ U# m$ m$ n$ o$ X# Y# p$ q$ r$ s$ t$ u$ v$  $ w$ x$ h# y$ U@ U@ U@ #. z$ z$ %$ &$ %$ %$ K+ 8@ -  A$ B$ C$ D$ E$ F$ G$ H$ I$ J$ K$ L$ M$ N$ O$ /$ P$                                                                                                                                                                                                                                                                                                          ",
"                                                   Q$ R$ S$ T$ U$ V$ W$ X$ Y$ Z$ `$  %  %  % .% +% @% #% $% %% &% *% =% g$ -% ;% >% ,% ,% '% )% !% ~% m$ {% ]% ^% /% (% _% :% <% [% }% |% 1% 2% 3% @$ #$ 4% U@ U@ 5% 5% z$ z$ 6% z$ %$ 7% 4@ 9@ 8% 9% 0% a% b% c% d% e% f% g% h% K$ i% M$ j% k% l% m% n%                                                                                                                                                                                                                                                                                              ",
"                                                o% p% q% V$ T$ |  1$ r% s% t% u% v% v% v% w% x% y% z% 7$ A% B% C% D% E% F% G% H% I% J% K% >% L% M% N% O% P% Q% R% S% T% ^% U% V% W% X% Y% Z% `%  & .& +& @& h# #. #. #. U@ #. z$ z$ #& z$ z$ #. V@ $& %& && *& =& -& ;& >& ,& !$ '& )& !& ~& {& ]& ^& /& =# (& :$                                                                                                                                                                                                                                                                                     ",
"                                                _& :& <& [& }& |& 1& 2& 3& 4& 5& 6& v% v% v% 7& 8& u% 8& 9& 0& a& b& c& d& e& f& g& h& i& j& k& l& m& n& o& p& q& r& s& t& u& v& w& x& y& z& A& B& C& D& E& F& G& H& I& J& K& K& I& #& #& #& #& z$ #. 5% L& M& N& O& P& Q& R& S& T& U& V& W& X& Y& Z& `&  * .* +* @* #*                                                                                                                                                                                                                                                                               ",
"                                             $* %* &* ** =* =* |& -* ;* >* ,* '* )* !* ~* v% ,* v% v% v% {* 8& ]* 9& 8$ ^* /* (* _* :* <* [* }* |* 1* 2* 3* 4* 5* o& 6* r& s& 7* 8* T% 9* V% X% 0* a* b* c* d* e* f* g* h* 4% I& I& I& z$ z$ i* h* j* z$ k* l* m* n* N& o* p* q* r* s* t* u* v* V& w* x* y* z* A* B* .* C* @* D*                                                                                                                                                                                                                                                                      ",
"                                          E* F* G* H* I* I* J* K* L* a$ M* N* O* P* Q* v% v% v% v% v% v% v% v% v% ,* u% u% R* S* T* U* V* W* X* Y* Z* `* 1*  = .= += @= #= $= %= s& &= *= u& == -= ;= >= ,= '= )= != ~= {= ]= g* I& J& J& J& ^= /= (= ^= ^= _= := m* <= [= }= |= 1= 2= 3= 4= M  5= 6= 7= 8= 9= y* 0= a= b= c= d= e= f= g=                                                                                                                                                                                                                                                             ",
"                                       h= i= j= k= l= I* m= n= o= p= q= r= s= x% `$ t= u= v= w= v% v% v% v% v% v% v% v% v% v% v% u% 7& x= y= R* z= A= B= C= D= E= F= G= H= I= J= K= L= M= N= O= P= Q= R= S= T= U= V= W= X= Y= Z= `= g* I&  - .- .- .- +- +- @- := #- $- %- &- *- =- -- ;- >- ,- u* '- )- !- ~- {- ]- ^- /- (- _- :- <- [- }- |- 1-                                                                                                                                                                                                                                                    ",
"                                       2- 3- 4- 5- 6- ** ** 7- 8- 9- 0- a- b- c- d- 9& u% v% e- f- g- ^* O* v% v% v% v% v% v% v% v% v% v% ,* v% 8& h- i- j- k- l- m- n- o- p- q- r- o& s- t- u- v- &= w- x- y- z- A- B- C- D- X= ~= E& `= E- F-  - := G- H- H- I- J- K- I- L- M- N- O- P- Q- R- S- T- U- V- W- X- Y- Z- `-  ; .; +; @; #; $; %; F$ &; ($ j@ *;                                                                                                                                                                                                                                        ",
"                                    =; -; ;; j  >; ,; l= ** '; ); !; ~; {; ]; ^; /; d- (;  % ,* v% v% v% 8&  % v% v% 7& v% w% O* v% v% v% v% v% v% v% v% v% `$ _; :; <; [; }; |; 1; 2; 3; 4; 5; 6; M= v- 7; 8; 9; 0; a; T= b; c; d; e; f; g; h; i; j; k; l; m; n; o; p; q; r; s; t; u; v; w; x; y; z; z; y; A; B; C; D; E; D; F; G; H; I; J; K; L; M; N; O; P; Q; R;                                                                                                                                                                                                                                  ",
"                                    S; -; T; U; V; W; ,; X; Y; Z; `;  > 9- .> +> @> #> $> %>  % v% v% v% v% ,* 7& {* v% 7& ,* 7& v% v% v% v% v% v% v% v% v% ,* &> *> => -> ;> >> ,> '> )> !> ~> {> ]> 6; ^> /> O= (> 9; 0; _> :> H. <> [> }> |> 1> 2> 3> 4> 5> 6> 7> 8> 9> 0> a> b> c> d> e> f> g> h> i> y; y; B; j> j> k> l> m> E; n> o> p> q> r> s> t@ t> u> v> w> x> y>                                                                                                                                                                                                                            ",
"                                 z> A> B> C> D> W; ,; E> F> G> H> I> J> K> L> M> N> O> P> Q> R> O* v% v% v% v% v% v% v% v% v% ,*  % v% ,* ]* {*  % v% v% v% v% ,* x= i- S> T> U> V> W> X> Y> )> Z> `>  , s- 6; ., +, @, (> #, $, %, &, *, =, -, ;, >, ,, ', U- ), !, a> ~, a> ~, {, ], ^, /, (, _, :, <, [, }, |, 1, 2, 3, 4, 5, 6, 7, 8, 9, 0, a, b, c, d, e, f, g, h, i, j, k,                                                                                                                                                                                                                      ",
"                                 l, m, n, o, p, q, r, s, t, u, v, w, x, y, z, A, B, C, O> D, E, z= `$ ,* v% v% v% v% v% v% v% v% v%  %  % v% v%  % v% v% v% v% v% v% v% ,* `$ j- T> F, G, H, I, J, K, L, M, N, O, P, Q, R, S, T, U, V, W, X, Y, Z, `,  ' .' b> +' ~, a> +' @' #' $' %' &' *' =' -' ;' >' ,' '' )' !' ~' {' ]' ^' /' (' _' :' <' [' }' |' 1' 2' 3' 4' 5' 6' 7' 8' 9' 0'                                                                                                                                                                                                                ",
"                              a' b' c' d' e' f' U; g' h' i' j' k' l' m' n' o' p' q' r' s' t' u' v' w' %> 7& v% v% v% v% v% v% v% v% v% v% v% v% 7&  % v% v% v% v% v% v% v% v% v% `$ (; x' y' z' A' B' C' D' E' M, F' G' H' I' J' K' L' M' N' O' P' Q' R' S' T' e  U' V' W' X' Y' Z' `'  ) .) +) @) #) $) %) &) ;' >' *) =) -) ;) >) ,) ') )) !) ~) {) ]) ^) /) () _) :) <) [) }) |) 1) 2)                                                                                                                                                                                                             ",
"                              3) 4) p, U; U; U; 5) 6) 7) 8) 9) 0) a) b) c) d) e) f) g) h) p= i) j) k) l) m) h-  % v% v% v% v% v% v% v% v% v% v% v%  % 7& ,* v% v% v% v% v% v% v% ,* ,* 7& i- n) _; o) p) q) r) s) t) u) v) w) x) y) z) A) B) C) D) E) F) G) H) I) J) K) L) M) N) O) O) P) Q) R) S) T) U) V) W) X) Y) Z) `)  ! .! +! @! #! $! %! &! *! =! -! ;! >! ,! '! )! !! ~! {! ]! ^! /! (!                                                                                                                                                                                                       ",
"                              _! :! <! U; <! [! }! |! 7) 1! 2! 3! 4! 5! 6! 7! d) 8! 9! 0! a! B, b! c! d! e! f! S> x= 7& ,* u% v% v% v% v% v% v% v% v% v% ,* 7& 7& ,* v% v% v% v% v% v% v% v% v% ,* &> _; g! h! i! j! k! l! m! n! o! p! q! r! s! t! u! v! w! x! +) Z' y! z! A! O) B! B! O) O) P) N) M) C! D! E! F! G! H! I! J! K! L! M! N! O! P! Q! R! S! T! U! V! W! X! Y! Z! `!  ~ .~ +~ @~ #~ $~                                                                                                                                                                                                    ",
"                           %~ &~ *~ =~ -~ -~ ;~ >~ ,~ '~ )~ !~ ~~ {~ ]~ ^~ /~ (~ _~ :~ <~ [~ q' }~ |~ 1~ 2~ 3~ 4~ 5~ z= ^* S> u% u% ,* v% v% v% v% v% v% v% v% v% 7& u% ,* v% v% v% v% v% v% v% v% v% O* w% i- &> 6~ 7~ 8~ 9~ 0~ a~ q! b~ c~ d~ e~ f~ g~ h~ i~ j~ k~ B! O) P) P) O) l~ l~ l~ l~ l~ m~ n~ o~ p~ q~ F! G! r~ I! s~ t~ u~ v~ w~ x~ y~ z~ A~ Q! B~ %! C~ D~ W! X! E~ F~ G~ H~ I~ J~ K~ L~ M~                                                                                                                                                                                              ",
"                           N~ O~ P~ Q~ R~ S~ T~ U~ V~ W~ X~ Y~ Z~ `~  { .{ +{ @{ #{ ${ d) o' %{ &{ *{ ={ -{ ;{ >{ <; ,{ '{ F, ){ !{ 8& v% v% v% v% v% v% v% v% v% v% ,* ,* 7& ,* v% v% v% v% v% v% v% u% O* v% ~{ {{ ]{ ^{ /{ ({ /{ _{ :{ <{ [{ }{ |{ 1{ 2{ 3{ 4{ 5{ 6{ 7{ 8{ O) P) m~ m~ m~ l~ 9{ m~ 0{ a{ b{ c{ d{ e{ f{ r~ g{ h{ i{ j{ k{ l{ l{ N! ;) m{ n{ o{ Q! Q! p{ q{ r{ s{ t{ u{ v{ w{ x{ y{ z{ A{                                                                                                                                                                                           ",
"                           B{ C{ D{ E{ F{ G{ H{ I{ J{ K{ L{ M{ N{ O{ P{ Q{ R{ S{ T{ U{ V{ W{ X{ J> Y{ Z{ }~ `{ b!  ] .] +] @] #] l) w% ,* ,* v% v% v% v% v% v% v% v% v% v% v% ,* 7& u%  % 7& O* 8& j- `$ ,* $] %] &] *] =] -] ;] >] ,] '] )] !] ~] {] ]] ^] /] (] _] :] <] [] }] |] l~ 1] 0{ 0{ 2] 3] 3] a{ 4] 5] 6] 7] e{ 8] 9] g{ 0] u~ k{ a] b] c] d] e] f] #! A~ g] g] h] i] j] k] l] m] n] o] p] q] I~ r] s]                                                                                                                                                                                     ",
"                        t] u] v] w] x] y] z] A] B] C] D] E] F] G] H] I] J] K] L] M] N] O] P] Q] Z; 8! R] S] T] U] 4; V] W] )> X] Y] *> j- &> ,* v% v% v% v% v% v% v% v% v% v% v% v% v% v% v% v% v% v% Z] `]  ^ .^ +^ @^ #^ $^ %^ &^ *^ ~] =^ -^ -^ ;^ >^ ,^ '^ )^ !^ ~^ {^ ]^ ^^ /^ (^ _^ m~ 2] :^ <^ <^ [^ }^ <^ |^ 1^ 2^ 3^ 4^ 5^ g{ h{ v~ 6^ 7^ 8^ 9^ y~ 0^ a^ b^ A~ c^ c^ c^ d^ e^ f^ g^ h^ i^ j^ k^ l^ m^ n^ o^                                                                                                                                                                                  ",
"                        p^ q^ r^ s^ r^ t^ u^ v^ w^ x^ y^ z^ A^ B^ L{ C^ D^ E^ F^ G^ H^ I^ J^ (~ K^ d) L^ 9! M^ N^ O^ P^ Q^ R^ .= S^ T^ U^ V^ &> 7& v% v% v% v% v% v% v% v% v% v% v% v% v% v% v% v% W^ X^ Y^ Z^ `^  / ./ +/ @/ #/ $/ %/ &/ */ =/ -/ ;/ >/ ,/ >^ '/ )/ !/ ~/ {/ ]/ ^/ // (/ |] 9{ 0{ :^ <^ _/ |^ :/ </ [/ }/ |/ 1/ 2/ 3/ 4/ 5/ 6/ 7/ 8/ 9^ 9/ 0/ a/ b/ Q! Q! c/ d/ e/ f/ g/ h/ i/ j/ i^ k/ l/ m/ n/ o/ p/                                                                                                                                                                               ",
"                        q/ r/ s/ t/ u/ v/ w/ x/ y/ z/ A/ B/ C/ D/ E/ F/ G/ H/ I/ J/ K/ L/ M/ N/ O/ P/ _~ Q/ R/ S/ T/ U/ V/ W/ q- K, X/ Y/ Z/ `/ /* h- {*  % v% v% v% v% v% v% v% v% v% v% v% v%  ( .( +( @( #( $( %( &( *( =( -( ;( >( ,( ;( '( )( !( ~( {( >/ ,/ ]( ^( /( (( _( :( <( [( }( |( 1( 1] 2( 3( 4( 5( :/ 6( 7( 8( 9( 0( 5^ a( b( c( d( e( f( g( h( i( j( k( l( m( m( n( l( o( p( q( i] r( s( t( u( v( w( x( y(                                                                                                                                                                            ",
"                        z( A( B( B( C( D( E( F( G( H( I( J( K( L( M( N( O( P( Q( R( S( T( U( V( +{ W( X( Y( Z( `(  _ ._ +_ @_ #_ $_ %_ &_ X> *_ =_ -_ ;_ R* ]*  % ,* v% v% v% v% v% v% 7& h- >_ ,_ '_ )_ X{ !_ ~_ {_ ]_ ^_ /_ (_ __ :_ <_ [_ }_ |_ 1_ 2_ 3_ 4_ 5_ 6_ 7_ 8_ 9_ (( 0_ :( a_ b_ }( c_ d_ e_ 2( 3( f_ 4( g_ h_ 6( i_ 9( 0( j_ k_ l_ m_ n_ o_ p_ q_ r_ s_ t_ u_ v_ w_ w_ v_ x_ f^ y_ z_ A_ B_ C_ D_ E_ X! F_ G_ H_                                                                                                                                                                         ",
"                     I_ J_ K_ L_ K_ L_ M_ N_ O_ P_ Q_ R_ S_ T_ U_ V_ W_ X_ Y_ Z_ `_  : .: +: @: #: $: %: &: *: =: .^ `( -: ;: >: ,: Q^ ': ): !: ~: {: ]: ^: V^ /* i- 7& {* x= O* 8& R* /: (: _: '_ :: <: [: }: |: 1: 2: 3: 4: 5: 6: 6: 7: 8: 9: 0: a: a: b: c: d: e: f: g: h: i: j: k: :( l: m: n: o: p: e_ 2( q: r: 3( f_ s: :/ 7( t: u: v: w: x: y: z: A: B: C: D: E: z_ F: v_ G: H: H: G: g^ I: J: K: L: M: N: O: P: Q: R: S: T:                                                                                                                                                                   ",
"                     U: V: W: X: Y: Z: `:  < .< +< @< #< $< S_ %< &< *< =< -< ;< >< ,< '< )< F^ !< ~< {< ]< ^< /< (< _< :< << [< }< |< 1< 2< 3< L, 4< r) 5< 6< 7< ;_ 8< 9< 0< 0< a< b< c< d< e< f< g< h< i< j< k< v% v% v% v% v% l< m< n< n< o< p< q< r< s< t< u< v< w< x< y< z< A< B< C< D< E< F< }( G< p: e_ H< I< J< K< r: L< g_ M< N< O< P< Q< R< S< T< U< V< W< X< Y< Z< `<  [ .[ +[ @[ #[ #[ G: $[ %[ &[ s_ L: C_ *[ =[ -[ ;[                                                                                                                                                                   ",
"                     >[ ,[ '[ )[ ![ )[ ~[ {[ ][ ^[ /[ ([ _[ $< :[ <[ [[ }[ |[ 1[ 2[ 3[ 4[ 5[ 6[ 7[ 8[ 9[ 0[ a[ b[ c[ d[ e[ f[ g[ h[ i[ U/ j[ k[ l[ m[ n[ o[ p[ q[ r[ s[ t[ u[ v[ w[ x[ y[ z[ A[ B[ C[ D[ v% v% v% v% v% v% v% v% v% v% v% v% v% l< E[ F[ G[ H[ I[ J[ K[ L[ M[ N[ O[ A< P[ Q[ R[ S[ T[ U[ o: V[ J< W[ V[ X[ H< I< K< Y[ 6( 9( Z[ `[  } .} +} @} #} $} %} &} *} =} -} ;} >} ,} '} )} @[ D_ G: !} ~} {} ]} ^} /} (} _} t.                                                                                                                                                                ",
"                     :} <} [} }} }} |} 1} 2} 3} ][ 4} 5} 6} 7} 8} 9} %< 0} a} b} c} d} e} f} g} h} i} j} k} l} m} n} o} p} q} r} s} t} -: u} J' v} w} x} y} z} A} B} C} C} D} E} F} G} H} I} J} K} L} v% v% v% v% v% v% v% v% v% v% v% v% v% v% v% v% v% v% v% M} N} O} P} Q} R} S} T} U} V} W} X} Y} Z} `}  | .| +| I< @| W[ #| $| %| &| *| =| -| ;| .} >| ,| '| )| #} !| ~| {| ]| ^| ^| /| (| _| :| <| @[ [| }| || {} A_ 1| 2| O: 3| 4|                                                                                                                                                             ",
"                     5| 6| 7| 8| 9| 0| a| b| c| d| e| f| g| h| i| j| k| l| m| n| o| p| q| r| s| t| u| v| w| x| y| z| A| B| C| D| E| G} F| t} G| H| @_ k[ I| J| K| L| M| N| O| P| Q| R| S| T| U| V| W| X| u% v% v% v% v% v% v% v% v% v% v% v% v% v% v% v% v% v% v% v% Y| Z| `|  1 .1 +1 @1 #1 $1 %1 &1 *1 =1 -1 ;1  | >1 ,1 ,1 '1 )1 I< q: Y[ </ i_ !1  } ~1 R< '| @} @} @} {1 ]1 ^1 /1 (1 _1 :1 <1 [1 }1 :| #[ #[ G: |1 K: 11 L: 21 31 3| 41 51                                                                                                                                                       ",
"                     61 71 81 91 01 a1 b1 c1 d1 e1 f1 g1 h1 i1 j1 7} k1 l1 m1 n1 o1 p1 q1 r1 s1 t1 u1 v1 w1 x1 y1 z1 A1 B1 C1 D1 E1 F1 G1 H1 s} L* G| I1 J1 K1 L1 M1 N1 O1 P1 Q1 R1 S1 T1 U1 V1 W1 l< v% v% v% v% v% v% v% v% v% v% v% v% v% v% v% v% v% v% ,* v% v% v% X1 Y1 Z1 `1  2 .2 +2 @2 $1 #2 $2 %2 &2 *2 =2 -2 '1 ;2 ;2 +| >2 K< ,2 :/ i_ t: N< O< `[ '2 j_  } )2 !2 ~2 {2 ]2 ^2 /2 (2 _2 :2 <2 [2 }2 |2 +[ #[ 12 22 o( h/ 32 .[ 42 52 62                                                                                                                                                    ",
"                     72 82 92 02 a2 b2 c2 d2 e2 f2 g2 h2 g1 f| i2 j2 k2 l2 l1 m2 n2 n| o2 p2 q2 r2 s2 t2 u2 v2 w2 x2 y2 z2 A2 B2 C2 D2 E2 F2 G} G2 H2 I2 J2 I1 K2 L2 M2 N2 O2 P2 Q2 R2 S2 T2 v% v% v% v% v% v% v% v% v% v% v% v% v% v% v% v% v% v% v% v% v% v% ,* v% U2 V2 W2 ,* X2 Y2 Z2 `2  3 .3 +3 @3 #3 $3 %3 &3 *3 =3 -3 ;3 >3 ,3 '3 )3 6( 6( t: !1 N< !3 `[ ~3 {3 j_ ~1 Q< R< ]3 $} ^1 ^3 (2 _2 /3 :2 <2 (3 _3 :3 <3 H: [3 }3 |3 d^ 13 23 33 43 53                                                                                                                                              ",
"                     63 71 73 02 83 93 03 a3 d2 b3 c3 d3 e3 e| f3 g3 h3 i3 j3 k3 l3 m3 n3 o3 p3 q3 r3 s3 t3 u3 v3 w3 x3 y3 z3 A3 B3 C3 D3 E3 F2 F3 F3 H1 G3 J2 H3 I3 J3 K3 L3 M3 N3 O3 P3 v% v% v% v% v% v% v% v% v% v% v% v% v% v% v% v% v% v% v% v% v% v% v% v% ,* Q3 v% v% v% R3 S3 T3 U3 V3 W3 X3 @3 Y3 Z3 `3  4 .4 +4 @4 #4 )3 $4 h_ :/ %4 i_ 9( 0( &4 *4 *4 `[ ;| ;| j_  } ~1 .} =4 -4 ;4 >4 ,4 (2 '4 )4 ;} !4 ~4 {4 G: w_ x_ ]4 |3 ^4 /4 k] (4 _4 :4                                                                                                                                           ",
"                     <4 [4 }4 |4 [4 14 24 34 44 54 64 74 84 94 04 a4 b4 c4 i| d4 e4 f4 g4 h4 i4 j4 k4 l4 m4 n4 o4 p4 q4 r4 s4 t4 u4 v4 w4 x4 y4 E3 F2 F3 z4 A4 B4 C4 D4 E4 F4 G4 H4 I4 J4 v% v% v% v% v% v% v% v% v% v% v% v% v% v% v% v% v% v% v% v% v% v% v% v% v% v% v% v% v% K4 L4 M4 N4 O4 #1 P4 $2 Q4 R4 S4 T4 U4 V4 W4 X4 Y4 Z4 `4 %4  5 t: !1 0( !3 *4 *4 .5 `[ ;| {3  } +5 @5 #5 $5 %5 &5 *5 /1 ]| =5 -5 Z< ;5 >5 ,5 .[ v_ '5 )5 !5 h] e/ w_ ~5 {5 ]5                                                                                                                                        ",
"                     ^5 /5 (5 _5 :5 <5 [5 }5 |5 44 15 25 35 e1 45 55 65 75 85 95 d4 05 a5 b5 c5 d5 e5 f5 g5 h5 i5 j5 k5 l5 m5 n5 o5 p5 q5 r5 w4 s5 t5 u5 v5 w5 x5 y5 z5 A5 B5 C5 D5 E5 F5 G5 v% v% v% v% v% v% v% v% v% v% v% v% v% v% v% v% v% v% v% v% v% v% v% v% M} v% v% M} l< H5 I5 J5 +2 K5 L5 M5 %2 N5 &2 O5 P5 Q5 R5 S5 @4 T5 `4 U5 V5 W5 Z[ 0( !3 *4 `[ ~3 ~3 {3 j_  } Q< X5 =4 Y5 $5 Z5 `5 {2 $}  6 .6 +6 @6 #6 >5 F: $6 %6 p{ &6 9/ *6 o{ =6 -6 ;6 62                                                                                                                                     ",
"                     >6 ,6 '6 )6 !6 ~6 {6 ]6 ^6 /6 (6 e2 _6 :6 <6 [6 }6 |6 16 26 k2 36 46 56 66 76 86 96 06 p1 a6 b6 c6 d6 e6 f6 g6 h6 i6 j6 r5 k6 l6 m6 n6 o6 p6 q6 r6 s6 t6 u6 v6 w6 x6 y6 z6 A6 B6 N} C6 v% v% v% l< C6 D6 E6 F6 G6 G6 H6 I6 l< v% v% l< v% J6 K6 l< C6 M} Y| L6 M6 N6 O6 P6 Q6 $2 M5 R6 S6 T6 &2 U6 `3 V6 W6 X6 Y6 T5 %| Z6 W5 `6 O< O< !3 `[ `[ ~3 {3 j_  } +5  7 .7 +7 @7 #7 `5 $7 %7 !| !| ~| .6 X< &7 *7 =7 K: -7 d^ ;7 >7 ,7 &6 k( '7 )7 !7 ~7                                                                                                                               ",
"                  {7 ]7 ^7 /5 /7 :5 (7 _7 <5 ]6 :7 /6 <7 [7 }7 74 |7 17 27 37 g| 47 57 67 77 87 97 07 a7 b7 c7 d7 p1 a6 e7 f7 g7 h7 i7 j7 k7 j6 l7 m7 n7 o7 p7 q7 r7 s7 t7 u7 v7 w7 x7 y7 z7 A7 B7 C7 D7 z6 E7 F7 G7 H7 I7 J7 K7 L7 M7 H7 N7 O7 P7 X1 Q7 L4 R7 S7 W| T7 G[ U7 V7 W7 X7 Y7 Z7 `7  8 &1 .8 +8 S6 S6 S6 N5 @8 U6 `3 #8 $8 %8 Y4 &8 *8 W5 `6 Z[ =8 -8 ;8 `[ ~3 {3 j_  } Q< >| >8 #7 -4 #7 >8 ,8 @5 '8 )8 !8 ~8 {8 X< ]8 ^8 p( e/ /8 (8 _8 :8 h( k( <8 [8 ;6 }8                                                                                                                            ",
"                     |8 18 28 38 48 58 68 78 88 98 08 a8 a1 b8 c8 d8 `: e8 f8 g8 h8 h3 i8 j8 k8 l8 m8 n8 o8 p8 q8 r8 d7 s8 t8 u8 v8 w8 x8 y8 z8 C2 A8 B8 C8 D8 E8 F8 G8 H8 I8 J8 K8 L8 x7 M8 N8 O8 A7 P8 Q8 R8 S8 T8 U8 V8 W8 X8 Y8 Z8 `8  9 .9 +9 @9 #9 $9 %9 &9 *9 =9 -9 ;9 >9 ,9 '9 )9 !9 ~9 {9 ]9 ^9 /9 R6 R6 R6 (9 _9 _9 Z3 `3 :9 *3 <9 [9 &8 Z6 }9 W5 `6 |9 19 -8 ;8 `[ -| j_  } 29 .7 39 #7 #7 Z5 .7 @5 +5 ~1 49 !2 #} ~8 59 C: 69 &6 79 89 99 S< 09 &6 T! a9 b9 c9 d9                                                                                                                         ",
"                     d= e9 f9 g9 48 h9 i9 68 j9 k9 l9 m9 n9 o9 p9 q9 r9 d3 s9 t9 u9 v9 w9 i8 j8 x9 y9 g4 z9 A9 B9 c7 q8 C9 D9 E9 u8 F9 G9 i7 H9 I9 J9 K9 L9 M9 N9 O9 P9 Q9 R9 S9 T9 U9 V9 W9 X9 Y9 Z9 `9  0 .0 +0 @0 #0 $0 v< %0 &0 &0 *0 =0 =0 =0 -0 ;0 >0 ,0 =0 ,9 '0 )0 !0 ~0 {0 ]0 W3 ^0  8 @3 ]9 /0 (0 (0 _0 :0 _0 (9 (9 <0 T6 `3 [0 }0 |0 Y4 10  5 }9 W5 20 30 30 =8 0( ;8 ~3 {3  } 29 .7 40 +7 Z5 50 >| 60 70 80 %7 ~2 )| #} 90 00 a0 b0 c0 d0 S< e0 f0 g0 '5 h0 i0 33 j0                                                                                                                      ",
"                     T+ k0 f9 28 l0 m0 n0 o0 p0 q0 r0 s0 |5 t0 u0 v0 w0 74 x0 y0 z0 A0 B0 C0 D0 E0 x9 F0 g4 n8 G0 H0 I0 d7 J0 K0 L0 M0 N0 x8 t4 O0 P0 Q0 %> R0 S0 T0 U0 V0 l: W0 X0 Y0 Z0 `0  a .a .a +a @a #a $a %a &a *a =a -a ;a >a ,a !0 'a )a !a ~a {a ]a ;a ^a ^a /a (a +2 {0 _a #1 :a <a [a }a |a 1a /0 2a 3a 3a 3a 3a :0 4a 5a 6a 7a 8a |0 9a 0a  5 *8 aa aa aa W5 Z[ O< !3 `[ -| 80 +5  7 ba ca 40 .7 @5 da j_ ;| ea `5 '| '| fa ga _8 ha ia ja ka la 99 ma na <8 oa 33 pa                                                                                                                   ",
"                     qa ra sa ta e9 ua va wa (7 68 xa ]6 24 ya za J_ Aa _6 g2 Ba Ca Da Ea Fa Ga 95 Ha Ia Ja Ka La Ma Na Oa 06 Pa Qa L0 Ra Sa Ta Ua Va Wa Xa Ya t6 Za `a  b .b $2 +b @b #b $b %b %b &b  a *b =b -b x< ;b >b ^a ,b 'b ,a !0 ,0 )b !b ~b !b {b )b {a ]b >a `2 ^b /b (b _b :b <b [b }b |b 1b 2b 1a 3b 4b 5b Y3 Y3 3a 6b N5 O5 7b 8b 9b T5 0b ab bb cb }9 }9 }9 db eb !1 O< !3 fb {3 gb ~1  7 @5 X5  7 +5 80 -| -| ~3 60 .7 39 99 hb R<  7 29 29 +5 29 ja ib T! W! jb kb pa                                                                                                                ",
"                        lb mb f9 nb m0 ob pb qb rb sb {6 l9 08 tb ub vb p9 c8 wb xb 45 yb Ea zb Ab Bb Cb Db Eb Fb Gb Hb Ib Jb Kb d7 Lb Mb Nb q4 Ob Pb Qb Rb Sb Tb Ub Vb Wb Xb Yb Zb `b  c +b .c +c @c #c $c %c &c *c =c -c >b `2 ;c >c ~b ,c 'c )c !c ~c {c ]c ^c ]c /c (c _c :c <c O4 [c }c |c 1c $1 2c @3 $2 1a 3b 4b 5b Y3 3a _0 <0 3c 4c 5c 6c 7c T5 0b ab Z6 cb }9 }9 }9 }9 db eb Z[ 8c ;8 9c 0c 80 70 +5 60 +5 70 {3 ~3 ;8 ac ac 70 +5 29  7  } bc {3 cc -| j_ dc ec %! fc oa gc hc                                                                                                             ",
"                        ic jc kc lc mc nc oc pc qc rc sc tc 24 >[ uc za vc }7 wc xc yc zc Ac Bc Cc c4 Dc Ec Fc 56 66 76 Gc Hc r8 f5 Ic Jc Kc Lc Mc Nc Oc Pc Qc Rc Sc Tc Uc Vc Wc Xc Yc Zc `c  d P[ .d +d @d #d $d +1 M[ ^a ,a ,0 %d &d *d =d -d ;d >d ,d 'd )d !d ~d {d ]d ^d /d (d _d :d <d [d _b .3 }d |d 1d }a 2d 3b 3d 5b Y3 3a :0 @8 U6 6a 4d 5d 6d 7d Z4 ab Z6 aa aa aa db db db db 8d =8 9d 0d 9c 0c {3 80 80 80 {3 fb ;8 ad ;8 {3 da {3 9c bd ad cd eb dd ad k_ ed 8^ c/ fd oa gd hd                                                                                                          ",
"                        id jd f9 kd ld nc md nd wa 78 j9 {6 l9 08 od t0 pd vc qd rd sd td ud vd wd xd yd zd Ad Bd Cd Dd Ed Fd Gd f5 Hd Id Jd Kd Ld Md Nd Od Pd Qd Rd Sd Td Ud Vd Wd *1 Xd Yd Zd `d j:  e .e +e @e #e M[ !0 ,c $e {c %e &e G[ *e =e R3 v% v% v% v% ,* v% J6 -e ;e >e ,e 'e )e !e <c ~e {e +3 ]e ^e /e 1a 3d 4b Y3 3a _0 (e _e `3 :9 :e 7c <e Z4 ab Z6 aa aa 20 20 W5 W5 db }9 20 [e }e ;8 9d ;8 `[ ad fb fb `[ ;8 0( O< 30 30 0d 9c |e dd db 1e *| 2e 3e 4e 5e 6e 7e <8 oa b9 51                                                                                                       ",
"                        8e 9e 0e ae be nc ce de ee fe i9 j9 ge he 08 >[ ie je <7 ke le me <6 ne oe pe qe Ab i8 re se te ue ve Lb we xe ye ze Ae Be Ce De Ee Fe Ge He Ie Je Ke Le Me Ne Oe Pe Qe Re P[ Se Te %c Ue M[ )a Ve We Xe Ye X| Y| ,* l< !d l< v% v% v% v% v% v% v% v% v% Ze J6 M} `e  f .f +f @f #f $f +3 %f |a &f 4b 5b 3a :0 6b *f S4 =f -f ;f <e >f *| U5 Z6 aa `6 |9 =8 30 20 8d ,f 20 |9 'f cd O< O< O< 0( 0( 0( !3 0( O< Z[ )f *| 30 8d bb U5 !f 2e ~f {f :/ ]f a( l{ ^f /f (f _f :f                                                                                                    ",
"                           <f [f 0e }f oc md de nd |f n0 i9 q0 1f 2f 24 3f 3f /6 4f 5f 6f 7f 8f zc 9f f3 0f af bf cf df ef ff c6 gf hf if jf kf lf mf nf of pf qf rf sf tf uf vf wf xf Ne yf zf Af @b Bf Cf Df Ef Ff Gf Hf If Jf ,* v% v% v% v% v% Kf D6 v% v% v% v% v% v% v% v% l< Lf ,* u% Mf Nf Of Pf Qf Rf Sf Tf Uf 2d 4b Vf :0 :0 6b _9 3c 6a 6c Wf <e Xf *| U5 bb Z6 8d |9 8c 8c Yf =8 Zf Zf Zf 30 Zf 30 dd eb db !1 Z[ O< O< O< !1 `f *| {f 10  g .g +g 2e 6d Wf Wf @g #g 3/ $g %g &g *g =g -g                                                                                                 ",
"                           ;g >g ,g 'g oc oc de ce )g va n0 68 !g 1f ~g :} 93 {g ]g ^g 5f /g (g _g e3 }6 5} :g <g [g }g |g 1g 2g 3g 4g 5g 6g 7g 8g 9g 0g ag bg cg dg eg fg gg hg ig jg kg lg mg Af ng .e Cf og ,9 pg qg rg X| v% v% v% v% v% v% v% v% C6 X1 v% v% v% v% v% v% v% v% l< l< v% v% sg tg :c ug }c Rf vg wg 2b xg _0 :0 (9 (9 yg zg Ag Bg Cg {f >f 3e Dg )f )f dd =8 Eg ;8 9c Fg Fg 9d 'f [e Zf 8d Gg }9 `f db Z[ Z[ |e Z[ !1 )f *| Hg }0 Ig Jg Kg 9b Lg Mg Ng Og Pg Qg Rg Sg Tg Ug Vg Wg                                                                                                 ",
"                           Xg Yg Zg `g ua md de  h nd .h |f n0 +h !g @h #h ~g $h {g %h &h e2 _6 35 *h 17 =h -h ;h h3 >h ,h 'h )h !h ~h {h ]h l< ^h /h (h _h :h <h [h }h |h 1h 2h 3h wf 4h 5h 6h 7h 8h @d %c 9h 'c 0h ah m< v% v% v% v% v% v% v% v% v% v% l< bh lf v% v% v% v% v% v% =e v% v% v%  % ch dh eh fh gh $f hh 1b xg ih (9 (9 (9 4a jh Ag >1 ;3 '3 kh 3e Dg )f eb eb |e 9d lh mh nh @5 ea oh =| Eg Zf W5 }9 Gg bb `f db db eb db db 1e 7d 8a ph qh rh sh sh th uh vh 6c wh 5( xh yh zh &g Ah Bh                                                                                              ",
"                              Ch Dh Eh Fh pc md ce  h Gh |f ld +h Hh Ih sc sc Jh ^6 {g b2 Kh [7 c3 wb e8 Lh Mh Nh Cc Oh Ph Qh Rh Sh Th Uh Vh Wh Xh Yh Zh `h  i .i +i @i #i $i %i &i *i =i -i ;i >i ,i 'i Ue M[ )i !i X| v% v% v% v% v% v% v% v% v% v% v% v% v% ~i {i l< v% v% v% v% v% U2 l< v% v% ]i ^i /i (i _i :i <i Uf 1a Y3 (9 <0 6b 4a jh `3 >1 H< '3 [i i_ )f eb !1 O< -8 0d ea #5 Y5 }i #7 Z5 #5 |i 1i Eg 30 aa cb cb cb cb cb cb cb bb 2i 9b 3i 6a 4i Ig $8 X6 5i ph 6i 7i G< >2 W) 8i 9i 0i Y! ai                                                                                           ",
"                              bi ci di ei fi gi de  h md .h ld hi o0 rb _7 sb {6 Jh ^6 ii ji ki b3 _6 li d| mi ni oi pi qi ri si ti ui vi {* wi xi yi zi Ai Bi Ci Di Ei Fi Gi Hi Ii Ji Ki Li Mi Ni Oi K5 Pi .1 Qi Ri Lf v% v% v% v% v% v% v% v% v% v% v% v% v% v% F7 Si v% v% v% v% v% Ze l< v% v% ,* Ti Ui Vi Wi Xi +3 %f |a Y3 (9 4a _9 N5 Yi Ag Zi -3 '3 kh >f )f !1 N< O< ;8 oh gb ba -4 `i  j .j `i +j @j #j $j 'f 30 ,f cb  g Gg cb %j  g ab &j rh Q5 *j =j -j 5i ;j ph 6i >j ,j 'j V[ )j !j ~j {j ]j ^j                                                                                        ",
"                                 /j (j _j :j <j nd de ce .h .h [j ld ld o0 Ih q0 {6 ~g ^6 m9 }j |j b8 1j 2j 3j 4j 5j 6j 7j 8j 9j 0j aj bj cj dj ej fj gj hj ij jj kj lj mj nj oj pj qj rj sj tj uj vj wj +2 xj yj zj ,* v% v% v% v% v% v% v% v% v% v% v% v% v% v% v% l< Aj G5 v% v% v% v% Y| v% v% K6 Bj Cj Dj Ej Fj Gj %f 1b 4b (9 _9 N5 =1 Hj Ij Bg Jj #| [i %4 t: eb Z[ 8c ;8 0c gb X5 Kj Lj &5 *5 Mj Nj Oj Pj bc 0d 'f 20 Qj cb  g Rj Rj Rj Sj Tj Uj rh Vj Wj T4 .4 Xj Vj Yj Zj `j  k 'j .k %) +k @k <8 #k $k                                                                                     ",
"                                 %k ci &k gi qb gi pc *k =k ua .h ee )g |f rb -k xa {6 98 93 a8 }j ;k c3 q9 li >k ,k 'k )k !k ~k {k ]k ^k /k (k _k :k <k [k }k |k kj 1k 2k 3k 4k 5k 6k 7k 8k 9k 0k ak bk ck dk ek !i v% v% v% v% v% v% v% v% v% v% v% v% v% v% v% v% v% v% fk I6 v% v% v% Lf l< v% -e gk hk ik jk kk lk mk $2 ^9 R6 _9 nk -1 6a Zi -3 ok #| [i 1e Dg W5 `6 =8 9d fb pk qk >8 rk ~8 sk  j ;4 tk #5 gb bd Eg =8 Zf cb Gg Sj uk vk wk xk xk yk zk Ak *j Bk Ck Dk Ek Ek Fk Gk Hk n: 2] Ik 0^ @k Jk Kk                                                                                     ",
"                                 Lk Mk Nk Ok Pk Qk fi nd de Rk Sk nd gi Tk ld Uk 68 Vk Wk 98 93 Xk }j Yk rd Zk `k  l .l +l @l #l $l %l &l *l =l -l ;l >l ,l 'l )l !l ~l {l ]l ^l /l (l _l :l <l [l }l |l 1l 2l 3l 4l ,* v% v% v% v% v% v% v% v% v% v% v% v% v% v% v% v% v% v% D6 M} v% v% l< 5l Y| 6l 7l 8l 9l Ej 0l al bl }a /0 Q4 zg =j Q5 7a -f cl 7c dl Z4 &8  5 *8 W5 `6 =8 9d 9c ea el fl gl {2 rk hl il Y5 da jl 8c Zf ,f aa  g kl ll ml nl ol pl ql pl rl sl tl ul vl wl xl yl Fk >j zl Al Bl Cl Dl El Fl Gl                                                                                  ",
"                                    Hl Il Jl Kl Pk Tk pc ce Ll de  h  h gi Ml Tk Nl Ih sc {6 98 24 Ol Pl Ql 25 Rl Sl Tl Ul Vl Wl Xl Yl Zl `l  m 35 .m +m @m #m $m %m &m *m =m -m ;m >m ,m 'm )m !m ~m {m ]m ^m /m (m Lf v% v% v% v% v% v% v% v% v% v% v% v% v% v% v% v% v% v% v% C6 _m =e Ze W2 Bj :m <m [m }m |m 1m 2m bl @3 |a %2 zg 4i 7a -j W4 3m 6d Y4 `4 10 &| Z6 *8 W5 `6 =8 ad fb oh +5 >| fl Kj #7 >8 =4 mh jl Eg 30 ,f cb 4m 5m nl 6m 7m 8m 9m 0m am bm cm dm em zg fm :0 gm hm im jm F< 1( km lm mm nm om pm                                                                               ",
"                                    qm rm Il sm Kl Uk Ml tm =k de um vm wm gi Tk xm rb ym q0 {6 Jh zm a8 Am Bm Cm Dm Em Fm Gm Hm Im Jm Km Lm Mm Nm Om Pm Qm Rm Sm Tm Um Vm Wm Xm Ym Zm `m  n .n +n @n #n $n %n &n *n ah v% v% v% v% v% v% v% v% v% v% v% v% v% v% v% v% v% v% v% M} =n 'd -n ;n >n ,n 'n )n !n ~n {n ]n Gj ^n /n 4b N5 (n 7a _n :n <n [n ml &j Z4 !f &| &| cb aa eb |e 0( -8 `[ -| gb 29 }n 29 mh |n 1n ad O< 8d bb U5 Z4 2n 3n Ig 4n 5n Ck 6n 7n 8n 9n (e 0n tl (9 an bn cn dn en fn gn hn in jn kn ln                                                                               ",
"                                       mn nn on pn qn rn Qk ua Ll sn tn sn =k un Tk ld Uk ym sb sc [5 08 vn wn xn yn zn O9 An Bn Cn Dn En Fn Gn Hn In Jn Kn Ln Mn Nn On Pn Qn Rn Sn Tn Tn Un Vn Wn Xn Yn Zn `n  o .o +o l< v% v% v% v% v% v% v% v% v% v% v% v% v% v% v% v% ,* @o #o $o -n %o &o *o =o -o ;o >o ,o 'o )o $f !o ~o {o 3a ]o T4 R5 ^o S5 :n 3m <n nl &j 0b /o ab &| Dg db eb !1 O< 0( ;8 fb -| 0c {3 (o _o 9d O< Z[ db  5 !f 2n :o <o [0 Ak Q5 Ak Bk [o }o |o 1o 2o 0n 3o 4o 5o 6o 7o 8o 9o L) 0o ao bo co do                                                                            ",
"                                          eo fo go sm Uk Pk Tk ee  h tn ho Sk Gh ee <j qb Uk ym sb io 24 08 vn jo ko lo mo no oo po qo ro so to uo vo wo xo yo zo Ao Bo Co Do Eo Fo Go Ho Io Jo Ko Lo Mo No Oo Po Qo {c Ro =e v% v% v% v% v% v% v% v% v% v% v% v% v% ,* w= So To Ro Uo Vo Wo Y2 Xo !c Yo Zo `o ug  p .p +p @p #p $p %p &p ]o *p =p R5 -j ^o 9m -p <n ;p >p &j /o !f 1e Dg )f eb Z[ O< O< =8 cd ,p ;8 9d Eg 8c |e eb 1e !f 7d :o 5i Q5 sl 'p sl sl sl )p !p ~p {p Fj +3 !9 ]p =b 8_ ^p /p (p _p :p <p [p }p                                                                            ",
"                                          |p 1p 2p 3p 4p 4p rn .h nd vm tn  h Ll de tm Qk Tk rn 5p sc 98 24 Ol 6p 7p 8p 9p 0p ap bp cp dp ep fp gp hp ip jp kp lp mp np op pp qp rp sp tp up vp wp xp yp zp Ap Bp Cp Dp Ep M} v% v% v% v% v% v% v% v% v% v% v% v% ,*  % ;e 5l Fp Gp Hp Ip Jp Wo Kp Lp Mp Np Op Pp Qp Rp Sp }c Tp Up Vp Wp Xp Yp Zp *j Bk U4 4n zk `p 3m  q [n ml 9a 0b Z4 %| 1e `f W5 W5 eb Z[ |e |e |e |e =8 30 30 db U5 +g :o X6 4i *j )p .q 'p +q @q #q $q %q 'o &q )o *q =q -q 9_ jm ;q >q ,q 'q )q *! !q                                                                         ",
"                                             ~q {q ]q sm 4p rn qn Ml ^q /q um wm wm wm nd <j rn ym xa k9 l9 24 tb (q _q :q <q [q s  }q |q <} 1q 2q 3q 4q 5q 6q 7q 8q 9q 0q aq bq cq dq eq fq gq hq iq jq kq lq mq nq !0 oq pq qq l< v% v% v% v% v% v% v% M} ,* ,* u% u% rq sq So tq uq vq ,e wq xq yq zq Aq Bq Cq Dq Eq Fq Gq Hq Iq Jq Kq Lq Mq Nq Oq Pq @q Qq Rq Sq Tq `p 3m <n ;p Uq ml 9a .g `4 ab %j }9 `f }9 db db db 8d Zf Zf db U5 2e Y6 Xj =j *j Vq .q 'p 'p )p Wq Xp Xq Sp Yq Gq Zq `q V3  a Q[  r .r Z' +r @r #r $r                                                                         ",
"                                                %r &r Kl sm 3p *r Uk <j de =r -r sn  h  h tm Ml o0 _7 xa tc ~g ;r >r ,r _q 'r )r !r ~r <} {r ]r ^r /r (r _r :r <r [r }r |r 1r 2r 3r 4r 5r 6r 7r gq 8r 9r 0r ar br `n cr dr *o er fr gr l< ,* l< Ze hr hr U2 u% ,* v% v% v% v% v% ir ,* Ze gr X| qq jr kr lr qq mr nr or pr `o qr rr sr tr ur vr wr xr yr zr @q Qq Ar Br ^o Cr 3m 6m [n Uq ml ml ll ll 5m 0b .g !f Dr U5 1e `f }9 ,f }9 U5 6d Er Xj Fr [0 cm Vj Fr Gr @q Hr (e Lq Ir Jr Kr Lr Mr Nr =b Or T[ Pr Qr Rr Sr Tr Ur Vr                                                                      ",
"                                                Wr Xr Yr Zr sm `r  s rn <j de ho um ho tn  h oc [j .s +s sc @s #s $s %s &s *s =s -s ;s >s ,s 's )s !s ~s {s ]s ^s /s (s _s :s <s [s }s |s 1s 2s 3s 4s 5s 6s 7s 8s 9s 0s as bs cs ds es Ro fs gs hs !d =n ;e l< v% v% v% v% v% v% v% v% v% v% v% v% v% v% K6 is js Gp yq ks Cj ls Vi ms ns os ps qs rs ss ts zr us Qq vs 4n ^o `p 3m <n [n ml ll ll ll ws ml xs xs T5 .g Z4 Dr U5 ys cb U5 %8 5c .4 =j sl zs As Fr Q5 4i Bs Cs Ds Es Fs I6 Gs Hs Is %a Js {/ _^ Ks Ls Ms Ns !5 Os                                                                      ",
"                                                   Ps Qs Rs sm 3p Ss Uk Ts <j  h um Us Vs tn nd un rb i9 .s @h he Ws Xs Ys Zs `s  t .t +t @t #t $t %t &t *t =t -t ;t >t ,t 't )t !t ~t {t ]t ^t /t (t _t :t <t [t }t |t 1t 2t bs 3t N6 4t Y2 5t 6t 7t Jf M} v% v% v% v% v% v% v% v% v% v% v% v% v% v% v% v% v% 8t 9t 0t at bt ct Ui dt et ft gt ht qs it jt kt lt mt Ck nt ot zk pt X4 >p ws qt rt st ll tt <n |0 |0 ut xs &j 5m vt Gg  g !f wt xt Q5 Q5 [0 yt zt Ak 'p At dm Bt hh Ct U2 l< W| Dt pg Et Ft Gt Ht It It 9] Jt Kt Lt                                                                   ",
"                                                      Mt Nt Zr Ot Ot Pt Pt Ts gi  h um Qt Rt /q ob ld n0 o0 q0 1f St Tt pd Ut Vt Wt Xt Yt Zt #t `t  u .u +u @u #u $u %u &u *u =u -u ;u >u ,u 'u )u !u ~u {u ]u ^u /u (u _u :u <u [u }u |u 1u 2u 3u Hp 4u ir v% v% v% v% v% v% v% v% v% v% v% v% v% v% v% v% v% v% l< 5u F7 M} 6u 7u 8u 9u Gq 0u au bu cu du {o yg Bs ul R5 4n ^o :n X4 eu qt rt fu fu gu ws <n 3m :n 3m -p <n [n ws vt  g 4m &j %8 U4 Fr T4 W6 Q5 Fr Dk At zr hu iu Es ju v% ku T7 Q7 lu mu nu .) It ou pu qu ru su                                                                   ",
"                                                         tu uu ]q 3p 4p vu Uk wu gi  h tn xu Vs de Tk ld xm .s @h #h od yu zu Au Bu Cu Du Eu Fu 's Gu Hu Iu Ju Ku Lu Mu Nu Ou Pu Qu Ru Su Tu {t Uu Vu Wu Xu Yu Zu ]u `u  v .v +v @v #v $v dr !c %v &v -e ,* v% v% v% v% v% v% v% v% v% v% v% v% v% v% v% v% v% v% v% v% *v W1 v% =v -v 8l dt ;v >v ,v ht 'v )v !v ]o P5  4 nt _n ~v X4 qt rt fu {v {v fu st tt 6m `p ]v -p `p -p ^v ws Tj 4m /v nl Ig U4 zt U4 zt T4 @q At (v Pq 1b _v :v Y| ,* is ,* <v [v }v |v 1v 2v Rg 3v 4v 5v 6v                                                                ",
"                                                            7v Ot 3p 3p 4p  s -k rn gi sn tn 8v tn pc Tk |f o0 9v 0v :} av bv cv dv ev Du fv gv hv iv jv kv lv mv nv ov pv qv rv sv tv uv vv wv xv yv zv Av Bv Cv Dv Ev ar Fv Gv Hv Iv #v xj 1u Jv Hp Kv ir v% v% v% v% v% v% v% v% v% v% v% v% v% v% v% v% v% v% v% v% v% X1 Lv Mv Nv Ov Cj Pv Qv Rv ,v bu Sv Tv <0 Uv Vv Wv xt Xv X4 qt fu Yv Zv Zv `v  w st ^v -p `p `p `p `p -p 6m tt vt  w .w ^v +w R5 U4 [0 T4 @q At @w ]o (9 1b #w $w ;e =e v% v% %w &w *w =w -w ;w  } >w ,w zh                                                                ",
"                                                               'w Zr )w 3p Pt !w  s rn gi sn ~w Qt wm nc {w o0 hi <5 ]w ^w St /w (w _w :w <w [w }w hv |w 1w 2w 3w 4w 5w 6w 7w 8w 9w 0w aw bw cw dw ew fw gw hw iw jw kw lw mw nw ow Hv pw qw rw sw tw G[ v% v% v% v% v% v% v% v% v% v% v% v% v% v% v% v% v% v% v% v% v% v% v% R3 uw lf ]i vw ww xw yw zw Aw Sf Bw Y3 S4 =2 Cw Dw Ew pt eu gu .w Zv Fw Zv Gw rt tt -p `p zk zk zk zk `p -p Hw Iw Jw Kw [n rh .4 U4 Ak sl =j Bs Lw Bt 3b Mw +1 Nw U2 v% v% ,* m< Ow Pw Qw Ik Rw la Sw Tw                                                                ",
"                                                                  Uw Vw )w Kl Ww Xw  s rn nd Yw ~w tn =k fi va va 68 Zw `w #h  x .x ev +x @x #x $x %x hv &x *x =x -x ;x Cr >x ,x 'x )x -u !x ~x ~x {x ]x ^x /x (x _x :x <x [x Ni Oi }x |x 1x 2x 3x W7 'd M} v% v% v% v% v% v% v% v% v% v% v% v% v% v% v% v% v% v% v% v% v% v% v% v% v% l< 4x 5x 9u 6x 7x 8x W3 Vp xg $3 9x 4d 0x xt Xv ax eu rt .w Zv Zv Gw  w st ^v -p zk bx ^o ot ot ot 0m cx dx ex Tj 6m fx R5 [0 Q5 T4 4i S4 Z3 Y3 gx hx ix jx I6 v% ,* u% kx lx mx nx ox px 09 5v $r                                                             ",
"                                                                     qx rx Vw sx Ww Xw  s Pk nd tn Vs sn .h ob ob [j Yr tx ux vx wx Eh xx yx zx Ax Fu #t Bx Cx Dx Ex Fx Gx Hx Ix Jx Kx Lx Mx Nx Ox Px Qx Rx Sx Tx Ux Vx Wx Xx Yx Zx `x  y .y +y @y sw Hp Ze v% v% v% v% v% v% v% v% v% v% v% v% v% v% v% v% v% v% v% v% v% v% v% v% v% v% #y $y Yq }m %y &y *y 2o |a =y O5 -y 8b Br Tq pt X4 ws rt .w `v {v rt st ws 6m `p ^o ot 4n Ar 5n ;y >y ,y 'y )y !y ^o 4n 5i U4 5n 5n ~y Uv {y ]y ^y /y M[ (y Lf v% v% K6 _y :y <y [y }y |y 1y 2y                                                             ",
"                                                                        Ot )w )w 3y Ww ei Uk Ml ^q ~w ho =k nc .h fe +s @h _7 Wk 4y di 5y 6y 7y 8y 9y 0y #t ay by cy dy ey fy gy hy iy jy ky ly my ny oy py qy ry Vx sy ty uy vy Zb wy xy yy zy Ay By Cy -e v% v% v% v% v% v% v% v% v% v% v% v% v% v% v% v% v% v% v% v% v% v% v% v% v% v% Dy Ey Fy !n Qf Gy Hy Iy }a _9 O5 -y .4 Br ^o zk -p <n tt st rt gu ws tt ^v 6m `p rh Ig .4 Ck Jy [o Ky 8n Ly 8m My ot 4n 4n Br ^o `p Tq Ny Oy  d Py Qy zy {a Ry Y| v% ,* Sy ^] Ty Uy )| Vy Wy Xy Yy                                                          ",
"                                                                           Zy rx sm 3y `y Xw  s Qk  z ~w =k ua ob .z +h _7 o0 +z @z #z l0 $z %z &z *z 9y =z -z &x ;z >z ,z 'z Ew )z !z ~z {z ]z ^z /z (z _z :z <z [z }z |z 1z 2z yf 3z 4z 5z 6z 7z 8z xq *e v% v% v% v% v% v% v% v% v% v% v% v% v% v% v% v% v% v% v% v% v% v% v% v% v% v% -e 9z Pp 0z az bz Aw cz {o _9 fm -y vs 4n ot _n Tq Cr ax Uq ws tt ^v 6m -p `p S5 +w -j R5 [0 Fr 'p dz ez fz gz hz ;y 5n 4n zk iz ws jz kz lz mz nz |_ oz {b pz qz l< ir Ze L[ rz ,' b] sz tz =z uz                                                          ",
"                                                                           vz wz )w xz yz `y Xw  s <j zz de nc de .h +h o0 ld Az Bz Cz Dz Ez Fz Gz Hz Ax $x Iz Jz Kz Lz Mz px =| eu Nz Oz Pz Qz Rz Sz Tz Uz Vz Wz Xz Yz Zz `z  A .A +A Re @A Hv #A $A %A &A *A l< v% v% v% v% v% v% v% v% v% v% v% v% v% v% v% v% v% v% v% v% v% v% v% v% gr =A -A ;A >A ,A 'A )A iu !A ~A {A vl Rq 4n 4n ]A xt Tq -p 6m -p `p zk zk rh +w -j .4 U4 Ak .q ^A ^A }o +q Ky /A [o Qq (A 7m rt ,f =8 _A :A <A [A }A |A 1A X7 2A 3A ,* v% 4A 5A 6A c] 7A 8A #t 9A                                                          ",
"                                                                              0A aA )w bA cA dA Xw eA <j  h fA de ee .h |f ld gA hA Zg iA jA kA lA zx mA *z nA oA pA qA rA |y sA tA uA vA Bt wA xA yA zA AA BA CA DA EA FA Ew GA HA IA JA KA LA MA NA OA Wo PA M} v% v% v% v% v% v% v% v% v% v% v% v% v% v% v% v% v% v% v% v% v% v% v% v% U2 Ip QA RA Rp ft 8x SA 1b hu 9n TA UA ;y Ar Rq (A VA ot zk `p WA ot vA Br Ig -j .4 yt [0 Fr XA YA ZA Hr .q +q ez `A [o  B st .B +B @B #B $B %B &B *B l< l< =B -B ,c ;B l< >B O[ ,B 'B )B !B ~B {B ]B                                                       ",
"                                                                                 bA rx 3p ^B `y /B Xw sx <j gi Ll Ll gi ob (B _B l0 Zg Eh :B <B [B }B |B 1B 2B 3B oA 4B 5B 6B 7B 8B 9B 0B :9 aB bB cB dB eB >x fB gB hB iB jB kB lB mB nB oB pB qB rB sB tB uB *e ,* v% v% v% v% v% v% v% v% v% v% v% v% v% v% v% v% v% v% v% v% v% v% v% K6 vB wB Pp xB Sp yB zB 1d AB BB 6w CB DB EB EB ;y Ar 4n FB ^o ]A vs vl vl <o .4 R5 U4 Q5 .q Wq GB ZA }o .q Hr (v (v HB IB rt 0c JB KB LB MB NB OB v% v% v% v% PB QB xj RB SB TB UB VB WB |w }w XB YB                                                       ",
"                                                                                    ZB )w 3p `B  C dA Ww sx )g nd wm nd gi gi .C +C @C #C $C %C &C [B }B |B *z 2B *C oA =C -C ;C >C 8B oh ,C 'C )C !C ~C {C ]C ^C /C (C _C :C <C [C }C |C 1C 2C ,i 3C 4C 5C M6 6C ]i v% v% v% v% v% v% v% v% v% v% v% v% v% v% v% v% v% v% v% v% v% v% v% ,* #y 7C 8C 9C 0C aC bC cC AB dC eC fC gC hC hC iC jC ov kC hz Ar EB lC Jy /A ;y 5n [0 Fr )p mC nC YA Hr (v #q oC pC qC mt tt rC sC tC uC vC wC xC v% v% v% v% F7 yC zC AC xj BC CC DC EC $t %x FC GC                                                       ",
"                                                                                    HC IC rx xz JC KC LC Ww eA Ml MC NC MC <j go OC PC @C QC RC SC [B lA }B mA TC UC 0y -z Jz VC WC rA XC YC ZC kB Ew pt `C  D _C ,C .D .D .D +D @D [C GA #D $D >i %D &D *D =D sw -D K4 v% v% v% v% v% v% v% v% v% v% v% v% v% v% v% v% v% v% v% v% v% v% v% ,* gr ;D >D ,D 'D bC )D pv !D ~D eC {D ]D ^D /D (D _D :D (D jC Ky <D [D ez Ky }D Qq Fr }o |D nC |D lt 1D kt xr Vp Pz 2D 3D 4D 5D 6D 7D 8D 9D 0D v% v% v% v% v% aD bD .e cD dD eD fD gD hD iD jD kD lD                                                    ",
"                                                                                       mD nD )w ^B oD pD  C qD qn Pk gi MC <j Ot rD sD tD uD vD Ez SC [B lA wD mA TC 2B 0y xD 4B yD -C cy zD AD 'z BD CD DD BD ED 9B FD GD HD 'z ID JD KD LD MD Yx ND OD PD QD Op RD SD Kv v% v% v% v% v% v% v% v% v% v% v% v% v% v% v% v% v% v% v% v% v% v% v% v% Mf TD UD VD WD XD YD ZD pv ~D DA `D iC :D  E .E +E @E #E $E %E &E *E {D =E -E ;E }o GB >E >E 1D hu ,E 'E %y )E /b #b !E ~E {E ]E ^E /E (E v% v% v% v% v% _E ~0 :E 5h Wd <E [E }E |E 1E 2E 3E 4E                                                    ",
"                                                                                          bA rx 5E 6E JC pD dA *r sx Pk <j go Ot 7E ci 8E 9E 0E aE aE &C [B }B |B mA bE cE 3B dE eE yD fE gE hE iE 8B jE kE kE lE mE nE oE pE qE rE sE jB tE uE vE wE xE yE zE AE BE CE DE I6 v% v% v% v% v% v% v% v% v% v% v% v% v% v% v% v% v% v% v% v% v% v% v% v% EE FE GE HE IE JE KE LE ME NE OE PE QE +E RE SE TE UE VE WE gC &E &E fC XE YE ZE `E  F  F .F &p Tv $f +F @F #F $F %F &F *F =F -F ;F >F ,F v% v% v% v% X1 'F |d )F !F ~F pj {F 7A ]F ^F /F (F                                                    ",
"                                                                                             rx rx Ot `B _F  C /B :F eA Pk Zr <F [F di #C 6E aE }F aE &C [B lA zx |B |F TC 1F 3B 2F 4B 3F -C 4F 5F 6F 7F 8F 9F 0F 0F 9F aF bF cF dF eF (C kB fF gF hF tj iF jF kF lF mF nF oF Mf v% v% v% v% v% v% v% v% v% v% v% v% v% v% v% v% v% v% v% v% v% v% v% ,* Bj Of pF qF rF sF tF uF dC vF wF kC xF yF zF AF BF CF DF EF %E &E &E FF GF HF IF  F JF |o pC KF @p dh I6 ir LF MF NF OF PF QF RF SF TF F7 v% v% v% Y| UF VF WF XF YF ZF `F  G 's .G +G @G                                                    ",
"                                                                                                #G )w xz $G %G &G /B Ww 3y xz bA *G =G sD -G ;G >G ,G 6y ,G lA }B 'G mA bE Ax UC 3B oA )G !G ~G fE {G ]G ^G /G /G (G _G :G <G [G }G |G +D 1G 2G !F 3G 4G 5G 6G 7G 8G 9G 0G aG bG To =e v% v% v% v% v% v% v% v% v% v% v% v% v% v% v% v% v% v% v% v% v% v% 5l FE cG dG eG fG gG hG iG DA jG kG lG mG yF nG oG lG _D /D pG fC qG rG sG sG tG uG vG wG xG yG zG AG BG CG DG EG FG GG HG IG JG KG LG MG NG l< v% OG PG QG RG SG TG UG VG WG XG YG ZG `G  H                                                 ",
"                                                                                                .H wz +H $G @H  C #H dA Nt cA $H %H &H *H =H 9E -H >G 9E ;H ,G lA Gz |B 1B >H >H ,H nA 'H hv )H !H ~H {H ]H tz 5B 5B 5B ^H /H (H _H :H HD <H [H }H |H 1H 2H 3H 4H 5H 6H 7H 8H 9H 0H vB EE aH v% v% v% v% v% v% v% v% v% v% v% v% v% v% v% v% v% v% v% v% bH cH dH eH fH ,x gH hH iH jH kH lH mH nH oH pH qH rH sH tH %E uH vH wH &E &E xH yH zH AH BH CH DH EH Lr FH GH v% v% v% l< HH IH JH KH LH MH NH S3 OH PH QH RH SH TH UH VH WH XH YH ZH `H  I                                                 ",
"                                                                                                   .I rx bA +I @I #I $I KC on _F %I &I *I =I -I ;I >I ,I 'I 'I )I !I ~I #x >H >H {I 1F ]I 'H ^I /I (I _I :I jv ~G VC <I VC [I }I :G [G |I 1I 2I 3I 4I 5I 6I 7I 8I 9I 0I aI bI cI dI eI fI gI ah 4u v% K6 e- u% v% Y| M} K6 v% v% v% v% v% v% v% v% v% v% hI iI jI kI lI mI nI oI pI qI rI sI tI uI vI wI xI qH yI zI sG jH AI BI AI CI DI EI FI GI HI II ft Vi JI KI v% v% v% v% v% ,* LI MI NI OI PI QI RI SI XD TI UI VI WI XI YI ZI `I  J .J +J @J                                                 ",
"                                                                                                      #J $J +I @H oD %J $I pD %G &J *J Eh =J -J ;I +G >I ;J >J >G ,J ~I mA >H >H TC UC 'J *C )J !J ~J {J ]J ]J !H )G )G ^J <I /J (J _J :J <J [J }J |J 1J 2J 3J 4J 5J 6J 7J 8J 9J 0J aJ bJ cJ dJ eJ SD DE -n fJ gJ Nf hJ lr Mf v% v% v% v% v% v% v% v% v% Bj iJ jJ kJ lJ mJ nJ oJ pJ qJ rJ sJ tJ uJ vJ wJ uI xJ yJ zJ AJ BJ CJ DJ EJ FJ GJ HJ IJ JJ 0t >n KJ LJ MJ NJ v% v% v% v% v% v% OJ BC PJ QJ Dw RJ SJ TJ UJ VJ WJ XJ YJ ZJ }H px `J  K .K +K {)                                                 ",
"                                                                                                         Zy +H 5E $G @K pD %J @K #K $K %K &K *K =K -K /F >I ;K >K ,K 'K 1B |F TC ,H UC 1F Fu )K !K )J !J ~J /I ~K ~K {K Jz =C ]K ^K /K (K cF _K :K |J <K [K }K |K 1K w% sq 2K 3K 4K 5K 6K 7K 8K 9K 0K aK bK cK dK RD eK fK -n Ze v% v% v% v% v% v% v% ,* gK hK iK jK kK lK mK nK oK pK qK rK sK tK uK vJ vK wK xK yK zK AK BK CK DK 'x EK FK GK is v% ,* HK IK JK KK v% v% v% v% v% v% LK MK NK OK PK :C QK RK SK TK UK VK WK XK YK hE ZK ;K `K ZG E~                                                 ",
"                                                                                                          L .L +H +L @L @K pD @K #L $L %L &L *L =L -L -K /F ;L >L ;K  K 'K 1B Ax ,H 2B 1F 'J ,L 'L 'L )L !L ~L {L ~J ^I ]L ^L )G ]K /L ^G 8F (L _L :L <L [L }L |L 1L ,* 8& {* 2L 3L 4L 5L 6L 7L 8L 9L 0L aL bL cL dL eL fL gL Lf v% v% v% v% v% v% v% =e oF hL iL jL kL lL mL nL oL pL qL rL sL tL uL vL wL xL xK yL zL AL BL CL DL EL FL GL HL u% v% v% G[ U3 &c 3t X| v% v% v% v% v% Sy  3 IL JL KL LL ML NL OL PL QL RL SL TL UL >C VL ZH WL XL YL                                                 ",
"                                                                                                            ZL rx +H +I @L @I %G `L  M .M +M @M #M $M -L -L %M &M *M  J >I YG =M Ax 9y 9y 1F FC -M ,L ;M >M )L ,M 'M !J !J )M )H )G !M {G >C ~M {M ]M ^M /M (M _M 1K u% ,* ,* ,* w% :M <M [M }M |M 1M 2M 3M 4M 5M 6M 7M 8M 9M bG v% v% v% v% v% v% v% !d 0M aM bM cM dM eM fM gM hM iM jM kM lM mM nM oM pM qM rM sM qL tM uM vM wM xM yM zM AM Y| 7& v% BM AC .e CM DM EM v% v% v% v% FM #w Wv GM HM IM JM KM LM MM NM OM PM QM RM *x SM TM UM VM WM                                                 ",
"                                                                                                               ]q XM +H @H @L @I YM ZM `M  N .N +N @N #N #N $N %N &N *M ;L >I YG *N =N -N -N -N jD =N ;N ;M >N ,N 'N 'N !L !J /I (I :I )N 6B !N sA ~N {N *E ]N ^N /N (N v% v% v% u% x= _N :N <N [N rp }N |N 1N 2N 3N 4N 5N 6N 7N Y| v% v% v% v% v% 8N 7C 9N 0N aN bN cN dN eN fN gN hN iN jN kN [E lN mN nN oN pN qN rN sN tN uN vN wN xN yN zN AN So v% BN CN ]y DN EN FN EE l< M} Fp GN ~o ]v HN IN JN KN LN MN NN ON PN QN RN SN TN UN VN WL WN YL                                                 ",
"                                                                                                                  XN XM +L @H YN YN ZN `N  O  N .O +O @O #O #N $O %O &O &O &O *O ^F =O =N Ax -O Ax ;O =M >O ,O 'O )O !O )L ~O {O ]O _I ~H WC ^O WH WG /O fu hC (O _O :O <O rq K6 ,* [O }O |O 1O 2O 3O 4O 5O 6O 7O 8O 9O 0O aO bO cO M} C6 =e OG dO eO fO gO hO iO jO kO lO mO nO oO pO qO rO sO tO uO vO wO wO xO yO zO AO BO CO DO EO FO GO HO IO 4u v% JO KO LO *1 MO `q NO $y FE OO PO QO RO SO 3q TO UO VO WO XO YO ZO `O  P .P `J UN #M +P @P =g                                                 ",
"                                                                                                                  #P $P %P &P *P *P =P -P ;P >P ,P 'P )P @O !P !P @O ~P &O {P ]P UN SM =M =M 1B ^P &z /P /P .G >O (P _P ZK >M :P <P ]O [P ~H }P |P !N 1P 2P /o 3P 4P 5P 6P 7P 8P 9P 0P aP yv bP cP dP eP fP gP hP iP jP kP lP mP nP ;D oP JJ pP qP -v rP sP tP uP vP wP xP yP zP AP BP CP DP EP FP GP HP IP JP KP LP MP NP OP PP QP *u RP SP TP UP VP WP XP 'i OI YP ZP `P  Q Bp .Q +Q @Q `C #Q $Q %Q &Q *Q =Q AD -Q ;Q >Q ,Q 'Q )Q !Q =L .J ~Q {Q ]Q                                                 ",
"                                                                                                                     ^Q nD )w /Q /Q (Q _Q :Q <Q %r [Q }Q |Q 1Q !P @O ~P @N {P @O &O &M *O 'K 2Q ~I ~I zx ~I &z SM >O ,O ;N 3Q 'N ,M <P 4Q [P 5Q qA 6Q /G ZI 7Q 8Q Vv 9Q 0Q aQ bQ cQ dQ eQ fQ gQ hQ iQ jQ kQ lQ mQ nQ oQ pQ qQ rQ sQ tQ uQ vQ wQ xQ yQ zQ AQ BQ CQ DQ EQ FQ GQ HQ IQ JQ KQ LQ MQ NQ OQ PQ QQ RQ SQ TQ UQ VQ WQ XQ YQ ZQ `Q  R .R +R @R #R $R %R |C &R *R hy 7w ZD =R -R ;R >R ,R 'R )R !R ~R /I {R ]R ^R /R (R _R :R ]P ZG <R [R }R |R                                                 ",
"                                                                                                                        1R wz 2R /Q /Q 3R 4R 5R >P 6R 7R 8R @N 1Q 9R @N @N {P 9R 0R &O >I 'K aR }B }B }B }B |B mA =M >O >O ;N _P !O ~L <P bR ]J &x <I cR dR eR fR >p gR hR iR jR kR lR mR nR oR pR qR rR sR tR uR vR wR xR yR zR AR BR CR DR ER FR GR HR IR JR KR LR MR NR OR PR QR RR SR TR UR VR WR XR YR ZR `R  S .S +S @S #S $S %S &S *S =S -S ;S >S ,S 'S QO ~A )S !S ~S {S ]S ^S /S (S _S :S <S ZK ;M [S }S WO |S 1S 2S 3S 4S 5S 6S 7S 8S 9S *g                                                 ",
"                                                                                                                           0S rx YN *P (Q aS bS Xr cS dS eS fS gS hS iS jS hS kS 9R {P &O >L ,K !I }B }B lS |B #x mS 8y nS (P ,O 3Q !O 'N )L oS pS eE ay qS rS sS :H lE tS uS vS wS xS yS zS AS BS CS DS ES FS GS HS IS JS KS LS MS NS OS PS QS RS SS TS US VS WS XS YS ZS `S  T .T +T @T #T $T %T &T *T =T -T ;T >T ,T 'T )T !T ~T {T ]T ^T /T (T _T :T (O <T [T pK }T |T 1T 2T 3T 4T 5T 6T 7T 8T 9T 8y ^P {I ~K 0T aT bT cT dT eT VM 6S fT 8S gT *g                                                 ",
"                                                                                                                              hT iT 2R jT kT lT mT mT nT oT pT fS qT hS gS hS rT sT 0R &O *M >L ,K ,J zx ~I tT bE bE 1B SM nS SM ,O ;N )O uT ,L 1E -z hv vT wT rS !N xT :H pE yT zT Gx AT `F  E BT CT yo DT ET FT GT HT IT JT KT 4L LT MT NT OT PT QT QT RT ST TT UT DO VT WT XT YT ZT `T  U .U +U @U #U $U %U &U *U =U -U ;U >U ,U 'U )U !U ~U {U ]U ^U /U (U _U :U <U [U }U |U 1U 2U 3U 4U %t )K 'G 5U !I }B 6U 7U 8U 9U 0U aU bU VM &O cU dU gT eU                                                 ",
"                                                                                                                              fU gU hU iU jU bS kU %r 0S lU mU fS fS nU oU pU gS rT qU ~P &N ;K >L ,K aR &z bE rU rU *N -O 1B 1B sU tU ;N ;M ;M uU vU 2F wU Jz xU [I WB rA 7B ~M yU zU AU BU CU HM DU EU FU GU HU IU JU KU LU MU NU OU PU eM QU RU SU Vx TU UU VU WU XU Ud YU ;U ZU `U  V .V +V @V #V $V %V &V *V =V -V ;V >V ,V 'V )V mL !V ~V {V ]N ]V ^V /V (V _V :V <V [V }V |V 1V 2V 3V 4V *z [B ,G ,G %z 8y !L 'N 5V 6V gS 7V 8R @O 8V 9V 0V aV                                                 ",
"                                                                                                                                 bV IC cV 2R dV eV bS fV gV hV hV iV fS fS fS jV nU rT rT hS 6S ;K >L  K YG *N 1F 0y kV UC >H mA 1B Ax =N ;N ;N =N 1F ]I 0y 2F -z ^L wT lV |E cy 6B mV nV oV lv pV qV rV sV IN tV uV vV wV xV yV zV AV BV CV DV EV FV GV HV IV JV KV LV MV NV OV PV QV RV SV TV UV VV WV XV YV ZV `V  W .W +W @W #W $W %W &W *W =W -W ;W >W ,W 'W )W !W ~W {W ]W ^W /W =t (W uU Gz }F >J ;G _W ,J :W <W [W }W |W 1W jS 2W 7R 3W dS 4W                                                 ",
"                                                                                                                                    5W IC 6W 7W 8W 9W 0W aW bW cW dW fS |W fS fS fS qT eW fW )P gW >L  K SM ;N {B vU 2F hW iW |F mA Ax 9y 9y FC =N =N 1F nA 0y Iz oA -z jW kW lW )N )N mW nW *x )N oW pW qW rW sW tW uW vW wW +E xW yW zW AW VT BW CW DW EW FW GW HW IW JW KW LW MW NW OW PW QW RW SW TW UW VW WW XW YW ZW `W  X .X +X @X #X $X %X &X *X =X -X ;X >X ,X 'X )X !X ~X {X ]X 'M SM ^X /X (X }F _X >J :X gW <X [X bU }X {P 2W |X 3W 1X 2X                                                 ",
"                                                                                                                                       3X 4X lb 5X 6X lT 7X 8X 9X mU fS 0X 0X fS fS nU aX rT bX cX dX >L *O ;N ,L eX fX #t gX &z |F TC 1F Fu $x $x =N =N 9y 0y 0y Iz hX oA oA xD {K {K {K _I ]J ]J iX jX kX =Q lX mX nX oX pX qX rX :D sX rX tX uX vX wX xX yX zX AX BX CX DX EX FX GX HX IX JX KX LX MX NX OX PX QX RX SX EV zI qJ TX UX VX WX XX Td YX ZX `X  Y .Y +Y @Y #Y $Y %Y &Y *Y >M >O ]P =Y 8R >J )I -Y ;Y cX >Y ,Y 'Y )Y !Y fW ~Y {Y ]Y ^Y                                                 ",
"                                                                                                                                       /Y hT /Q (Y _Y 6X :Y <Y [Y }Y }Q |Y 0X 0X 0X nU 1Y 2Y 3Y pT 4Y >K  K `H ZK 5Y {L 6Y fX 9T *N Tw 1F vU 7Y Iz ]I =N =N -N XB Iz oA -z 8Y 9Y hX 0Y aY ]F !J bY !J cY dY [P eY fY .u 0T oW lv WG gY hY iY rX jY kY lY mY %Y nY oY pY qY rY sY tY uY vY wY xY yY zY AY BY CY DY EY mp FY CC GY HY IY JY KY LY MY *E NV NY OY PY QY RY SY TY UY VY WY XY YY ZY #O 9R `Y .J )I 9E  Z *M .Z +Z bX 3Y @Z #Z $Z %Z RC                                                    ",
"                                                                                                                                          &Z *Z =Z -Z ;Z >Z 7X ,Z 'Z )Z 0X |Y |Y 0X 0X nU 2Y !Z fS }Q (X ;J >L `H ~Z {Z ]Z ^Z ~L ;M ZK 'L ]F hv 0Y /Z -M ;M ;M ,L 'L oA -z (Z -z hX 2F 0y *C )K 'L )K !K )L !L 'M _Z ~K :Z qW <Z [Z }Z qW |Z 1Z Iu 2Z Iu 3Z 4Z 5Z 6Z 3Z 7Z %Y 8Z 9Z 0Z aZ bZ zY cZ dZ eZ fZ gZ hZ iZ jZ kZ lZ mZ FU vo nZ oZ pZ qZ rZ sZ tZ uX mZ uZ vZ wZ xZ yZ zZ AZ BZ CZ DZ EZ FZ jS GZ ,I >J HZ ]P 3S IZ sT JZ KZ LZ MZ NZ OZ                                                    ",
"                                                                                                                                             PZ QZ RZ SZ TZ UZ VZ WZ XZ YZ ZZ |Y 0X 0X nU 3Y `Z  ` eW }Q (X TM +G .` +` AZ @` #` 5Y $` $` eX /I )H ^I !K `J >N >N %` bY eE 4B vT &` oA *` 1F 9T tU tU =N ;M >N 'L 'L 'L )J )M /I ~K =` _I 4V 7U eY kX 4V -` ;` >` ,` '` )` !` ~` {` 0Z ]` ^` /` (` _` :` <` [` }` |` 1` 2` 3` 4` 5` 6` 7` 8` 9` 0` a` 0T b` c` bT d` e` f` g` h` i` j` k` l` m` EZ !Y n` ;J aR aR YH o` p` q` r` s` t` 1Y u` 8X v`                                                    ",
"                                                                                                                                                w` $G x` y` z` UZ A` B` {Q }Y C` 0X 0X 0X 1Y aX `Z D` 3Y E` <R F` :R G` H` I` J` J` K` L` M` N` <S O` P` ,M Q` R` !O S` ^I )H ay vT &` 0y nA 2B -O =M =M ,O 3Q 'O ,L ,L [S T` 'M )J 's 6Y bR <P <P ~J P` XY U` 9U V` W` f` X` Y` Z` ``   .. .+ .@ .# .$ .% .& .* .= .- .; .'R > ., .' .) .! .~ .{ .N` .P ] .^ .XY / .( ._ .<X aU : .{P ]P < .m` EZ [ .&M } .| .1 .GC 2 .3 .4 .5 .6 .7 .8 .9 .0 .a .                                                   ",
"                                                                                                                                                b .c .d .e .f .g .h .i .j .9S |X 0X |Y |Y C` 1Y k .D` D` }Q WN <R 6S $O ( .h` l .m .l .n .o .p .q .N` r ..P s .t .s .u .v .'s w .!G yD Jz oA 0y 9y =M *O SM x .(P 'O 'O y .)O ,N !O 'L z .'N A .z .B ./ ..P C .C .C .n .D .E .F .G .H .H .I .J .K .L .M .N .O .P .  .Q .R .S .T .U .zZ V .W .X .M` Y .Z .` ..Z ` . ..aU bX eT bU ...6S :W !Q +..3S $M /F @..#..$..%..&..*..=..-..;..>..,..'..)..                                                      ",
"                                                                                                                                                   !..~..{..]..>Z z` ^..aE j .'Z /..iV (.._..C` :..<..[..}..bU |..fT 8R !Y EZ 1..2..q` q` 3..3..o .C .4..5..6..j` j` 6V 7..5..cY w .8..)G |w 's %x ,L 9..0..a..b..Z .CZ Y .c..,N d..d..5..5V e..e..f..e..e..7..g..h..m .i..j..k..l..m..n..I .o..p..q..r..s..t... .u..v..w..x..y..W .z..A..B..6V j` #N o` C..D..m` @Z 0R E..F..|..G..H..>N ,M H` l .3S uT YG I..J..{ .H` K..L..M..N..O..P..Q..R..                                                      ",
"                                                                                                                                                      S..T..U..V..W..TZ X..Y..bW 'Z Z..iV (..|Y :..k .`..[.. +.0X F..8V |Q FZ .+.IZ ++.@+.q` q` #+.$+.%+.( .( .j` +Z 1..IZ 7..+` &+.iv ~K ]J ]J ]O {Z +` Q` *+.=+..Z m` m` j` t .-+.t .;+.7..7..t .>+.1..,+.,+.,+.IZ '+.)+.!+.~+.{+.l..]+.^+./+.(+._+.r..:+.<+.[+.}+.v..|+.1+.2+.3+.4+.#+.IZ g..+Z dT <X @Z 5+.6+.7+.8+.qT 9+.9+.0+.5Y O` a+.b+.c+.W .d+.e+.f+.wZ yZ g+.h+.L..i+.j+.k+.l+.m+.n+.                                                      ",
"                                                                                                                                                         o+.-Z p+.z` z` ~q q+.r+.~Q s+.t+.u+.(..|Y :..v+.[..[..:..0X mU F..9+.sT w+.x+.y+.y+.y+.z+.A+.KZ 8+.dT 8+.r` B+.C+.D+.t .E+.F+.%` {J .P G+.H+.I+.0U J+.K+.1..j` EZ j` L+.A+.7+.6+.t .g..A+.-+.A+.M+.N+.O+.O+.P+.Q+.R+.S+.T+.U+.G .V+.W+.X+.Y+.Z+.`+. @..@.+@.@@.#@.$@.%@.&@.*@.=@.-@.;@.>@.z+.7+.7+..+.D+.z+.r` ,@.rT '@.)@.!@.~@.{@.k..]@.^@.m .-@.&@./@.(@._@.:@.<@.[@.}@.|@.1@.2@.hc                                                       ",
"                                                                                                                                                            3@.4@.5@.g .6@.-Z 7@.Y..+P 8@.YZ 9@.(..9@.:..<..`..0@.:..0X ZZ ZZ a@.b@.c@.d@.6 .6 .d@.A+.e@.[X FZ FZ f@.g@.d@.P+.h@.DZ 5+.l` i@.Q` G+.j@.k@.IZ ++.'+.x+.l@.r` }W c@.M+.N+.t` l@.m@.B+.c@.O+.O+.O+.N+.O+.O+.n@.P+.o@.p@.q@.r@.[+.V+.s@.Y+.t@.u@.v@.w@.+@.x@.y@.z@.A@.B@.*@.C@.D@._@.-@.E@.-@.F@.D+.-..R+.G@.L..H@.I@.@@.J@.{@.K@.L@.M@.4 .N@.O@.P@.{+.3..H@.Q@.R@.S@.T@.U@.V@.W@.                                                         ",
"                                                                                                                                                               X@.Y@.W..Z@.g .`@. #..#.B` 8S |X (..(..9@.:..+#.0@.@#.:..0X ZZ 0X 3Y ##.$#.%#.&#.6 .%#.t` *#.=#.-#.;#.=#.$#.6 .M+.}W [ .<X o` 0+.>Y >#.,#.7+.'#.)#.m@.!#.~#.w+.!#.O+.{#.]#.$#.^#.{#.]#./#./#.(#._#.:#.##.l@.-+.<#.W .T .[#.P .* .}#.Z+.r..t@.s@.|#.1#.2#.q@.c+.3#.4#.5#.6#.5#.7#.8#.9#.0#.a#.M..b#.c#.d#.e#.f#.g#.P@.h#.3..i#.j#.k#.4 .l#.m#.n#.o#.a#.l#.Q@.p#.q#.k .r#.m+.s#.                                                         ",
"                                                                                                                                                                  t#.u#.v#.w#.Z@.x#.y#.z#.A#.8S |X B#.(..|Y :..+#.0@.<..:..0X ZZ 0X D` C#._#.]#.&#.&#.$#.D#.E#.F#.=#.t` G#.6 .6 .c@.*#.8+.!P FZ H#.I#.FZ J#.c@.M+.%#.K#.L#.:#.(#.]#.M#.^#.N#.O+.^#.]#.O#.P#.C#.Q#.R#.S#.e+.( .BZ H+.T#.U#.V#.K .p..$ .W#.X#.+ .Y#.Z#.`#. $.{@.m .q` G@..$.L..9#..$.9#.i#.9#.+$.@$.#$.@$.$$.%$.g#.&$.*$._@.@$.e#.=$.k#.-$.;$.m#.H@.k#.>$.,$.'$.)$.!$.~$.{$.]$.                                                         ",
"                                                                                                                                                                     ^$./$.UZ Z@.TZ @s ($._$.A#.[R :$.B#.(..|Y :..<$.[$.[$.:..0X 0X }$.`Z |$.(#.]#.1$.1$.]#.:#.##.##.2$.G#.O+.&#.]#.$#.(#.=#.;#.f@.f@.3$.##.4$.&#.n@.O+._#._#.5$.5$.^#.6$.O+.]#.7$.8$.P#.9$.0$.`Z a$.0R 2 .b$.c$.#` ~@.> .d$.e$.f$.`` g$.g$.h$.TY Z` i$., .^ .j$.t ..+.d@.k$.l$.l$.m$.-..<@.R@.n$.n$.o$.p$.q$.r$.s$.t$.u$.v$.w$.x$.y$.s$.;$.s$.x$.y$.z$.R@.q#.A$.9V B$.C$.                                                            ",
"                                                                                                                                                                        D$.E$.F$.G$.H$..s I$.WZ J$.~Q K$.|Y (..|Y L$.<$.M$.<$.C` |Y 0X :..N$.P#.O$.1$.1$.1$.5$.:#.##.:#.:#.]#.]#.1$.]#.2$.2$.##.##.F#.P$.Q$._#.O+.n@.{#./#._#._#.R$.5$.8$.R$.S$.T$.U$.V$.W$.3Y X$.~P %M `H Y$.Z$.n] `$. %..%.+%.@%.@%.#%.Z` $%.d$.%%.&%.*%.d+.f..=%.#N [X -%.2$.(#.1$.y+.<@.;%.>%.n$.>$.,%.'%.)%.s$.v$.!%.z$.v$.t$.~%.p$.;$.{%.7#.z$.Q@.'$.]%.K$.^%./%.(%.                                                            ",
"                                                                                                                                                                           _%.:%.:Y g .>Z 0= <%.[%.]Y }%.K$.B#.(..(..9@.L$.|%.9@.|Y (..!$.1%.2%.T$.6$.^#.^#.5$.3%.C#.C#.C#.5$.5$.]#.1$.]#./#.:#.:#.P#.C#.C#.P#.O#.^#.^#.O#.P#.P#.P#.T$.U$.4%.r` 5%.N$.6%.7%.9+.6S &M 8%.9%.Y$.0%.5Y a%.b%.c%.d%..%.e%..%.e%.e%.e%.f%.9U g%.h%..` i%.%M $O 2W oU j%.E#.k%.l%.m%.'$.;%.z$.p$.)%.n%.o%.n$.!%.!%.@$.!%.>$.s$.s$.p%.7#.z$.#$.q%.r%.s%.t%.u%.v%.                                                            ",
"                                                                                                                                                                              w%.x%.y%.z%.A%.he B%.C%.D%.E%.F%.:$.B#.(..(..|@.L$.1%.(..(..(..1%.2%.4%._#.G%.G%.]%.4%.C#.C#.3%._#.5$.&#.]#./#.:#._#.C#.C#.C#.U$.P#.5$.^#.H%.P#.P#.U$.9$.9$.I%.Q$.Q#.D` jV )P J%.;K >I x .kD kD 0%.5Y ~R >` K%.L%.M%.N%.N%.O%.d%.P%.Q%.J..R%.0%.S%./F T%.6S ZH dX 8R U%.5$.]%.V%.W%.X%.n$.Y%.n%.p$.o$.Z%.Z%.@$.7#.@$.>$.`%.z$. &.7#..&.+&.A$.B` @&.#&.$&.                                                               ",
"                                                                                                                                                                                 %&.&&.TZ >Z *&.w#.=&.-&.;&.B` XZ mU :$.B#.>&._..1%.1%._..(..B#.!$.}..,&.R$.G%.G%.3%.R$.C#.,&.C#.C#.R$.]%.5$.(#._#.C#.C#.U$.U$.U$.P#.'&.O#.P#.V$.)&.!&.[$.~&.~&.aX <..9+.fS {&.YH ]&.UN x .^&./&.R%.(&._&.:&.<&.d%.2q [&.}&.'` |&.!R 1&.2&.%` ^&.<W ;L >I >I >I UN %O aX `Z |$.5$.3&.8#.~%.`%.z$.>%.;%.p#.R@.4&.R@.v$.!%.c#.5&.b#.l$.6&.7R 7&.8&.9&.0&.                                                               ",
"                                                                                                                                                                                       a&.b&.c&.d&.e&.f&.g&.[%.h&.gT i&.mU :$.j&.(..|Y _..(..(..j&.!$.}..,&._#.5$.5$.R$.C#.U$.k&.,&.C#.P#.R$.R$.R$.C#.|$.k&.k&.k&.l&.U$.P#.P#.m&.!&.n&.o&.}..7%.$O p&.=K ~P ;I +G x .x .x .^&./&.q&.r&.s&._&._&.t&.t&.t&.t&.!R J..J..1&.(&.R%.^&.x .<W u&.u&.8%.%M ;K -H XL v&.w&.D#.x&.x$.y&.R@.z&.z&.i+.i+.5&.i+.R@.5&.M#.A&.6 .B&.9+.C&.D&.E&.F&.                                                                  ",
"                                                                                                                                                                                          G&.H&.I&.J&.*&.K&.Wg L&.M&.+P cU N&.8V Z..B#.!$.(..(..j&.j&.!$.}..k&.P#._#._#.R$.k&.O&.N$.,&.,&.,&.C#.C#.|$.k&.P&.0$.N$.D` 0$.R#.j%.,@.eW nU Q&.N&.R&.6S S&. J ;L YH /F 3E i@.T&.U&.Z$.2&.V&.W&.X&._&.!R Y&.Y&.!R Z&.Z&.`&.X&.~4 eX 9%.0..0..kD ^&.u&.*O ;K  *.-H &O %O dT 1...*.Q+.%#.6 .Q+.y+.s` Q+.+*.k$.2$.G#.D#.@*.#*.$*.%*.&*.**.pa                                                                   ",
"                                                                                                                                                                                                =*.-*.5| ;*.>*.,*.'*.)*.!*.E` N&.cU XZ Z..B#.B#.:$.Z..Z..~*.C` <..k&.C#.6&.|$.|$.D` <..{*.]*.`Z ^*./*.^*.^*.!Z eW eW rT kS qU a$.(*._*.(X /X >K ;K  J  J  J  J >I u&.^&./&.c$.&+.:*.W&.<*.[*.}*.}*.|*.=` |*.|*.}*.<*.1*.2*.3*.4*.%` /&.GC x . K >I UN `H 9%.9%.GC 5*.$O FZ !Y dT %+.6*.5+.[X 7*.c@.f@.kS !Y 8R &O _X aE 8*.9*.,*.                                                                     ",
"                                                                                                                                                                                                   0*.a*.b*.;*.c*.d*.e*.[%.f*.g*.h*.fT UM XZ Z..i&.8V K$.XZ Z..F..nU !Z P&.R#.P&.@*.aX nU nU eS 9+.3Y rT i*.fW gS rT rT %O ~P ;I <W T%. J ;K  K ]&.UN UN j*.>I *O k*.U&.Z$.l*.r&.1&.>5 X&.m*.|*.'` '` '` n*.|*.m*.o*.8T V&.p*.q*.iv 3*./&.0..>I UN `H /&.r*./&.8%.s*.&N *M i@.Y .t*.u*.#N 1Q 9R 1Q v*.v*.%O n` TM w*.x*.y*.z*.A*.                                                                     ",
"                                                                                                                                                                                                         B*.C*.D*.E*.F*.G*.H*.Ez GZ I*.;L <W bW F%.8V J*.UM K*.j .cU N&.3Y aX #Z 3Y qT bX bX eS VM eT 5S gW &N &M >I ZG =K =K x ./F x .UN >I UN /F /F /F x .SM SM ,O /&.l*.:*.2*.L*.8T J..M*.N*.Y&.!R O*.O*.8U P*.Q*.R*.p*.S*.S*.`t XH 'L ^&.< .x .x .0..i%.:W T*.F` 6S i%.U*.V*.:| W*.%M ZH ZH ^F X*.Y*.>K .K 'I ,G Z*.`*. =.                                                                        ",
"                                                                                                                                                                                                            .=.+=.@=.#=.$=._4 $C %=.&=.}F }F VN ;L *=.n` cX dX gW ==.(X -=.J%.J%.8R J%.cX +O TM -Y VN >J >G ;=.>=.#..YG YG ^F x .x .SM SM :W :W x .x .x .x .SM x .,O ,=.:| XH ~4 2*.2*.q*.'=.N*.)=.!=.~=.{=.]=.^=./=.2*.S*.]8 ]8 $t iv fX %` ZK < .0..UN >I S&.F` 6S %M W*.(=._=.Z$.!Q &N :=.UN <=.[=.YG }=.-I -I SC |=.1=.2=.                                                                        ",
"                                                                                                                                                                                                                  24 3=.4=.5=.6=.7=.yx 8=.&C yx 9=.&C ,G %=.,G ,G &C 6y 0=.,G :X :X <R }=.}=..K -Y >J >J !I aR a=.^P 8y b=.2E ^F ^F SM *O :W UN SM x .x .x .>O VL ;M 'L `I )H `t $t S*.c=.)s d=.e=.f=.7A 7A &} g=.X< hD h=.i=.i=.]8 ^8 2*.j=.XH l*.r*.{B ^&.UN >L S&.T%./F kD kD %M k=.:=. J l=.r*.jD m=.n=.&C o=.p=.q=.n+.                                                                           ",
"                                                                                                                                                                                                                        r=.s=.a| t=.u=.]Q v=.|R w=.9=.9=.x=.yx yx %z yx yx 9=.,G ,G ,G ;H -I -I y=.>J >G ,K aR 2Q ^P 8y *N 2E 2E ^F ^F UN SM SM x .>O 0..VL z=.A=.%` fX 's `t $t B=.c=.i=.D: X< g=.W< W< 59 59 g=.C: D: i=.]8 S*.$t C=.$t |w XG )H 3*.D=.<=.^F >L >K ;K S&.E=.*M F` /X F=.*O VL 0..m=..K 'I G=.~5 kb H=.                                                                              ",
"                                                                                                                                                                                                                              I=.J=.K=.g&.`*.L=.M=.gc w=.w=.o=.o=.o=.N=.O=.%z P=.%z [B ,G ,G ,G >J >J >G ,K ,K @..^P Q=.*N *N *N 2E SM ^F SM x .0..^&.jD {B R=.~B hv w .$t $t $t $t S*.S=.hD D: T=.C: U=.WC ]H d=.jv !H (I ~K hv ^I `t XG XG XG iv $[ $..jD YG >L >K ;K >L >L  *./X /X >K >L ;K >K ,K )I V=.(f W=.X=.                                                                                 ",
"                                                                                                                                                                                                                                       Y=.Z=.`*.M=.(4 gc w=.w=.yx o=.`=. -.=g .-..-.G=.%z [B [B ,G 'I >J >G ,K ;=.@..#..8y 2E ^F ^F .G ^F YG SM T&.l=.iD R=.~B )H XG $t S*.$t `t ~K 's !H _I _I +-._I [P [P ]O bR <P @-.S` )J )J )J fX 's iv iv )H ~B iD #-.^F 'K YH YG +G UN YH $-.>K >K >K 2Q Hz [w %-.&-.*-.=-.                                                                                    ",
"                                                                                                                                                                                                                                          --.;-.>-.gc ,-.gc w=.x=.x=.w=.o=.O=.=g YL '-.V=.G=.%z _W 'I ,G >J >J >G ,K ;=.2Q #..#..#..'K @..>=.'K .G 1 .,=.iD ~B )-.C=.^8 !G $t iv ~J @-.<P bR ~J !-.!-.!-.<P !-.~-.~L 'M )J {-.!L eX XH 's 's XH fX }w iD XB z=.#-.z=.z=.jD 1 .T&.]&.>L >=.{I ]-.r{ ^-.Ah /-.(-._-.                                                                                    ",
"                                                                                                                                                                                                                                                F*.:-.23 <-.gc |=.|R 8=.[-.w=.N=.O=.O=..-.V=.G=.%z _W &C }F -J -I >J >G >G ,K ,K ;=.,J ,J ,J }-.'K *N #-.XB %x hv XG $t $t $t iv /I ~J ~J |-.|-.|-.1-.{J 2-.(I (I _I p*.$t iv `t `t `t iv hv 0Y ]F }w R=.R=.3-.4-.3-.+[ iD l=.#-.T&.9T ]-.5-.6-.7-.8-.&-.9-.                                                                                          ",
"                                                                                                                                                                                                                                                   0-.a-.yx b-.:-.|=.|R 8=.8=.[-.w=.L=.N=.G=.O=.G=.x=.9=.8=.Ez c-.d-.$*.}F 'I 'I >J 'I 'I )I e-.}-.Q=.#-.Fu }w hv )-.XG C=.$t $t $t $t c=.{H {H f-.f-.hD g-.U=.h-.7A i-.i-.j-. u k-.c=.w .hv !J `I R=.R=.R=.`I }w }w R=.R=.iD iD l-.m-.Kt n-.6-.a9 /-.o-.                                                                                             ",
"                                                                                                                                                                                                                                                         p-.q-.r-.Os s-.|R |R 8=.t-.[-.x=.yx %z o=.o=.x=.<B <B Ez Ez Ez aE d-.6y ,G ,G 0=.!I }B u-.|B 8y l=.}w $[ v-.w-.XG $t c=.x-.y-.U=.i-.7A sz dR dR 90 U< U< 90 90 z-.A-.B-.y-.c=.|| eX C-.,L ,L {B iD R=.}w }w D-.$[ hv [3 E-.Kt F-.G-.H-.9-.I-.                                                                                                ",
"                                                                                                                                                                                                                                                            J-.K-.L-.v=.M-.N-.O-.>-.P-.x=.kA x=.9=.x=.9=.8=.t-.%C %C Ez Ez aE 9=.&C _W !I Q-.R-.S-.mS m] T-.YB l-.12 J: U-.XG C=.V-.8A 69 )B W-.X-.90 !8 Y-.Y-.!8 !8 90 Z-.`-.A_ w .0Y ,L ;N ,O ,O ,O #-.,=.%x $[ U-.w-.%6 q{  ;..;..;.+;.@;.o-.v%.                                                                                                   ",
"                                                                                                                                                                                                                                                                  #;.$;.[-.%;.v=.8=.8=.8=.V=.&;.*;.>H =;.lS -;.;;.;;.~I >;.^P /P 0=.7y ,;.S-.t{ ';.);.!;.~;.]-.{;.<3 ];.#t $[ v-.w .C=.S=.^;.`-.`-.h-./;.B-.U=. u hD c=.(;.eX 'L ,L ,O >O SM >O T&.=N C-.~B )-.}3 K: %6 _;.:;.:;.<;.[;.};.|;.1;.                                                                                                      ",
"                                                                                                                                                                                                                                                                     2;.3;.|=.v=.M=.x=.|R v=.8=.t-.t-.t-.4;.5;.t-.6;.5;.5;.<B 9=.o=.O=.&;.tT 7;.!;.8;.8;.8;.8;.]-.9;.9y l=.l=.,=.{B $..]F XH )H $[ $[ XH V*.!K {B >N ;N ,O x .^F SM .G sU ;O l=.XB ]F pA K: j( w-.0;.a;.hW b;.c;.M-.d;.2=.                                                                                                            ",
"                                                                                                                                                                                                                                                                              e;.6;.f;.v=.M=.x=.w=.w=.yx x=.[-.[-.<B <B <B [-.9=.yx G=.g;.%-.h;.);.8;.8;.i;.]-.gv j;.*N 2E =M =M >O T&.,O ,O k;.;N ,O ,O =M SM SM SM SM SM >O >O =N ,=.iD }w $[ )-.l;.1y pA oA Iz m;.n;.fd o;.p;.q;.r;.                                                                                                               ",
"                                                                                                                                                                                                                                                                                    d;.c9 `*.v=.M=.|=.gc o=.o=.o=.yx yx yx yx L=.L=.P=.O=.%-.7;.s{ 8-.i;.r{ i;.]-.9T *N 2E =M SM SM SM SM =M SM SM SM ^F ^F >O 9..9..jD ,=.C-.}w `I $[ v-.s;.XG t;.Bx hX 0y kV u;.6-.+;.v;.w;.hc                                                                                                                      ",
"                                                                                                                                                                                                                                                                                          x;.y;.z;.f;.M=.M=.gc A;.=g A;.A;.O=.-;.V=.YL B;.E~ X! C;.8;.r{ h0 7-.2y D;.9;.gv =N =N VL VL VL ;N jD FC ,=.,L [S C-.$..}w fX E;.v-.)-.pA pA w-.s;.(Z 2F F;.nA G;.H;.I;.&g J;.K;.                                                                                                                           ",
"                                                                                                                                                                                                                                                                                                L;.M;.N;.O;.P;.P;.gd =g g;.B;.%-.%-.E~ 7;.Q;.R;.a9 a9 h0 S;.6-.6-.T;.T;.U;.m-.j/ l-.l-.];.#t 5v 0;.$[ $[ $[ Bx s;.pA w-.w-.w-.w-.U-.)-.V;.2F 0y 3B n;.H;.W;.X;.Y;.Z;.                                                                                                                                 ",
"                                                                                                                                                                                                                                                                                                       H ($.`;. >.($..>.+>.YL @>.7;.#>.N-.C;.C;.$>.$>.h0 h0 <;.6-..;.n-.E-.E-.q{ q{ %>.n( &>.s;.s;.pA w-.w-.w-.l;.s;.U-.Bx E;.oA 2F Iz 0y u;.c;.*>.W;.=>.9-.]$.                                                                                                                                       ",
"                                                                                                                                                                                                                                                                                                               ->.;>.>>.e;.,>.'>.>-.@>.#>.Q;.N-.C;.C;.$>.$>.7-.)>.)>.<;.T;.!>.~>.~>.q{ q{ %>.{>.22 22 22 {>.s;.{>.0;.oA Iz *` 3B 3B ]>.^>./>.+;.(>.K=._>.                                                                                                                                             ",
"                                                                                                                                                                                                                                                                                                                     :>.<>.($.e;.[>.e;.jb Y! }>.|>.N-.N-.C;.C;.C;.1>.1>.gX gX gX kV u;.3B hW 0y 0y *` *` 0y 0y 3B kV m;.n;.b;./>.2>.{) 3>.o-.4>.5>.                                                                                                                                                   ",
"                                                                                                                                                                                                                                                                                                                              6>.,*.7>.8>.9>.0>.9-./-.Vg a>.}>.7;.7;.a>.b>.b>.c>.c>.c>.c>.N-.d>.d>.rU e>.f>.)>.g>.h>.i>.=>.j>.k>.(-.l>.m>.                                                                                                                                                            ",
"                                                                                                                                                                                                                                                                                                                                             n>.d*.o>.o>.p>.W=.Y;.q>.r>.s>.t>.Ug u>.v>.w>.x>.=>.x>.&g k>.r>.y>.e;.6=.z>.6>.2;.                                                                                                                                                                        ",
"                                                                                                                                                                                                                                                                                                                                                                              !q A>.1;.1;.5>.B>.C>.                                                                                                                                                                                                   ",
"                                                                                                                                                                                                                                                                                                                                                                                                                                                                                                                                                                                                      ",
"                                                                                                                                                                                                                                                                                                                                                                                                                                                                                                                                                                                                      ",
"                                                                                                                                                                                                                                                                                                                                                                                                                                                                                                                                                                                                      ",
"                                                                                                                                                                                                                                                                                                                                                                                                                                                                                                                                                                                                      ",
"                                                                                                                                                                                                                                                                                                                                                                                                                                                                                                                                                                                                      ",
"                                                                                                                                                                                                                                                                                                                                                                                                                                                                                                                                                                                                      ",
"                                                                                                                                                                                                                                                                                                                                                                                                                                                                                                                                                                                                      ",
"                                                                                                                                                                                                                                                                                                                                                                                                                                                                                                                                                                                                      ",
"                                                                                                                                                                                                                                                                                                                                                                                                                                                                                                                                                                                                      ",
"                                                                                                                                                                                                                                                                                                                                                                                                                                                                                                                                                                                                      ",
"                                                                                                                                                                                                                                                                                                                                                                                                                                                                                                                                                                                                      ",
"                                                                                                                                                                                                                                                                                                                                                                                                                                                                                                                                                                                                      ",
"                                                                                                                                                                                                                                                                                                                                                                                                                                                                                                                                                                                                      ",
"                                                                                                                                                                                                                                                                                                                                                                                                                                                                                                                                                                                                      ",
"                                                                                                                                                                                                                                                                                                                                                                                                                                                                                                                                                                                                      "};
