/* XPM */
static char * shotgun_front_xpm[] = {
"390 308 32030 3",
"   	c None",
".  	c #6A655C",
"+  	c #726B59",
"@  	c #837865",
"#  	c #887E6A",
"$  	c #8D836F",
"%  	c #958973",
"&  	c #918770",
"*  	c #968B71",
"=  	c #8C8169",
"-  	c #867A67",
";  	c #7E735F",
">  	c #8C836E",
",  	c #7D7462",
"'  	c #817763",
")  	c #807563",
"!  	c #7A705E",
"~  	c #71685A",
"{  	c #70685A",
"]  	c #6C6458",
"^  	c #6A625A",
"/  	c #6D655C",
"(  	c #837866",
"_  	c #8D856C",
":  	c #B6A784",
"<  	c #B2A789",
"[  	c #BDB697",
"}  	c #C5BF9D",
"|  	c #C7C09E",
"1  	c #D7D2AF",
"2  	c #C6BEA0",
"3  	c #C9C0A4",
"4  	c #B9B197",
"5  	c #C6BCA0",
"6  	c #C2B79A",
"7  	c #B9AD91",
"8  	c #B8AC8E",
"9  	c #AEA283",
"0  	c #B1A283",
"a  	c #AA9C7D",
"b  	c #A89A7C",
"c  	c #A49675",
"d  	c #A69778",
"e  	c #A5967A",
"f  	c #9C8E73",
"g  	c #A19276",
"h  	c #988A6D",
"i  	c #97886D",
"j  	c #908168",
"k  	c #8D8069",
"l  	c #84765E",
"m  	c #95886D",
"n  	c #92846A",
"o  	c #857860",
"p  	c #84775E",
"q  	c #7E715A",
"r  	c #80715A",
"s  	c #726653",
"t  	c #7B6D58",
"u  	c #6B604F",
"v  	c #746753",
"w  	c #696055",
"x  	c #69645A",
"y  	c #756D5E",
"z  	c #827965",
"A  	c #A5987D",
"B  	c #C1B797",
"C  	c #CEC9AA",
"D  	c #DDD8BA",
"E  	c #D1CFB6",
"F  	c #D9D6C7",
"G  	c #CDCBBB",
"H  	c #D7D2C1",
"I  	c #D2CDBD",
"J  	c #D7D5C1",
"K  	c #DDDAC6",
"L  	c #D4D1C2",
"M  	c #D7D5C3",
"N  	c #CDCBBC",
"O  	c #D4D0BF",
"P  	c #C8C5B5",
"Q  	c #CECAB8",
"R  	c #C4BFAC",
"S  	c #C8C3AF",
"T  	c #D1CAB6",
"U  	c #C6BFAA",
"V  	c #CAC3AE",
"W  	c #C5BDA6",
"X  	c #CBC4AC",
"Y  	c #C2BBA5",
"Z  	c #C6BEA6",
"`  	c #CBC1A7",
" . 	c #C1B79C",
".. 	c #C9BFA3",
"+. 	c #BEB392",
"@. 	c #BDB090",
"#. 	c #AD9F7F",
"$. 	c #AF9F7E",
"%. 	c #A69777",
"&. 	c #AE9E79",
"*. 	c #B29F78",
"=. 	c #A2926E",
"-. 	c #A2916E",
";. 	c #988767",
">. 	c #9E8C6B",
",. 	c #8C7A5B",
"'. 	c #807259",
"). 	c #69625A",
"!. 	c #736A5E",
"~. 	c #9B9076",
"{. 	c #C2B792",
"]. 	c #CAC49E",
"^. 	c #D9D3A7",
"/. 	c #CDCA9F",
"(. 	c #CFCCAC",
"_. 	c #C8C298",
":. 	c #B0A78C",
"<. 	c #AEA796",
"[. 	c #A9A085",
"}. 	c #B9AA87",
"|. 	c #B4A587",
"1. 	c #9C8E6E",
"2. 	c #A0906F",
"3. 	c #A39675",
"4. 	c #9E9072",
"5. 	c #998E75",
"6. 	c #A19379",
"7. 	c #9A9279",
"8. 	c #A69A7F",
"9. 	c #A89D80",
"0. 	c #ADA287",
"a. 	c #A29881",
"b. 	c #8D7F64",
"c. 	c #9C927E",
"d. 	c #A79D85",
"e. 	c #ADA58A",
"f. 	c #ACA489",
"g. 	c #BAB18F",
"h. 	c #B3AA8C",
"i. 	c #BFB391",
"j. 	c #B9B090",
"k. 	c #C2B594",
"l. 	c #ACA281",
"m. 	c #B5AA84",
"n. 	c #C7BC95",
"o. 	c #BEAD83",
"p. 	c #C6B98D",
"q. 	c #C1B78D",
"r. 	c #C7BC91",
"s. 	c #BDB28A",
"t. 	c #B9B087",
"u. 	c #B6AA82",
"v. 	c #B2A37E",
"w. 	c #AB9876",
"x. 	c #908164",
"y. 	c #84765B",
"z. 	c #71695A",
"A. 	c #7F7662",
"B. 	c #A2977A",
"C. 	c #BEB08A",
"D. 	c #C5BE9A",
"E. 	c #D4D0AD",
"F. 	c #CCC7A1",
"G. 	c #D3CFB3",
"H. 	c #CCC7AA",
"I. 	c #B0A788",
"J. 	c #9D917E",
"K. 	c #7B6C4E",
"L. 	c #897D61",
"M. 	c #766A54",
"N. 	c #6D5F44",
"O. 	c #7A6A49",
"P. 	c #736343",
"Q. 	c #5D513B",
"R. 	c #645640",
"S. 	c #645740",
"T. 	c #63553F",
"U. 	c #544635",
"V. 	c #514532",
"W. 	c #594C38",
"X. 	c #5B4E38",
"Y. 	c #574A35",
"Z. 	c #584834",
"`. 	c #63553B",
" + 	c #6F5E40",
".+ 	c #5E503E",
"++ 	c #635541",
"@+ 	c #615540",
"#+ 	c #665B43",
"$+ 	c #665942",
"%+ 	c #6C5E46",
"&+ 	c #6A5C43",
"*+ 	c #64543C",
"=+ 	c #78674D",
"-+ 	c #6C573C",
";+ 	c #6F5D41",
">+ 	c #6F593C",
",+ 	c #726243",
"'+ 	c #736446",
")+ 	c #7A6B4B",
"!+ 	c #7D664C",
"~+ 	c #7E7156",
"{+ 	c #8B7F62",
"]+ 	c #8C7D62",
"^+ 	c #A49774",
"/+ 	c #B4A57A",
"(+ 	c #B1A380",
"_+ 	c #AE9A73",
":+ 	c #9E8B67",
"<+ 	c #817258",
"[+ 	c #72685C",
"}+ 	c #887E69",
"|+ 	c #9F9474",
"1+ 	c #ADA283",
"2+ 	c #C8BA8D",
"3+ 	c #D7CA9A",
"4+ 	c #D0C593",
"5+ 	c #D7D0A2",
"6+ 	c #C1B88A",
"7+ 	c #B8AE7E",
"8+ 	c #AFA285",
"9+ 	c #857652",
"0+ 	c #7B6D4E",
"a+ 	c #5B4D36",
"b+ 	c #5B4E36",
"c+ 	c #605238",
"d+ 	c #594C35",
"e+ 	c #584C37",
"f+ 	c #5D503A",
"g+ 	c #5E513A",
"h+ 	c #574A34",
"i+ 	c #5A4C36",
"j+ 	c #564832",
"k+ 	c #5A4D35",
"l+ 	c #564833",
"m+ 	c #614F38",
"n+ 	c #554833",
"o+ 	c #574935",
"p+ 	c #5F503C",
"q+ 	c #61533E",
"r+ 	c #64563D",
"s+ 	c #68583E",
"t+ 	c #746242",
"u+ 	c #6F5D3D",
"v+ 	c #6F5C3D",
"w+ 	c #655538",
"x+ 	c #6C5A3D",
"y+ 	c #736040",
"z+ 	c #705C3D",
"A+ 	c #766141",
"B+ 	c #766240",
"C+ 	c #715C3C",
"D+ 	c #645337",
"E+ 	c #685538",
"F+ 	c #4D3D2A",
"G+ 	c #51412B",
"H+ 	c #625238",
"I+ 	c #655139",
"J+ 	c #6B583A",
"K+ 	c #675537",
"L+ 	c #6B5839",
"M+ 	c #84704A",
"N+ 	c #7C6B46",
"O+ 	c #A19366",
"P+ 	c #AE9B70",
"Q+ 	c #B4A076",
"R+ 	c #A28D66",
"S+ 	c #A38F69",
"T+ 	c #857559",
"U+ 	c #6B5F55",
"V+ 	c #6A6357",
"W+ 	c #837966",
"X+ 	c #90866F",
"Y+ 	c #B8AC86",
"Z+ 	c #D4CC97",
"`+ 	c #CEC897",
" @ 	c #D8D5A4",
".@ 	c #CAC59F",
"+@ 	c #BDB784",
"@@ 	c #A0977F",
"#@ 	c #7C6E50",
"$@ 	c #7A6D4C",
"%@ 	c #67593E",
"&@ 	c #605237",
"*@ 	c #584C35",
"=@ 	c #64573D",
"-@ 	c #6E5F40",
";@ 	c #7D7351",
">@ 	c #807157",
",@ 	c #857859",
"'@ 	c #827658",
")@ 	c #9E9270",
"!@ 	c #87795B",
"~@ 	c #8A7E60",
"{@ 	c #827557",
"]@ 	c #90856B",
"^@ 	c #918669",
"/@ 	c #898168",
"(@ 	c #887F62",
"_@ 	c #7F735B",
":@ 	c #7C6E57",
"<@ 	c #72664A",
"[@ 	c #71624B",
"}@ 	c #6A5C45",
"|@ 	c #7F7151",
"1@ 	c #827252",
"2@ 	c #746548",
"3@ 	c #746345",
"4@ 	c #6C5D42",
"5@ 	c #6B5A3D",
"6@ 	c #635137",
"7@ 	c #645339",
"8@ 	c #615135",
"9@ 	c #675338",
"0@ 	c #645135",
"a@ 	c #503F2B",
"b@ 	c #66553A",
"c@ 	c #52422D",
"d@ 	c #55462F",
"e@ 	c #53442D",
"f@ 	c #56452E",
"g@ 	c #5A4C30",
"h@ 	c #645234",
"i@ 	c #614F34",
"j@ 	c #5C4B32",
"k@ 	c #756345",
"l@ 	c #998A68",
"m@ 	c #B4A67C",
"n@ 	c #B9A67E",
"o@ 	c #B39E75",
"p@ 	c #A9936B",
"q@ 	c #8E7C5F",
"r@ 	c #6D6055",
"s@ 	c #6C665B",
"t@ 	c #837761",
"u@ 	c #998D6F",
"v@ 	c #AC9C77",
"w@ 	c #BEAE85",
"x@ 	c #D0BF91",
"y@ 	c #D6C38F",
"z@ 	c #D7CA97",
"A@ 	c #C6BA92",
"B@ 	c #C7BE88",
"C@ 	c #B5A985",
"D@ 	c #A39568",
"E@ 	c #847551",
"F@ 	c #68593C",
"G@ 	c #5C4F35",
"H@ 	c #594D36",
"I@ 	c #5B4E35",
"J@ 	c #756746",
"K@ 	c #847956",
"L@ 	c #9B8D5E",
"M@ 	c #C6B579",
"N@ 	c #BBAE7F",
"O@ 	c #C3AB70",
"P@ 	c #AE9C72",
"Q@ 	c #B6A573",
"R@ 	c #AB9C75",
"S@ 	c #B2A06D",
"T@ 	c #BBA975",
"U@ 	c #B8A572",
"V@ 	c #B9A97D",
"W@ 	c #B5A980",
"X@ 	c #B8AA84",
"Y@ 	c #AEA27E",
"Z@ 	c #B1A57E",
"`@ 	c #AB9E74",
" # 	c #AA9E75",
".# 	c #B1A177",
"+# 	c #A6976E",
"@# 	c #B8A981",
"## 	c #AA9970",
"$# 	c #A6996F",
"%# 	c #A08F67",
"&# 	c #A09269",
"*# 	c #AB9667",
"=# 	c #98885F",
"-# 	c #A28F64",
";# 	c #8E7E5B",
"># 	c #8A7851",
",# 	c #8B7953",
"'# 	c #867756",
")# 	c #897953",
"!# 	c #7B6C4B",
"~# 	c #907F5A",
"{# 	c #8A7B53",
"]# 	c #8C7853",
"^# 	c #695B3B",
"/# 	c #6A583A",
"(# 	c #5A482F",
"_# 	c #735D3C",
":# 	c #7E6744",
"<# 	c #88724A",
"[# 	c #9D8E66",
"}# 	c #B29C70",
"|# 	c #AC996D",
"1# 	c #AE976C",
"2# 	c #937F59",
"3# 	c #857558",
"4# 	c #756B5D",
"5# 	c #857A66",
"6# 	c #A49676",
"7# 	c #B2A37F",
"8# 	c #CDC092",
"9# 	c #D6C992",
"0# 	c #D0CC96",
"a# 	c #C7C091",
"b# 	c #C5BC89",
"c# 	c #AAA17A",
"d# 	c #8B8261",
"e# 	c #766745",
"f# 	c #675A41",
"g# 	c #615238",
"h# 	c #594C34",
"i# 	c #594D38",
"j# 	c #554932",
"k# 	c #6B5F42",
"l# 	c #887C64",
"m# 	c #9F9268",
"n# 	c #BCAC77",
"o# 	c #BAAC7A",
"p# 	c #C0AB72",
"q# 	c #C3AF7D",
"r# 	c #C1AC75",
"s# 	c #C5AF7A",
"t# 	c #C8AF6F",
"u# 	c #BCA367",
"v# 	c #B29E70",
"w# 	c #B6A274",
"x# 	c #AF9E75",
"y# 	c #B8A578",
"z# 	c #B3A176",
"A# 	c #B5A072",
"B# 	c #B3A178",
"C# 	c #AD9C71",
"D# 	c #B29F73",
"E# 	c #B39E6B",
"F# 	c #BDAB79",
"G# 	c #BAA66E",
"H# 	c #B8A068",
"I# 	c #AB9968",
"J# 	c #AE9969",
"K# 	c #B39E6A",
"L# 	c #AC9664",
"M# 	c #B99F63",
"N# 	c #A89360",
"O# 	c #B19E65",
"P# 	c #A99464",
"Q# 	c #BAA062",
"R# 	c #AF9D6D",
"S# 	c #AE9E73",
"T# 	c #B69F6B",
"U# 	c #B09A6C",
"V# 	c #B7A16C",
"W# 	c #A8966A",
"X# 	c #AC9966",
"Y# 	c #A49061",
"Z# 	c #B19C66",
"`# 	c #88754C",
" $ 	c #665338",
".$ 	c #6E5A3D",
"+$ 	c #655136",
"@$ 	c #7A6542",
"#$ 	c #6D5839",
"$$ 	c #5E4C33",
"%$ 	c #745E42",
"&$ 	c #9D8965",
"*$ 	c #B09E75",
"=$ 	c #BAA77B",
"-$ 	c #BEA87C",
";$ 	c #9A8661",
">$ 	c #827259",
",$ 	c #6C6658",
"'$ 	c #7A6F5C",
")$ 	c #8C8068",
"!$ 	c #A79773",
"~$ 	c #C0B38C",
"{$ 	c #C5B385",
"]$ 	c #CAC08A",
"^$ 	c #C3B88A",
"/$ 	c #B7AD7B",
"($ 	c #ACA67C",
"_$ 	c #948B6B",
":$ 	c #877852",
"<$ 	c #6E5E3F",
"[$ 	c #635538",
"}$ 	c #564A33",
"|$ 	c #574A32",
"1$ 	c #5A4D37",
"2$ 	c #695C43",
"3$ 	c #7D735F",
"4$ 	c #928666",
"5$ 	c #A99C72",
"6$ 	c #B7A987",
"7$ 	c #C2AC72",
"8$ 	c #C5B281",
"9$ 	c #C9B682",
"0$ 	c #D1BF89",
"a$ 	c #CCB882",
"b$ 	c #D2BC83",
"c$ 	c #C8B379",
"d$ 	c #C0AA74",
"e$ 	c #B9A875",
"f$ 	c #BCA978",
"g$ 	c #B6A271",
"h$ 	c #CAB47B",
"i$ 	c #C7B074",
"j$ 	c #BDA779",
"k$ 	c #B8A680",
"l$ 	c #AF9C75",
"m$ 	c #AF9D75",
"n$ 	c #9F8F6F",
"o$ 	c #A69571",
"p$ 	c #A08F6E",
"q$ 	c #AA9770",
"r$ 	c #AC986F",
"s$ 	c #B9A26F",
"t$ 	c #B29A69",
"u$ 	c #BCA977",
"v$ 	c #B09A65",
"w$ 	c #B5A066",
"x$ 	c #A28F63",
"y$ 	c #AB9562",
"z$ 	c #AF9765",
"A$ 	c #A69161",
"B$ 	c #AE9462",
"C$ 	c #AA945E",
"D$ 	c #AD935E",
"E$ 	c #AA915B",
"F$ 	c #B09762",
"G$ 	c #AB9561",
"H$ 	c #B29A66",
"I$ 	c #B89F68",
"J$ 	c #AE9665",
"K$ 	c #B19760",
"L$ 	c #907B54",
"M$ 	c #917B52",
"N$ 	c #867147",
"O$ 	c #7C6643",
"P$ 	c #7F6843",
"Q$ 	c #7B6543",
"R$ 	c #796341",
"S$ 	c #725D41",
"T$ 	c #A38B64",
"U$ 	c #A4936F",
"V$ 	c #A8946A",
"W$ 	c #9A8764",
"X$ 	c #938061",
"Y$ 	c #766650",
"Z$ 	c #71675A",
"`$ 	c #887F6C",
" % 	c #A89B7D",
".% 	c #C1B48D",
"+% 	c #C7B98F",
"@% 	c #D2BF89",
"#% 	c #C4B984",
"$% 	c #C8B882",
"%% 	c #ADA26D",
"&% 	c #8D8462",
"*% 	c #7D6E49",
"=% 	c #716648",
"-% 	c #65593C",
";% 	c #5A4B33",
">% 	c #5B4F35",
",% 	c #5A4D36",
"'% 	c #665A41",
")% 	c #7D7259",
"!% 	c #94896E",
"~% 	c #A99B77",
"{% 	c #B5A788",
"]% 	c #C2B081",
"^% 	c #BAA87D",
"/% 	c #BBA571",
"(% 	c #C9AF71",
"_% 	c #CAAE6C",
":% 	c #BEA66B",
"<% 	c #B7A06B",
"[% 	c #C0AB71",
"}% 	c #C0A973",
"|% 	c #C7BA8C",
"1% 	c #C9B990",
"2% 	c #D1C493",
"3% 	c #D6C191",
"4% 	c #D2BF8A",
"5% 	c #CDB784",
"6% 	c #B59F6B",
"7% 	c #B6A47F",
"8% 	c #A99876",
"9% 	c #A89879",
"0% 	c #A69577",
"a% 	c #AE9C7C",
"b% 	c #AD9B77",
"c% 	c #B4A27C",
"d% 	c #A99875",
"e% 	c #AC9B78",
"f% 	c #A89670",
"g% 	c #B09B71",
"h% 	c #A4916C",
"i% 	c #AF9B70",
"j% 	c #AF9B71",
"k% 	c #B5A06B",
"l% 	c #B29C6E",
"m% 	c #A89469",
"n% 	c #B69E68",
"o% 	c #A78F60",
"p% 	c #AA9160",
"q% 	c #9D885E",
"r% 	c #A8905F",
"s% 	c #B79F64",
"t% 	c #B59960",
"u% 	c #B29966",
"v% 	c #A89363",
"w% 	c #B79D61",
"x% 	c #AF975F",
"y% 	c #AC9567",
"z% 	c #A59061",
"A% 	c #A89263",
"B% 	c #AE9768",
"C% 	c #9E8757",
"D% 	c #907951",
"E% 	c #7F6A45",
"F% 	c #7A6342",
"G% 	c #766144",
"H% 	c #746142",
"I% 	c #958162",
"J% 	c #A79975",
"K% 	c #C5B189",
"L% 	c #A59374",
"M% 	c #918064",
"N% 	c #746652",
"O% 	c #7B705F",
"P% 	c #7F7562",
"Q% 	c #9A8B6C",
"R% 	c #AF9F7F",
"S% 	c #BAAA81",
"T% 	c #CDB98A",
"U% 	c #C8BA81",
"V% 	c #CDB87C",
"W% 	c #AFA16C",
"X% 	c #8D815A",
"Y% 	c #7B6F4B",
"Z% 	c #695A3B",
"`% 	c #54482F",
" & 	c #5E5134",
".& 	c #584B33",
"+& 	c #65593D",
"@& 	c #776B4A",
"#& 	c #857B5F",
"$& 	c #A39673",
"%& 	c #AFA282",
"&& 	c #B6A57B",
"*& 	c #B4A06F",
"=& 	c #C0AB7A",
"-& 	c #C1AC77",
";& 	c #BBA97B",
">& 	c #B9A570",
",& 	c #B79E62",
"'& 	c #B89E64",
")& 	c #AD975E",
"!& 	c #B5A37A",
"~& 	c #CBB682",
"{& 	c #D9C082",
"]& 	c #D3BC82",
"^& 	c #D8C38A",
"/& 	c #C6BF95",
"(& 	c #CBBB8E",
"_& 	c #B5A279",
":& 	c #A39373",
"<& 	c #AB9975",
"[& 	c #B3A17A",
"}& 	c #B4A67D",
"|& 	c #B3A27E",
"1& 	c #AB9B78",
"2& 	c #AC9B7B",
"3& 	c #A19174",
"4& 	c #A59579",
"5& 	c #9F8E72",
"6& 	c #A99776",
"7& 	c #BEB08D",
"8& 	c #B4A586",
"9& 	c #B1A384",
"0& 	c #A99A78",
"a& 	c #B5A380",
"b& 	c #AB9A75",
"c& 	c #AE9B78",
"d& 	c #A5926C",
"e& 	c #A69069",
"f& 	c #A8926B",
"g& 	c #A18B64",
"h& 	c #A69062",
"i& 	c #A48B5F",
"j& 	c #A38E62",
"k& 	c #9C8760",
"l& 	c #A18B62",
"m& 	c #9D865D",
"n& 	c #9F8A61",
"o& 	c #A58F64",
"p& 	c #A38E65",
"q& 	c #AD9665",
"r& 	c #A89162",
"s& 	c #AA9465",
"t& 	c #A38D60",
"u& 	c #A0895D",
"v& 	c #A78D5D",
"w& 	c #9E8656",
"x& 	c #967E54",
"y& 	c #917B55",
"z& 	c #8C7A57",
"A& 	c #A4956D",
"B& 	c #B19E7A",
"C& 	c #9B8864",
"D& 	c #A28F70",
"E& 	c #887558",
"F& 	c #73624F",
"G& 	c #7C7363",
"H& 	c #978B72",
"I& 	c #AD9D7D",
"J& 	c #B4A582",
"K& 	c #CBB885",
"L& 	c #C5B87F",
"M& 	c #CDBC80",
"N& 	c #B7A46C",
"O& 	c #827951",
"P& 	c #706341",
"Q& 	c #605438",
"R& 	c #51462F",
"S& 	c #53462E",
"T& 	c #60533A",
"U& 	c #594C33",
"V& 	c #62553B",
"W& 	c #6B5D3D",
"X& 	c #827854",
"Y& 	c #A3966B",
"Z& 	c #A59973",
"`& 	c #AEA17B",
" * 	c #AB986F",
".* 	c #AF9D6E",
"+* 	c #B29E67",
"@* 	c #B49B61",
"#* 	c #AE9664",
"$* 	c #B19A66",
"%* 	c #A29062",
"&* 	c #B29969",
"** 	c #B19D73",
"=* 	c #BFAE82",
"-* 	c #CFBE8F",
";* 	c #D3C493",
">* 	c #DAC694",
",* 	c #CAB583",
"'* 	c #C8B17E",
")* 	c #AE9A6D",
"!* 	c #AC9B7A",
"~* 	c #AB9A73",
"{* 	c #AB9872",
"]* 	c #AE9C77",
"^* 	c #AC9A75",
"/* 	c #B4A178",
"(* 	c #AD9E77",
"_* 	c #AB9A78",
":* 	c #A19274",
"<* 	c #A59377",
"[* 	c #AC997B",
"}* 	c #AA9C7F",
"|* 	c #B7A98D",
"1* 	c #B2A484",
"2* 	c #AD9C77",
"3* 	c #A6997C",
"4* 	c #93856D",
"5* 	c #91846A",
"6* 	c #93856F",
"7* 	c #96866F",
"8* 	c #8F7F65",
"9* 	c #968165",
"0* 	c #907C5F",
"a* 	c #978362",
"b* 	c #937B5F",
"c* 	c #978466",
"d* 	c #948461",
"e* 	c #9C8A6A",
"f* 	c #A5916E",
"g* 	c #9D8963",
"h* 	c #B59A6D",
"i* 	c #AD9A7A",
"j* 	c #A39471",
"k* 	c #AB9A77",
"l* 	c #A1916C",
"m* 	c #AE9B74",
"n* 	c #B09D75",
"o* 	c #A7946F",
"p* 	c #A9956F",
"q* 	c #A08C64",
"r* 	c #A68F66",
"s* 	c #978258",
"t* 	c #A08A60",
"u* 	c #96815C",
"v* 	c #9B855D",
"w* 	c #A7976E",
"x* 	c #B5A37E",
"y* 	c #B3A282",
"z* 	c #AB987C",
"A* 	c #84725A",
"B* 	c #766553",
"C* 	c #867B64",
"D* 	c #AB9A79",
"E* 	c #C7B383",
"F* 	c #D3BE84",
"G* 	c #C3B47C",
"H* 	c #BDAB6E",
"I* 	c #9A8E5C",
"J* 	c #7F7249",
"K* 	c #685B3B",
"L* 	c #4C402A",
"M* 	c #4F442D",
"N* 	c #615335",
"O* 	c #594C31",
"P* 	c #564A2F",
"Q* 	c #6D5F3D",
"R* 	c #877C58",
"S* 	c #9B8E63",
"T* 	c #AA9A6B",
"U* 	c #A5996E",
"V* 	c #AC9A6E",
"W* 	c #B8A26C",
"X* 	c #B49C6B",
"Y* 	c #AE965F",
"Z* 	c #A99664",
"`* 	c #B39E6C",
" = 	c #A08C5D",
".= 	c #AE9A6C",
"+= 	c #A9976F",
"@= 	c #B6A171",
"#= 	c #CAB482",
"$= 	c #C9B681",
"%= 	c #D7C48D",
"&= 	c #D2C193",
"*= 	c #D1BB81",
"== 	c #BFB185",
"-= 	c #B4A276",
";= 	c #AD986F",
">= 	c #A3916E",
",= 	c #B19D72",
"'= 	c #A9966F",
")= 	c #AC9872",
"!= 	c #A79573",
"~= 	c #AA9877",
"{= 	c #A19070",
"]= 	c #A29375",
"^= 	c #A8977B",
"/= 	c #A19073",
"(= 	c #AB9B7F",
"_= 	c #A39376",
":= 	c #A89976",
"<= 	c #9B9077",
"[= 	c #8A7553",
"}= 	c #957B51",
"|= 	c #A08556",
"1= 	c #7B6240",
"2= 	c #826D51",
"3= 	c #7D6242",
"4= 	c #796245",
"5= 	c #7E6341",
"6= 	c #775D3E",
"7= 	c #826545",
"8= 	c #816643",
"9= 	c #7D6142",
"0= 	c #836745",
"a= 	c #866F4D",
"b= 	c #8C7453",
"c= 	c #826844",
"d= 	c #8E724B",
"e= 	c #92774E",
"f= 	c #9A8054",
"g= 	c #6F583D",
"h= 	c #8A7556",
"i= 	c #79654C",
"j= 	c #7E664C",
"k= 	c #826D54",
"l= 	c #7E6D53",
"m= 	c #867457",
"n= 	c #836E53",
"o= 	c #8A7558",
"p= 	c #836F55",
"q= 	c #857358",
"r= 	c #877457",
"s= 	c #7F6D53",
"t= 	c #8C7558",
"u= 	c #877255",
"v= 	c #8E7755",
"w= 	c #8E7754",
"x= 	c #928062",
"y= 	c #9A8361",
"z= 	c #9E8A6B",
"A= 	c #816F53",
"B= 	c #7B6954",
"C= 	c #8D8169",
"D= 	c #BEAF89",
"E= 	c #C9B281",
"F= 	c #C7B87D",
"G= 	c #9B9363",
"H= 	c #827348",
"I= 	c #675B3A",
"J= 	c #4A402A",
"K= 	c #473D27",
"L= 	c #50442C",
"M= 	c #524630",
"N= 	c #63573A",
"O= 	c #766C4D",
"P= 	c #908156",
"Q= 	c #9A8857",
"R= 	c #998659",
"S= 	c #9C865A",
"T= 	c #968258",
"U= 	c #A38E5B",
"V= 	c #A49163",
"W= 	c #A89159",
"X= 	c #9E895F",
"Y= 	c #A3905C",
"Z= 	c #99865D",
"`= 	c #A59265",
" - 	c #AA956B",
".- 	c #A38E5C",
"+- 	c #A69369",
"@- 	c #BCA87C",
"#- 	c #C2AD80",
"$- 	c #C9B787",
"%- 	c #B9A578",
"&- 	c #B19F78",
"*- 	c #B19A6C",
"=- 	c #A4926D",
"-- 	c #9F8C6C",
";- 	c #AA966F",
">- 	c #A7936C",
",- 	c #A1906E",
"'- 	c #A39272",
")- 	c #A99979",
"!- 	c #AD9D81",
"~- 	c #AFA07F",
"{- 	c #A7997C",
"]- 	c #A89574",
"^- 	c #93846E",
"/- 	c #7B6549",
"(- 	c #715D41",
"_- 	c #6D563B",
":- 	c #7A6241",
"<- 	c #846B46",
"[- 	c #664D34",
"}- 	c #684E35",
"|- 	c #634A32",
"1- 	c #664B34",
"2- 	c #624531",
"3- 	c #60432F",
"4- 	c #694A35",
"5- 	c #6B4C35",
"6- 	c #77493B",
"7- 	c #6A4B35",
"8- 	c #6C4E37",
"9- 	c #644632",
"0- 	c #6B4F35",
"a- 	c #5C3F2C",
"b- 	c #715538",
"c- 	c #7F6141",
"d- 	c #6C4F36",
"e- 	c #62442F",
"f- 	c #61462E",
"g- 	c #624833",
"h- 	c #5A422F",
"i- 	c #5D4531",
"j- 	c #5B4430",
"k- 	c #5D4430",
"l- 	c #573D2A",
"m- 	c #5C4330",
"n- 	c #5E4631",
"o- 	c #5A412E",
"p- 	c #604834",
"q- 	c #644C36",
"r- 	c #5F4833",
"s- 	c #6A5338",
"t- 	c #6D5740",
"u- 	c #644A35",
"v- 	c #8B7452",
"w- 	c #958264",
"x- 	c #A89678",
"y- 	c #9B876A",
"z- 	c #968262",
"A- 	c #7A6853",
"B- 	c #6C5B50",
"C- 	c #6D6557",
"D- 	c #90846A",
"E- 	c #BBAA80",
"F- 	c #C9B57D",
"G- 	c #C0AE77",
"H- 	c #786B45",
"I- 	c #605536",
"J- 	c #54482C",
"K- 	c #4F432B",
"L- 	c #50432A",
"M- 	c #655737",
"N- 	c #645637",
"O- 	c #7E745A",
"P- 	c #8A8061",
"Q- 	c #8E805A",
"R- 	c #8E8360",
"S- 	c #988353",
"T- 	c #8F7C50",
"U- 	c #958052",
"V- 	c #887855",
"W- 	c #9D854F",
"X- 	c #8F7B50",
"Y- 	c #927F55",
"Z- 	c #8D7B57",
"`- 	c #9C8C62",
" ; 	c #94825F",
".; 	c #948159",
"+; 	c #9F895D",
"@; 	c #9F8B63",
"#; 	c #A28E63",
"$; 	c #A38F65",
"%; 	c #A8966B",
"&; 	c #A9966E",
"*; 	c #AA9A76",
"=; 	c #AD9972",
"-; 	c #AA9872",
";; 	c #A6946D",
">; 	c #A28F6B",
",; 	c #A4916E",
"'; 	c #A6936B",
"); 	c #A7956B",
"!; 	c #AB966B",
"~; 	c #A79476",
"{; 	c #A59270",
"]; 	c #B3A37E",
"^; 	c #A79977",
"/; 	c #A69A77",
"(; 	c #928667",
"_; 	c #816D50",
":; 	c #6E5A42",
"<; 	c #67523F",
"[; 	c #604934",
"}; 	c #6F593D",
"|; 	c #6B523A",
"1; 	c #634C34",
"2; 	c #644B34",
"3; 	c #604630",
"4; 	c #624630",
"5; 	c #5D402D",
"6; 	c #614230",
"7; 	c #6A4433",
"8; 	c #664232",
"9; 	c #8D4F41",
"0; 	c #864F42",
"a; 	c #9B5850",
"b; 	c #BA635E",
"c; 	c #B4615C",
"d; 	c #A3574E",
"e; 	c #9C6554",
"f; 	c #7A503E",
"g; 	c #8D5245",
"h; 	c #784B3A",
"i; 	c #715238",
"j; 	c #7D5E40",
"k; 	c #785B3E",
"l; 	c #765A3B",
"m; 	c #6B5136",
"n; 	c #6C5135",
"o; 	c #715438",
"p; 	c #755A3B",
"q; 	c #725639",
"r; 	c #533525",
"s; 	c #553727",
"t; 	c #513526",
"u; 	c #533727",
"v; 	c #593D2B",
"w; 	c #553A28",
"x; 	c #58402A",
"y; 	c #503624",
"z; 	c #4C3423",
"A; 	c #503725",
"B; 	c #503826",
"C; 	c #614B34",
"D; 	c #897754",
"E; 	c #947E5E",
"F; 	c #9F8A66",
"G; 	c #98805B",
"H; 	c #8C7655",
"I; 	c #796750",
"J; 	c #695750",
"K; 	c #72695C",
"L; 	c #94876D",
"M; 	c #BFAE87",
"N; 	c #C8B580",
"O; 	c #B6A874",
"P; 	c #6C613F",
"Q; 	c #4E442D",
"R; 	c #4D422A",
"S; 	c #473D26",
"T; 	c #6F6441",
"U; 	c #82764F",
"V; 	c #8D7F55",
"W; 	c #948A68",
"X; 	c #A49265",
"Y; 	c #93805A",
"Z; 	c #937D4C",
"`; 	c #887752",
" > 	c #907A4D",
".> 	c #887656",
"+> 	c #8E7A56",
"@> 	c #897752",
"#> 	c #917B4F",
"$> 	c #8E7D5E",
"%> 	c #8D7A59",
"&> 	c #9A885F",
"*> 	c #94815B",
"=> 	c #9C8962",
"-> 	c #A38E5D",
";> 	c #9E8B65",
">> 	c #998561",
",> 	c #9B8865",
"'> 	c #A6946C",
")> 	c #A3906D",
"!> 	c #9D8B6A",
"~> 	c #A28F6F",
"{> 	c #9C8B6B",
"]> 	c #AF9A6E",
"^> 	c #9F8C6B",
"/> 	c #A4926F",
"(> 	c #A7946E",
"_> 	c #A18E69",
":> 	c #B09E74",
"<> 	c #A39680",
"[> 	c #AD9E81",
"}> 	c #97896E",
"|> 	c #8A795C",
"1> 	c #67543D",
"2> 	c #533F2A",
"3> 	c #58402C",
"4> 	c #553E2B",
"5> 	c #583F2D",
"6> 	c #5C432F",
"7> 	c #6D543C",
"8> 	c #634832",
"9> 	c #644832",
"0> 	c #5E422F",
"a> 	c #644331",
"b> 	c #864C3E",
"c> 	c #794638",
"d> 	c #A05A4D",
"e> 	c #A65C55",
"f> 	c #D06965",
"g> 	c #DA6A6B",
"h> 	c #CD6C6B",
"i> 	c #EA6C6D",
"j> 	c #E26F71",
"k> 	c #E87477",
"l> 	c #DF7376",
"m> 	c #C9736C",
"n> 	c #CA726E",
"o> 	c #C76C65",
"p> 	c #AC5F55",
"q> 	c #A06354",
"r> 	c #916049",
"s> 	c #7C533E",
"t> 	c #8F5549",
"u> 	c #6D4735",
"v> 	c #734A37",
"w> 	c #64472F",
"x> 	c #735639",
"y> 	c #6A4F34",
"z> 	c #5B3C2A",
"A> 	c #613F2D",
"B> 	c #573727",
"C> 	c #563728",
"D> 	c #503224",
"E> 	c #573927",
"F> 	c #593D29",
"G> 	c #5C412B",
"H> 	c #513624",
"I> 	c #503423",
"J> 	c #553928",
"K> 	c #4E3523",
"L> 	c #533926",
"M> 	c #523825",
"N> 	c #624B36",
"O> 	c #806949",
"P> 	c #988060",
"Q> 	c #9D8A6D",
"R> 	c #A89373",
"S> 	c #957F5E",
"T> 	c #736152",
"U> 	c #726857",
"V> 	c #93866C",
"W> 	c #BAA97F",
"X> 	c #BDAE79",
"Y> 	c #B2A26B",
"Z> 	c #756542",
"`> 	c #665637",
" , 	c #55492D",
"., 	c #625437",
"+, 	c #736642",
"@, 	c #857853",
"#, 	c #928861",
"$, 	c #A1926A",
"%, 	c #998761",
"&, 	c #95835C",
"*, 	c #897854",
"=, 	c #8F7B4D",
"-, 	c #867450",
";, 	c #8C784F",
">, 	c #837354",
",, 	c #8A7957",
"', 	c #917E5C",
"), 	c #937D53",
"!, 	c #94805B",
"~, 	c #917C55",
"{, 	c #95825B",
"], 	c #917E55",
"^, 	c #9B875C",
"/, 	c #9B885D",
"(, 	c #9B8863",
"_, 	c #9E8964",
":, 	c #9B8660",
"<, 	c #A48F60",
"[, 	c #96825E",
"}, 	c #968360",
"|, 	c #A18C64",
"1, 	c #988562",
"2, 	c #A18E6C",
"3, 	c #B09C72",
"4, 	c #A3916D",
"5, 	c #A99677",
"6, 	c #A0927D",
"7, 	c #AB9D7F",
"8, 	c #988A66",
"9, 	c #7F705D",
"0, 	c #6C5940",
"a, 	c #56412C",
"b, 	c #553D2A",
"c, 	c #533B29",
"d, 	c #563C2A",
"e, 	c #533928",
"f, 	c #654832",
"g, 	c #6B4F37",
"h, 	c #684B35",
"i, 	c #764939",
"j, 	c #885040",
"k, 	c #804B3D",
"l, 	c #A05B50",
"m, 	c #B0574E",
"n, 	c #D86F6D",
"o, 	c #C36864",
"p, 	c #DC7070",
"q, 	c #EB6A69",
"r, 	c #E36869",
"s, 	c #E96D6E",
"t, 	c #E16C6C",
"u, 	c #E77A7C",
"v, 	c #DF6C6D",
"w, 	c #E57171",
"x, 	c #DD696A",
"y, 	c #E37175",
"z, 	c #EA7579",
"A, 	c #E17376",
"B, 	c #DE7877",
"C, 	c #B86E61",
"D, 	c #CF776D",
"E, 	c #AD635B",
"F, 	c #B26756",
"G, 	c #975C49",
"H, 	c #7F5140",
"I, 	c #7D513D",
"J, 	c #7A4D3D",
"K, 	c #75563A",
"L, 	c #705037",
"M, 	c #6C4C35",
"N, 	c #5E3F2B",
"O, 	c #593E2A",
"P, 	c #674A33",
"Q, 	c #6D4E35",
"R, 	c #6D5035",
"S, 	c #6C4F35",
"T, 	c #63442D",
"U, 	c #5D412B",
"V, 	c #4B3121",
"W, 	c #4E3222",
"X, 	c #4C3222",
"Y, 	c #523926",
"Z, 	c #816C4F",
"`, 	c #967D5D",
" ' 	c #937F5F",
".' 	c #715E51",
"+' 	c #7B715F",
"@' 	c #9F9173",
"#' 	c #BCAA82",
"$' 	c #BEAD7B",
"%' 	c #998E65",
"&' 	c #5E5235",
"*' 	c #584C32",
"=' 	c #5C4E32",
"-' 	c #5B4F34",
";' 	c #87774E",
">' 	c #94855A",
",' 	c #91815C",
"'' 	c #8F7C4F",
")' 	c #8C7C56",
"!' 	c #8B794B",
"~' 	c #837452",
"{' 	c #897751",
"]' 	c #85744F",
"^' 	c #8A764D",
"/' 	c #8C7956",
"(' 	c #887756",
"_' 	c #907F5C",
":' 	c #917D58",
"<' 	c #9B865C",
"[' 	c #98855E",
"}' 	c #A7956E",
"|' 	c #A3916C",
"1' 	c #9C885A",
"2' 	c #9C8658",
"3' 	c #A39263",
"4' 	c #A08D64",
"5' 	c #978561",
"6' 	c #978360",
"7' 	c #998662",
"8' 	c #9D8A65",
"9' 	c #998663",
"0' 	c #9D8A66",
"a' 	c #A5926D",
"b' 	c #9F917B",
"c' 	c #A99D82",
"d' 	c #97896F",
"e' 	c #80715F",
"f' 	c #786549",
"g' 	c #5D4933",
"h' 	c #5D4533",
"i' 	c #573F2B",
"j' 	c #553D29",
"k' 	c #533927",
"l' 	c #563A29",
"m' 	c #553829",
"n' 	c #624430",
"o' 	c #6C4F37",
"p' 	c #694633",
"q' 	c #82503F",
"r' 	c #B25A51",
"s' 	c #B25C53",
"t' 	c #DE655F",
"u' 	c #CF645F",
"v' 	c #E46F6E",
"w' 	c #EB6C6B",
"x' 	c #E37273",
"y' 	c #E97273",
"z' 	c #E17576",
"A' 	c #E77577",
"B' 	c #DF7474",
"C' 	c #E57878",
"D' 	c #DC6F70",
"E' 	c #E36E6F",
"F' 	c #EA7175",
"G' 	c #E26F72",
"H' 	c #E86B6E",
"I' 	c #E06D70",
"J' 	c #E67277",
"K' 	c #DE7074",
"L' 	c #E57277",
"M' 	c #DC7074",
"N' 	c #E27276",
"O' 	c #E9797B",
"P' 	c #CA736C",
"Q' 	c #CF7771",
"R' 	c #C57368",
"S' 	c #B3675D",
"T' 	c #9B594A",
"U' 	c #9C644F",
"V' 	c #844F41",
"W' 	c #684031",
"X' 	c #643F2E",
"Y' 	c #603C2C",
"Z' 	c #684231",
"`' 	c #5A3B29",
" ) 	c #63442F",
".) 	c #61412D",
"+) 	c #5C3E2B",
"@) 	c #533424",
"#) 	c #503222",
"$) 	c #5C4431",
"%) 	c #836B4D",
"&) 	c #8F7B5D",
"*) 	c #907C67",
"=) 	c #6A5955",
"-) 	c #7E725D",
";) 	c #9F9172",
">) 	c #B7A376",
",) 	c #BBA86F",
"') 	c #897D57",
")) 	c #5D5036",
"!) 	c #57492E",
"~) 	c #56492F",
"{) 	c #615538",
"]) 	c #8A7D53",
"^) 	c #978559",
"/) 	c #90805B",
"() 	c #8A7749",
"_) 	c #857149",
":) 	c #8B764B",
"<) 	c #83724F",
"[) 	c #857555",
"}) 	c #887755",
"|) 	c #887657",
"1) 	c #867655",
"2) 	c #907E5E",
"3) 	c #98865F",
"4) 	c #A4926B",
"5) 	c #B09C70",
"6) 	c #B6A175",
"7) 	c #B2A079",
"8) 	c #A6936C",
"9) 	c #A08B60",
"0) 	c #98825A",
"a) 	c #9B8763",
"b) 	c #96835F",
"c) 	c #998562",
"d) 	c #9C8862",
"e) 	c #99855E",
"f) 	c #9F8C64",
"g) 	c #998461",
"h) 	c #94866F",
"i) 	c #A29278",
"j) 	c #8A7862",
"k) 	c #7F6F5D",
"l) 	c #77644D",
"m) 	c #58422F",
"n) 	c #5A432D",
"o) 	c #573E2C",
"p) 	c #695135",
"q) 	c #775D3D",
"r) 	c #71573A",
"s) 	c #6E5437",
"t) 	c #725539",
"u) 	c #704F36",
"v) 	c #894F41",
"w) 	c #7F4A3D",
"x) 	c #A15348",
"y) 	c #B35047",
"z) 	c #CB615B",
"A) 	c #DF6362",
"B) 	c #E5696A",
"C) 	c #EB6966",
"D) 	c #E36F70",
"E) 	c #EA7272",
"F) 	c #E27576",
"G) 	c #E87374",
"H) 	c #DF7777",
"I) 	c #E67677",
"J) 	c #DD706F",
"K) 	c #E37174",
"L) 	c #E96A6E",
"M) 	c #DD6667",
"N) 	c #DD6769",
"O) 	c #D76365",
"P) 	c #DC6A6E",
"Q) 	c #DC6A6F",
"R) 	c #E57075",
"S) 	c #DC696D",
"T) 	c #E36F72",
"U) 	c #E97375",
"V) 	c #E17377",
"W) 	c #E7787D",
"X) 	c #DF7479",
"Y) 	c #E57579",
"Z) 	c #DD7174",
"`) 	c #E4777B",
" ! 	c #D67273",
".! 	c #E07677",
"+! 	c #D8786E",
"@! 	c #D1756D",
"#! 	c #C67369",
"$! 	c #AD675B",
"%! 	c #9D604D",
"&! 	c #794B39",
"*! 	c #6F4936",
"=! 	c #78473A",
"-! 	c #724735",
";! 	c #6A4731",
">! 	c #705036",
",! 	c #715237",
"'! 	c #6E4F35",
")! 	c #6B4D33",
"!! 	c #694C32",
"~! 	c #5C3D28",
"{! 	c #5F402B",
"]! 	c #533625",
"^! 	c #573826",
"/! 	c #5D452E",
"(! 	c #857054",
"_! 	c #826A51",
":! 	c #7D6E61",
"<! 	c #6E6455",
"[! 	c #8A7E65",
"}! 	c #A1926F",
"|! 	c #A99973",
"1! 	c #B0A16F",
"2! 	c #7E724E",
"3! 	c #574C33",
"4! 	c #62553A",
"5! 	c #584C30",
"6! 	c #6F603D",
"7! 	c #95865D",
"8! 	c #94875F",
"9! 	c #907E57",
"0! 	c #89764E",
"a! 	c #8F7748",
"b! 	c #89754D",
"c! 	c #8D7B51",
"d! 	c #857451",
"e! 	c #857455",
"f! 	c #807152",
"g! 	c #887859",
"h! 	c #AC9971",
"i! 	c #B09E76",
"j! 	c #B5A27C",
"k! 	c #B1A078",
"l! 	c #A49370",
"m! 	c #988660",
"n! 	c #907E5B",
"o! 	c #94825D",
"p! 	c #988463",
"q! 	c #927F5E",
"r! 	c #958160",
"s! 	c #927F5F",
"t! 	c #978463",
"u! 	c #9D8D6B",
"v! 	c #918162",
"w! 	c #8F7E61",
"x! 	c #857661",
"y! 	c #6B563F",
"z! 	c #5F4A36",
"A! 	c #57402D",
"B! 	c #563D2B",
"C! 	c #5C442F",
"D! 	c #644A33",
"E! 	c #5A3F2A",
"F! 	c #5F442F",
"G! 	c #644530",
"H! 	c #61422F",
"I! 	c #6A4833",
"J! 	c #8B493B",
"K! 	c #A65D54",
"L! 	c #B15D55",
"M! 	c #D1605B",
"N! 	c #DF5F5D",
"O! 	c #E66664",
"P! 	c #EB6B67",
"Q! 	c #E47172",
"R! 	c #EA6C6B",
"S! 	c #E26A69",
"T! 	c #E06F71",
"U! 	c #E66C6C",
"V! 	c #DE6769",
"W! 	c #E46B6E",
"X! 	c #EA7074",
"Y! 	c #E2686C",
"Z! 	c #E96F73",
"`! 	c #E06365",
" ~ 	c #E36467",
".~ 	c #D8666A",
"+~ 	c #DD696F",
"@~ 	c #D66C73",
"#~ 	c #E16B6E",
"$~ 	c #E97074",
"%~ 	c #E17176",
"&~ 	c #E8767B",
"*~ 	c #DF6E71",
"=~ 	c #E67578",
"-~ 	c #DD6F73",
";~ 	c #E47377",
">~ 	c #EA787C",
",~ 	c #E27175",
"'~ 	c #E8767A",
")~ 	c #E07478",
"!~ 	c #E67479",
"~~ 	c #DE7377",
"{~ 	c #E5777B",
"]~ 	c #DC7275",
"^~ 	c #E3777A",
"/~ 	c #E77976",
"(~ 	c #DA776E",
"_~ 	c #BC6D62",
":~ 	c #AD6259",
"<~ 	c #B16957",
"[~ 	c #95614E",
"}~ 	c #825641",
"|~ 	c #744535",
"1~ 	c #774737",
"2~ 	c #6E4C34",
"3~ 	c #694932",
"4~ 	c #6C4431",
"5~ 	c #5A3927",
"6~ 	c #573524",
"7~ 	c #503021",
"8~ 	c #513223",
"9~ 	c #604533",
"0~ 	c #84664B",
"a~ 	c #7C6651",
"b~ 	c #817165",
"c~ 	c #6B6351",
"d~ 	c #8A7C5E",
"e~ 	c #AA9A73",
"f~ 	c #AA9964",
"g~ 	c #84774D",
"h~ 	c #554A30",
"i~ 	c #53462C",
"j~ 	c #584C31",
"k~ 	c #80744B",
"l~ 	c #92855C",
"m~ 	c #958665",
"n~ 	c #98865D",
"o~ 	c #907E56",
"p~ 	c #8B774C",
"q~ 	c #85744D",
"r~ 	c #8D794F",
"s~ 	c #827251",
"t~ 	c #837153",
"u~ 	c #7D6D53",
"v~ 	c #8D7C5C",
"w~ 	c #9E8E69",
"x~ 	c #A99772",
"y~ 	c #A7956F",
"z~ 	c #A4926E",
"A~ 	c #9D8A69",
"B~ 	c #A08F6D",
"C~ 	c #937F5B",
"D~ 	c #9C865E",
"E~ 	c #8E7C5B",
"F~ 	c #8D7B5C",
"G~ 	c #927E5F",
"H~ 	c #9D8762",
"I~ 	c #958460",
"J~ 	c #8F7C5B",
"K~ 	c #817157",
"L~ 	c #705C42",
"M~ 	c #624D37",
"N~ 	c #6F5739",
"O~ 	c #685236",
"P~ 	c #654E34",
"Q~ 	c #5F4731",
"R~ 	c #624932",
"S~ 	c #5D432D",
"T~ 	c #5C3F2B",
"U~ 	c #5E3F2D",
"V~ 	c #633F2E",
"W~ 	c #7B4436",
"X~ 	c #924B3E",
"Y~ 	c #AA4F46",
"Z~ 	c #BB4940",
"`~ 	c #E85A55",
" { 	c #DF5C5A",
".{ 	c #E6686A",
"+{ 	c #EC6766",
"@{ 	c #E46B6D",
"#{ 	c #EA6D6F",
"${ 	c #E27073",
"%{ 	c #E8797B",
"&{ 	c #E06F6F",
"*{ 	c #E76C6D",
"={ 	c #DE6A69",
"-{ 	c #E56869",
";{ 	c #EB6C6D",
">{ 	c #E36668",
",{ 	c #E96B6E",
"'{ 	c #E16D6F",
"){ 	c #E76C6E",
"!{ 	c #DF696B",
"~{ 	c #E57073",
"{{ 	c #EB787A",
"]{ 	c #E47477",
"^{ 	c #E9787E",
"/{ 	c #E26E71",
"({ 	c #E86F72",
"_{ 	c #E06E71",
":{ 	c #E67478",
"<{ 	c #DE6D71",
"[{ 	c #EA767B",
"}{ 	c #E06F72",
"|{ 	c #E77376",
"1{ 	c #DE6E70",
"2{ 	c #E57376",
"3{ 	c #DC6D6F",
"4{ 	c #E37173",
"5{ 	c #E97475",
"6{ 	c #E16E71",
"7{ 	c #E8787B",
"8{ 	c #DF7476",
"9{ 	c #E67E82",
"0{ 	c #DD7477",
"a{ 	c #E3767A",
"b{ 	c #D87172",
"c{ 	c #CB736A",
"d{ 	c #D9756C",
"e{ 	c #C66E63",
"f{ 	c #B36458",
"g{ 	c #98594B",
"h{ 	c #9B6551",
"i{ 	c #744B37",
"j{ 	c #6B4831",
"k{ 	c #6C4E33",
"l{ 	c #7B5C3C",
"m{ 	c #593527",
"n{ 	c #543023",
"o{ 	c #553324",
"p{ 	c #523325",
"q{ 	c #644633",
"r{ 	c #7D5F46",
"s{ 	c #80674F",
"t{ 	c #79695A",
"u{ 	c #706553",
"v{ 	c #978868",
"w{ 	c #A08F68",
"x{ 	c #A39565",
"y{ 	c #9D8F5F",
"z{ 	c #5F5438",
"A{ 	c #4B422A",
"B{ 	c #5B5035",
"C{ 	c #574D31",
"D{ 	c #897D52",
"E{ 	c #97895D",
"F{ 	c #958565",
"G{ 	c #907E58",
"H{ 	c #84744B",
"I{ 	c #8A7544",
"J{ 	c #816F4B",
"K{ 	c #88744D",
"L{ 	c #82724D",
"M{ 	c #86734D",
"N{ 	c #877350",
"O{ 	c #8B7859",
"P{ 	c #8E7C58",
"Q{ 	c #9A8865",
"R{ 	c #998865",
"S{ 	c #92815E",
"T{ 	c #8A7855",
"U{ 	c #8E7C5C",
"V{ 	c #8E7A59",
"W{ 	c #897657",
"X{ 	c #8B7959",
"Y{ 	c #877557",
"Z{ 	c #8C7A5C",
"`{ 	c #928261",
" ] 	c #96855D",
".] 	c #907D56",
"+] 	c #8E7D59",
"@] 	c #776244",
"#] 	c #604B34",
"$] 	c #563F2C",
"%] 	c #543F2B",
"&] 	c #57402C",
"*] 	c #543C29",
"=] 	c #583F2C",
"-] 	c #654B35",
";] 	c #614331",
">] 	c #5D3D2B",
",] 	c #774434",
"'] 	c #9A4A3E",
")] 	c #AF554D",
"!] 	c #CE554F",
"~] 	c #D65B56",
"{] 	c #EE5E5C",
"]] 	c #E66767",
"^] 	c #EC6361",
"/] 	c #E46362",
"(] 	c #EA6362",
"_] 	c #E26566",
":] 	c #E96667",
"<] 	c #E06B6D",
"[] 	c #E77072",
"}] 	c #ED797C",
"|] 	c #E56B6D",
"1] 	c #EB696B",
"2] 	c #E36062",
"3] 	c #E97176",
"4] 	c #E16869",
"5] 	c #E86B6B",
"6] 	c #DF6D6E",
"7] 	c #E66C6E",
"8] 	c #EC7071",
"9] 	c #E47A7C",
"0] 	c #EA8083",
"a] 	c #E27A7B",
"b] 	c #E87274",
"c] 	c #E07276",
"d] 	c #DE6C6F",
"e] 	c #E5757A",
"f] 	c #EB787D",
"g] 	c #E37579",
"h] 	c #E9787D",
"i] 	c #E17075",
"j] 	c #E76D6F",
"k] 	c #DF7276",
"l] 	c #E5797B",
"m] 	c #DD7A7D",
"n] 	c #E37A7D",
"o] 	c #E98588",
"p] 	c #E17F82",
"q] 	c #E88386",
"r] 	c #DF7679",
"s] 	c #E6767A",
"t] 	c #DD7779",
"u] 	c #E4767A",
"v] 	c #DB6E71",
"w] 	c #E27274",
"x] 	c #E97477",
"y] 	c #E06E72",
"z] 	c #E77175",
"A] 	c #DE6E72",
"B] 	c #E57175",
"C] 	c #D86F70",
"D] 	c #E17676",
"E] 	c #BE6E64",
"F] 	c #D37468",
"G] 	c #C57060",
"H] 	c #AF6A57",
"I] 	c #AA7056",
"J] 	c #744536",
"K] 	c #693F2F",
"L] 	c #723D34",
"M] 	c #603729",
"N] 	c #5A3527",
"O] 	c #5A3928",
"P] 	c #664735",
"Q] 	c #7D664D",
"R] 	c #866A53",
"S] 	c #76645D",
"T] 	c #695452",
"U] 	c #73664F",
"V] 	c #948363",
"W] 	c #9E8B64",
"X] 	c #9F9266",
"Y] 	c #8F8457",
"Z] 	c #574D2F",
"`] 	c #554931",
" ^ 	c #574B2E",
".^ 	c #5E5234",
"+^ 	c #857A4E",
"@^ 	c #93875C",
"#^ 	c #8F8062",
"$^ 	c #88764E",
"%^ 	c #816F48",
"&^ 	c #817047",
"*^ 	c #7E6C49",
"=^ 	c #877249",
"-^ 	c #847352",
";^ 	c #83734E",
">^ 	c #877550",
",^ 	c #857350",
"'^ 	c #897756",
")^ 	c #907E59",
"!^ 	c #857454",
"~^ 	c #827155",
"{^ 	c #867456",
"]^ 	c #847153",
"^^ 	c #897856",
"/^ 	c #897654",
"(^ 	c #867454",
"_^ 	c #847258",
":^ 	c #8E7C5A",
"<^ 	c #97815C",
"[^ 	c #7B6845",
"}^ 	c #655034",
"|^ 	c #513C29",
"1^ 	c #59432E",
"2^ 	c #604730",
"3^ 	c #604A30",
"4^ 	c #634931",
"5^ 	c #614630",
"6^ 	c #5B402C",
"7^ 	c #60412F",
"8^ 	c #6E4333",
"9^ 	c #814738",
"0^ 	c #9A4E45",
"a^ 	c #B5493F",
"b^ 	c #D8524C",
"c^ 	c #E85E5F",
"d^ 	c #EE5655",
"e^ 	c #E75552",
"f^ 	c #EC5D58",
"g^ 	c #E56768",
"h^ 	c #EB6A6B",
"i^ 	c #E3696A",
"j^ 	c #E96C6E",
"k^ 	c #E15E5D",
"l^ 	c #E76465",
"m^ 	c #ED6766",
"n^ 	c #EB6B6C",
"o^ 	c #E36969",
"p^ 	c #EA6F71",
"q^ 	c #E26464",
"r^ 	c #E86D6F",
"s^ 	c #E06A6D",
"t^ 	c #E66D6F",
"u^ 	c #EC777C",
"v^ 	c #E47376",
"w^ 	c #EA6E70",
"x^ 	c #E26C6E",
"y^ 	c #E0797D",
"z^ 	c #E77A7D",
"A^ 	c #DE7071",
"B^ 	c #E57273",
"C^ 	c #EB797D",
"D^ 	c #E37478",
"E^ 	c #E9777A",
"F^ 	c #E16F71",
"G^ 	c #DF6F72",
"H^ 	c #E67375",
"I^ 	c #E4787A",
"J^ 	c #EA7D80",
"K^ 	c #E27B7F",
"L^ 	c #E07F82",
"M^ 	c #E67D7F",
"N^ 	c #DE787C",
"O^ 	c #DC6E71",
"P^ 	c #E3767B",
"Q^ 	c #E9797D",
"R^ 	c #E17479",
"S^ 	c #E7757B",
"T^ 	c #DF6F74",
"U^ 	c #E57276",
"V^ 	c #DC6C71",
"W^ 	c #E36F74",
"X^ 	c #DA696D",
"Y^ 	c #E87275",
"Z^ 	c #DF6E72",
"`^ 	c #E6777C",
" / 	c #DD7578",
"./ 	c #E47877",
"+/ 	c #DB7673",
"@/ 	c #D6766D",
"#/ 	c #AD5F55",
"$/ 	c #A95A52",
"%/ 	c #AE6558",
"&/ 	c #7D4B3B",
"*/ 	c #9C574A",
"=/ 	c #6A3E30",
"-/ 	c #664835",
";/ 	c #634533",
">/ 	c #806549",
",/ 	c #866D54",
"'/ 	c #79655C",
")/ 	c #705A53",
"!/ 	c #766A4F",
"~/ 	c #968665",
"{/ 	c #A08D62",
"]/ 	c #A49261",
"^/ 	c #867B54",
"// 	c #5D5335",
"(/ 	c #52452E",
"_/ 	c #5F5238",
":/ 	c #645839",
"</ 	c #897D56",
"[/ 	c #92845F",
"}/ 	c #81704D",
"|/ 	c #847041",
"1/ 	c #7C6A47",
"2/ 	c #846F46",
"3/ 	c #7E6C4A",
"4/ 	c #82714E",
"5/ 	c #81714B",
"6/ 	c #86764F",
"7/ 	c #88754D",
"8/ 	c #8C794F",
"9/ 	c #8B7854",
"0/ 	c #887655",
"a/ 	c #867556",
"b/ 	c #7E6E53",
"c/ 	c #827056",
"d/ 	c #837254",
"e/ 	c #8D7B5A",
"f/ 	c #928061",
"g/ 	c #887354",
"h/ 	c #8D7C58",
"i/ 	c #5E4B33",
"j/ 	c #4F3A26",
"k/ 	c #4C3623",
"l/ 	c #503726",
"m/ 	c #4E3424",
"n/ 	c #503526",
"o/ 	c #583C2A",
"p/ 	c #60452F",
"q/ 	c #62432F",
"r/ 	c #95483C",
"s/ 	c #9A473A",
"t/ 	c #B55750",
"u/ 	c #D05B57",
"v/ 	c #D35E5B",
"w/ 	c #EE5E5F",
"x/ 	c #E76061",
"y/ 	c #ED6465",
"z/ 	c #E55A57",
"A/ 	c #EB5C59",
"B/ 	c #E36462",
"C/ 	c #E9605D",
"D/ 	c #E15F5F",
"E/ 	c #E75F5E",
"F/ 	c #ED6262",
"G/ 	c #EC7175",
"H/ 	c #E46E6E",
"I/ 	c #EA7679",
"J/ 	c #E26E6F",
"K/ 	c #E87577",
"L/ 	c #E07072",
"M/ 	c #E67C7D",
"N/ 	c #EC7A7A",
"O/ 	c #E57779",
"P/ 	c #EB7879",
"Q/ 	c #E36F75",
"R/ 	c #E16D70",
"S/ 	c #E7767B",
"T/ 	c #DF7174",
"U/ 	c #E57F82",
"V/ 	c #EB7C80",
"W/ 	c #E3787B",
"X/ 	c #E98286",
"Y/ 	c #E17A7D",
"Z/ 	c #E88184",
"`/ 	c #DF797D",
" ( 	c #E67D80",
".( 	c #DD797B",
"+( 	c #E47E80",
"@( 	c #EA8587",
"#( 	c #E27C7E",
"$( 	c #E88284",
"%( 	c #E0777A",
"&( 	c #E77A7E",
"*( 	c #DE7677",
"=( 	c #E57677",
"-( 	c #DC6D70",
";( 	c #E36E72",
">( 	c #E97376",
",( 	c #E16D71",
"'( 	c #DF7074",
")( 	c #E67378",
"!( 	c #DD6D72",
"~( 	c #E47176",
"{( 	c #EA7478",
"]( 	c #E87479",
"^( 	c #DF6E73",
"/( 	c #E6767B",
"(( 	c #DD767A",
"_( 	c #E47F82",
":( 	c #DB7E7F",
"<( 	c #E27B7E",
"[( 	c #E77478",
"}( 	c #DE7175",
"|( 	c #E57375",
"1( 	c #D16F6B",
"2( 	c #CB6F65",
"3( 	c #CA6D65",
"4( 	c #C16D5F",
"5( 	c #AE6154",
"6( 	c #945544",
"7( 	c #9D564A",
"8( 	c #6D4F3A",
"9( 	c #876D52",
"0( 	c #816B59",
"a( 	c #7A6761",
"b( 	c #6A554E",
"c( 	c #77694E",
"d( 	c #968561",
"e( 	c #A89365",
"f( 	c #9C8D62",
"g( 	c #746744",
"h( 	c #72623D",
"i( 	c #594B2E",
"j( 	c #574B2F",
"k( 	c #746842",
"l( 	c #8C7E58",
"m( 	c #918364",
"n( 	c #7E7049",
"o( 	c #786740",
"p( 	c #7D6945",
"q( 	c #7B6844",
"r( 	c #766648",
"s( 	c #7D6C4B",
"t( 	c #7E6C4C",
"u( 	c #8C774D",
"v( 	c #8D7B54",
"w( 	c #887552",
"x( 	c #827051",
"y( 	c #817152",
"z( 	c #7A6A50",
"A( 	c #857356",
"B( 	c #9D8C6A",
"C( 	c #A08E6C",
"D( 	c #907D5E",
"E( 	c #968363",
"F( 	c #8A7651",
"G( 	c #665236",
"H( 	c #4B3623",
"I( 	c #4C3523",
"J( 	c #493222",
"K( 	c #4C3324",
"L( 	c #503425",
"M( 	c #60422E",
"N( 	c #5F3E2C",
"O( 	c #98493D",
"P( 	c #9B4C42",
"Q( 	c #B65149",
"R( 	c #D95351",
"S( 	c #E95E5E",
"T( 	c #EE5A59",
"U( 	c #E75956",
"V( 	c #ED5E5D",
"W( 	c #E56161",
"X( 	c #EB6363",
"Y( 	c #E3686A",
"Z( 	c #E26A6A",
"`( 	c #E86464",
" _ 	c #EE6A6C",
"._ 	c #E66160",
"+_ 	c #EC6667",
"@_ 	c #E46363",
"#_ 	c #EA6A6B",
"$_ 	c #E26C6B",
"%_ 	c #E87A7A",
"&_ 	c #E77A7B",
"*_ 	c #EC7D7F",
"=_ 	c #E57D7F",
"-_ 	c #EB8182",
";_ 	c #E16C6E",
">_ 	c #DF6B6D",
",_ 	c #E56B6B",
"'_ 	c #EB7273",
")_ 	c #E47476",
"!_ 	c #EA7C7F",
"~_ 	c #E88183",
"{_ 	c #E07577",
"]_ 	c #E68082",
"^_ 	c #DE7579",
"/_ 	c #E4797D",
"(_ 	c #E37277",
"__ 	c #E97A7D",
":_ 	c #E17579",
"<_ 	c #DE7478",
"[_ 	c #E5797D",
"}_ 	c #EB7980",
"|_ 	c #E37679",
"1_ 	c #E97276",
"2_ 	c #E17276",
"3_ 	c #E8757A",
"4_ 	c #DF7075",
"5_ 	c #DD6C73",
"6_ 	c #E47075",
"7_ 	c #EA6F75",
"8_ 	c #E26D72",
"9_ 	c #E87074",
"0_ 	c #E06D71",
"a_ 	c #E66E70",
"b_ 	c #DE7073",
"c_ 	c #E47C80",
"d_ 	c #DC7579",
"e_ 	c #E3787C",
"f_ 	c #E97D82",
"g_ 	c #E1797D",
"h_ 	c #E77579",
"i_ 	c #DF7176",
"j_ 	c #E57379",
"k_ 	c #DA6E71",
"l_ 	c #DF7275",
"m_ 	c #E67072",
"n_ 	c #D46B65",
"o_ 	c #CC6863",
"p_ 	c #BE5E57",
"q_ 	c #BE5E5A",
"r_ 	c #A96152",
"s_ 	c #A1715D",
"t_ 	c #88705B",
"u_ 	c #806C60",
"v_ 	c #725451",
"w_ 	c #867656",
"x_ 	c #9D8C65",
"y_ 	c #9F8E66",
"z_ 	c #A08D5E",
"A_ 	c #64583B",
"B_ 	c #52462E",
"C_ 	c #4E4228",
"D_ 	c #564A30",
"E_ 	c #7C7248",
"F_ 	c #897D54",
"G_ 	c #827352",
"H_ 	c #776745",
"I_ 	c #73613F",
"J_ 	c #7C683F",
"K_ 	c #776442",
"L_ 	c #796644",
"M_ 	c #726347",
"N_ 	c #77674B",
"O_ 	c #806F51",
"P_ 	c #8B764D",
"Q_ 	c #8E7A51",
"R_ 	c #84724E",
"S_ 	c #897452",
"T_ 	c #7D6C4E",
"U_ 	c #7F6D4F",
"V_ 	c #79684E",
"W_ 	c #837154",
"X_ 	c #958363",
"Y_ 	c #A39170",
"Z_ 	c #A99674",
"`_ 	c #938060",
" : 	c #957F59",
".: 	c #877551",
"+: 	c #5E482E",
"@: 	c #5C452D",
"#: 	c #573E29",
"$: 	c #523626",
"%: 	c #5A3829",
"&: 	c #6E3D2F",
"*: 	c #7A4234",
"=: 	c #8D473A",
"-: 	c #944F41",
";: 	c #B95952",
">: 	c #E05656",
",: 	c #D95958",
"': 	c #EF5856",
"): 	c #E55F5F",
"!: 	c #ED6263",
"~: 	c #E65D5C",
"{: 	c #EB6060",
"]: 	c #E46665",
"^: 	c #EA6562",
"/: 	c #E25D5C",
"(: 	c #E86262",
"_: 	c #EE6465",
":: 	c #E66364",
"<: 	c #EC6C6F",
"[: 	c #E56568",
"}: 	c #EB6766",
"|: 	c #E26A6C",
"1: 	c #EE7577",
"2: 	c #E76F71",
"3: 	c #ED7373",
"4: 	c #E56F6E",
"5: 	c #EB7A7B",
"6: 	c #E37779",
"7: 	c #E97777",
"8: 	c #E17778",
"9: 	c #ED757A",
"0: 	c #EC7E82",
"a: 	c #E4797E",
"b: 	c #EA7D7E",
"c: 	c #E2787B",
"d: 	c #EC6E6E",
"e: 	c #E56E6F",
"f: 	c #E9777D",
"g: 	c #E7787E",
"h: 	c #DF7579",
"i: 	c #E67A7C",
"j: 	c #E37578",
"k: 	c #EA7A7F",
"l: 	c #E87679",
"m: 	c #E06D6F",
"n: 	c #E66F74",
"o: 	c #DD696E",
"p: 	c #E46E74",
"q: 	c #EA7278",
"r: 	c #E2676C",
"s: 	c #E96E73",
"t: 	c #E06C71",
"u: 	c #E5787C",
"v: 	c #DC7476",
"w: 	c #E37577",
"x: 	c #E97476",
"y: 	c #E16F73",
"z: 	c #DF6D70",
"A: 	c #E67175",
"B: 	c #DD6D71",
"C: 	c #E47278",
"D: 	c #DB6D71",
"E: 	c #E26F74",
"F: 	c #E87178",
"G: 	c #E06E73",
"H: 	c #E67076",
"I: 	c #DD6C71",
"J: 	c #DB6C72",
"K: 	c #E27277",
"L: 	c #D96E71",
"M: 	c #E07275",
"N: 	c #E37374",
"O: 	c #DD6D6E",
"P: 	c #D7706C",
"Q: 	c #D46A6B",
"R: 	c #BA6A5B",
"S: 	c #B96C5D",
"T: 	c #A76D61",
"U: 	c #815D57",
"V: 	c #6D524F",
"W: 	c #6F634C",
"X: 	c #907E5C",
"Y: 	c #99875F",
"Z: 	c #9E8C5E",
"`: 	c #908357",
" < 	c #56482C",
".< 	c #4E432C",
"+< 	c #554A2F",
"@< 	c #817248",
"#< 	c #8F805B",
"$< 	c #7D6F4F",
"%< 	c #766544",
"&< 	c #71623F",
"*< 	c #766543",
"=< 	c #75643E",
"-< 	c #796543",
";< 	c #796747",
">< 	c #776647",
",< 	c #816E4C",
"'< 	c #84714A",
")< 	c #8B774D",
"!< 	c #84704C",
"~< 	c #806E4F",
"{< 	c #7D6A4D",
"]< 	c #806E50",
"^< 	c #837251",
"/< 	c #806F52",
"(< 	c #998668",
"_< 	c #9F8B6B",
":< 	c #917D5A",
"<< 	c #88724C",
"[< 	c #634C32",
"}< 	c #5E452C",
"|< 	c #6A5135",
"1< 	c #785A3B",
"2< 	c #875B40",
"3< 	c #A05E4B",
"4< 	c #B05849",
"5< 	c #CE5A54",
"6< 	c #E35656",
"7< 	c #EA5958",
"8< 	c #EF5857",
"9< 	c #E85654",
"0< 	c #ED6061",
"a< 	c #E66162",
"b< 	c #EC6564",
"c< 	c #E46A6B",
"d< 	c #EA6767",
"e< 	c #EE6B69",
"f< 	c #E66969",
"g< 	c #ED6969",
"h< 	c #E56569",
"i< 	c #EB6A6E",
"j< 	c #E55D5D",
"k< 	c #EB5B5B",
"l< 	c #E35D5F",
"m< 	c #E9686A",
"n< 	c #EF6B6F",
"o< 	c #E76768",
"p< 	c #ED7276",
"q< 	c #E56C71",
"r< 	c #EB7176",
"s< 	c #E4696D",
"t< 	c #EA7176",
"u< 	c #E87071",
"v< 	c #EE787A",
"w< 	c #E67477",
"x< 	c #EC7476",
"y< 	c #E46F71",
"z< 	c #EA7477",
"A< 	c #E37276",
"B< 	c #E96E72",
"C< 	c #E06F75",
"D< 	c #E76C71",
"E< 	c #ED757C",
"F< 	c #E57178",
"G< 	c #EB7075",
"H< 	c #E16D72",
"I< 	c #DF6D71",
"J< 	c #E67376",
"K< 	c #EC7A7E",
"L< 	c #E47174",
"M< 	c #EA7B7E",
"N< 	c #E28082",
"O< 	c #E87C7D",
"P< 	c #E07878",
"Q< 	c #E67679",
"R< 	c #DE6D73",
"S< 	c #EB6D72",
"T< 	c #E3696E",
"U< 	c #E1696D",
"V< 	c #E77374",
"W< 	c #E57578",
"X< 	c #DD787C",
"Y< 	c #E37F82",
"Z< 	c #E98386",
"`< 	c #E67579",
" [ 	c #DD6F74",
".[ 	c #E47277",
"+[ 	c #DB6A6E",
"@[ 	c #E27075",
"#[ 	c #E87278",
"$[ 	c #E06D72",
"%[ 	c #E77075",
"&[ 	c #DE6B70",
"*[ 	c #E56F73",
"=[ 	c #DA6A6F",
"-[ 	c #E16F74",
";[ 	c #E77279",
">[ 	c #E57278",
",[ 	c #DC6C70",
"'[ 	c #D96C70",
")[ 	c #E17074",
"![ 	c #D76B6D",
"~[ 	c #DF6E6F",
"{[ 	c #CD6765",
"][ 	c #B46160",
"^[ 	c #9B5756",
"/[ 	c #8C5756",
"([ 	c #845251",
"_[ 	c #755251",
":[ 	c #A9976B",
"<[ 	c #A49364",
"[[ 	c #8C7B50",
"}[ 	c #4E432A",
"|[ 	c #4E4229",
"1[ 	c #564930",
"2[ 	c #6F6140",
"3[ 	c #857952",
"4[ 	c #8A7C59",
"5[ 	c #726549",
"6[ 	c #716343",
"7[ 	c #6F5F3F",
"8[ 	c #746342",
"9[ 	c #796743",
"0[ 	c #756443",
"a[ 	c #776649",
"b[ 	c #756548",
"c[ 	c #7E6C4B",
"d[ 	c #7D6B4B",
"e[ 	c #82704E",
"f[ 	c #7B6A4C",
"g[ 	c #7C6B4C",
"h[ 	c #82704C",
"i[ 	c #8B764F",
"j[ 	c #85714D",
"k[ 	c #938160",
"l[ 	c #917E61",
"m[ 	c #877356",
"n[ 	c #907D55",
"o[ 	c #806B47",
"p[ 	c #5E4730",
"q[ 	c #5A412C",
"r[ 	c #9D4C40",
"s[ 	c #B3534A",
"t[ 	c #E1615E",
"u[ 	c #F15958",
"v[ 	c #EA5E5C",
"w[ 	c #EF6467",
"x[ 	c #E86263",
"y[ 	c #EE5F5F",
"z[ 	c #E66062",
"A[ 	c #EC6161",
"B[ 	c #E4605F",
"C[ 	c #EA6260",
"D[ 	c #EF6869",
"E[ 	c #E86668",
"F[ 	c #EC6263",
"G[ 	c #E35D5B",
"H[ 	c #E1504F",
"I[ 	c #DC5454",
"J[ 	c #E55B5D",
"K[ 	c #DF5F62",
"L[ 	c #E95E5F",
"M[ 	c #EF676C",
"N[ 	c #E8696D",
"O[ 	c #ED696B",
"P[ 	c #E65F62",
"Q[ 	c #EC686B",
"R[ 	c #E46265",
"S[ 	c #EA6567",
"T[ 	c #E2696D",
"U[ 	c #E87075",
"V[ 	c #EE6D6F",
"W[ 	c #E66F72",
"X[ 	c #EC7679",
"Y[ 	c #E56D6F",
"Z[ 	c #EB6D70",
"`[ 	c #E36569",
" } 	c #E16465",
".} 	c #E7696C",
"+} 	c #ED686B",
"@} 	c #E5686D",
"#} 	c #EB6E74",
"$} 	c #E36E74",
"%} 	c #EA7479",
"&} 	c #E16C71",
"*} 	c #E86E75",
"=} 	c #E06C72",
"-} 	c #E67276",
";} 	c #EC787B",
">} 	c #E47C7E",
",} 	c #EA787B",
"'} 	c #E2777C",
")} 	c #E97579",
"!} 	c #E07277",
"~} 	c #DE696D",
"{} 	c #E56D70",
"]} 	c #EB7074",
"^} 	c #E97378",
"/} 	c #E7757A",
"(} 	c #DF757A",
"_} 	c #E67C7F",
":} 	c #DD7A7B",
"<} 	c #E48484",
"[} 	c #EA7E7F",
"}} 	c #E27F80",
"|} 	c #E8787A",
"1} 	c #E66E71",
"2} 	c #DE6668",
"3} 	c #DB6D72",
"4} 	c #E26F75",
"5} 	c #E97278",
"6} 	c #E77176",
"7} 	c #DE6B71",
"8} 	c #DC6B70",
"9} 	c #E37074",
"0} 	c #E16F75",
"a} 	c #E77479",
"b} 	c #E47076",
"c} 	c #DB696F",
"d} 	c #E16B71",
"e} 	c #E66367",
"f} 	c #DD5F64",
"g} 	c #E36264",
"h} 	c #DB6567",
"i} 	c #E36D71",
"j} 	c #DC6E72",
"k} 	c #E36F73",
"l} 	c #D56C6E",
"m} 	c #DF6F71",
"n} 	c #D16B6A",
"o} 	c #C8605F",
"p} 	c #B35F60",
"q} 	c #9A585A",
"r} 	c #845555",
"s} 	c #7D5050",
"t} 	c #695F4E",
"u} 	c #807054",
"v} 	c #A8956D",
"w} 	c #9F8B60",
"x} 	c #A79361",
"y} 	c #7F6F47",
"z} 	c #54472D",
"A} 	c #4B4029",
"B} 	c #645536",
"C} 	c #84754C",
"D} 	c #897C5E",
"E} 	c #706241",
"F} 	c #71603E",
"G} 	c #726140",
"H} 	c #766441",
"I} 	c #716245",
"J} 	c #766749",
"K} 	c #746447",
"L} 	c #7A6A48",
"M} 	c #82704B",
"N} 	c #7F6D49",
"O} 	c #77664B",
"P} 	c #7C6B4D",
"Q} 	c #82704F",
"R} 	c #81704F",
"S} 	c #857351",
"T} 	c #857353",
"U} 	c #8D795A",
"V} 	c #897755",
"W} 	c #76613F",
"X} 	c #705839",
"Y} 	c #5E452E",
"Z} 	c #65402F",
"`} 	c #AA534B",
" | 	c #E55550",
".| 	c #EA6160",
"+| 	c #EF5B59",
"@| 	c #E85D5D",
"#| 	c #EE6261",
"$| 	c #E76565",
"%| 	c #EC5F5C",
"&| 	c #E56565",
"*| 	c #EB6767",
"=| 	c #F06A6A",
"-| 	c #E96464",
";| 	c #E76265",
">| 	c #ED6568",
",| 	c #E45D5F",
"'| 	c #E05759",
")| 	c #D04948",
"!| 	c #D44B49",
"~| 	c #DC514F",
"{| 	c #DF5051",
"]| 	c #EA5B5E",
"^| 	c #E66469",
"/| 	c #EC6A6D",
"(| 	c #E46366",
"_| 	c #EA6E71",
":| 	c #E26A6E",
"<| 	c #E86D71",
"[| 	c #EE6F71",
"}| 	c #E76C70",
"|| 	c #ED6B70",
"1| 	c #E56B70",
"2| 	c #EB6E72",
"3| 	c #E96970",
"4| 	c #E1666C",
"5| 	c #E86A70",
"6| 	c #ED7278",
"7| 	c #E66A6D",
"8| 	c #EC6D72",
"9| 	c #E46D73",
"0| 	c #EA6D70",
"a| 	c #E26D74",
"b| 	c #E87279",
"c| 	c #E06E74",
"d| 	c #E66D73",
"e| 	c #EC747B",
"f| 	c #E46569",
"g| 	c #EB7073",
"h| 	c #E37275",
"i| 	c #E9777C",
"j| 	c #E77275",
"k| 	c #DF6B6F",
"l| 	c #E5686A",
"m| 	c #EB6A6C",
"n| 	c #E36B6E",
"o| 	c #E97275",
"p| 	c #E16E72",
"q| 	c #EC7C7D",
"r| 	c #E47878",
"s| 	c #EA7B7A",
"t| 	c #E2787A",
"u| 	c #E8777A",
"v| 	c #E07A7B",
"w| 	c #E78083",
"x| 	c #DE7577",
"y| 	c #E56F71",
"z| 	c #EB7175",
"A| 	c #E37075",
"B| 	c #E97277",
"C| 	c #E16A6E",
"D| 	c #E76F72",
"E| 	c #DF6B6E",
"F| 	c #E56D71",
"G| 	c #DD696B",
"H| 	c #E27177",
"I| 	c #E07076",
"J| 	c #E67379",
"K| 	c #DD6E74",
"L| 	c #DB6B71",
"M| 	c #E87076",
"N| 	c #E0696F",
"O| 	c #E76C6F",
"P| 	c #DE5D61",
"Q| 	c #E45B5D",
"R| 	c #DA575A",
"S| 	c #E05F61",
"T| 	c #D65F63",
"U| 	c #DD6568",
"V| 	c #E77074",
"W| 	c #DD6F72",
"X| 	c #E27176",
"Y| 	c #DA6B6F",
"Z| 	c #D36B6E",
"`| 	c #CC6566",
" 1 	c #C85F60",
".1 	c #BD605E",
"+1 	c #9A5959",
"@1 	c #7D5555",
"#1 	c #765050",
"$1 	c #6D6451",
"%1 	c #958465",
"&1 	c #B19D74",
"*1 	c #AD9A6B",
"=1 	c #A29465",
"-1 	c #70613F",
";1 	c #443925",
">1 	c #3E3420",
",1 	c #483E27",
"'1 	c #7C7047",
")1 	c #8C7F5B",
"!1 	c #897A5A",
"~1 	c #76674B",
"{1 	c #6C5D3A",
"]1 	c #76633E",
"^1 	c #72603F",
"/1 	c #776441",
"(1 	c #73633F",
"_1 	c #7A684B",
":1 	c #786749",
"<1 	c #7C6A4C",
"[1 	c #7B6947",
"}1 	c #79684C",
"|1 	c #746448",
"11 	c #786849",
"21 	c #83704B",
"31 	c #8B754E",
"41 	c #806D4F",
"51 	c #816D51",
"61 	c #7D6B4E",
"71 	c #897753",
"81 	c #604D33",
"91 	c #5D4730",
"01 	c #A8473C",
"a1 	c #EC5F5F",
"b1 	c #E55E5D",
"c1 	c #EE5B5C",
"d1 	c #E5605F",
"e1 	c #EB6868",
"f1 	c #F06664",
"g1 	c #E96566",
"h1 	c #EF6462",
"i1 	c #E85E5B",
"j1 	c #ED6366",
"k1 	c #E66061",
"l1 	c #EC696B",
"m1 	c #E45F61",
"n1 	c #EA6062",
"o1 	c #EE6367",
"p1 	c #E35B61",
"q1 	c #E35B5D",
"r1 	c #E05E61",
"s1 	c #EB6B70",
"t1 	c #E56A6D",
"u1 	c #EB6C70",
"v1 	c #EE7073",
"w1 	c #E76A6F",
"x1 	c #ED686C",
"y1 	c #E56669",
"z1 	c #EB696F",
"A1 	c #E26568",
"B1 	c #E9686D",
"C1 	c #DD5758",
"D1 	c #E3575A",
"E1 	c #ED5C5F",
"F1 	c #E6595D",
"G1 	c #EC6165",
"H1 	c #E46369",
"I1 	c #EA6A70",
"J1 	c #E2666C",
"K1 	c #E96C71",
"L1 	c #EE7178",
"M1 	c #E76F76",
"N1 	c #EC7277",
"O1 	c #E56C6F",
"P1 	c #EB7276",
"Q1 	c #E36E71",
"R1 	c #E7696D",
"S1 	c #ED6E72",
"T1 	c #E66567",
"U1 	c #E46768",
"V1 	c #EA7174",
"W1 	c #E27476",
"X1 	c #E87779",
"Y1 	c #E07779",
"Z1 	c #E67A7D",
"`1 	c #EC807E",
" 2 	c #E47C7B",
".2 	c #EA7C7C",
"+2 	c #E27879",
"@2 	c #E9787B",
"#2 	c #E07477",
"$2 	c #DE6F73",
"%2 	c #E5787B",
"&2 	c #EB7578",
"*2 	c #E37377",
"=2 	c #E97073",
"-2 	c #E7747A",
";2 	c #DD7278",
">2 	c #E47B7E",
",2 	c #EA797D",
"'2 	c #E87578",
")2 	c #E66F76",
"!2 	c #DE6F75",
"~2 	c #DC6F74",
"{2 	c #E37278",
"]2 	c #E97076",
"^2 	c #E06D73",
"/2 	c #E76F74",
"(2 	c #DE6A6F",
"_2 	c #E56E72",
":2 	c #DC686E",
"<2 	c #E36C70",
"[2 	c #DA666B",
"}2 	c #E16A6F",
"|2 	c #E86F75",
"12 	c #DF6C71",
"22 	c #DD6E73",
"32 	c #D96A6E",
"42 	c #DE6F74",
"52 	c #E07175",
"62 	c #D96B6C",
"72 	c #D26B6D",
"82 	c #CD6567",
"92 	c #BF5F60",
"02 	c #A85959",
"a2 	c #AA5856",
"b2 	c #905757",
"c2 	c #694E4E",
"d2 	c #736954",
"e2 	c #9F8E69",
"f2 	c #BAA87C",
"g2 	c #B4A270",
"h2 	c #918054",
"i2 	c #5A5034",
"j2 	c #3F3621",
"k2 	c #3B321F",
"l2 	c #463B26",
"m2 	c #827148",
"n2 	c #8B7C53",
"o2 	c #85785B",
"p2 	c #736444",
"q2 	c #726141",
"r2 	c #706040",
"s2 	c #786748",
"t2 	c #756648",
"u2 	c #79684B",
"v2 	c #786746",
"w2 	c #776546",
"x2 	c #726046",
"y2 	c #76644A",
"z2 	c #7C6A4B",
"A2 	c #7E6C4D",
"B2 	c #7A684A",
"C2 	c #7D694C",
"D2 	c #7B674D",
"E2 	c #887654",
"F2 	c #86734E",
"G2 	c #58432C",
"H2 	c #5B462E",
"I2 	c #654D35",
"J2 	c #624731",
"K2 	c #A7463C",
"L2 	c #EE5754",
"M2 	c #E75D5D",
"N2 	c #ED5756",
"O2 	c #E55957",
"P2 	c #EB6262",
"Q2 	c #F06867",
"R2 	c #EA6665",
"S2 	c #EF6A6B",
"T2 	c #E8686A",
"U2 	c #EE6366",
"V2 	c #E6666A",
"W2 	c #EC6467",
"X2 	c #E45F62",
"Y2 	c #EA6263",
"Z2 	c #EF6468",
"`2 	c #E85C5E",
" 3 	c #E76366",
".3 	c #EC676C",
"+3 	c #E56667",
"@3 	c #E36B6D",
"#3 	c #E96E70",
"$3 	c #EF7274",
"%3 	c #E76B6F",
"&3 	c #ED6C70",
"*3 	c #E66366",
"=3 	c #E46164",
"-3 	c #EA696C",
";3 	c #EF6D73",
">3 	c #E86368",
",3 	c #EA575A",
"'3 	c #E25252",
")3 	c #E55050",
"!3 	c #E15253",
"~3 	c #EA5959",
"{3 	c #E3595C",
"]3 	c #E96468",
"^3 	c #EE6F74",
"/3 	c #E76E73",
"(3 	c #E56D72",
"_3 	c #EB6C71",
":3 	c #E36A6E",
"<3 	c #E96B70",
"[3 	c #ED6D71",
"}3 	c #E66A6E",
"|3 	c #EC6F72",
"13 	c #E46C70",
"23 	c #E26C70",
"33 	c #E07171",
"43 	c #E77474",
"53 	c #EC7776",
"63 	c #E57473",
"73 	c #EB7776",
"83 	c #E97675",
"93 	c #E17174",
"03 	c #EB787E",
"a3 	c #E3747A",
"b3 	c #EA7375",
"c3 	c #E27074",
"d3 	c #E06F73",
"e3 	c #E66C70",
"f3 	c #EA8184",
"g3 	c #E27B80",
"h3 	c #E87E83",
"i3 	c #E77679",
"j3 	c #E37076",
"k3 	c #E9767D",
"l3 	c #E76E74",
"m3 	c #DF6C72",
"n3 	c #E56F74",
"o3 	c #DD666C",
"p3 	c #E36E73",
"q3 	c #DA696E",
"r3 	c #E26D73",
"s3 	c #E87177",
"t3 	c #E47378",
"u3 	c #DB6D73",
"v3 	c #E27076",
"w3 	c #D96A6F",
"x3 	c #E77077",
"y3 	c #DE6C72",
"z3 	c #E56F76",
"A3 	c #DB6B70",
"B3 	c #E26E75",
"C3 	c #D9696E",
"D3 	c #DF6D73",
"E3 	c #D8696D",
"F3 	c #DF6F73",
"G3 	c #D26A6C",
"H3 	c #E46C6E",
"I3 	c #CF6162",
"J3 	c #B26062",
"K3 	c #A85C5C",
"L3 	c #A95B5B",
"M3 	c #7B5656",
"N3 	c #735050",
"O3 	c #7E7158",
"P3 	c #AC9B75",
"Q3 	c #B4A278",
"R3 	c #BDAA77",
"S3 	c #8A7C54",
"T3 	c #4F442A",
"U3 	c #433924",
"V3 	c #392F1E",
"W3 	c #453925",
"X3 	c #6F6142",
"Y3 	c #8E7D5C",
"Z3 	c #887C63",
"`3 	c #726449",
" 4 	c #6C5B3B",
".4 	c #706146",
"+4 	c #776642",
"@4 	c #736346",
"#4 	c #796846",
"$4 	c #746347",
"%4 	c #786747",
"&4 	c #726245",
"*4 	c #736347",
"=4 	c #746247",
"-4 	c #79684A",
";4 	c #786649",
">4 	c #776547",
",4 	c #7C694D",
"'4 	c #79664B",
")4 	c #85714E",
"!4 	c #84734F",
"~4 	c #5A462F",
"{4 	c #5C422D",
"]4 	c #634933",
"^4 	c #7A563F",
"/4 	c #A7473D",
"(4 	c #D95A57",
"_4 	c #E65C5E",
":4 	c #EB5F60",
"<4 	c #F16163",
"[4 	c #EA5A59",
"}4 	c #EF605D",
"|4 	c #E85C59",
"14 	c #EE5B58",
"24 	c #E65E5F",
"34 	c #EC6060",
"44 	c #E56567",
"54 	c #EB6161",
"64 	c #F0696C",
"74 	c #E96264",
"84 	c #EE6468",
"94 	c #E76567",
"04 	c #ED6466",
"a4 	c #E56466",
"b4 	c #EB696D",
"c4 	c #F06E6F",
"d4 	c #E96A6C",
"e4 	c #EF6C6F",
"f4 	c #E7696B",
"g4 	c #E5676C",
"h4 	c #EB6469",
"i4 	c #E36166",
"j4 	c #EA646B",
"k4 	c #EF6C71",
"l4 	c #E86A6F",
"m4 	c #EE6C71",
"n4 	c #E7676D",
"o4 	c #EC676D",
"p4 	c #E55E60",
"q4 	c #EA6164",
"r4 	c #E36469",
"s4 	c #E8666A",
"t4 	c #EF7175",
"u4 	c #E76D73",
"v4 	c #ED7176",
"w4 	c #E66D72",
"x4 	c #EB6F75",
"y4 	c #E46B70",
"z4 	c #EA6E73",
"A4 	c #E2676B",
"B4 	c #E86B6F",
"C4 	c #ED6F76",
"D4 	c #EC7278",
"E4 	c #E4696C",
"F4 	c #E27375",
"G4 	c #E9797A",
"H4 	c #E07273",
"I4 	c #E77575",
"J4 	c #ED7676",
"K4 	c #E57373",
"L4 	c #EB7778",
"M4 	c #E37375",
"N4 	c #E97271",
"O4 	c #E17275",
"P4 	c #DF6C6F",
"Q4 	c #E67176",
"R4 	c #EB7579",
"S4 	c #EA757A",
"T4 	c #E8757B",
"U4 	c #E67075",
"V4 	c #DE6D70",
"W4 	c #E5767A",
"X4 	c #EA7C80",
"Y4 	c #E2797D",
"Z4 	c #E98084",
"`4 	c #E07578",
" 5 	c #E7777A",
".5 	c #DC6B6E",
"+5 	c #E37477",
"@5 	c #E16E73",
"#5 	c #E87176",
"$5 	c #E66F75",
"%5 	c #E46F75",
"&5 	c #EA6E74",
"*5 	c #E07077",
"=5 	c #DC6C72",
"-5 	c #E36E75",
";5 	c #E97177",
">5 	c #E16C72",
",5 	c #DC6D73",
"'5 	c #E37077",
")5 	c #DA6D72",
"!5 	c #E17076",
"~5 	c #DE6D74",
"{5 	c #E36B71",
"]5 	c #D76265",
"^5 	c #DB6E75",
"/5 	c #D96B6F",
"(5 	c #E07074",
"_5 	c #D36A6D",
":5 	c #B46163",
"<5 	c #B15E5F",
"[5 	c #975655",
"}5 	c #A55657",
"|5 	c #734C4B",
"15 	c #6A4E4E",
"25 	c #87795C",
"35 	c #BAA67D",
"45 	c #B09D6F",
"55 	c #AB996A",
"65 	c #7A6A44",
"75 	c #463D26",
"85 	c #423823",
"95 	c #4B4027",
"05 	c #4B3F28",
"a5 	c #675A3D",
"b5 	c #8A7E61",
"c5 	c #85785E",
"d5 	c #756749",
"e5 	c #746341",
"f5 	c #706144",
"g5 	c #776543",
"h5 	c #756440",
"i5 	c #776645",
"j5 	c #736245",
"k5 	c #766548",
"l5 	c #726246",
"m5 	c #756448",
"n5 	c #756449",
"o5 	c #716246",
"p5 	c #756447",
"q5 	c #796845",
"r5 	c #746343",
"s5 	c #756347",
"t5 	c #7B684A",
"u5 	c #7B684B",
"v5 	c #857153",
"w5 	c #816E4A",
"x5 	c #705C3E",
"y5 	c #543F29",
"z5 	c #604931",
"A5 	c #61462F",
"B5 	c #66402E",
"C5 	c #AE4C43",
"D5 	c #E65754",
"E5 	c #F15D5C",
"F5 	c #EA5755",
"G5 	c #EF5A58",
"H5 	c #E8605F",
"I5 	c #EE6664",
"J5 	c #E76665",
"K5 	c #EC6261",
"L5 	c #F16164",
"M5 	c #EB5F63",
"N5 	c #F06262",
"O5 	c #E95B5C",
"P5 	c #EF6667",
"Q5 	c #E76063",
"R5 	c #ED676A",
"S5 	c #E56264",
"T5 	c #F1696C",
"U5 	c #EA6768",
"V5 	c #E8686B",
"W5 	c #EE6B6D",
"X5 	c #E56366",
"Y5 	c #EA6568",
"Z5 	c #E15C5F",
"`5 	c #E15455",
" 6 	c #E5575B",
".6 	c #EB5E63",
"+6 	c #E76066",
"@6 	c #ED6A71",
"#6 	c #E96A6D",
"$6 	c #EF6F75",
"%6 	c #E86F73",
"&6 	c #ED7277",
"*6 	c #EC7177",
"=6 	c #E46B71",
"-6 	c #EA6E72",
";6 	c #E2686D",
">6 	c #E8696E",
",6 	c #EE6E75",
"'6 	c #E66C71",
")6 	c #EC7076",
"!6 	c #EB6567",
"~6 	c #E36767",
"{6 	c #E17274",
"]6 	c #E76D6E",
"^6 	c #ED7575",
"/6 	c #E57172",
"(6 	c #EB7375",
"_6 	c #E37172",
":6 	c #EA7578",
"<6 	c #DF7175",
"[6 	c #E47276",
"}6 	c #E77D81",
"|6 	c #E36B6F",
"16 	c #E96F72",
"26 	c #DF7073",
"36 	c #E57679",
"46 	c #EB7A7E",
"56 	c #E37479",
"66 	c #EA7275",
"76 	c #E2686B",
"86 	c #E06A6F",
"96 	c #E46E72",
"06 	c #EA7073",
"a6 	c #E86B6D",
"b6 	c #E06C70",
"c6 	c #DE7075",
"d6 	c #DC696E",
"e6 	c #E36D75",
"f6 	c #E96F75",
"g6 	c #E1656A",
"h6 	c #DF6B72",
"i6 	c #E67177",
"j6 	c #E47077",
"k6 	c #DB6C73",
"l6 	c #E17378",
"m6 	c #E8777D",
"n6 	c #DF7076",
"o6 	c #E6747A",
"p6 	c #E3676C",
"q6 	c #D76368",
"r6 	c #DE646A",
"s6 	c #E07075",
"t6 	c #E77278",
"u6 	c #DE6B6F",
"v6 	c #DA696C",
"w6 	c #D7696C",
"x6 	c #D06A6B",
"y6 	c #C76568",
"z6 	c #B36163",
"A6 	c #985859",
"B6 	c #865454",
"C6 	c #724C4C",
"D6 	c #694F4F",
"E6 	c #6B6153",
"F6 	c #91815F",
"G6 	c #B9A97E",
"H6 	c #BCA97A",
"I6 	c #AD9C6B",
"J6 	c #6D5E3D",
"K6 	c #443B24",
"L6 	c #403522",
"M6 	c #453926",
"N6 	c #51442D",
"O6 	c #726448",
"P6 	c #8B7E60",
"Q6 	c #8F8269",
"R6 	c #786847",
"S6 	c #756543",
"T6 	c #776542",
"U6 	c #746240",
"V6 	c #776749",
"W6 	c #756446",
"X6 	c #766444",
"Y6 	c #706045",
"Z6 	c #716045",
"`6 	c #746346",
" 7 	c #736246",
".7 	c #897857",
"+7 	c #695637",
"@7 	c #56402B",
"#7 	c #583E2A",
"$7 	c #774231",
"%7 	c #B84C46",
"&7 	c #EB5250",
"*7 	c #F05350",
"=7 	c #E95150",
"-7 	c #EE514B",
";7 	c #E75B58",
">7 	c #ED615F",
",7 	c #F26B69",
"'7 	c #EB6362",
")7 	c #F06365",
"!7 	c #E95F62",
"~7 	c #EF5F61",
"{7 	c #E86061",
"]7 	c #ED6163",
"^7 	c #E66163",
"/7 	c #EC6366",
"(7 	c #F16566",
"_7 	c #EA5E5E",
":7 	c #EF6363",
"<7 	c #E86A6B",
"[7 	c #E6676A",
"}7 	c #EC696D",
"|7 	c #E56469",
"17 	c #EB6367",
"27 	c #E25256",
"37 	c #E55354",
"47 	c #D74A4A",
"57 	c #E25253",
"67 	c #E15355",
"77 	c #E3686E",
"87 	c #EA6B70",
"97 	c #EF6E73",
"07 	c #E86569",
"a7 	c #E66B6F",
"b7 	c #EC6E72",
"c7 	c #E46669",
"d7 	c #EA6467",
"e7 	c #E26A70",
"f7 	c #E9696F",
"g7 	c #EE6D71",
"h7 	c #E7686F",
"i7 	c #ED6F75",
"j7 	c #E56C72",
"k7 	c #EB6F74",
"l7 	c #E96C72",
"m7 	c #E1676C",
"n7 	c #ED777A",
"o7 	c #E67475",
"p7 	c #EC7478",
"q7 	c #EA7276",
"r7 	c #E87276",
"s7 	c #E46D71",
"t7 	c #EA6C70",
"u7 	c #E06569",
"v7 	c #E76A6E",
"w7 	c #ED6F73",
"x7 	c #E57174",
"y7 	c #EB7577",
"z7 	c #E36567",
"A7 	c #E97175",
"B7 	c #E87A7F",
"C7 	c #DF757B",
"D7 	c #E6787C",
"E7 	c #EC7B7F",
"F7 	c #E26769",
"G7 	c #E87175",
"H7 	c #E6797D",
"I7 	c #DE7679",
"J7 	c #EB7A7F",
"K7 	c #E3757A",
"L7 	c #E97D81",
"M7 	c #E1797C",
"N7 	c #E7797C",
"O7 	c #E5747A",
"P7 	c #E96C73",
"Q7 	c #E16A70",
"R7 	c #E86D74",
"S7 	c #DF6970",
"T7 	c #E66B71",
"U7 	c #DD6B72",
"V7 	c #DB6C71",
"W7 	c #E27279",
"X7 	c #E8777C",
"Y7 	c #E07379",
"Z7 	c #E6777B",
"`7 	c #E46F76",
" 8 	c #DC6468",
".8 	c #D85D60",
"+8 	c #DF7178",
"@8 	c #E5757C",
"#8 	c #DF6E74",
"$8 	c #E57177",
"%8 	c #E36D72",
"&8 	c #DA686E",
"*8 	c #D8686C",
"=8 	c #DF6D72",
"-8 	c #DD6B71",
";8 	c #E47275",
">8 	c #DB6E72",
",8 	c #D76A6C",
"'8 	c #D1696B",
")8 	c #CA6667",
"!8 	c #C86567",
"~8 	c #995859",
"{8 	c #7F5353",
"]8 	c #6D6454",
"^8 	c #A1906A",
"/8 	c #BAA87E",
"(8 	c #BCAA7B",
"_8 	c #9C8B5F",
":8 	c #605234",
"<8 	c #473C26",
"[8 	c #483D27",
"}8 	c #5A4C31",
"|8 	c #635638",
"18 	c #877857",
"28 	c #87795E",
"38 	c #8A7C5F",
"48 	c #7F7154",
"58 	c #7A6849",
"68 	c #726444",
"78 	c #736348",
"88 	c #736447",
"98 	c #776748",
"08 	c #705F45",
"a8 	c #766447",
"b8 	c #726145",
"c8 	c #736244",
"d8 	c #776548",
"e8 	c #776447",
"f8 	c #83724B",
"g8 	c #5A462D",
"h8 	c #5B442D",
"i8 	c #5C412C",
"j8 	c #763E2F",
"k8 	c #B74D45",
"l8 	c #E95251",
"m8 	c #EF5C5C",
"n8 	c #E75453",
"o8 	c #ED5E5F",
"p8 	c #F25D5D",
"q8 	c #EB6360",
"r8 	c #F06564",
"s8 	c #EA6060",
"t8 	c #EE5C5E",
"u8 	c #E75C60",
"v8 	c #EE5D5D",
"w8 	c #E65B5D",
"x8 	c #EC5E60",
"y8 	c #F16366",
"z8 	c #EA6265",
"A8 	c #F0696A",
"B8 	c #E56367",
"C8 	c #EB666A",
"D8 	c #F0666B",
"E8 	c #E9676A",
"F8 	c #EF6669",
"G8 	c #E86268",
"H8 	c #ED6369",
"I8 	c #E05657",
"J8 	c #E25354",
"K8 	c #DF5557",
"L8 	c #E86266",
"M8 	c #EE696D",
"N8 	c #E7676C",
"O8 	c #EE676B",
"P8 	c #E6686D",
"Q8 	c #EC6C70",
"R8 	c #E5686E",
"S8 	c #E36266",
"T8 	c #E96267",
"U8 	c #EE6164",
"V8 	c #E7656A",
"W8 	c #ED6E74",
"X8 	c #E3696F",
"Y8 	c #E96E74",
"Z8 	c #EF7176",
"`8 	c #E86B70",
" 9 	c #ED6F74",
".9 	c #E66A6C",
"+9 	c #EC6D70",
"@9 	c #E26E73",
"#9 	c #EE767A",
"$9 	c #E77276",
"%9 	c #EC797E",
"&9 	c #E3696D",
"*9 	c #ED7377",
"=9 	c #EB767A",
"-9 	c #E46F72",
";9 	c #EA696B",
">9 	c #E27070",
",9 	c #E46E70",
"'9 	c #EA7075",
")9 	c #E27479",
"!9 	c #E86F74",
"~9 	c #E06A6E",
"{9 	c #E76B6E",
"]9 	c #EB777C",
"^9 	c #E9777B",
"/9 	c #E1787D",
"(9 	c #E77E80",
"_9 	c #DF7F81",
":9 	c #DD7378",
"<9 	c #E36C72",
"[9 	c #EA7177",
"}9 	c #E26C71",
"|9 	c #E86C72",
"19 	c #E06B71",
"29 	c #DE676D",
"39 	c #E27378",
"49 	c #E7777C",
"59 	c #DE7177",
"69 	c #E3686D",
"79 	c #DA6970",
"89 	c #E7737A",
"99 	c #DD6C72",
"09 	c #E46F74",
"a9 	c #E26C72",
"b9 	c #D9686E",
"c9 	c #E67077",
"d9 	c #E46E73",
"e9 	c #DB6A70",
"f9 	c #E26F73",
"g9 	c #E77277",
"h9 	c #DA6C6F",
"i9 	c #D2696C",
"j9 	c #CC6668",
"k9 	c #C06365",
"l9 	c #B55E5F",
"m9 	c #7D5556",
"n9 	c #745050",
"o9 	c #6A4F4F",
"p9 	c #978664",
"q9 	c #B6A57C",
"r9 	c #443A24",
"s9 	c #423825",
"t9 	c #52452D",
"u9 	c #6E6142",
"v9 	c #8B7E5E",
"w9 	c #86785E",
"x9 	c #8D7E63",
"y9 	c #8C7B55",
"z9 	c #887959",
"A9 	c #786643",
"B9 	c #7D6A46",
"C9 	c #746244",
"D9 	c #706046",
"E9 	c #6F5F45",
"F9 	c #746246",
"G9 	c #826D4A",
"H9 	c #52402A",
"I9 	c #56412B",
"J9 	c #58432E",
"K9 	c #5D442E",
"L9 	c #673D2B",
"M9 	c #B64A43",
"N9 	c #E84B4A",
"O9 	c #ED504E",
"P9 	c #F25655",
"Q9 	c #EB5B5A",
"R9 	c #F15F5E",
"S9 	c #EF6362",
"T9 	c #E86060",
"U9 	c #ED5B5B",
"V9 	c #E65B5E",
"W9 	c #EA5B5A",
"X9 	c #EE6163",
"Y9 	c #E65A5C",
"Z9 	c #EE6063",
"`9 	c #E95D5D",
" 0 	c #EE6263",
".0 	c #ED6566",
"+0 	c #F16869",
"@0 	c #F06769",
"#0 	c #EA5F64",
"$0 	c #EF6769",
"%0 	c #E86466",
"&0 	c #ED6667",
"*0 	c #EB6267",
"=0 	c #F1686C",
"-0 	c #E96469",
";0 	c #EF686B",
">0 	c #E86265",
",0 	c #EE686B",
"'0 	c #EA676C",
")0 	c #F0696F",
"!0 	c #E9666A",
"~0 	c #EF676B",
"{0 	c #ED6A70",
"]0 	c #EB6A6F",
"^0 	c #E46A6F",
"/0 	c #EA6D72",
"(0 	c #EF6D70",
"_0 	c #E86C70",
":0 	c #EA6C6F",
"<0 	c #E26C6D",
"[0 	c #EE7779",
"}0 	c #ED7274",
"|0 	c #EB6F71",
"10 	c #E36769",
"20 	c #E96769",
"30 	c #E1666A",
"40 	c #ED7579",
"50 	c #EC7479",
"60 	c #E26264",
"70 	c #E86869",
"80 	c #E3686C",
"90 	c #E97479",
"00 	c #E0757A",
"a0 	c #E77B80",
"b0 	c #E57A7C",
"c0 	c #E97377",
"d0 	c #DD6C6F",
"e0 	c #EA7377",
"f0 	c #E26B6F",
"g0 	c #E86E72",
"h0 	c #E67278",
"i0 	c #DE6E74",
"j0 	c #DC6B6F",
"k0 	c #E36B70",
"l0 	c #E17277",
"m0 	c #E57479",
"n0 	c #DD6F75",
"o0 	c #E37177",
"p0 	c #E16A71",
"q0 	c #E86C74",
"r0 	c #DF757C",
"s0 	c #E6777E",
"t0 	c #DD6D74",
"u0 	c #DB656B",
"v0 	c #E87077",
"w0 	c #E06D74",
"x0 	c #E67178",
"y0 	c #DE6C73",
"z0 	c #E57077",
"A0 	c #DC6D72",
"B0 	c #D96D73",
"C0 	c #E17379",
"D0 	c #DE7378",
"E0 	c #E5767B",
"F0 	c #DC7277",
"G0 	c #DA6F74",
"H0 	c #D86E72",
"I0 	c #E37274",
"J0 	c #DA6B6E",
"K0 	c #BA6162",
"L0 	c #B06060",
"M0 	c #A95A5B",
"N0 	c #735051",
"O0 	c #7F7258",
"P0 	c #AF9F75",
"Q0 	c #BAAA7D",
"R0 	c #8E7E55",
"S0 	c #4C422A",
"T0 	c #403623",
"U0 	c #645437",
"V0 	c #6A5D3C",
"W0 	c #857858",
"X0 	c #86795E",
"Y0 	c #8A7D5F",
"Z0 	c #938362",
"`0 	c #8C7E5C",
" a 	c #817250",
".a 	c #7C6947",
"+a 	c #756547",
"@a 	c #726344",
"#a 	c #766547",
"$a 	c #705F44",
"%a 	c #6E5E44",
"&a 	c #746348",
"*a 	c #7D6B4D",
"=a 	c #826B49",
"-a 	c #755F3E",
";a 	c #4E3926",
">a 	c #523E28",
",a 	c #58422A",
"'a 	c #573D29",
")a 	c #823F32",
"!a 	c #B54840",
"~a 	c #EC5859",
"{a 	c #F15957",
"]a 	c #EF5651",
"^a 	c #E85550",
"/a 	c #EE5856",
"(a 	c #F35C5B",
"_a 	c #EC5E5F",
":a 	c #F15E60",
"<a 	c #E95A5B",
"[a 	c #EA6163",
"}a 	c #DB595C",
"|a 	c #E96266",
"1a 	c #E75E5F",
"2a 	c #ED5F5F",
"3a 	c #F26969",
"4a 	c #EC6768",
"5a 	c #F06869",
"6a 	c #E96262",
"7a 	c #EE666A",
"8a 	c #E46367",
"9a 	c #ED676C",
"0a 	c #EC676A",
"aa 	c #F1676A",
"ba 	c #E96063",
"ca 	c #EE676C",
"da 	c #E96367",
"ea 	c #E66667",
"fa 	c #EC6869",
"ga 	c #E26465",
"ha 	c #E8676A",
"ia 	c #EC6569",
"ja 	c #E7676B",
"ka 	c #E8656A",
"la 	c #ED696C",
"ma 	c #E6666B",
"na 	c #E4666B",
"oa 	c #EA696F",
"pa 	c #EF6C72",
"qa 	c #EE6C70",
"ra 	c #EC6465",
"sa 	c #EB6667",
"ta 	c #E36768",
"ua 	c #E96F6E",
"va 	c #EE7474",
"wa 	c #E7706F",
"xa 	c #E56D6D",
"ya 	c #EB7275",
"za 	c #E66D74",
"Aa 	c #EB7178",
"Ba 	c #E86970",
"Ca 	c #E76F75",
"Da 	c #EC757B",
"Ea 	c #E56F75",
"Fa 	c #EB7479",
"Ga 	c #E16B6F",
"Ha 	c #E76B73",
"Ia 	c #DF7277",
"Ja 	c #EB7679",
"Ka 	c #E27174",
"La 	c #E87678",
"Ma 	c #EA737A",
"Na 	c #E06B6F",
"Oa 	c #EB7378",
"Pa 	c #E97A7F",
"Qa 	c #E17175",
"Ra 	c #DF6E70",
"Sa 	c #DC7173",
"Ta 	c #E77880",
"Ua 	c #E2787F",
"Va 	c #E8767D",
"Wa 	c #E0777E",
"Xa 	c #E46C71",
"Ya 	c #DB6A71",
"Za 	c #E26E74",
"`a 	c #E97179",
" b 	c #E76E75",
".b 	c #DE696E",
"+b 	c #DC686D",
"@b 	c #DA6A6D",
"#b 	c #DF6C6E",
"$b 	c #DD7075",
"%b 	c #DB6C6F",
"&b 	c #E27072",
"*b 	c #D8696B",
"=b 	c #E07176",
"-b 	c #DE6D72",
";b 	c #E47073",
">b 	c #DB686A",
",b 	c #E26C6F",
"'b 	c #D76C6F",
")b 	c #DE6F72",
"!b 	c #D2686B",
"~b 	c #E36D6F",
"{b 	c #B56062",
"]b 	c #B16061",
"^b 	c #985758",
"/b 	c #8D5454",
"(b 	c #744E4E",
"_b 	c #755151",
":b 	c #6B4F50",
"<b 	c #6B6354",
"[b 	c #9F8D69",
"}b 	c #B3A27B",
"|b 	c #B2A173",
"1b 	c #5D4F33",
"2b 	c #463C26",
"3b 	c #403723",
"4b 	c #5E5337",
"5b 	c #6D6144",
"6b 	c #857759",
"7b 	c #8B7E63",
"8b 	c #8A7D62",
"9b 	c #907F5B",
"0b 	c #94835C",
"ab 	c #877656",
"bb 	c #736547",
"cb 	c #7C6946",
"db 	c #706247",
"eb 	c #78684C",
"fb 	c #8A7959",
"gb 	c #817151",
"hb 	c #7C6C4E",
"ib 	c #827154",
"jb 	c #7B6A4D",
"kb 	c #746444",
"lb 	c #836F50",
"mb 	c #7E6B49",
"nb 	c #685337",
"ob 	c #4A3523",
"pb 	c #4A3723",
"qb 	c #59432D",
"rb 	c #573E2A",
"sb 	c #703F2F",
"tb 	c #B44942",
"ub 	c #EE5453",
"vb 	c #EB5657",
"wb 	c #F05452",
"xb 	c #E95757",
"yb 	c #F35E5D",
"zb 	c #ED5A59",
"Ab 	c #F25F5E",
"Bb 	c #EB5B5C",
"Cb 	c #F05E5F",
"Db 	c #E96062",
"Eb 	c #D5575A",
"Fb 	c #DF5C5D",
"Gb 	c #F15F61",
"Hb 	c #EC5E5E",
"Ib 	c #F16362",
"Jb 	c #EA6464",
"Kb 	c #F06766",
"Lb 	c #E86161",
"Mb 	c #EB6061",
"Nb 	c #DC5658",
"Ob 	c #E25E63",
"Pb 	c #F0686C",
"Qb 	c #EA6569",
"Rb 	c #EF6469",
"Sb 	c #E76165",
"Tb 	c #EE6668",
"Ub 	c #ED6769",
"Vb 	c #E56566",
"Wb 	c #EC6B6C",
"Xb 	c #EC696C",
"Yb 	c #E46468",
"Zb 	c #EA666A",
"`b 	c #E46266",
" c 	c #EA656A",
".c 	c #F0676D",
"+c 	c #EE686C",
"@c 	c #E76568",
"#c 	c #ED686A",
"$c 	c #E36A6A",
"%c 	c #E96D6B",
"&c 	c #EF726E",
"*c 	c #E76E6C",
"=c 	c #ED6D6B",
"-c 	c #E46364",
";c 	c #EA6666",
">c 	c #E26567",
",c 	c #E86465",
"'c 	c #EE6A6F",
")c 	c #E6676D",
"!c 	c #EC7075",
"~c 	c #E06970",
"{c 	c #E4676C",
"]c 	c #DF6166",
"^c 	c #EC6971",
"/c 	c #E46870",
"(c 	c #EB6E75",
"_c 	c #E36A72",
":c 	c #E96D75",
"<c 	c #E86E73",
"[c 	c #DF6569",
"}c 	c #EC757A",
"|c 	c #E87378",
"1c 	c #E07073",
"2c 	c #EC777D",
"3c 	c #EB767C",
"4c 	c #E9767C",
"5c 	c #E7797D",
"6c 	c #DF7A7D",
"7c 	c #E57C7F",
"8c 	c #EB8083",
"9c 	c #E37B7F",
"0c 	c #E97F82",
"ac 	c #E1797E",
"bc 	c #E87F82",
"cc 	c #DF777B",
"dc 	c #DD7679",
"ec 	c #E37F84",
"fc 	c #E87E82",
"gc 	c #DB636C",
"hc 	c #DD737D",
"ic 	c #E57F87",
"jc 	c #E9737A",
"kc 	c #DD7177",
"lc 	c #DA7478",
"mc 	c #E87E81",
"nc 	c #E67E81",
"oc 	c #DD7377",
"pc 	c #E27A7F",
"qc 	c #D9767A",
"rc 	c #E07B7F",
"sc 	c #E67B7F",
"tc 	c #DE777A",
"uc 	c #DC767A",
"vc 	c #E37A7E",
"wc 	c #DA777B",
"xc 	c #E1777B",
"yc 	c #D76B70",
"zc 	c #DF7379",
"Ac 	c #E37678",
"Bc 	c #DA7174",
"Cc 	c #D86F72",
"Dc 	c #DF7375",
"Ec 	c #D46B6E",
"Fc 	c #DB6D70",
"Gc 	c #E37073",
"Hc 	c #C76567",
"Ic 	c #B26162",
"Jc 	c #9A5859",
"Kc 	c #855454",
"Lc 	c #7C4F4F",
"Mc 	c #755050",
"Nc 	c #907F5F",
"Oc 	c #B09F77",
"Pc 	c #B6A57A",
"Qc 	c #7F6F4B",
"Rc 	c #4C4129",
"Sc 	c #423824",
"Tc 	c #5B4E32",
"Uc 	c #817452",
"Vc 	c #86785B",
"Wc 	c #887B61",
"Xc 	c #90815F",
"Yc 	c #8D7F5E",
"Zc 	c #867757",
"`c 	c #806D48",
" d 	c #76664A",
".d 	c #77684A",
"+d 	c #7E6E4E",
"@d 	c #92805C",
"#d 	c #9E8B5F",
"$d 	c #8B7B5A",
"%d 	c #7A694D",
"&d 	c #715F44",
"*d 	c #766348",
"=d 	c #726144",
"-d 	c #7B694A",
";d 	c #7B6745",
">d 	c #57452B",
",d 	c #4D3A26",
"'d 	c #473321",
")d 	c #513B26",
"!d 	c #5E452F",
"~d 	c #7F4234",
"{d 	c #B34943",
"]d 	c #F05552",
"^d 	c #E94D4C",
"/d 	c #EF5352",
"(d 	c #F3514E",
"_d 	c #ED5250",
":d 	c #F25855",
"<d 	c #F15D5E",
"[d 	c #EA5756",
"}d 	c #EF5B5B",
"|d 	c #E85858",
"1d 	c #ED585A",
"2d 	c #EA5A5C",
"3d 	c #E15555",
"4d 	c #ED5B5D",
"5d 	c #EA5E5F",
"6d 	c #F06362",
"7d 	c #E95D5B",
"8d 	c #ED6160",
"9d 	c #E65D5D",
"0d 	c #EB6163",
"ad 	c #E55F62",
"bd 	c #D14F51",
"cd 	c #DD5E64",
"dd 	c #DD6168",
"ed 	c #E8686F",
"fd 	c #E25F62",
"gd 	c #EB6569",
"hd 	c #E66263",
"id 	c #EB6669",
"jd 	c #F06666",
"kd 	c #E96666",
"ld 	c #E36263",
"md 	c #EC6A68",
"nd 	c #E46767",
"od 	c #CF5A5C",
"pd 	c #DE5F66",
"qd 	c #EB656B",
"rd 	c #E86367",
"sd 	c #E76467",
"td 	c #ED6869",
"ud 	c #EB6261",
"vd 	c #E46260",
"wd 	c #EA6A67",
"xd 	c #EF716E",
"yd 	c #E86D6B",
"zd 	c #EE6F6D",
"Ad 	c #E66B68",
"Bd 	c #E46469",
"Cd 	c #EA6A6F",
"Dd 	c #F06E73",
"Ed 	c #EE6E73",
"Fd 	c #EC6E73",
"Gd 	c #E56A70",
"Hd 	c #EB6C73",
"Id 	c #E3676E",
"Jd 	c #EC6B73",
"Kd 	c #E4676E",
"Ld 	c #E86972",
"Md 	c #E26169",
"Nd 	c #E6656F",
"Od 	c #DD5F67",
"Pd 	c #E46066",
"Qd 	c #DF6065",
"Rd 	c #E7686E",
"Sd 	c #EE6D75",
"Td 	c #E66468",
"Ud 	c #E1696B",
"Vd 	c #EC737A",
"Wd 	c #EB777D",
"Xd 	c #E9757C",
"Yd 	c #EC7B7D",
"Zd 	c #E47979",
"`d 	c #EA7A7D",
" e 	c #E2767A",
".e 	c #DE7176",
"+e 	c #E4757A",
"@e 	c #EA7F83",
"#e 	c #DB6569",
"$e 	c #DB666A",
"%e 	c #D55E62",
"&e 	c #E1676A",
"*e 	c #E97578",
"=e 	c #E66F73",
"-e 	c #DD6A6D",
";e 	c #E47173",
">e 	c #E8787C",
",e 	c #E07479",
"'e 	c #E67A7F",
")e 	c #E4797F",
"!e 	c #DC757A",
"~e 	c #E2777D",
"{e 	c #D97175",
"]e 	c #E77C82",
"^e 	c #DE777D",
"/e 	c #E57B80",
"(e 	c #DC787C",
"_e 	c #E37C7F",
":e 	c #DA7879",
"<e 	c #E17D81",
"[e 	c #D8787B",
"}e 	c #E67D82",
"|e 	c #E4757B",
"1e 	c #DB7176",
"2e 	c #D87175",
"3e 	c #DD6D73",
"4e 	c #E46F73",
"5e 	c #D96F72",
"6e 	c #D66D70",
"7e 	c #D06B6D",
"8e 	c #D86F71",
"9e 	c #C56567",
"0e 	c #B35D5D",
"ae 	c #8F5959",
"be 	c #694C4C",
"ce 	c #765151",
"de 	c #706754",
"ee 	c #A4916A",
"fe 	c #AA9A71",
"ge 	c #A39269",
"he 	c #574C30",
"ie 	c #493F29",
"je 	c #52472F",
"ke 	c #786A47",
"le 	c #85795C",
"me 	c #86795D",
"ne 	c #847657",
"oe 	c #998965",
"pe 	c #8F7E5D",
"qe 	c #7E6F4E",
"re 	c #806D46",
"se 	c #948360",
"te 	c #9B8B6A",
"ue 	c #9D8D69",
"ve 	c #9A8A67",
"we 	c #988765",
"xe 	c #79694B",
"ye 	c #786445",
"ze 	c #716146",
"Ae 	c #756247",
"Be 	c #705E44",
"Ce 	c #796746",
"De 	c #7B6746",
"Ee 	c #4D3B25",
"Fe 	c #4A3724",
"Ge 	c #483322",
"He 	c #59412C",
"Ie 	c #5C432C",
"Je 	c #6C4632",
"Ke 	c #BE4B47",
"Le 	c #EF514E",
"Me 	c #F45856",
"Ne 	c #ED4D4B",
"Oe 	c #F25A5B",
"Pe 	c #EC5352",
"Qe 	c #F15554",
"Re 	c #EA5655",
"Se 	c #EF5250",
"Te 	c #E85351",
"Ue 	c #EE5B5B",
"Ve 	c #F35B5A",
"We 	c #EB595A",
"Xe 	c #F0595A",
"Ye 	c #E85C5D",
"Ze 	c #EF5B5D",
"`e 	c #E95959",
" f 	c #EF6160",
".f 	c #E75D5C",
"+f 	c #ED6362",
"@f 	c #F16465",
"#f 	c #EB5D60",
"$f 	c #D05454",
"%f 	c #CA4A4C",
"&f 	c #CC4D51",
"*f 	c #D4585D",
"=f 	c #E85F61",
"-f 	c #F06969",
";f 	c #E96567",
">f 	c #E16667",
",f 	c #EA6B69",
"'f 	c #E06564",
")f 	c #D66365",
"!f 	c #CD5D5E",
"~f 	c #D45A5D",
"{f 	c #EA6466",
"]f 	c #E76466",
"^f 	c #E66365",
"/f 	c #EA6B68",
"(f 	c #EF6F6D",
"_f 	c #E86C69",
":f 	c #E66461",
"<f 	c #F0676C",
"[f 	c #E96568",
"}f 	c #ED6C71",
"|f 	c #E5696D",
"1f 	c #ED6C72",
"2f 	c #E6686E",
"3f 	c #EC6A70",
"4f 	c #E3636A",
"5f 	c #E3585C",
"6f 	c #DA5358",
"7f 	c #E15B62",
"8f 	c #E8666D",
"9f 	c #E5686F",
"0f 	c #EC6D73",
"af 	c #E56E73",
"bf 	c #E96C70",
"cf 	c #E16162",
"df 	c #E76769",
"ef 	c #ED6A6D",
"ff 	c #E5696C",
"gf 	c #E6757A",
"hf 	c #EC7A7D",
"if 	c #EA797C",
"jf 	c #E27173",
"kf 	c #E57074",
"lf 	c #DF686D",
"mf 	c #E06568",
"nf 	c #EA777A",
"of 	c #E2777B",
"pf 	c #E8777B",
"qf 	c #E66E74",
"rf 	c #DD7175",
"sf 	c #E4767B",
"tf 	c #DB6E70",
"uf 	c #E2797B",
"vf 	c #E87B7E",
"wf 	c #DE7479",
"xf 	c #E5787E",
"yf 	c #DC747A",
"zf 	c #E3787E",
"Af 	c #DA7278",
"Bf 	c #E1767B",
"Cf 	c #E77B7F",
"Df 	c #E57D81",
"Ef 	c #DC787D",
"Ff 	c #E3787D",
"Gf 	c #DA7378",
"Hf 	c #E17C7F",
"If 	c #E67576",
"Jf 	c #DD6E72",
"Kf 	c #E46E71",
"Lf 	c #D96E74",
"Mf 	c #E07178",
"Nf 	c #D96B70",
"Of 	c #D76D72",
"Pf 	c #DF7278",
"Qf 	c #E5777A",
"Rf 	c #E3777B",
"Sf 	c #DA7275",
"Tf 	c #D76B6E",
"Uf 	c #D16769",
"Vf 	c #CA6262",
"Wf 	c #C66567",
"Xf 	c #B36060",
"Yf 	c #A8585A",
"Zf 	c #7C5455",
"`f 	c #7D5151",
" g 	c #92815F",
".g 	c #AC9B73",
"+g 	c #AF9E72",
"@g 	c #5C4E31",
"#g 	c #5E5237",
"$g 	c #7B6F51",
"%g 	c #8B806A",
"&g 	c #84775D",
"*g 	c #92845D",
"=g 	c #988965",
"-g 	c #90805F",
";g 	c #8B7A54",
">g 	c #7F6E4E",
",g 	c #887858",
"'g 	c #938361",
")g 	c #968766",
"!g 	c #928160",
"~g 	c #9B8A63",
"{g 	c #9E8B6A",
"]g 	c #998966",
"^g 	c #8D7E5F",
"/g 	c #726146",
"(g 	c #766448",
"_g 	c #79654A",
":g 	c #7C6747",
"<g 	c #726040",
"[g 	c #4B3824",
"}g 	c #463320",
"|g 	c #44301F",
"1g 	c #533E28",
"2g 	c #543926",
"3g 	c #8C3F33",
"4g 	c #C5463E",
"5g 	c #EE4D4B",
"6g 	c #F24C48",
"7g 	c #EC4B48",
"8g 	c #F15754",
"9g 	c #F05859",
"0g 	c #E95555",
"ag 	c #EE5555",
"bg 	c #F3595B",
"cg 	c #ED5C5E",
"dg 	c #EB5453",
"eg 	c #F05453",
"fg 	c #EF504D",
"gg 	c #E85556",
"hg 	c #ED5A58",
"ig 	c #F25E5E",
"jg 	c #F06363",
"kg 	c #E95859",
"lg 	c #EC5D60",
"mg 	c #D55353",
"ng 	c #CB514F",
"og 	c #D0504E",
"pg 	c #D15658",
"qg 	c #E86162",
"rg 	c #EF6969",
"sg 	c #E85B59",
"tg 	c #ED6162",
"ug 	c #E45E5E",
"vg 	c #E16163",
"wg 	c #EC6665",
"xg 	c #E96969",
"yg 	c #CC6366",
"zg 	c #CA5F63",
"Ag 	c #D55758",
"Bg 	c #EC6669",
"Cg 	c #E66466",
"Dg 	c #F1686A",
"Eg 	c #F06361",
"Fg 	c #E86562",
"Gg 	c #EE6C6B",
"Hg 	c #EA676A",
"Ig 	c #EF6A6F",
"Jg 	c #EE6B6F",
"Kg 	c #E7686B",
"Lg 	c #ED6A6E",
"Mg 	c #E56769",
"Ng 	c #E46769",
"Og 	c #EA6A6E",
"Pg 	c #EF6364",
"Qg 	c #E86567",
"Rg 	c #EE6C6C",
"Sg 	c #E66769",
"Tg 	c #EC6F71",
"Ug 	c #E46467",
"Vg 	c #EA6A71",
"Wg 	c #E36167",
"Xg 	c #E75F64",
"Yg 	c #EC585B",
"Zg 	c #EC6C72",
"`g 	c #E96F74",
" h 	c #E1696F",
".h 	c #E76B72",
"+h 	c #ED6B72",
"@h 	c #E6696D",
"#h 	c #EC6D71",
"$h 	c #E47175",
"%h 	c #EA747B",
"&h 	c #E06669",
"*h 	c #EC757C",
"=h 	c #E47479",
"-h 	c #E2757A",
";h 	c #DE6365",
">h 	c #EB6D71",
",h 	c #E77578",
"'h 	c #DD7479",
")h 	c #E4747B",
"!h 	c #E0686C",
"~h 	c #E47074",
"{h 	c #EA7070",
"]h 	c #E27679",
"^h 	c #E97B7F",
"/h 	c #DE7578",
"(h 	c #DC7376",
"_h 	c #E97B80",
":h 	c #E77A7F",
"<h 	c #E6787E",
"[h 	c #DD6B6E",
"}h 	c #DB7277",
"|h 	c #E87A80",
"1h 	c #E0767C",
"2h 	c #DB7075",
"3h 	c #E27779",
"4h 	c #D9696C",
"5h 	c #E77379",
"6h 	c #DE6E73",
"7h 	c #DC6C6F",
"8h 	c #D86A6F",
"9h 	c #DB6D6F",
"0h 	c #E27C80",
"ah 	c #D86C6F",
"bh 	c #D6696B",
"ch 	c #DE7275",
"dh 	c #DB7175",
"eh 	c #E27578",
"fh 	c #D86E71",
"gh 	c #E0696A",
"hh 	c #CB6060",
"ih 	c #B76060",
"jh 	c #A75A5B",
"kh 	c #9B5859",
"lh 	c #7E5455",
"mh 	c #7A5151",
"nh 	c #7B6F56",
"oh 	c #A18D67",
"ph 	c #A7956C",
"qh 	c #908057",
"rh 	c #5A4E33",
"sh 	c #5C5035",
"th 	c #5B4E34",
"uh 	c #706343",
"vh 	c #807559",
"wh 	c #7F765F",
"xh 	c #827457",
"yh 	c #968768",
"zh 	c #958562",
"Ah 	c #968562",
"Bh 	c #94825E",
"Ch 	c #9D8B68",
"Dh 	c #8D7D5C",
"Eh 	c #8D7D5D",
"Fh 	c #97886B",
"Gh 	c #998A69",
"Hh 	c #928161",
"Ih 	c #817153",
"Jh 	c #7B694C",
"Kh 	c #766443",
"Lh 	c #635135",
"Mh 	c #463521",
"Nh 	c #45301F",
"Oh 	c #422E1F",
"Ph 	c #513926",
"Qh 	c #573C28",
"Rh 	c #7E3D2D",
"Sh 	c #CE4C47",
"Th 	c #E4504F",
"Uh 	c #F15352",
"Vh 	c #EB4A48",
"Wh 	c #E94F4A",
"Xh 	c #EE5755",
"Yh 	c #F35453",
"Zh 	c #ED514F",
"`h 	c #F2595A",
" i 	c #EB5A5B",
".i 	c #F05758",
"+i 	c #EA5555",
"@i 	c #EF5D5C",
"#i 	c #F4595B",
"$i 	c #ED5755",
"%i 	c #F25F5F",
"&i 	c #EC5B5B",
"*i 	c #F15B5B",
"=i 	c #EA5E5D",
"-i 	c #F05D5D",
";i 	c #E95B5B",
">i 	c #EE5C60",
",i 	c #D95B5E",
"'i 	c #DC5A5C",
")i 	c #D6585B",
"!i 	c #EE6867",
"~i 	c #EB6361",
"{i 	c #DE6264",
"]i 	c #E86666",
"^i 	c #E76464",
"/i 	c #E06566",
"(i 	c #CA6063",
"_i 	c #D26064",
":i 	c #DE6164",
"<i 	c #EC6162",
"[i 	c #F16969",
"}i 	c #EA6262",
"|i 	c #E96362",
"1i 	c #EE6463",
"2i 	c #E7625F",
"3i 	c #ED6464",
"4i 	c #E55E5E",
"5i 	c #EA6061",
"6i 	c #E86365",
"7i 	c #E66568",
"8i 	c #E56468",
"9i 	c #EC676B",
"0i 	c #EA6669",
"ai 	c #EF696B",
"bi 	c #EE696A",
"ci 	c #E66464",
"di 	c #EC6D6D",
"ei 	c #E56665",
"fi 	c #EB6869",
"gi 	c #EE676D",
"hi 	c #EB6B71",
"ii 	c #E36A6F",
"ji 	c #E1686F",
"ki 	c #ED6E75",
"li 	c #EC6E74",
"mi 	c #E4686D",
"ni 	c #E26A6B",
"oi 	c #E0666A",
"pi 	c #EC6769",
"qi 	c #EB777E",
"ri 	c #E17177",
"si 	c #E7767C",
"ti 	c #ED747A",
"ui 	c #E56B6E",
"vi 	c #E06A70",
"wi 	c #DE7072",
"xi 	c #EB7C7F",
"yi 	c #E97F80",
"zi 	c #E1797A",
"Ai 	c #E77D7F",
"Bi 	c #E5787A",
"Ci 	c #DD7275",
"Di 	c #E8787D",
"Ei 	c #E6787D",
"Fi 	c #E4787D",
"Gi 	c #DB6F73",
"Hi 	c #E8797E",
"Ii 	c #E6777A",
"Ji 	c #DE757A",
"Ki 	c #DA797C",
"Li 	c #E17B7E",
"Mi 	c #E7787C",
"Ni 	c #DF6B70",
"Oi 	c #E57279",
"Pi 	c #E37176",
"Qi 	c #DA6C71",
"Ri 	c #D86C71",
"Si 	c #E6757B",
"Ti 	c #DD7277",
"Ui 	c #E4767C",
"Vi 	c #DB7177",
"Wi 	c #D96F73",
"Xi 	c #D76F71",
"Yi 	c #D97075",
"Zi 	c #D77074",
"`i 	c #D56F72",
" j 	c #DB7173",
".j 	c #D36C6E",
"+j 	c #C46568",
"@j 	c #B05E5E",
"#j 	c #975758",
"$j 	c #955657",
"%j 	c #8F7B59",
"&j 	c #A7946D",
"*j 	c #9F8F66",
"=j 	c #655738",
"-j 	c #5A4F36",
";j 	c #63563A",
">j 	c #5C4F33",
",j 	c #7C6F51",
"'j 	c #7E7155",
")j 	c #7B6E52",
"!j 	c #89795B",
"~j 	c #8F7F5C",
"{j 	c #92825F",
"]j 	c #9C8961",
"^j 	c #9E8D66",
"/j 	c #9F8E68",
"(j 	c #958463",
"_j 	c #887757",
":j 	c #8F7F5D",
"<j 	c #857556",
"[j 	c #87785D",
"}j 	c #716145",
"|j 	c #716047",
"1j 	c #7A6A4D",
"2j 	c #796647",
"3j 	c #59462E",
"4j 	c #4A3622",
"5j 	c #453220",
"6j 	c #4C3522",
"7j 	c #5F432E",
"8j 	c #8A3D30",
"9j 	c #CC4843",
"0j 	c #EB5150",
"aj 	c #F05352",
"bj 	c #F54E4B",
"cj 	c #EF5554",
"dj 	c #F35856",
"ej 	c #ED5453",
"fj 	c #F25956",
"gj 	c #EC5454",
"hj 	c #F15555",
"ij 	c #E95658",
"jj 	c #EF5758",
"kj 	c #F45757",
"lj 	c #EE504D",
"mj 	c #F35755",
"nj 	c #EC5758",
"oj 	c #F15D5B",
"pj 	c #EB5A59",
"qj 	c #F05D5B",
"rj 	c #E95656",
"sj 	c #EE5D5C",
"tj 	c #F36263",
"uj 	c #ED6060",
"vj 	c #F25D5E",
"wj 	c #EB6465",
"xj 	c #E35F62",
"yj 	c #EE5F60",
"zj 	c #E76160",
"Aj 	c #EC6764",
"Bj 	c #F16A68",
"Cj 	c #EA6462",
"Dj 	c #D96163",
"Ej 	c #E36364",
"Fj 	c #E26262",
"Gj 	c #D86566",
"Hj 	c #C95E62",
"Ij 	c #DB6165",
"Jj 	c #EF6163",
"Kj 	c #EB6264",
"Lj 	c #F06566",
"Mj 	c #E95F60",
"Nj 	c #EE6565",
"Oj 	c #E7605F",
"Pj 	c #ED6260",
"Qj 	c #E5605E",
"Rj 	c #EB6263",
"Sj 	c #F16568",
"Tj 	c #E96265",
"Uj 	c #E56262",
"Vj 	c #EA6465",
"Wj 	c #E16063",
"Xj 	c #DA646A",
"Yj 	c #CF6064",
"Zj 	c #DC656B",
"`j 	c #EA676D",
" k 	c #E86467",
".k 	c #EE6669",
"+k 	c #E76364",
"@k 	c #E56365",
"#k 	c #EB6668",
"$k 	c #E86064",
"%k 	c #ED6468",
"&k 	c #EC6B70",
"*k 	c #EE6D72",
"=k 	c #E6696E",
"-k 	c #E36A70",
";k 	c #E96D72",
">k 	c #EE6F75",
",k 	c #E76A72",
"'k 	c #ED6D74",
")k 	c #E56A71",
"!k 	c #E9747B",
"~k 	c #ED777C",
"{k 	c #EC767B",
"]k 	c #E47578",
"^k 	c #EA757B",
"/k 	c #E0696C",
"(k 	c #E76D71",
"_k 	c #EB757B",
":k 	c #DF7274",
"<k 	c #E4747A",
"[k 	c #EA787E",
"}k 	c #E27379",
"|k 	c #DE7276",
"1k 	c #DC7374",
"2k 	c #E97A7C",
"3k 	c #DF7378",
"4k 	c #E57879",
"5k 	c #E3787A",
"6k 	c #DA7476",
"7k 	c #E17D7F",
"8k 	c #E78184",
"9k 	c #DF7A7E",
"0k 	c #DD686B",
"ak 	c #E47279",
"bk 	c #DB6E73",
"ck 	c #E27278",
"dk 	c #E07378",
"ek 	c #E6777D",
"fk 	c #E4777D",
"gk 	c #DB7377",
"hk 	c #DC7075",
"ik 	c #D86A6E",
"jk 	c #E57072",
"kk 	c #DD6E71",
"lk 	c #E17072",
"mk 	c #D86A6C",
"nk 	c #D66B6E",
"ok 	c #DD7274",
"pk 	c #E47475",
"qk 	c #DA6F72",
"rk 	c #E17173",
"sk 	c #C56568",
"tk 	c #B06161",
"uk 	c #985658",
"vk 	c #945758",
"wk 	c #6D4D4D",
"xk 	c #76684F",
"yk 	c #9E8861",
"zk 	c #A19269",
"Ak 	c #82744F",
"Bk 	c #5F5338",
"Ck 	c #685C3D",
"Dk 	c #6D6142",
"Ek 	c #7C6E55",
"Fk 	c #7E7157",
"Gk 	c #918262",
"Hk 	c #928362",
"Ik 	c #998960",
"Jk 	c #9C8B66",
"Kk 	c #988764",
"Lk 	c #8D7C56",
"Mk 	c #938261",
"Nk 	c #8E7E5F",
"Ok 	c #8E7F5E",
"Pk 	c #796B4E",
"Qk 	c #716347",
"Rk 	c #6B5B42",
"Sk 	c #6D5D43",
"Tk 	c #6F5D43",
"Uk 	c #786545",
"Vk 	c #7D6A45",
"Wk 	c #4F3D26",
"Xk 	c #473422",
"Yk 	c #432F1D",
"Zk 	c #45311E",
"`k 	c #4A3322",
" l 	c #5B3E2A",
".l 	c #6A4431",
"+l 	c #CB4B46",
"@l 	c #F55251",
"#l 	c #EF4D4B",
"$l 	c #F44C49",
"%l 	c #ED4F4E",
"&l 	c #F24D49",
"*l 	c #EB4F4C",
"=l 	c #F0524F",
"-l 	c #E9514E",
";l 	c #EC5A5A",
">l 	c #ED5759",
",l 	c #EA5455",
"'l 	c #F35757",
")l 	c #EC5555",
"!l 	c #EB5756",
"~l 	c #F05C5B",
"{l 	c #E95754",
"]l 	c #EF5C5A",
"^l 	c #F35F5E",
"/l 	c #ED5959",
"(l 	c #F25D5C",
"_l 	c #EB5A5A",
":l 	c #EA5C5C",
"<l 	c #EF6464",
"[l 	c #EE6060",
"}l 	c #F26967",
"|l 	c #EB6865",
"1l 	c #F06965",
"2l 	c #E96463",
"3l 	c #EA6363",
"4l 	c #D55B5E",
"5l 	c #DF6567",
"6l 	c #D66062",
"7l 	c #DC6366",
"8l 	c #E66063",
"9l 	c #F06364",
"0l 	c #EF6262",
"al 	c #E85F5E",
"bl 	c #E65F5D",
"cl 	c #EC615F",
"dl 	c #F16361",
"el 	c #EA6161",
"fl 	c #EF6466",
"gl 	c #E76163",
"hl 	c #EC6466",
"il 	c #E46162",
"jl 	c #D35D60",
"kl 	c #BE5557",
"ll 	c #C25B5D",
"ml 	c #CA5E64",
"nl 	c #E3676F",
"ol 	c #E56266",
"pl 	c #ED6567",
"ql 	c #EB676A",
"rl 	c #F0686D",
"sl 	c #E66A6B",
"tl 	c #EA6A6C",
"ul 	c #F06C70",
"vl 	c #E8686D",
"wl 	c #E7686D",
"xl 	c #E96D71",
"yl 	c #E76A71",
"zl 	c #ED6C73",
"Al 	c #E5696F",
"Bl 	c #EB6B72",
"Cl 	c #E4696F",
"Dl 	c #ED767A",
"El 	c #E66E72",
"Fl 	c #E3666A",
"Gl 	c #E16569",
"Hl 	c #DF6568",
"Il 	c #EB7E83",
"Jl 	c #E3797D",
"Kl 	c #EA7B80",
"Ll 	c #EA777C",
"Ml 	c #DC7174",
"Nl 	c #E37677",
"Ol 	c #E9787A",
"Pl 	c #E17575",
"Ql 	c #E77475",
"Rl 	c #DD7273",
"Sl 	c #E47576",
"Tl 	c #DA7072",
"Ul 	c #E17577",
"Vl 	c #E8797C",
"Wl 	c #E67F82",
"Xl 	c #DD6D6F",
"Yl 	c #DB6C70",
"Zl 	c #DE7278",
"`l 	c #E5767C",
" m 	c #DC7176",
".m 	c #E3757B",
"+m 	c #D97177",
"@m 	c #E1757A",
"#m 	c #E57F83",
"$m 	c #D87075",
"%m 	c #DD7478",
"&m 	c #DB7678",
"*m 	c #E27E82",
"=m 	c #D9777B",
"-m 	c #D67277",
";m 	c #D77274",
">m 	c #DE7174",
",m 	c #CB696B",
"'m 	c #DC6B6D",
")m 	c #DB6768",
"!m 	c #C66060",
"~m 	c #A45858",
"{m 	c #7B5454",
"]m 	c #764E4E",
"^m 	c #6B6150",
"/m 	c #8F7D59",
"(m 	c #A18C68",
"_m 	c #99875E",
":m 	c #6C5E3D",
"<m 	c #7E7051",
"[m 	c #7C6F54",
"}m 	c #78694F",
"|m 	c #8B7D64",
"1m 	c #928367",
"2m 	c #A09170",
"3m 	c #998864",
"4m 	c #9F8D66",
"5m 	c #9A8B69",
"6m 	c #9E8E71",
"7m 	c #968668",
"8m 	c #908062",
"9m 	c #8F7F5F",
"0m 	c #807156",
"am 	c #685940",
"bm 	c #6C5B42",
"cm 	c #736142",
"dm 	c #715E3D",
"em 	c #483824",
"fm 	c #443420",
"gm 	c #473421",
"hm 	c #4C3925",
"im 	c #554028",
"jm 	c #62462E",
"km 	c #994335",
"lm 	c #CA4741",
"mm 	c #F45251",
"nm 	c #F35250",
"om 	c #EC5151",
"pm 	c #F15353",
"qm 	c #EA5351",
"rm 	c #EF514F",
"sm 	c #EB514F",
"tm 	c #EB4F4E",
"um 	c #E85555",
"vm 	c #F25756",
"wm 	c #EB5555",
"xm 	c #F05757",
"ym 	c #E95958",
"zm 	c #EF5B58",
"Am 	c #F45957",
"Bm 	c #EC5653",
"Cm 	c #F15C5C",
"Dm 	c #F05E5E",
"Em 	c #E95657",
"Fm 	c #EF5B5C",
"Gm 	c #E85B5D",
"Hm 	c #EE5C5D",
"Im 	c #F36362",
"Jm 	c #F16B68",
"Km 	c #EA6866",
"Lm 	c #EE6764",
"Mm 	c #E7625E",
"Nm 	c #E96160",
"Om 	c #D35D5E",
"Pm 	c #DE6466",
"Qm 	c #D85F60",
"Rm 	c #E76060",
"Sm 	c #EF5F5F",
"Tm 	c #E85A5A",
"Um 	c #E65A5A",
"Vm 	c #EC605E",
"Wm 	c #F16261",
"Xm 	c #EA5F5D",
"Ym 	c #F05E5C",
"Zm 	c #E95858",
"`m 	c #ED6062",
" n 	c #E65F61",
".n 	c #EB6365",
"+n 	c #D16164",
"@n 	c #B45154",
"#n 	c #B9555D",
"$n 	c #C75D67",
"%n 	c #E86469",
"&n 	c #E56063",
"*n 	c #EC6568",
"=n 	c #EA5E60",
"-n 	c #EF6162",
";n 	c #E85E5E",
">n 	c #EE6361",
",n 	c #E66360",
"'n 	c #EC6864",
")n 	c #E46867",
"!n 	c #EA6A69",
"~n 	c #F06D6D",
"{n 	c #E96165",
"]n 	c #EE6A6D",
"^n 	c #ED6B6F",
"/n 	c #EB6C6F",
"(n 	c #E3686B",
"_n 	c #E96A6F",
":n 	c #EF6E72",
"<n 	c #E66166",
"[n 	c #E46061",
"}n 	c #E86C71",
"|n 	c #EE6B71",
"1n 	c #EC6A6E",
"2n 	c #E4676B",
"3n 	c #EA7378",
"4n 	c #E9757B",
"5n 	c #ED797F",
"6n 	c #E57076",
"7n 	c #E36C71",
"8n 	c #E86364",
"9n 	c #DF6062",
"0n 	c #E66669",
"an 	c #EB757C",
"bn 	c #E1747A",
"cn 	c #E9797E",
"dn 	c #E17578",
"en 	c #E67779",
"fn 	c #DD7272",
"gn 	c #E47C7C",
"hn 	c #EA7F7F",
"in 	c #E27B7C",
"jn 	c #E87E80",
"kn 	c #DE7379",
"ln 	c #E4767D",
"mn 	c #DB7076",
"nn 	c #E5737A",
"on 	c #DC7076",
"pn 	c #E36F76",
"qn 	c #DA6B71",
"rn 	c #E77375",
"sn 	c #E57274",
"tn 	c #E26D70",
"un 	c #D86D70",
"vn 	c #DE7376",
"wn 	c #E47C7F",
"xn 	c #DB787B",
"yn 	c #E27D81",
"zn 	c #D9777C",
"An 	c #E07C80",
"Bn 	c #D77579",
"Cn 	c #DC757B",
"Dn 	c #E37A7F",
"En 	c #DA7679",
"Fn 	c #D87375",
"Gn 	c #D56E72",
"Hn 	c #DD7475",
"In 	c #CC696B",
"Jn 	c #DD6B6C",
"Kn 	c #C86566",
"Ln 	c #CB6464",
"Mn 	c #B25C5C",
"Nn 	c #995252",
"On 	c #8E5555",
"Pn 	c #806E53",
"Qn 	c #947E5C",
"Rn 	c #7C6C49",
"Sn 	c #5B4F33",
"Tn 	c #584C33",
"Un 	c #807153",
"Vn 	c #847557",
"Wn 	c #78694D",
"Xn 	c #796B4C",
"Yn 	c #7B6D4F",
"Zn 	c #8C7C5B",
"`n 	c #9C8A65",
" o 	c #8A7854",
".o 	c #96886A",
"+o 	c #8F8162",
"@o 	c #918062",
"#o 	c #88795B",
"$o 	c #7A6D51",
"%o 	c #6D5D44",
"&o 	c #6A5C41",
"*o 	c #655437",
"=o 	c #493824",
"-o 	c #483622",
";o 	c #463420",
">o 	c #53412B",
",o 	c #57432C",
"'o 	c #563C27",
")o 	c #8F3F31",
"!o 	c #CF4D46",
"~o 	c #F3504C",
"{o 	c #EC4947",
"]o 	c #F14844",
"^o 	c #F05755",
"/o 	c #F55553",
"(o 	c #EF5452",
"_o 	c #F35857",
":o 	c #EA5352",
"<o 	c #EB5556",
"[o 	c #E74E4C",
"}o 	c #F15556",
"|o 	c #EA5353",
"1o 	c #EF5959",
"2o 	c #F45655",
"3o 	c #EE4F4D",
"4o 	c #F1504E",
"5o 	c #EB5654",
"6o 	c #F05957",
"7o 	c #E95452",
"8o 	c #EE5556",
"9o 	c #EF5A5B",
"0o 	c #EA5658",
"ao 	c #F1595B",
"bo 	c #ED5D5E",
"co 	c #F06563",
"do 	c #E96360",
"eo 	c #EE6560",
"fo 	c #F16764",
"go 	c #E8615F",
"ho 	c #E06061",
"io 	c #E06163",
"jo 	c #E56465",
"ko 	c #DC5D5E",
"lo 	c #EE5E5E",
"mo 	c #F36161",
"no 	c #EC5E5D",
"oo 	c #F16260",
"po 	c #EB605E",
"qo 	c #F06160",
"ro 	c #E95E5B",
"so 	c #EE605E",
"to 	c #EC5C5D",
"uo 	c #F16365",
"vo 	c #E96162",
"wo 	c #EE6464",
"xo 	c #E45F5F",
"yo 	c #D65C60",
"zo 	c #B25257",
"Ao 	c #B14F51",
"Bo 	c #BF5963",
"Co 	c #E4666E",
"Do 	c #F06266",
"Eo 	c #E76267",
"Fo 	c #EE6566",
"Go 	c #E66966",
"Ho 	c #EC6B66",
"Io 	c #E5625F",
"Jo 	c #EB625F",
"Ko 	c #EF605F",
"Lo 	c #E95D5C",
"Mo 	c #E76062",
"No 	c #ED6365",
"Oo 	c #E26768",
"Po 	c #E6686C",
"Qo 	c #E4676D",
"Ro 	c #EA686C",
"So 	c #E96F70",
"To 	c #E7686C",
"Uo 	c #ED6E73",
"Vo 	c #E5676B",
"Wo 	c #EB7174",
"Xo 	c #E96D73",
"Yo 	c #E16669",
"Zo 	c #E5686C",
"`o 	c #E66C6F",
" p 	c #EC6E71",
".p 	c #E77177",
"+p 	c #E56B6F",
"@p 	c #EB6D6F",
"#p 	c #EB7478",
"$p 	c #EA7F82",
"%p 	c #E17478",
"&p 	c #E87C7F",
"*p 	c #E07376",
"=p 	c #DC6D74",
"-p 	c #E1757B",
";p 	c #E56E71",
">p 	c #DA6E72",
",p 	c #E1767A",
"'p 	c #E87C81",
")p 	c #DF787D",
"!p 	c #DB7A7D",
"~p 	c #E27C81",
"{p 	c #D9777A",
"]p 	c #E07A7D",
"^p 	c #DE7D80",
"/p 	c #E57C7E",
"(p 	c #DC7477",
"_p 	c #DA7074",
":p 	c #D76E71",
"<p 	c #E57275",
"[p 	c #D8757A",
"}p 	c #DF7A7C",
"|p 	c #D67477",
"1p 	c #DB797B",
"2p 	c #D97678",
"3p 	c #D67276",
"4p 	c #DE7477",
"5p 	c #D47072",
"6p 	c #DB7578",
"7p 	c #E27A7C",
"8p 	c #DF777A",
"9p 	c #D57173",
"0p 	c #C96061",
"ap 	c #B66465",
"bp 	c #AE5D5D",
"cp 	c #995556",
"dp 	c #8E595A",
"ep 	c #6B5F4E",
"fp 	c #837054",
"gp 	c #927D5C",
"hp 	c #8A7A54",
"ip 	c #5D5135",
"jp 	c #5C4D32",
"kp 	c #574B31",
"lp 	c #605539",
"mp 	c #897D62",
"np 	c #7E6D4F",
"op 	c #82714F",
"pp 	c #9C8A67",
"qp 	c #7C7051",
"rp 	c #837455",
"sp 	c #8E7E61",
"tp 	c #8C7C5E",
"up 	c #897858",
"vp 	c #847558",
"wp 	c #73654B",
"xp 	c #6C5C43",
"yp 	c #625235",
"zp 	c #483923",
"Ap 	c #513E27",
"Bp 	c #54412B",
"Cp 	c #503924",
"Dp 	c #843D31",
"Ep 	c #D24B46",
"Fp 	c #F25352",
"Gp 	c #F6514E",
"Hp 	c #F04C49",
"Ip 	c #F5514F",
"Jp 	c #EF4D48",
"Kp 	c #F3514C",
"Lp 	c #F25554",
"Mp 	c #F35758",
"Np 	c #EF5756",
"Op 	c #F45656",
"Pp 	c #EE5253",
"Qp 	c #F35957",
"Rp 	c #EC5451",
"Sp 	c #EA5451",
"Tp 	c #EE5452",
"Up 	c #E85454",
"Vp 	c #E55454",
"Wp 	c #DB5657",
"Xp 	c #E65C5D",
"Yp 	c #E65658",
"Zp 	c #EC5F5E",
"`p 	c #E85A59",
" q 	c #EF6463",
".q 	c #F46966",
"+q 	c #ED6662",
"@q 	c #F16864",
"#q 	c #E86361",
"$q 	c #E45F5E",
"%q 	c #E15D5E",
"&q 	c #E15A5A",
"*q 	c #ED5E5E",
"=q 	c #F25C5C",
"-q 	c #EB5D5B",
";q 	c #F0615F",
">q 	c #E9615E",
",q 	c #EF6361",
"'q 	c #E85F5D",
")q 	c #F25E5D",
"!q 	c #EB5E5F",
"~q 	c #F06263",
"{q 	c #E35F61",
"]q 	c #D95F62",
"^q 	c #BF575C",
"/q 	c #BD5B60",
"(q 	c #C85B61",
"_q 	c #D56067",
":q 	c #DE5F65",
"<q 	c #DA595C",
"[q 	c #DF6469",
"}q 	c #E15B5C",
"|q 	c #ED6363",
"1q 	c #E46865",
"2q 	c #EA6764",
"3q 	c #ED6666",
"4q 	c #E55F60",
"5q 	c #EF6567",
"6q 	c #E86264",
"7q 	c #E66262",
"8q 	c #EB6666",
"9q 	c #E36262",
"0q 	c #E96161",
"aq 	c #E6605F",
"bq 	c #E8666B",
"cq 	c #E06369",
"dq 	c #E36064",
"eq 	c #E96466",
"fq 	c #EE7071",
"gq 	c #E7696A",
"hq 	c #ED7173",
"iq 	c #E3676B",
"jq 	c #EF7276",
"kq 	c #ED6D72",
"lq 	c #E6676B",
"mq 	c #EC696E",
"nq 	c #E46063",
"oq 	c #EA676B",
"pq 	c #E86D72",
"qq 	c #EE6E72",
"rq 	c #EC787E",
"sq 	c #EB747A",
"tq 	c #E06F74",
"uq 	c #ED757B",
"vq 	c #E57176",
"wq 	c #E27172",
"xq 	c #E07172",
"yq 	c #E47478",
"zq 	c #E97379",
"Aq 	c #DC6E73",
"Bq 	c #E3797E",
"Cq 	c #E77D83",
"Dq 	c #E6767C",
"Eq 	c #E47379",
"Fq 	c #DB6F74",
"Gq 	c #E87377",
"Hq 	c #DE6C6E",
"Iq 	c #E2797C",
"Jq 	c #D97377",
"Kq 	c #E77F81",
"Lq 	c #DE797E",
"Mq 	c #E58083",
"Nq 	c #E37A80",
"Oq 	c #DA6E74",
"Pq 	c #DA6D6F",
"Qq 	c #D87579",
"Rq 	c #DD787D",
"Sq 	c #E47E81",
"Tq 	c #DB787C",
"Uq 	c #E27C7F",
"Vq 	c #D97679",
"Wq 	c #D77476",
"Xq 	c #DE7A7C",
"Yq 	c #D57577",
"Zq 	c #DC797B",
"`q 	c #D97779",
" r 	c #D97677",
".r 	c #D87173",
"+r 	c #DE7375",
"@r 	c #C26568",
"#r 	c #AE6365",
"$r 	c #A25757",
"%r 	c #945354",
"&r 	c #734F50",
"*r 	c #796549",
"=r 	c #8F7351",
"-r 	c #8A7654",
";r 	c #695A3A",
">r 	c #534A2F",
",r 	c #4A4129",
"'r 	c #71664D",
")r 	c #857A61",
"!r 	c #7F6E4D",
"~r 	c #91805D",
"{r 	c #988664",
"]r 	c #867555",
"^r 	c #8F7C5C",
"/r 	c #8E7F61",
"(r 	c #867659",
"_r 	c #6E6048",
":r 	c #6F5E43",
"<r 	c #7C694C",
"[r 	c #6B593B",
"}r 	c #4B3A25",
"|r 	c #473623",
"1r 	c #483624",
"2r 	c #483522",
"3r 	c #54402A",
"4r 	c #513825",
"5r 	c #804137",
"6r 	c #D64E48",
"7r 	c #F04E4C",
"8r 	c #F55350",
"9r 	c #EF4E4B",
"0r 	c #F45653",
"ar 	c #F25757",
"br 	c #EC5251",
"cr 	c #F15251",
"dr 	c #F45252",
"er 	c #EE5352",
"fr 	c #ED5151",
"gr 	c #F25454",
"hr 	c #F05656",
"ir 	c #EE5958",
"jr 	c #F15756",
"kr 	c #E45352",
"lr 	c #DA5455",
"mr 	c #CF5658",
"nr 	c #D7595B",
"or 	c #D95657",
"pr 	c #DF5B5C",
"qr 	c #ED5D5C",
"rr 	c #F36461",
"sr 	c #F06964",
"tr 	c #E7615D",
"ur 	c #E65E5D",
"vr 	c #E35D5E",
"wr 	c #F16162",
"xr 	c #EB5D5D",
"yr 	c #F05C5C",
"zr 	c #EA5C5B",
"Ar 	c #EF5F5D",
"Br 	c #E85D5B",
"Cr 	c #ED6360",
"Dr 	c #F26361",
"Er 	c #EC5C5B",
"Fr 	c #E85B5B",
"Gr 	c #ED6161",
"Hr 	c #E4595A",
"Ir 	c #E25D60",
"Jr 	c #DA5E62",
"Kr 	c #CE5C60",
"Lr 	c #C75B60",
"Mr 	c #C35252",
"Nr 	c #D05458",
"Or 	c #C65055",
"Pr 	c #D35557",
"Qr 	c #DE5F60",
"Rr 	c #EB5C5C",
"Sr 	c #EF6765",
"Tr 	c #EA6561",
"Ur 	c #E15A5C",
"Vr 	c #E95D5E",
"Wr 	c #EC6462",
"Xr 	c #E46161",
"Yr 	c #E96261",
"Zr 	c #EF6767",
"`r 	c #E76365",
" s 	c #EB6364",
".s 	c #E46565",
"+s 	c #E86868",
"@s 	c #D56061",
"#s 	c #D46165",
"$s 	c #DB646B",
"%s 	c #ED6C6D",
"&s 	c #E56060",
"*s 	c #EB615F",
"=s 	c #EF6A6C",
"-s 	c #E86C6F",
";s 	c #EC6970",
">s 	c #EA6D71",
",s 	c #EE7477",
"'s 	c #E76F73",
")s 	c #EB7376",
"!s 	c #E96C6F",
"~s 	c #E16467",
"{s 	c #E77377",
"]s 	c #ED7479",
"^s 	c #E47177",
"/s 	c #E87277",
"(s 	c #DE6F70",
"_s 	c #EB7173",
":s 	c #E36B6B",
"<s 	c #E7757C",
"[s 	c #E5747B",
"}s 	c #DD7176",
"|s 	c #E47679",
"1s 	c #EA7C81",
"2s 	c #E2797F",
"3s 	c #E47579",
"4s 	c #DB6F72",
"5s 	c #E27579",
"6s 	c #DE7778",
"7s 	c #E57B7D",
"8s 	c #DC7678",
"9s 	c #DA7377",
"0s 	c #E1777C",
"as 	c #E77B7E",
"bs 	c #DC777D",
"cs 	c #E37078",
"ds 	c #DD767C",
"es 	c #E47A7E",
"fs 	c #DB787D",
"gs 	c #E07B7E",
"hs 	c #E68183",
"is 	c #E47D7F",
"js 	c #DC787A",
"ks 	c #D77478",
"ls 	c #DE797B",
"ms 	c #DC7679",
"ns 	c #D8696C",
"os 	c #D5686C",
"ps 	c #DB7275",
"qs 	c #E2777A",
"rs 	c #D97375",
"ss 	c #E0777B",
"ts 	c #D67476",
"us 	c #DE797C",
"vs 	c #D47377",
"ws 	c #D97171",
"xs 	c #B36263",
"ys 	c #AF6264",
"zs 	c #955959",
"As 	c #935857",
"Bs 	c #6C4D4E",
"Cs 	c #725050",
"Ds 	c #8A6C4B",
"Es 	c #866E4E",
"Fs 	c #7E6E4A",
"Gs 	c #554B30",
"Hs 	c #5D5137",
"Is 	c #564A32",
"Js 	c #625439",
"Ks 	c #7F7155",
"Ls 	c #796D51",
"Ms 	c #80704E",
"Ns 	c #857252",
"Os 	c #938263",
"Ps 	c #917E59",
"Qs 	c #847253",
"Rs 	c #8C7D60",
"Ss 	c #8B7A5B",
"Ts 	c #8D7B5D",
"Us 	c #8F8066",
"Vs 	c #8C7C61",
"Ws 	c #7F7055",
"Xs 	c #6E5E45",
"Ys 	c #715F45",
"Zs 	c #6E5D3F",
"`s 	c #504128",
" t 	c #43321F",
".t 	c #463322",
"+t 	c #523D27",
"@t 	c #553B27",
"#t 	c #873C2F",
"$t 	c #D54A44",
"%t 	c #EE4E4E",
"&t 	c #F44D4B",
"*t 	c #F35351",
"=t 	c #EC4D49",
"-t 	c #F65352",
";t 	c #F05150",
">t 	c #EE5454",
",t 	c #F35252",
"'t 	c #ED5150",
")t 	c #EB5454",
"!t 	c #F05655",
"~t 	c #F55655",
"{t 	c #EF534F",
"]t 	c #F35652",
"^t 	c #EC5553",
"/t 	c #F15755",
"(t 	c #E35352",
"_t 	c #DF5656",
":t 	c #D15252",
"<t 	c #D45656",
"[t 	c #DB5959",
"}t 	c #D5595B",
"|t 	c #E35C5D",
"1t 	c #F16462",
"2t 	c #EA6660",
"3t 	c #EF6863",
"4t 	c #E6605E",
"5t 	c #E9605F",
"6t 	c #EE6161",
"7t 	c #ED5D5D",
"8t 	c #EF5D5D",
"9t 	c #EE605F",
"0t 	c #F36260",
"at 	c #F15E5A",
"bt 	c #F05A5B",
"ct 	c #E95C5E",
"dt 	c #EE6061",
"et 	c #F36463",
"ft 	c #F16262",
"gt 	c #E75C5E",
"ht 	c #E8595B",
"it 	c #DF5A5D",
"jt 	c #CD5A5B",
"kt 	c #B0494C",
"lt 	c #B14648",
"mt 	c #BE4F52",
"nt 	c #C7555A",
"ot 	c #E85E60",
"pt 	c #EE6160",
"qt 	c #E05A5C",
"rt 	c #E96263",
"st 	c #EA5D5B",
"tt 	c #F0625F",
"ut 	c #E96564",
"vt 	c #ED6364",
"wt 	c #E56265",
"xt 	c #EA6668",
"yt 	c #D86266",
"zt 	c #C86062",
"At 	c #BC6066",
"Bt 	c #D26368",
"Ct 	c #E06468",
"Dt 	c #EC6567",
"Et 	c #E56263",
"Ft 	c #EC6968",
"Gt 	c #E36967",
"Ht 	c #E96E6E",
"It 	c #EE6868",
"Jt 	c #E86669",
"Kt 	c #E6656B",
"Lt 	c #E56064",
"Mt 	c #E9696B",
"Nt 	c #EE7274",
"Ot 	c #E77172",
"Pt 	c #ED7273",
"Qt 	c #E57173",
"Rt 	c #E36F71",
"St 	c #E96E71",
"Tt 	c #E16061",
"Ut 	c #ED696A",
"Vt 	c #EC7377",
"Wt 	c #E67074",
"Xt 	c #E97274",
"Yt 	c #E16E70",
"Zt 	c #E77273",
"`t 	c #E87579",
" u 	c #E27377",
".u 	c #E07278",
"+u 	c #E27577",
"@u 	c #E97B7C",
"#u 	c #E77A7A",
"$u 	c #DE7575",
"%u 	c #E9797C",
"&u 	c #E17678",
"*u 	c #E2767B",
"=u 	c #D97376",
"-u 	c #E07679",
";u 	c #DE7678",
">u 	c #DC7577",
",u 	c #E3797B",
"'u 	c #DA7576",
")u 	c #E17A7C",
"!u 	c #D87577",
"~u 	c #DF787C",
"{u 	c #E57C80",
"]u 	c #DD787B",
"^u 	c #E47A7F",
"/u 	c #DB7074",
"(u 	c #D86B6C",
"_u 	c #E06E70",
":u 	c #DD7073",
"<u 	c #E27678",
"[u 	c #D96E70",
"}u 	c #D76C6D",
"|u 	c #DE6E71",
"1u 	c #D4696C",
"2u 	c #DC6F72",
"3u 	c #E37476",
"4u 	c #DA7172",
"5u 	c #E17477",
"6u 	c #DF797B",
"7u 	c #D27174",
"8u 	c #CC6E70",
"9u 	c #D96869",
"0u 	c #C46364",
"au 	c #BA6364",
"bu 	c #965758",
"cu 	c #845453",
"du 	c #6B4D4E",
"eu 	c #745151",
"fu 	c #7C684B",
"gu 	c #836748",
"hu 	c #7E6A48",
"iu 	c #615337",
"ju 	c #544930",
"ku 	c #5E5338",
"lu 	c #514630",
"mu 	c #73674D",
"nu 	c #887653",
"ou 	c #8B7956",
"pu 	c #887753",
"qu 	c #92815D",
"ru 	c #857655",
"su 	c #87785A",
"tu 	c #8E7B61",
"uu 	c #89785D",
"vu 	c #89795F",
"wu 	c #7C6C4F",
"xu 	c #705F41",
"yu 	c #67553B",
"zu 	c #50402B",
"Au 	c #7E3D31",
"Bu 	c #D44944",
"Cu 	c #ED4D4A",
"Du 	c #F35150",
"Eu 	c #ED4947",
"Fu 	c #F15350",
"Gu 	c #F65453",
"Hu 	c #F34F4D",
"Iu 	c #ED4A48",
"Ju 	c #F25150",
"Ku 	c #EB5353",
"Lu 	c #F15656",
"Mu 	c #F55A59",
"Nu 	c #EF5858",
"Ou 	c #F25A59",
"Pu 	c #EB5655",
"Qu 	c #EF5757",
"Ru 	c #E55150",
"Su 	c #E55252",
"Tu 	c #E85959",
"Uu 	c #DE5455",
"Vu 	c #E45B5B",
"Wu 	c #D85959",
"Xu 	c #DF5658",
"Yu 	c #E65755",
"Zu 	c #EF5D5A",
"`u 	c #E95F5D",
" v 	c #EE625F",
".v 	c #E85B5A",
"+v 	c #EF5C5D",
"@v 	c #EC5B5A",
"#v 	c #F45B5A",
"$v 	c #EE5A5A",
"%v 	c #F35E5C",
"&v 	c #F16060",
"*v 	c #F0605E",
"=v 	c #E95A5A",
"-v 	c #F35C5E",
";v 	c #ED5A5B",
">v 	c #EF6260",
",v 	c #ED5D5F",
"'v 	c #E3595B",
")v 	c #D3585D",
"!v 	c #BB4B4B",
"~v 	c #A04246",
"{v 	c #A5494B",
"]v 	c #C05458",
"^v 	c #EA6269",
"/v 	c #E95C5A",
"(v 	c #E75D5B",
"_v 	c #EC6365",
":v 	c #E85B5C",
"<v 	c #F06565",
"[v 	c #EF6564",
"}v 	c #EC6364",
"|v 	c #E46060",
"1v 	c #E96669",
"2v 	c #ED686D",
"3v 	c #C95C5E",
"4v 	c #B0595A",
"5v 	c #C45E66",
"6v 	c #DF666B",
"7v 	c #E46264",
"8v 	c #EB6566",
"9v 	c #E3605F",
"0v 	c #E96867",
"av 	c #EF6866",
"bv 	c #E25E62",
"cv 	c #EA666C",
"dv 	c #E16368",
"ev 	c #EA686D",
"fv 	c #EF7374",
"gv 	c #E76E6F",
"hv 	c #E56D6E",
"iv 	c #EB6B6B",
"jv 	c #E46668",
"kv 	c #E86768",
"lv 	c #EE6869",
"mv 	c #E66B6E",
"nv 	c #EC7173",
"ov 	c #EC6D6F",
"pv 	c #E16C6D",
"qv 	c #E67071",
"rv 	c #EA7374",
"sv 	c #E87173",
"tv 	c #E67275",
"uv 	c #EC7678",
"vv 	c #E27376",
"wv 	c #EB787C",
"xv 	c #E97D7D",
"yv 	c #E17877",
"zv 	c #E77A78",
"Av 	c #DF7675",
"Bv 	c #DD7375",
"Cv 	c #EA7A7E",
"Dv 	c #DB7278",
"Ev 	c #E6797E",
"Fv 	c #DE767A",
"Gv 	c #DC797E",
"Hv 	c #E37D81",
"Iv 	c #DA7A7D",
"Jv 	c #E17C7D",
"Kv 	c #E78081",
"Lv 	c #DF7273",
"Mv 	c #E5797A",
"Nv 	c #E37978",
"Ov 	c #DA7373",
"Pv 	c #E17677",
"Qv 	c #DF7678",
"Rv 	c #E67A7E",
"Sv 	c #E47B7F",
"Tv 	c #DB767A",
"Uv 	c #D97176",
"Vv 	c #E0787A",
"Wv 	c #DE787B",
"Xv 	c #E58081",
"Yv 	c #DC7A7D",
"Zv 	c #E27E81",
"`v 	c #D9797B",
" w 	c #D77072",
".w 	c #D56E73",
"+w 	c #E17C7E",
"@w 	c #D87678",
"#w 	c #D37074",
"$w 	c #DA7578",
"%w 	c #DF7B7D",
"&w 	c #D57575",
"*w 	c #D46E71",
"=w 	c #C9696C",
"-w 	c #C46467",
";w 	c #B06062",
">w 	c #97585A",
",w 	c #8C595A",
"'w 	c #75644A",
")w 	c #826345",
"!w 	c #806146",
"~w 	c #4A3F28",
"{w 	c #564B34",
"]w 	c #5F5237",
"^w 	c #65543B",
"/w 	c #7F7052",
"(w 	c #7C6D4E",
"_w 	c #806F4F",
":w 	c #99896A",
"<w 	c #8B7958",
"[w 	c #938468",
"}w 	c #806F4E",
"|w 	c #847356",
"1w 	c #736147",
"2w 	c #6E5B42",
"3w 	c #705E43",
"4w 	c #726041",
"5w 	c #4F4029",
"6w 	c #524028",
"7w 	c #57412A",
"8w 	c #593927",
"9w 	c #7D3D32",
"0w 	c #D44C47",
"aw 	c #EC4642",
"bw 	c #F24E4C",
"cw 	c #F64845",
"dw 	c #F04F4D",
"ew 	c #F54F4E",
"fw 	c #F45452",
"gw 	c #F25351",
"hw 	c #EC5353",
"iw 	c #F55756",
"jw 	c #EF5251",
"kw 	c #F45857",
"lw 	c #F35553",
"mw 	c #F15452",
"nw 	c #EA5453",
"ow 	c #EF5454",
"pw 	c #E95454",
"qw 	c #EF5252",
"rw 	c #ED595A",
"sw 	c #E15657",
"tw 	c #E45858",
"uw 	c #EE5D5B",
"vw 	c #F35E5B",
"ww 	c #ED5C5A",
"xw 	c #ED5E5C",
"yw 	c #E45757",
"zw 	c #EA5858",
"Aw 	c #F05A59",
"Bw 	c #F45E5D",
"Cw 	c #F35F5F",
"Dw 	c #EF6161",
"Ew 	c #F36262",
"Fw 	c #ED5E60",
"Gw 	c #EA605D",
"Hw 	c #EF615F",
"Iw 	c #E75A5A",
"Jw 	c #F05F61",
"Kw 	c #B74949",
"Lw 	c #AC4343",
"Mw 	c #A14242",
"Nw 	c #C15152",
"Ow 	c #F26160",
"Pw 	c #E75F60",
"Qw 	c #EB6266",
"Rw 	c #E76164",
"Sw 	c #ED6563",
"Tw 	c #EB6162",
"Uw 	c #EC6668",
"Vw 	c #D66065",
"Ww 	c #AE585F",
"Xw 	c #BC5B5E",
"Yw 	c #E75F61",
"Zw 	c #E25C5C",
"`w 	c #E86565",
" x 	c #EC6363",
".x 	c #DF6164",
"+x 	c #DF6367",
"@x 	c #D96167",
"#x 	c #E3656A",
"$x 	c #DF6368",
"%x 	c #E36465",
"&x 	c #EA6769",
"*x 	c #EF6A6A",
"=x 	c #ED7170",
"-x 	c #E66D6C",
";x 	c #EC6E6D",
">x 	c #E4696A",
",x 	c #E25E60",
"'x 	c #E66565",
")x 	c #EB6969",
"!x 	c #E16B6A",
"~x 	c #E86D6D",
"{x 	c #ED7071",
"]x 	c #E66E6F",
"^x 	c #E46D6E",
"/x 	c #EA7170",
"(x 	c #E26D6C",
"_x 	c #E06C6D",
":x 	c #E66F70",
"<x 	c #EC7273",
"[x 	c #EA7274",
"}x 	c #E16F72",
"|x 	c #EB757A",
"1x 	c #E97678",
"2x 	c #E87676",
"3x 	c #DF7271",
"4x 	c #E67575",
"5x 	c #DD6E6E",
"6x 	c #E87F83",
"7x 	c #DC797D",
"8x 	c #E3767C",
"9x 	c #E9767B",
"0x 	c #DA7274",
"ax 	c #E17779",
"bx 	c #E77C7D",
"cx 	c #DF7879",
"dx 	c #E67B7B",
"ex 	c #DD7677",
"fx 	c #E47A7A",
"gx 	c #DB7575",
"hx 	c #E27979",
"ix 	c #DD7579",
"jx 	c #DB7679",
"kx 	c #D97577",
"lx 	c #E0797B",
"mx 	c #D77276",
"nx 	c #E57B7E",
"ox 	c #DC7779",
"px 	c #E37B7D",
"qx 	c #DA7778",
"rx 	c #E17B7D",
"sx 	c #E57B7F",
"tx 	c #D67475",
"ux 	c #DD797A",
"vx 	c #DB767B",
"wx 	c #D97074",
"xx 	c #D66B6C",
"yx 	c #DE7173",
"zx 	c #D46C6E",
"Ax 	c #DC7578",
"Bx 	c #E07B7D",
"Cx 	c #D77678",
"Dx 	c #DE787A",
"Ex 	c #D47174",
"Fx 	c #CE6E71",
"Gx 	c #C76769",
"Hx 	c #BC6567",
"Ix 	c #B06163",
"Jx 	c #8A5656",
"Kx 	c #6F4F50",
"Lx 	c #7B5C3F",
"Mx 	c #7B573C",
"Nx 	c #766342",
"Ox 	c #4C4028",
"Px 	c #453A26",
"Qx 	c #6C5D3F",
"Rx 	c #796449",
"Sx 	c #807150",
"Tx 	c #867858",
"Ux 	c #7F6F50",
"Vx 	c #908160",
"Wx 	c #9A8966",
"Xx 	c #8E7C56",
"Yx 	c #9E7F60",
"Zx 	c #8B795A",
"`x 	c #85765C",
" y 	c #7D6B4C",
".y 	c #725F44",
"+y 	c #726042",
"@y 	c #5C4B2F",
"#y 	c #4C3924",
"$y 	c #543B28",
"%y 	c #7D3E30",
"&y 	c #D34943",
"*y 	c #F34E4C",
"=y 	c #F14E4D",
"-y 	c #F54D4A",
";y 	c #EF4C4A",
">y 	c #F4504E",
",y 	c #EE4C49",
"'y 	c #F2504E",
")y 	c #F75553",
"!y 	c #F0504F",
"~y 	c #F35555",
"{y 	c #ED5555",
"]y 	c #F25656",
"^y 	c #F55A58",
"/y 	c #F45654",
"(y 	c #EF5453",
"_y 	c #E84E4C",
":y 	c #EE5756",
"<y 	c #E54F4F",
"[y 	c #EE5152",
"}y 	c #ED5553",
"|y 	c #F25F5D",
"1y 	c #EA5A58",
"2y 	c #EA5857",
"3y 	c #DE5656",
"4y 	c #F55C5B",
"5y 	c #F25959",
"6y 	c #F05E5D",
"7y 	c #EA5454",
"8y 	c #EF5C5B",
"9y 	c #F46160",
"0y 	c #ED5F5E",
"ay 	c #F26162",
"by 	c #EC5D5E",
"cy 	c #F05F5E",
"dy 	c #E85F5C",
"ey 	c #F3605F",
"fy 	c #F05F60",
"gy 	c #D25B5E",
"hy 	c #B64647",
"iy 	c #AE4747",
"jy 	c #CA5556",
"ky 	c #E85D5E",
"ly 	c #EB5E5E",
"my 	c #F16160",
"ny 	c #E75F62",
"oy 	c #EC5E5B",
"py 	c #F16667",
"qy 	c #EA6366",
"ry 	c #E06166",
"sy 	c #BC5758",
"ty 	c #B15455",
"uy 	c #E0646A",
"vy 	c #EE6364",
"wy 	c #E76867",
"xy 	c #C35A5C",
"yy 	c #CB6066",
"zy 	c #F16769",
"Ay 	c #EA6566",
"By 	c #E86564",
"Cy 	c #EC6A6C",
"Dy 	c #EA6565",
"Ey 	c #F06465",
"Fy 	c #EE6A6A",
"Gy 	c #E56F70",
"Hy 	c #EB7274",
"Iy 	c #E36F6F",
"Jy 	c #EF7073",
"Ky 	c #E77073",
"Ly 	c #ED6C6F",
"My 	c #EC686C",
"Ny 	c #E8706F",
"Oy 	c #EE706F",
"Py 	c #E66D6D",
"Qy 	c #EC6F70",
"Ry 	c #E46C6D",
"Sy 	c #E26C6C",
"Ty 	c #E97170",
"Uy 	c #E06C6C",
"Vy 	c #E77071",
"Wy 	c #E36E70",
"Xy 	c #E97174",
"Yy 	c #EB7374",
"Zy 	c #E47071",
"`y 	c #E27071",
" z 	c #E87475",
".z 	c #E67473",
"+z 	c #DE7070",
"@z 	c #E47474",
"#z 	c #EA7778",
"$z 	c #E7777D",
"%z 	c #E56F72",
"&z 	c #DC6D6E",
"*z 	c #E97374",
"=z 	c #E1777A",
"-z 	c #DA7374",
";z 	c #E17777",
">z 	c #E87B7A",
",z 	c #DF7575",
"'z 	c #E6797A",
")z 	c #DD7474",
"!z 	c #E47978",
"~z 	c #DB7474",
"{z 	c #E27978",
"]z 	c #D97474",
"^z 	c #E07879",
"/z 	c #E77B7D",
"(z 	c #DC7478",
"_z 	c #E17A7B",
":z 	c #DE7576",
"<z 	c #DC7778",
"[z 	c #E37B7C",
"}z 	c #DA7577",
"|z 	c #D87476",
"1z 	c #E67C80",
"2z 	c #DD767B",
"3z 	c #E47C81",
"4z 	c #D9797C",
"5z 	c #E07D7F",
"6z 	c #D67879",
"7z 	c #DE7B7C",
"8z 	c #DB777A",
"9z 	c #D77477",
"0z 	c #D47476",
"az 	c #E37C7E",
"bz 	c #E1787C",
"cz 	c #DF7578",
"dz 	c #D57273",
"ez 	c #D37274",
"fz 	c #D66E72",
"gz 	c #CF6C6F",
"hz 	c #C06566",
"iz 	c #AC5F62",
"jz 	c #925557",
"kz 	c #8F5757",
"lz 	c #6B5151",
"mz 	c #745B43",
"nz 	c #78543A",
"oz 	c #755B3D",
"pz 	c #635235",
"qz 	c #52452A",
"rz 	c #453B25",
"sz 	c #5C4F37",
"tz 	c #786B50",
"uz 	c #807154",
"vz 	c #837454",
"wz 	c #877858",
"xz 	c #8E7E5D",
"yz 	c #88734F",
"zz 	c #8F7C57",
"Az 	c #877456",
"Bz 	c #816E50",
"Cz 	c #77664A",
"Dz 	c #7A6649",
"Ez 	c #715E44",
"Fz 	c #756344",
"Gz 	c #52422C",
"Hz 	c #5D4B33",
"Iz 	c #513D26",
"Jz 	c #503825",
"Kz 	c #933C2E",
"Lz 	c #CD4943",
"Mz 	c #F14B49",
"Nz 	c #EF4B49",
"Oz 	c #F44B4A",
"Pz 	c #EE4E4C",
"Qz 	c #F35151",
"Rz 	c #F74E4C",
"Sz 	c #F15351",
"Tz 	c #F65655",
"Uz 	c #F34F4E",
"Vz 	c #ED4C4B",
"Wz 	c #F24C4A",
"Xz 	c #EC5150",
"Yz 	c #EE5151",
"Zz 	c #E34D4D",
"`z 	c #EE5657",
" A 	c #E85353",
".A 	c #F05756",
"+A 	c #EC5857",
"@A 	c #E95A58",
"#A 	c #E75A59",
"$A 	c #E3595A",
"%A 	c #E85757",
"&A 	c #F35A5A",
"*A 	c #ED5A5A",
"=A 	c #EB5C5B",
"-A 	c #F15856",
";A 	c #F45C5B",
">A 	c #F3605E",
",A 	c #EC5D5C",
"'A 	c #E95C5C",
")A 	c #F36562",
"!A 	c #F25D5B",
"~A 	c #EB5656",
"{A 	c #EF5D5E",
"]A 	c #CB5657",
"^A 	c #CD5255",
"/A 	c #E65B5C",
"(A 	c #EE5F5E",
"_A 	c #E45C5D",
":A 	c #E95F61",
"<A 	c #F26163",
"[A 	c #EC5D5D",
"}A 	c #EB6160",
"|A 	c #F06464",
"1A 	c #E55D5E",
"2A 	c #CF5D64",
"3A 	c #B45256",
"4A 	c #D35E61",
"5A 	c #E66765",
"6A 	c #E26260",
"7A 	c #BB5D61",
"8A 	c #C36065",
"9A 	c #EF696A",
"0A 	c #E86566",
"aA 	c #EE6768",
"bA 	c #F06A6E",
"cA 	c #EF686A",
"dA 	c #E76362",
"eA 	c #ED6E6B",
"fA 	c #E56968",
"gA 	c #EB6C6A",
"hA 	c #E36A68",
"iA 	c #E96D6C",
"jA 	c #EF7271",
"kA 	c #E86E6F",
"lA 	c #EC6B6D",
"mA 	c #E86C6D",
"nA 	c #E66C6B",
"oA 	c #EB6D6E",
"pA 	c #E3696B",
"qA 	c #E96E6F",
"rA 	c #E16B6C",
"sA 	c #E76E70",
"tA 	c #E66F6F",
"uA 	c #E26E6E",
"vA 	c #E87172",
"wA 	c #E06E6F",
"xA 	c #E67171",
"yA 	c #DE6E6D",
"zA 	c #E57271",
"AA 	c #EB7675",
"BA 	c #E97577",
"CA 	c #E07174",
"DA 	c #E5757B",
"EA 	c #E9787F",
"FA 	c #E8767C",
"GA 	c #DF7478",
"HA 	c #DD7072",
"IA 	c #DB7376",
"JA 	c #E27878",
"KA 	c #E87A7B",
"LA 	c #E07676",
"MA 	c #E67676",
"NA 	c #DE7474",
"OA 	c #E47675",
"PA 	c #DB7372",
"QA 	c #E27675",
"RA 	c #E97574",
"SA 	c #E07678",
"TA 	c #DC7576",
"UA 	c #E1787A",
"VA 	c #E77C7E",
"WA 	c #E47B7C",
"XA 	c #DB7676",
"YA 	c #E27B7B",
"ZA 	c #D87677",
"`A 	c #E0797C",
" B 	c #E27B7D",
".B 	c #D97479",
"+B 	c #E0787D",
"@B 	c #E57D80",
"#B 	c #DC787B",
"$B 	c #E37B7E",
"%B 	c #D7777A",
"&B 	c #DF797C",
"*B 	c #D57477",
"=B 	c #D87777",
"-B 	c #DF7C7C",
";B 	c #D67073",
">B 	c #DB7072",
",B 	c #D67274",
"'B 	c #D47374",
")B 	c #DC7879",
"!B 	c #D17174",
"~B 	c #D97476",
"{B 	c #E07375",
"]B 	c #C9676B",
"^B 	c #C16163",
"/B 	c #AD5F60",
"(B 	c #8A5354",
"_B 	c #775252",
":B 	c #6C4D4D",
"<B 	c #7D5238",
"[B 	c #775038",
"}B 	c #6F5C3C",
"|B 	c #423822",
"1B 	c #443A23",
"2B 	c #534830",
"3B 	c #5D4C34",
"4B 	c #827057",
"5B 	c #847354",
"6B 	c #877757",
"7B 	c #8A7858",
"8B 	c #88714D",
"9B 	c #92815B",
"0B 	c #8C7958",
"aB 	c #7C694B",
"bB 	c #736044",
"cB 	c #746045",
"dB 	c #715C42",
"eB 	c #54442C",
"fB 	c #5A4831",
"gB 	c #624C35",
"hB 	c #533B27",
"iB 	c #803D31",
"jB 	c #D74641",
"kB 	c #F04D4B",
"lB 	c #EE4A48",
"mB 	c #F34A48",
"nB 	c #F74D49",
"oB 	c #F24948",
"pB 	c #F64F4C",
"qB 	c #F2504F",
"rB 	c #F65451",
"sB 	c #F55857",
"tB 	c #F35251",
"uB 	c #ED5050",
"vB 	c #F15553",
"wB 	c #E95151",
"xB 	c #E84E4D",
"yB 	c #E14E4E",
"zB 	c #E15454",
"AB 	c #E25150",
"BB 	c #EA5656",
"CB 	c #E55555",
"DB 	c #EF5151",
"EB 	c #E45755",
"FB 	c #E05858",
"GB 	c #E14D4C",
"HB 	c #F05354",
"IB 	c #EC5959",
"JB 	c #EA5B59",
"KB 	c #F45D5C",
"LB 	c #EC5655",
"MB 	c #F15C5B",
"NB 	c #ED605E",
"OB 	c #EB5F5D",
"PB 	c #F05F5D",
"QB 	c #F46060",
"RB 	c #F05D5F",
"SB 	c #EA5D5D",
"TB 	c #F05D5C",
"UB 	c #E85C5C",
"VB 	c #EE5E5D",
"WB 	c #EF6061",
"XB 	c #E7595A",
"YB 	c #F15F60",
"ZB 	c #E95E5D",
"`B 	c #D85D61",
" C 	c #C3565A",
".C 	c #C15759",
"+C 	c #E46564",
"@C 	c #E1605E",
"#C 	c #C0595B",
"$C 	c #C15F62",
"%C 	c #E96569",
"&C 	c #E76666",
"*C 	c #EB6768",
"=C 	c #F06A6C",
"-C 	c #ED6668",
";C 	c #E66362",
">C 	c #EB6563",
",C 	c #E46563",
"'C 	c #EF6565",
")C 	c #EE6665",
"!C 	c #E66363",
"~C 	c #EC6566",
"{C 	c #EA6364",
"]C 	c #EE7171",
"^C 	c #E77171",
"/C 	c #ED6F6F",
"(C 	c #E56969",
"_C 	c #E96B6C",
":C 	c #E16769",
"<C 	c #E76A6D",
"[C 	c #ED6F71",
"}C 	c #EA7071",
"|C 	c #E46D6D",
"1C 	c #E26D6E",
"2C 	c #E97072",
"3C 	c #E06C6E",
"4C 	c #E77070",
"5C 	c #DE6B6A",
"6C 	c #EB7372",
"7C 	c #E3706F",
"8C 	c #E97474",
"9C 	c #E17073",
"0C 	c #E77476",
"aC 	c #EB777A",
"bC 	c #E37378",
"cC 	c #EA777B",
"dC 	c #E67B7D",
"eC 	c #DD7678",
"fC 	c #E47779",
"gC 	c #EA7B7D",
"hC 	c #DC6E6D",
"iC 	c #E37877",
"jC 	c #E97B7B",
"kC 	c #E17170",
"lC 	c #E77B7B",
"mC 	c #E17879",
"nC 	c #E87B7F",
"oC 	c #E47677",
"pC 	c #DB7576",
"qC 	c #E27A7A",
"rC 	c #D97675",
"sC 	c #E07A79",
"tC 	c #E67D7D",
"uC 	c #E57A7F",
"vC 	c #DA7176",
"wC 	c #E1797B",
"xC 	c #D77172",
"yC 	c #DE787D",
"zC 	c #DC777B",
"AC 	c #DA7779",
"BC 	c #D87679",
"CC 	c #D57478",
"DC 	c #E4797C",
"EC 	c #E27A7E",
"FC 	c #D97578",
"GC 	c #D67375",
"HC 	c #D46C6F",
"IC 	c #DB6F71",
"JC 	c #D77578",
"KC 	c #D47375",
"LC 	c #D27173",
"MC 	c #E1787B",
"NC 	c #D77577",
"OC 	c #DF7779",
"PC 	c #D57476",
"QC 	c #D37172",
"RC 	c #DA6C6C",
"SC 	c #CA6A6D",
"TC 	c #A75D5F",
"UC 	c #9B585A",
"VC 	c #724F4F",
"WC 	c #705252",
"XC 	c #74533A",
"YC 	c #774C34",
"ZC 	c #7B553A",
"`C 	c #584F33",
" D 	c #413824",
".D 	c #51452A",
"+D 	c #59472F",
"@D 	c #746046",
"#D 	c #88785D",
"$D 	c #918163",
"%D 	c #817050",
"&D 	c #867250",
"*D 	c #8C7955",
"=D 	c #9C8C6D",
"-D 	c #837050",
";D 	c #857251",
">D 	c #735F44",
",D 	c #736144",
"'D 	c #645239",
")D 	c #503E2A",
"!D 	c #59462F",
"~D 	c #5E442F",
"{D 	c #954135",
"]D 	c #CE4A45",
"^D 	c #F74B48",
"/D 	c #F14848",
"(D 	c #F64C4B",
"_D 	c #F54D4C",
":D 	c #F4524F",
"<D 	c #EE4E4B",
"[D 	c #F24D4C",
"}D 	c #F64C49",
"|D 	c #F14C4A",
"1D 	c #F55453",
"2D 	c #F04F4E",
"3D 	c #F45958",
"4D 	c #F05353",
"5D 	c #F35554",
"6D 	c #E65151",
"7D 	c #E05151",
"8D 	c #D65150",
"9D 	c #D44F4F",
"0D 	c #E05455",
"aD 	c #E24F4F",
"bD 	c #F45453",
"cD 	c #EE5858",
"dD 	c #F15A59",
"eD 	c #E25757",
"fD 	c #DF5758",
"gD 	c #E15151",
"hD 	c #F05A58",
"iD 	c #F35654",
"jD 	c #ED5858",
"kD 	c #F25B59",
"lD 	c #EB5959",
"mD 	c #F55E5D",
"nD 	c #ED5C5C",
"oD 	c #F2605F",
"pD 	c #EC5E5C",
"qD 	c #F16360",
"rD 	c #EA5C59",
"sD 	c #F45F5E",
"tD 	c #F36060",
"uD 	c #F15E5E",
"vD 	c #F05C5D",
"wD 	c #EE5857",
"xD 	c #E7595B",
"yD 	c #F05B5C",
"zD 	c #EA5D5C",
"AD 	c #E85958",
"BD 	c #ED5C5B",
"CD 	c #F26262",
"DD 	c #EC5D5F",
"ED 	c #E05D61",
"FD 	c #B95554",
"GD 	c #B95154",
"HD 	c #DE5F64",
"ID 	c #EF6664",
"JD 	c #DD5A5A",
"KD 	c #C16267",
"LD 	c #C15B5F",
"MD 	c #E76668",
"ND 	c #E56464",
"OD 	c #EB6464",
"PD 	c #F06567",
"QD 	c #EA6365",
"RD 	c #EF6668",
"SD 	c #EC686A",
"TD 	c #EB6A6D",
"UD 	c #EE696C",
"VD 	c #E56E6D",
"WD 	c #EB7271",
"XD 	c #EF7171",
"YD 	c #E86D6E",
"ZD 	c #ED6E6F",
"`D 	c #EA6E6E",
" E 	c #E86E70",
".E 	c #EE7174",
"+E 	c #EC7171",
"@E 	c #EB6F6F",
"#E 	c #E36C6C",
"$E 	c #E96F6F",
"%E 	c #ED7576",
"&E 	c #EB7272",
"*E 	c #EA7878",
"=E 	c #E37574",
"-E 	c #E97778",
";E 	c #E17070",
">E 	c #E7787A",
",E 	c #DF7475",
"'E 	c #DC7375",
")E 	c #E37778",
"!E 	c #E17171",
"~E 	c #DB6F70",
"{E 	c #E87A7C",
"]E 	c #E6797C",
"^E 	c #DB7475",
"/E 	c #D97172",
"(E 	c #DE7777",
"_E 	c #E57A7A",
":E 	c #E3797C",
"<E 	c #D87376",
"[E 	c #DA777A",
"}E 	c #D67579",
"|E 	c #E47D80",
"1E 	c #DB7779",
"2E 	c #D97A7C",
"3E 	c #E07E80",
"4E 	c #D7787B",
"5E 	c #E47D81",
"6E 	c #D96D70",
"7E 	c #D76A6E",
"8E 	c #D57072",
"9E 	c #E37E81",
"0E 	c #D66C6E",
"aE 	c #DD7172",
"bE 	c #D36C6F",
"cE 	c #DB7274",
"dE 	c #E27A7D",
"eE 	c #D87778",
"fE 	c #D67275",
"gE 	c #D37275",
"hE 	c #D16A6D",
"iE 	c #C4696D",
"jE 	c #B06467",
"kE 	c #975A5B",
"lE 	c #825454",
"mE 	c #744F50",
"nE 	c #715152",
"oE 	c #724A32",
"pE 	c #7A4F36",
"qE 	c #6A5738",
"rE 	c #40351F",
"sE 	c #443B26",
"tE 	c #50422B",
"uE 	c #67513A",
"vE 	c #7B6A51",
"wE 	c #85755A",
"xE 	c #7F6F4F",
"yE 	c #7E6D4C",
"zE 	c #85724F",
"AE 	c #988565",
"BE 	c #917E5A",
"CE 	c #897554",
"DE 	c #938262",
"EE 	c #917F62",
"FE 	c #8C7756",
"GE 	c #867050",
"HE 	c #8C7554",
"IE 	c #776347",
"JE 	c #756044",
"KE 	c #776342",
"LE 	c #4E3E27",
"ME 	c #55402C",
"NE 	c #5D452F",
"OE 	c #944F42",
"PE 	c #E04E4B",
"QE 	c #EE4C4A",
"RE 	c #F64B48",
"SE 	c #F14946",
"TE 	c #F44947",
"UE 	c #EF4746",
"VE 	c #F44C4B",
"WE 	c #EE514F",
"XE 	c #F74F4C",
"YE 	c #F64A49",
"ZE 	c #F04A48",
"`E 	c #F44D4C",
" F 	c #EE4F4E",
".F 	c #F75554",
"+F 	c #F15857",
"@F 	c #EE5150",
"#F 	c #D75050",
"$F 	c #CD4F4E",
"%F 	c #CC4D4D",
"&F 	c #CE4E4E",
"*F 	c #D65353",
"=F 	c #E95051",
"-F 	c #ED5252",
";F 	c #EC5252",
">F 	c #F05555",
",F 	c #E05756",
"'F 	c #DF5858",
")F 	c #F35656",
"!F 	c #F35B5B",
"~F 	c #ED5A57",
"{F 	c #F25A57",
"]F 	c #F05754",
"^F 	c #EF5653",
"/F 	c #F15E5F",
"(F 	c #F0615D",
"_F 	c #F45E5B",
":F 	c #F1615F",
"<F 	c #EE5C5B",
"[F 	c #EC5C5C",
"}F 	c #ED5B5E",
"|F 	c #E85C5B",
"1F 	c #EE5B59",
"2F 	c #EC5958",
"3F 	c #F1605F",
"4F 	c #EA5F61",
"5F 	c #E1595C",
"6F 	c #C35859",
"7F 	c #A95451",
"8F 	c #CC5A5D",
"9F 	c #D85D5E",
"0F 	c #BD5E64",
"aF 	c #C55D62",
"bF 	c #E66264",
"cF 	c #F16665",
"dF 	c #EA6261",
"eF 	c #EF6465",
"fF 	c #EE6466",
"gF 	c #E46062",
"hF 	c #E96365",
"iF 	c #EE6564",
"jF 	c #E76162",
"kF 	c #E56062",
"lF 	c #EB6466",
"mF 	c #E46A69",
"nF 	c #EA696A",
"oF 	c #EF6868",
"pF 	c #E86767",
"qF 	c #EC6464",
"rF 	c #E46667",
"sF 	c #EA7072",
"tF 	c #E2696B",
"uF 	c #E96B6D",
"vF 	c #EE6E6F",
"wF 	c #E76A6B",
"xF 	c #E56A6A",
"yF 	c #EB6D6B",
"zF 	c #E36968",
"AF 	c #E96C6D",
"BF 	c #E76D70",
"CF 	c #ED7175",
"DF 	c #E67073",
"EF 	c #E47072",
"FF 	c #EA7376",
"GF 	c #E77274",
"HF 	c #E37271",
"IF 	c #E17272",
"JF 	c #E77576",
"KF 	c #E57678",
"LF 	c #E67574",
"MF 	c #DD7473",
"NF 	c #E87C7C",
"OF 	c #E07777",
"PF 	c #DC7474",
"QF 	c #DE7676",
"RF 	c #DC7575",
"SF 	c #E37979",
"TF 	c #DA7071",
"UF 	c #D87274",
"VF 	c #E47676",
"WF 	c #DB7777",
"XF 	c #E07A7E",
"YF 	c #E47E7F",
"ZF 	c #E27D80",
"`F 	c #E07F81",
" G 	c #D77778",
".G 	c #DE7E7F",
"+G 	c #DC7175",
"@G 	c #D77376",
"#G 	c #DD7A7E",
"$G 	c #DA7C7E",
"%G 	c #E18183",
"&G 	c #D87E7E",
"*G 	c #DF8181",
"=G 	c #D67C7C",
"-G 	c #DD7F80",
";G 	c #D47677",
">G 	c #DB797C",
",G 	c #D97579",
"'G 	c #D67174",
")G 	c #D47073",
"!G 	c #D36F72",
"~G 	c #CE6E70",
"{G 	c #C6686B",
"]G 	c #C46264",
"^G 	c #AC5A5C",
"/G 	c #8D5858",
"(G 	c #775454",
"_G 	c #6D4E4F",
":G 	c #774C33",
"<G 	c #78452E",
"[G 	c #7B4F35",
"}G 	c #3A311E",
"|G 	c #423723",
"1G 	c #57452E",
"2G 	c #826F54",
"3G 	c #837252",
"4G 	c #796A4A",
"5G 	c #907B57",
"6G 	c #9D8967",
"7G 	c #927D5D",
"8G 	c #938462",
"9G 	c #897757",
"0G 	c #867354",
"aG 	c #947E5A",
"bG 	c #8F7956",
"cG 	c #8A7755",
"dG 	c #745E43",
"eG 	c #725C40",
"fG 	c #746042",
"gG 	c #5D492F",
"hG 	c #564028",
"iG 	c #5F462E",
"jG 	c #873E33",
"kG 	c #DD4944",
"lG 	c #ED4C4A",
"mG 	c #EF4F4D",
"nG 	c #F64847",
"oG 	c #F2423D",
"pG 	c #F74E4B",
"qG 	c #F24B4A",
"rG 	c #F64D4B",
"sG 	c #F04B49",
"tG 	c #F54E4D",
"uG 	c #EE4B49",
"vG 	c #F34C4B",
"wG 	c #F75351",
"xG 	c #F25353",
"yG 	c #F65857",
"zG 	c #F45454",
"AG 	c #F15151",
"BG 	c #DF4C4B",
"CG 	c #D35151",
"DG 	c #D15151",
"EG 	c #CB4C4D",
"FG 	c #CD4F4F",
"GG 	c #D25050",
"HG 	c #E74E4D",
"IG 	c #EB5252",
"JG 	c #F25555",
"KG 	c #EE5757",
"LG 	c #E75554",
"MG 	c #DC5352",
"NG 	c #EA5354",
"OG 	c #F15858",
"PG 	c #ED5757",
"QG 	c #F25453",
"RG 	c #F15654",
"SG 	c #F55D5B",
"TG 	c #EF5B5A",
"UG 	c #F35C5C",
"VG 	c #EC5856",
"WG 	c #E8595A",
"XG 	c #E5585A",
"YG 	c #F15F5F",
"ZG 	c #E95C5B",
"`G 	c #EA5C5E",
" H 	c #EE5F62",
".H 	c #CF585A",
"+H 	c #BA5356",
"@H 	c #BB565A",
"#H 	c #D65B5D",
"$H 	c #BB5A5F",
"%H 	c #C55B60",
"&H 	c #E75C5B",
"*H 	c #F16767",
"=H 	c #E55B58",
"-H 	c #EF696C",
";H 	c #E86769",
">H 	c #E46365",
",H 	c #EA686A",
"'H 	c #EB696C",
")H 	c #E36568",
"!H 	c #E96565",
"~H 	c #EE7172",
"{H 	c #E76968",
"]H 	c #ED6D6A",
"^H 	c #E56A67",
"/H 	c #E36868",
"(H 	c #EA6B6B",
"_H 	c #ED7678",
":H 	c #EC7274",
"<H 	c #EA6B6E",
"[H 	c #E86A6C",
"}H 	c #E0686A",
"|H 	c #EB7475",
"1H 	c #E37070",
"2H 	c #E97575",
"3H 	c #E87575",
"4H 	c #DF7071",
"5H 	c #E47375",
"6H 	c #EA7879",
"7H 	c #E07274",
"8H 	c #E67678",
"9H 	c #DE7273",
"0H 	c #DB6E6E",
"aH 	c #E27170",
"bH 	c #E97977",
"cH 	c #E77C7B",
"dH 	c #DE7878",
"eH 	c #E57A79",
"fH 	c #DC7675",
"gH 	c #DA7473",
"hH 	c #E17776",
"iH 	c #DF7574",
"jH 	c #E47879",
"kH 	c #E87B7B",
"lH 	c #E67A79",
"mH 	c #DD7574",
"nH 	c #E4797A",
"oH 	c #DA7777",
"pH 	c #E57E81",
"qH 	c #DA7175",
"rH 	c #D97C7B",
"sH 	c #E08281",
"tH 	c #D67E7C",
"uH 	c #DE8383",
"vH 	c #D47D7C",
"wH 	c #DC8080",
"xH 	c #E28383",
"yH 	c #D97C7C",
"zH 	c #E07F80",
"AH 	c #D77879",
"BH 	c #DE7A7D",
"CH 	c #D26D70",
"DH 	c #D56E71",
"EH 	c #D36E70",
"FH 	c #D06F71",
"GH 	c #D87276",
"HH 	c #D66E71",
"IH 	c #DD6C6E",
"JH 	c #BF6668",
"KH 	c #AB5E5F",
"LH 	c #945658",
"MH 	c #755152",
"NH 	c #694D4D",
"OH 	c #694733",
"PH 	c #783E28",
"QH 	c #794931",
"RH 	c #614E32",
"SH 	c #39301D",
"TH 	c #322A19",
"UH 	c #4B3D27",
"VH 	c #654F37",
"WH 	c #7F7056",
"XH 	c #7F6F4E",
"YH 	c #796849",
"ZH 	c #7A6747",
"`H 	c #816849",
" I 	c #9C8766",
".I 	c #A78B6A",
"+I 	c #8D7956",
"@I 	c #948160",
"#I 	c #877253",
"$I 	c #887150",
"%I 	c #8F7955",
"&I 	c #8F7855",
"*I 	c #7C684A",
"=I 	c #765F44",
"-I 	c #776245",
";I 	c #705D40",
">I 	c #4B3924",
",I 	c #613726",
"'I 	c #944A3A",
")I 	c #DB4B48",
"!I 	c #EA4947",
"~I 	c #F34B49",
"{I 	c #F75150",
"]I 	c #F24C4B",
"^I 	c #F64B49",
"/I 	c #F04645",
"(I 	c #F54947",
"_I 	c #EF4744",
":I 	c #F54B4B",
"<I 	c #F44845",
"[I 	c #F84A4A",
"}I 	c #F24B49",
"|I 	c #F64A48",
"1I 	c #F14B4A",
"2I 	c #F5504F",
"3I 	c #F35352",
"4I 	c #ED4B49",
"5I 	c #F14C4B",
"6I 	c #D84A49",
"7I 	c #D44F4E",
"8I 	c #CD4E4E",
"9I 	c #CD4D4D",
"0I 	c #D14A48",
"aI 	c #E85250",
"bI 	c #EB4C4C",
"cI 	c #F1504F",
"dI 	c #F45352",
"eI 	c #ED5554",
"fI 	c #E55756",
"gI 	c #D75252",
"hI 	c #E85354",
"iI 	c #F15757",
"jI 	c #F05856",
"kI 	c #EC5A59",
"lI 	c #F55F5E",
"mI 	c #F25C5A",
"nI 	c #EC5B59",
"oI 	c #EA5A5A",
"pI 	c #F45E5C",
"qI 	c #EB5958",
"rI 	c #E95756",
"sI 	c #E35859",
"tI 	c #E45659",
"uI 	c #ED5A5C",
"vI 	c #F25C59",
"wI 	c #F05B5B",
"xI 	c #E95857",
"yI 	c #F35E5E",
"zI 	c #EA5D5F",
"AI 	c #EE5A5C",
"BI 	c #DA585B",
"CI 	c #C85253",
"DI 	c #B35157",
"EI 	c #E25E61",
"FI 	c #BB5B5F",
"GI 	c #D35F64",
"HI 	c #E75E61",
"II 	c #E95F5F",
"JI 	c #EE6260",
"KI 	c #E75F5C",
"LI 	c #F26463",
"MI 	c #F06665",
"NI 	c #EC6666",
"OI 	c #F16C6C",
"PI 	c #EF6C6E",
"QI 	c #EE6D70",
"RI 	c #E4666A",
"SI 	c #F06C6F",
"TI 	c #E9696C",
"UI 	c #EE6C6F",
"VI 	c #E56668",
"WI 	c #EB686A",
"XI 	c #E9696A",
"YI 	c #E76869",
"ZI 	c #E66B6A",
"`I 	c #EB6A68",
" J 	c #E46764",
".J 	c #EA6968",
"+J 	c #E26666",
"@J 	c #EE6E70",
"#J 	c #E46568",
"$J 	c #E26466",
"%J 	c #E77378",
"&J 	c #EB706F",
"*J 	c #E76F70",
"=J 	c #DF6C6C",
"-J 	c #E46E6F",
";J 	c #EA7172",
">J 	c #E87272",
",J 	c #E06E6E",
"'J 	c #E67272",
")J 	c #EC7676",
"!J 	c #E47272",
"~J 	c #EA7575",
"{J 	c #E87576",
"]J 	c #E57475",
"^J 	c #EB7677",
"/J 	c #E37373",
"(J 	c #E17372",
"_J 	c #E77876",
":J 	c #DF7573",
"<J 	c #E57B78",
"[J 	c #DD7775",
"}J 	c #E37D7A",
"|J 	c #EA817E",
"1J 	c #E17B7A",
"2J 	c #E87E7D",
"3J 	c #DF7778",
"4J 	c #E67A7B",
"5J 	c #DD7577",
"6J 	c #E67979",
"7J 	c #E37A7A",
"8J 	c #E17B7C",
"9J 	c #DF7878",
"0J 	c #DA7070",
"aJ 	c #D86B6A",
"bJ 	c #E47A7D",
"cJ 	c #DB7579",
"dJ 	c #E07C7E",
"eJ 	c #DE7C7D",
"fJ 	c #E27D7F",
"gJ 	c #E08080",
"hJ 	c #D77D7C",
"iJ 	c #DE8381",
"jJ 	c #D47F7B",
"kJ 	c #DC8381",
"lJ 	c #E38785",
"mJ 	c #DA8380",
"nJ 	c #E18684",
"oJ 	c #D78080",
"pJ 	c #DF8583",
"qJ 	c #D57E7D",
"rJ 	c #DC8282",
"sJ 	c #D37B7A",
"tJ 	c #DA7E7E",
"uJ 	c #E18180",
"vJ 	c #D87C7A",
"wJ 	c #DF7E7E",
"xJ 	c #D67778",
"yJ 	c #DD7D7D",
"zJ 	c #D37474",
"AJ 	c #DB7B7C",
"BJ 	c #D17475",
"CJ 	c #D67677",
"DJ 	c #D47275",
"EJ 	c #D17173",
"FJ 	c #CA696A",
"GJ 	c #A55E61",
"HJ 	c #9B5C5D",
"IJ 	c #8A5456",
"JJ 	c #694C4D",
"KJ 	c #72422A",
"LJ 	c #77412B",
"MJ 	c #5E4A30",
"NJ 	c #433923",
"OJ 	c #342C1A",
"PJ 	c #3B2E1D",
"QJ 	c #563D29",
"RJ 	c #765E48",
"SJ 	c #766346",
"TJ 	c #6E5D40",
"UJ 	c #6B5C40",
"VJ 	c #917A5A",
"WJ 	c #937D5B",
"XJ 	c #8E7857",
"YJ 	c #887350",
"ZJ 	c #907A57",
"`J 	c #917C5B",
" K 	c #8E7954",
".K 	c #736045",
"+K 	c #735B40",
"@K 	c #7A6244",
"#K 	c #52402B",
"$K 	c #713B2B",
"%K 	c #9E4336",
"&K 	c #DB4C48",
"*K 	c #F1504D",
"=K 	c #F14B48",
"-K 	c #F04B4B",
";K 	c #F34847",
">K 	c #ED4745",
",K 	c #F24746",
"'K 	c #EE4947",
")K 	c #F34C49",
"!K 	c #F74C49",
"~K 	c #F04948",
"{K 	c #F04C4C",
"]K 	c #EE4C4B",
"^K 	c #F34B47",
"/K 	c #F75251",
"(K 	c #F14B4B",
"_K 	c #E04848",
":K 	c #E14A4A",
"<K 	c #DC4A4A",
"[K 	c #DB5252",
"}K 	c #D84C4C",
"|K 	c #EA4F4F",
"1K 	c #F55554",
"2K 	c #F05251",
"3K 	c #E75656",
"4K 	c #E05555",
"5K 	c #E54D4D",
"6K 	c #EE5353",
"7K 	c #F65454",
"8K 	c #F45250",
"9K 	c #F35958",
"0K 	c #F65E5D",
"aK 	c #F55E5E",
"bK 	c #ED5B5A",
"cK 	c #F15C5A",
"dK 	c #F55C5A",
"eK 	c #EF5655",
"fK 	c #F45A58",
"gK 	c #EE5C5A",
"hK 	c #F35F5D",
"iK 	c #E95957",
"jK 	c #F35C5D",
"kK 	c #E55859",
"lK 	c #DC595A",
"mK 	c #F05E60",
"nK 	c #EE5D5F",
"oK 	c #E25A5B",
"pK 	c #C25152",
"qK 	c #C25153",
"rK 	c #DF5C5E",
"sK 	c #DC5C5F",
"tK 	c #BE5B5E",
"uK 	c #D65E61",
"vK 	c #E6595B",
"wK 	c #E75D5E",
"xK 	c #F26360",
"yK 	c #EB605D",
"zK 	c #F06261",
"AK 	c #EC6163",
"BK 	c #F06C69",
"CK 	c #E97572",
"DK 	c #EE6A67",
"EK 	c #F06B6F",
"FK 	c #EE6A6E",
"GK 	c #E46B69",
"HK 	c #EA6C68",
"IK 	c #E26766",
"JK 	c #E86C6B",
"KK 	c #EE6F6F",
"LK 	c #E3666C",
"MK 	c #E16468",
"NK 	c #ED7475",
"OK 	c #E36B6A",
"PK 	c #E96E6C",
"QK 	c #E16968",
"RK 	c #E86B6C",
"SK 	c #ED6F70",
"TK 	c #E66C6D",
"UK 	c #EC6F6F",
"VK 	c #E46B6B",
"WK 	c #EA6F6D",
"XK 	c #E86F6D",
"YK 	c #E06A6A",
"ZK 	c #E66F6E",
"`K 	c #EC7371",
" L 	c #EA7371",
".L 	c #E3706D",
"+L 	c #E97372",
"@L 	c #E16F6E",
"#L 	c #EB7576",
"$L 	c #E97576",
"%L 	c #E77473",
"&L 	c #DF716F",
"*L 	c #E67673",
"=L 	c #DD7270",
"-L 	c #E47976",
";L 	c #EA7B78",
">L 	c #E27C79",
",L 	c #E87A79",
"'L 	c #E6797B",
")L 	c #E4787C",
"!L 	c #E97C80",
"~L 	c #E0787C",
"{L 	c #DE7476",
"]L 	c #DA7678",
"^L 	c #E17675",
"/L 	c #DF7B7B",
"(L 	c #E57F7D",
"_L 	c #DD7978",
":L 	c #DB7373",
"<L 	c #D87373",
"[L 	c #DD7576",
"}L 	c #D97374",
"|L 	c #D77373",
"1L 	c #E57C7B",
"2L 	c #E37C7C",
"3L 	c #E07C7C",
"4L 	c #D77978",
"5L 	c #DE7F7D",
"6L 	c #D57B79",
"7L 	c #DC817E",
"8L 	c #E38684",
"9L 	c #DA8180",
"0L 	c #E18685",
"aL 	c #D88380",
"bL 	c #DF8985",
"cL 	c #D68480",
"dL 	c #DD8986",
"eL 	c #D3837F",
"fL 	c #DB8783",
"gL 	c #E28B87",
"hL 	c #D8847E",
"iL 	c #E08784",
"jL 	c #D6807D",
"kL 	c #DD8883",
"lL 	c #D4807C",
"mL 	c #DB857F",
"nL 	c #E28583",
"oL 	c #D97D7B",
"pL 	c #E0807E",
"qL 	c #D77676",
"rL 	c #DE7C7A",
"sL 	c #D47775",
"tL 	c #DC7E7C",
"uL 	c #D27676",
"vL 	c #D76F72",
"wL 	c #DC7677",
"xL 	c #DA7073",
"yL 	c #C3666A",
"zL 	c #CF6B6F",
"AL 	c #CB696C",
"BL 	c #A65C5D",
"CL 	c #935959",
"DL 	c #705050",
"EL 	c #694A36",
"FL 	c #763C26",
"GL 	c #77482F",
"HL 	c #59472D",
"IL 	c #362D1C",
"JL 	c #2F2817",
"KL 	c #6A513E",
"LL 	c #6E5B41",
"ML 	c #675438",
"NL 	c #6E5F42",
"OL 	c #7C6D4B",
"PL 	c #907B59",
"QL 	c #8C7654",
"RL 	c #8E7958",
"SL 	c #8B7756",
"TL 	c #806D4C",
"UL 	c #6E5E41",
"VL 	c #6F593F",
"WL 	c #73593E",
"XL 	c #775E41",
"YL 	c #645136",
"ZL 	c #944639",
"`L 	c #E44A48",
" M 	c #F14E4B",
".M 	c #EC4645",
"+M 	c #F04848",
"@M 	c #EC4847",
"#M 	c #F44847",
"$M 	c #F04947",
"%M 	c #F44745",
"&M 	c #F04846",
"*M 	c #F54948",
"=M 	c #EF4543",
"-M 	c #ED4645",
";M 	c #F74F4D",
">M 	c #F64E4C",
",M 	c #EF4B4A",
"'M 	c #F44C4A",
")M 	c #EA4C4C",
"!M 	c #ED4B4B",
"~M 	c #F0514E",
"{M 	c #F35756",
"]M 	c #EC504F",
"^M 	c #E35252",
"/M 	c #DE5353",
"(M 	c #EF5351",
"_M 	c #EF5050",
":M 	c #F55351",
"<M 	c #ED5353",
"[M 	c #F65756",
"}M 	c #F15959",
"|M 	c #F55D5D",
"1M 	c #EF5A5A",
"2M 	c #F45C5C",
"3M 	c #F55958",
"4M 	c #F05C59",
"5M 	c #ED5958",
"6M 	c #E25759",
"7M 	c #DD595B",
"8M 	c #DC5355",
"9M 	c #F35D5C",
"0M 	c #EC5B5C",
"aM 	c #CD5659",
"bM 	c #CD595C",
"cM 	c #DD5C5E",
"dM 	c #DB5C60",
"eM 	c #C1595D",
"fM 	c #DB595D",
"gM 	c #F26060",
"hM 	c #F16562",
"iM 	c #EA615F",
"jM 	c #F16A6B",
"kM 	c #E96A6A",
"lM 	c #EE706D",
"mM 	c #E77672",
"nM 	c #ED726E",
"oM 	c #E4656A",
"pM 	c #EF6B6D",
"qM 	c #E8676B",
"rM 	c #EE696B",
"sM 	c #EC6C6A",
"tM 	c #F06E6D",
"uM 	c #E96966",
"vM 	c #E7615F",
"wM 	c #ED6361",
"xM 	c #EF696E",
"yM 	c #ED6669",
"zM 	c #E46D6F",
"AM 	c #E2696A",
"BM 	c #EA6D6B",
"CM 	c #E26967",
"DM 	c #E96C6A",
"EM 	c #E06866",
"FM 	c #E76B6A",
"GM 	c #ED6E6E",
"HM 	c #E56C6C",
"IM 	c #EB7070",
"JM 	c #E36E6D",
"KM 	c #E16E6D",
"LM 	c #E77372",
"MM 	c #DF6E6E",
"NM 	c #EB7575",
"OM 	c #E47171",
"PM 	c #EA7474",
"QM 	c #E26F70",
"RM 	c #E87373",
"SM 	c #E06F6E",
"TM 	c #E67270",
"UM 	c #DD6E6D",
"VM 	c #E47472",
"WM 	c #EA7876",
"XM 	c #E27573",
"YM 	c #E87A78",
"ZM 	c #E97C7F",
"`M 	c #DC777A",
" N 	c #E3797A",
".N 	c #DA7375",
"+N 	c #DF7A7B",
"@N 	c #E67E7E",
"#N 	c #E47D7B",
"$N 	c #DB7472",
"%N 	c #E07778",
"&N 	c #E4797B",
"*N 	c #D76F6E",
"=N 	c #E57B79",
"-N 	c #E37A78",
";N 	c #DA7574",
">N 	c #E17A79",
",N 	c #D87170",
"'N 	c #DF7A7A",
")N 	c #E57F7E",
"!N 	c #DD7C7B",
"~N 	c #E38180",
"{N 	c #DA7D7C",
"]N 	c #E18281",
"^N 	c #D87E7D",
"/N 	c #DF8483",
"(N 	c #D6807E",
"_N 	c #DD8782",
":N 	c #E48E88",
"<N 	c #DB8B85",
"[N 	c #E29089",
"}N 	c #D98B83",
"|N 	c #E08E87",
"1N 	c #D78781",
"2N 	c #DE8F87",
"3N 	c #D4837D",
"4N 	c #DC8982",
"5N 	c #E38E87",
"6N 	c #D98C84",
"7N 	c #E1918A",
"8N 	c #D78780",
"9N 	c #DE8983",
"0N 	c #D58581",
"aN 	c #DC8983",
"bN 	c #D27D78",
"cN 	c #DA7D7A",
"dN 	c #E18986",
"eN 	c #D88280",
"fN 	c #DF8684",
"gN 	c #D57D7C",
"hN 	c #DD8080",
"iN 	c #D37578",
"jN 	c #DB7A7C",
"kN 	c #D17073",
"lN 	c #DD787A",
"mN 	c #D37072",
"nN 	c #D16569",
"oN 	c #C66365",
"pN 	c #A35655",
"qN 	c #975554",
"rN 	c #895554",
"sN 	c #6C4E4E",
"tN 	c #634837",
"uN 	c #753823",
"vN 	c #763824",
"wN 	c #533F27",
"xN 	c #312919",
"yN 	c #382D1C",
"zN 	c #594430",
"AN 	c #705E49",
"BN 	c #695C42",
"CN 	c #645035",
"DN 	c #63553C",
"EN 	c #705E41",
"FN 	c #876F4E",
"GN 	c #877451",
"HN 	c #887451",
"IN 	c #8B7451",
"JN 	c #7B6444",
"KN 	c #7F6646",
"LN 	c #7D6747",
"MN 	c #6E5C40",
"NN 	c #69583F",
"ON 	c #6B583E",
"PN 	c #6E5A3E",
"QN 	c #725C3D",
"RN 	c #533F28",
"SN 	c #61412C",
"TN 	c #B74E45",
"UN 	c #E84D4B",
"VN 	c #EC4B49",
"WN 	c #E84745",
"XN 	c #ED4545",
"YN 	c #F24848",
"ZN 	c #EE4746",
"`N 	c #F34949",
" O 	c #ED4544",
".O 	c #F24847",
"+O 	c #F34947",
"@O 	c #F44B49",
"#O 	c #EF4646",
"$O 	c #F14D4D",
"%O 	c #F44E4D",
"&O 	c #F8514F",
"*O 	c #F74E4D",
"=O 	c #F14F4D",
"-O 	c #F65251",
";O 	c #F45554",
">O 	c #F25250",
",O 	c #EE504F",
"'O 	c #E04B4B",
")O 	c #ED5352",
"!O 	c #F45756",
"~O 	c #EE5959",
"{O 	c #EC5858",
"]O 	c #F15B5A",
"^O 	c #F65D5C",
"/O 	c #F05A5A",
"(O 	c #F35854",
"_O 	c #ED5754",
":O 	c #F25B5A",
"<O 	c #F05959",
"[O 	c #F25857",
"}O 	c #EB5757",
"|O 	c #EB595B",
"1O 	c #D65658",
"2O 	c #DA585A",
"3O 	c #DE5557",
"4O 	c #EF5859",
"5O 	c #F35B59",
"6O 	c #F25958",
"7O 	c #F15B59",
"8O 	c #ED5C5D",
"9O 	c #D15457",
"0O 	c #D35C60",
"aO 	c #E35B5E",
"bO 	c #DB5C5F",
"cO 	c #C4595D",
"dO 	c #DE5E61",
"eO 	c #F15D5F",
"fO 	c #F15C5D",
"gO 	c #E96460",
"hO 	c #EE6563",
"iO 	c #E76363",
"jO 	c #F16868",
"kO 	c #F0686A",
"lO 	c #E7615E",
"mO 	c #ED716B",
"nO 	c #E6756F",
"oO 	c #EB716D",
"pO 	c #F1706E",
"qO 	c #F1686B",
"rO 	c #E86568",
"sO 	c #EE676A",
"tO 	c #E55A58",
"uO 	c #F06968",
"vO 	c #E96665",
"wO 	c #EE6E6D",
"xO 	c #E76A68",
"yO 	c #ED6765",
"zO 	c #E55D5C",
"AO 	c #E35D5D",
"BO 	c #EA6162",
"CO 	c #ED676B",
"DO 	c #E66467",
"EO 	c #E45E60",
"FO 	c #EE6F6E",
"GO 	c #E66A6A",
"HO 	c #EC6D6B",
"IO 	c #E56965",
"JO 	c #EB6A67",
"KO 	c #E36664",
"LO 	c #E96A67",
"MO 	c #E16664",
"NO 	c #ED6D6D",
"OO 	c #E36867",
"PO 	c #E96B6A",
"QO 	c #E16868",
"RO 	c #E86E6C",
"SO 	c #DF6C6A",
"TO 	c #E66F6D",
"UO 	c #EC7471",
"VO 	c #E4716E",
"WO 	c #EA7471",
"XO 	c #E2706E",
"YO 	c #DE6D6E",
"ZO 	c #E57070",
"`O 	c #E97373",
" P 	c #E06F70",
".P 	c #DC7071",
"+P 	c #DF7776",
"@P 	c #E67774",
"#P 	c #DD6F6B",
"$P 	c #E47C77",
"%P 	c #EA7C78",
"&P 	c #E27D7B",
"*P 	c #E87F7F",
"=P 	c #E0797A",
"-P 	c #E87B7D",
";P 	c #E0767A",
">P 	c #E5797C",
",P 	c #E77879",
"'P 	c #DF7373",
")P 	c #E57B7B",
"!P 	c #DD7676",
"~P 	c #DA7474",
"{P 	c #D87273",
"]P 	c #E67C7C",
"^P 	c #DD7778",
"/P 	c #E47D7C",
"(P 	c #DB7878",
"_P 	c #E27E7D",
":P 	c #D97979",
"<P 	c #E07E7E",
"[P 	c #D67978",
"}P 	c #DE7E7C",
"|P 	c #E48581",
"1P 	c #DC837E",
"2P 	c #E28A85",
"3P 	c #D98982",
"4P 	c #D78880",
"5P 	c #DE8E85",
"6P 	c #D58981",
"7P 	c #DC8F86",
"8P 	c #E3938A",
"9P 	c #DA8680",
"0P 	c #E18C85",
"aP 	c #D88680",
"bP 	c #DF8E86",
"cP 	c #D58982",
"dP 	c #DD8C86",
"eP 	c #D38079",
"fP 	c #DB8581",
"gP 	c #E28882",
"hP 	c #D8827D",
"iP 	c #DF857F",
"jP 	c #D6807A",
"kP 	c #DD7E7A",
"lP 	c #D47773",
"mP 	c #DB7874",
"nP 	c #D1807D",
"oP 	c #D98282",
"pP 	c #E08483",
"qP 	c #DE7879",
"rP 	c #D47272",
"sP 	c #D26F70",
"tP 	c #CF7070",
"uP 	c #D77474",
"vP 	c #D56B6C",
"wP 	c #DC6B6A",
"xP 	c #C05E5D",
"yP 	c #AC5A59",
"zP 	c #935252",
"AP 	c #7E514F",
"BP 	c #6A3E29",
"CP 	c #733420",
"DP 	c #703C26",
"EP 	c #4C3E26",
"FP 	c #362C1A",
"GP 	c #332A1A",
"HP 	c #463824",
"IP 	c #6C5B45",
"JP 	c #755D45",
"KP 	c #68513A",
"LP 	c #644D36",
"MP 	c #66553B",
"NP 	c #7C6544",
"OP 	c #87704E",
"PP 	c #8A7551",
"QP 	c #83704D",
"RP 	c #796444",
"SP 	c #705C3F",
"TP 	c #6F543A",
"UP 	c #725B3F",
"VP 	c #6D593F",
"WP 	c #6A553D",
"XP 	c #6A583E",
"YP 	c #68573D",
"ZP 	c #745D41",
"`P 	c #5B482F",
" Q 	c #533E29",
".Q 	c #8A4A39",
"+Q 	c #E55352",
"@Q 	c #ED4C49",
"#Q 	c #E64746",
"$Q 	c #EC4A49",
"%Q 	c #EA4745",
"&Q 	c #E93E3C",
"*Q 	c #EC4744",
"=Q 	c #EA4544",
"-Q 	c #EF4A49",
";Q 	c #F14846",
">Q 	c #ED4846",
",Q 	c #F14947",
"'Q 	c #EB4644",
")Q 	c #F04C4A",
"!Q 	c #F34E4D",
"~Q 	c #F84F4F",
"{Q 	c #F3504F",
"]Q 	c #F74D4B",
"^Q 	c #F14A48",
"/Q 	c #F64E4D",
"(Q 	c #F04D4C",
"_Q 	c #F15252",
":Q 	c #E54E4E",
"<Q 	c #ED4D4C",
"[Q 	c #F75957",
"}Q 	c #F55150",
"|Q 	c #F45555",
"1Q 	c #EE5252",
"2Q 	c #F35454",
"3Q 	c #F55858",
"4Q 	c #F55C5C",
"5Q 	c #ED5957",
"6Q 	c #E15859",
"7Q 	c #D05658",
"8Q 	c #DC585A",
"9Q 	c #EF5A5D",
"0Q 	c #F35655",
"aQ 	c #ED5655",
"bQ 	c #F05958",
"cQ 	c #E95755",
"dQ 	c #EF5958",
"eQ 	c #D2575A",
"fQ 	c #EC5F61",
"gQ 	c #DA585D",
"hQ 	c #D05A5F",
"iQ 	c #DD5B5D",
"jQ 	c #EB5B5D",
"kQ 	c #F05F5F",
"lQ 	c #EE6462",
"mQ 	c #F36563",
"nQ 	c #ED5D5A",
"oQ 	c #F26867",
"pQ 	c #F06767",
"qQ 	c #E86363",
"rQ 	c #F26F6B",
"sQ 	c #EC706C",
"tQ 	c #F17771",
"uQ 	c #EA6F6B",
"vQ 	c #EF6662",
"wQ 	c #EE6667",
"xQ 	c #F06568",
"yQ 	c #F06868",
"zQ 	c #E96866",
"AQ 	c #EF6A68",
"BQ 	c #E86463",
"CQ 	c #E66766",
"DQ 	c #E45F60",
"EQ 	c #EF6D6C",
"FQ 	c #E86969",
"GQ 	c #EE6C6A",
"HQ 	c #E65D5E",
"IQ 	c #E46163",
"JQ 	c #E36161",
"KQ 	c #EE6D6B",
"LQ 	c #E76664",
"MQ 	c #ED6967",
"NQ 	c #E56765",
"OQ 	c #E36764",
"PQ 	c #E96A66",
"QQ 	c #E16562",
"RQ 	c #ED6B6A",
"SQ 	c #E66868",
"TQ 	c #E46868",
"UQ 	c #EA6A6A",
"VQ 	c #E26664",
"WQ 	c #E86967",
"XQ 	c #E06563",
"YQ 	c #E66967",
"ZQ 	c #EC6E6C",
"`Q 	c #E46C6A",
" R 	c #EA706F",
".R 	c #E26D6B",
"+R 	c #E87170",
"@R 	c #E06E6D",
"#R 	c #DE6E6F",
"$R 	c #EB7574",
"%R 	c #E97473",
"&R 	c #E16E6E",
"*R 	c #DF6D6D",
"=R 	c #E37171",
"-R 	c #EA7574",
";R 	c #E17271",
">R 	c #E87776",
",R 	c #DF7672",
"'R 	c #E67E77",
")R 	c #DD7C78",
"!R 	c #E4837D",
"~R 	c #EA8982",
"{R 	c #E2827A",
"]R 	c #E8837B",
"^R 	c #E07A75",
"/R 	c #E67F7B",
"(R 	c #E97B7D",
"_R 	c #E17679",
":R 	c #E77B7C",
"<R 	c #E57A7B",
"[R 	c #E77878",
"}R 	c #DF7577",
"|R 	c #E47B7B",
"1R 	c #E2797A",
"2R 	c #D97475",
"3R 	c #E47A7B",
"4R 	c #E27B7A",
"5R 	c #E07B79",
"6R 	c #D77674",
"7R 	c #DE7B78",
"8R 	c #E5817D",
"9R 	c #DC7E7B",
"0R 	c #E37F7A",
"aR 	c #DA7F7B",
"bR 	c #E18580",
"cR 	c #D7827C",
"dR 	c #DF8983",
"eR 	c #D5877F",
"fR 	c #DD9085",
"gR 	c #E3958C",
"hR 	c #DA8E85",
"iR 	c #E19288",
"jR 	c #D88881",
"kR 	c #DF8B84",
"lR 	c #D6847E",
"mR 	c #DD8983",
"nR 	c #D3817C",
"oR 	c #E28984",
"pR 	c #D9827E",
"qR 	c #E08885",
"rR 	c #D6857F",
"sR 	c #DE8B83",
"tR 	c #DC8E86",
"uR 	c #D2837C",
"vR 	c #D98780",
"wR 	c #E0827C",
"xR 	c #D78581",
"yR 	c #DE8A85",
"zR 	c #D5837F",
"AR 	c #DC8783",
"BR 	c #D27B7B",
"CR 	c #DA7C7B",
"DR 	c #D07577",
"ER 	c #D87C7D",
"FR 	c #D57878",
"GR 	c #DD7E7E",
"HR 	c #D37979",
"IR 	c #D07475",
"JR 	c #D87877",
"KR 	c #DF7876",
"LR 	c #D67172",
"MR 	c #D46D6F",
"NR 	c #C16364",
"OR 	c #AD5E5D",
"PR 	c #8B5051",
"QR 	c #73504F",
"RR 	c #60412E",
"SR 	c #713620",
"TR 	c #763721",
"UR 	c #513C25",
"VR 	c #362D1B",
"WR 	c #2F2717",
"XR 	c #725C3F",
"YR 	c #806347",
"ZR 	c #5D4F38",
"`R 	c #615139",
" S 	c #6F5F43",
".S 	c #827052",
"+S 	c #876C4D",
"@S 	c #776043",
"#S 	c #766647",
"$S 	c #715D3F",
"%S 	c #6B593E",
"&S 	c #6A5239",
"*S 	c #6D5B3E",
"=S 	c #6D553B",
"-S 	c #68563C",
";S 	c #6A5139",
">S 	c #74553D",
",S 	c #4E3B24",
"'S 	c #543E29",
")S 	c #A74136",
"!S 	c #E74A48",
"~S 	c #E34846",
"{S 	c #E74645",
"]S 	c #E74646",
"^S 	c #E34442",
"/S 	c #E94442",
"(S 	c #ED4644",
"_S 	c #EB4947",
":S 	c #EA4746",
"<S 	c #EE4845",
"[S 	c #EB4846",
"}S 	c #EF4B48",
"|S 	c #E94846",
"1S 	c #F14845",
"2S 	c #EF4644",
"3S 	c #F54B49",
"4S 	c #F24846",
"5S 	c #F64D4C",
"6S 	c #F04B48",
"7S 	c #F54D4B",
"8S 	c #EF4A48",
"9S 	c #F65554",
"0S 	c #F55454",
"aS 	c #EF4F4E",
"bS 	c #F15050",
"cS 	c #F75352",
"dS 	c #F15453",
"eS 	c #F65553",
"fS 	c #F35050",
"gS 	c #ED5251",
"hS 	c #F65959",
"iS 	c #F05455",
"jS 	c #EC5656",
"kS 	c #F55A5A",
"lS 	c #F45B5B",
"mS 	c #F25755",
"nS 	c #DE5658",
"oS 	c #DC595B",
"pS 	c #F25859",
"qS 	c #ED5857",
"rS 	c #F25957",
"sS 	c #EF5553",
"tS 	c #F45959",
"uS 	c #F25B5B",
"vS 	c #D95B5D",
"wS 	c #D75A5D",
"xS 	c #ED5D60",
"yS 	c #D95A5E",
"zS 	c #D2585A",
"AS 	c #E15C60",
"BS 	c #ED6261",
"CS 	c #F26563",
"DS 	c #EB605F",
"ES 	c #EA605F",
"FS 	c #EF6360",
"GS 	c #E86260",
"HS 	c #EE5F5D",
"IS 	c #F26665",
"JS 	c #F16C68",
"KS 	c #EA6864",
"LS 	c #F0736E",
"MS 	c #E96C68",
"NS 	c #EE6B68",
"OS 	c #E76564",
"PS 	c #ED6565",
"QS 	c #F26668",
"RS 	c #E56267",
"SS 	c #E86362",
"TS 	c #E66463",
"US 	c #EC6867",
"VS 	c #EF6967",
"WS 	c #E86665",
"XS 	c #EE6A68",
"YS 	c #E76866",
"ZS 	c #EC6B6A",
"`S 	c #E56160",
" T 	c #EB5C5A",
".T 	c #E35C5A",
"+T 	c #EF615E",
"@T 	c #E75F5D",
"#T 	c #E56865",
"$T 	c #E16866",
"%T 	c #E86B69",
"&T 	c #ED6E6C",
"*T 	c #EC6F6E",
"=T 	c #EA6D6E",
"-T 	c #E06868",
";T 	c #E76A6A",
">T 	c #EC6C6B",
",T 	c #E46967",
"'T 	c #EA6C6A",
")T 	c #E16A68",
"!T 	c #E76F6D",
"~T 	c #ED7472",
"{T 	c #E57170",
"]T 	c #EB7573",
"^T 	c #E87472",
"/T 	c #E67172",
"(T 	c #E87573",
"_T 	c #E07370",
":T 	c #E67974",
"<T 	c #DE7873",
"[T 	c #E47F78",
"}T 	c #EA877F",
"|T 	c #E2867E",
"1T 	c #E98981",
"2T 	c #E0837A",
"3T 	c #E7857D",
"4T 	c #DE7C75",
"5T 	c #E57D78",
"6T 	c #DC7874",
"7T 	c #E37B79",
"8T 	c #E97E7D",
"9T 	c #DF7477",
"0T 	c #DD7376",
"aT 	c #E27777",
"bT 	c #E07576",
"cT 	c #DB7577",
"dT 	c #D97477",
"eT 	c #E67C7E",
"fT 	c #DE7779",
"gT 	c #DA7676",
"hT 	c #E17B79",
"iT 	c #DF7A77",
"jT 	c #E5807A",
"kT 	c #DC7C76",
"lT 	c #E3817A",
"mT 	c #DA7D77",
"nT 	c #E1837E",
"oT 	c #D87F79",
"pT 	c #DF8580",
"qT 	c #D6817C",
"rT 	c #E4928A",
"sT 	c #DB8F86",
"tT 	c #E2948B",
"uT 	c #D98C83",
"vT 	c #E08E86",
"wT 	c #D6867E",
"xT 	c #DD8680",
"yT 	c #D47F7A",
"zT 	c #DB837E",
"AT 	c #E28682",
"BT 	c #D97F7C",
"CT 	c #E08280",
"DT 	c #D77D7A",
"ET 	c #DE817E",
"FT 	c #D47E7A",
"GT 	c #DC817B",
"HT 	c #D27A74",
"IT 	c #DA827A",
"JT 	c #E1847C",
"KT 	c #DF7E79",
"LT 	c #D57771",
"MT 	c #D3827D",
"NT 	c #DA8580",
"OT 	c #E18985",
"PT 	c #D88481",
"QT 	c #D67D7B",
"RT 	c #D37575",
"ST 	c #DB787A",
"TT 	c #D17275",
"UT 	c #E07F7E",
"VT 	c #D67B7B",
"WT 	c #DD8280",
"XT 	c #D47977",
"YT 	c #DB807E",
"ZT 	c #D17776",
"`T 	c #D97574",
" U 	c #CF6C6C",
".U 	c #D76360",
"+U 	c #CF6361",
"@U 	c #A75857",
"#U 	c #AA5D5C",
"$U 	c #714E4E",
"%U 	c #705352",
"&U 	c #713922",
"*U 	c #7E311D",
"=U 	c #6D3D24",
"-U 	c #413822",
";U 	c #302817",
">U 	c #2F2617",
",U 	c #493620",
"'U 	c #755F49",
")U 	c #776445",
"!U 	c #766245",
"~U 	c #5E4E37",
"{U 	c #7A6749",
"]U 	c #8C7252",
"^U 	c #755C3E",
"/U 	c #74593D",
"(U 	c #6E5D41",
"_U 	c #69573D",
":U 	c #664F36",
"<U 	c #6E553B",
"[U 	c #665139",
"}U 	c #624F38",
"|U 	c #6A543A",
"1U 	c #52422B",
"2U 	c #543C28",
"3U 	c #5F432D",
"4U 	c #C4403B",
"5U 	c #DD4543",
"6U 	c #E24544",
"7U 	c #E34241",
"8U 	c #E94544",
"9U 	c #E74544",
"0U 	c #ED4746",
"aU 	c #E74545",
"bU 	c #ED4443",
"cU 	c #E84341",
"dU 	c #EB4845",
"eU 	c #EF4A47",
"fU 	c #EC4A48",
"gU 	c #EA4846",
"hU 	c #F14544",
"iU 	c #EE4545",
"jU 	c #F34A49",
"kU 	c #F74C4B",
"lU 	c #F14E4E",
"mU 	c #F74E4E",
"nU 	c #F54C4B",
"oU 	c #F04F4F",
"pU 	c #EE5050",
"qU 	c #F24F4F",
"rU 	c #F25252",
"sU 	c #F65150",
"tU 	c #F55859",
"uU 	c #F05556",
"vU 	c #F65858",
"wU 	c #F45755",
"xU 	c #F55959",
"yU 	c #DF5556",
"zU 	c #E45758",
"AU 	c #EC5755",
"BU 	c #EF5552",
"CU 	c #E85759",
"DU 	c #D85354",
"EU 	c #D65559",
"FU 	c #EB5C5D",
"GU 	c #D65A5C",
"HU 	c #F46263",
"IU 	c #F26260",
"JU 	c #EC5C59",
"KU 	c #EF5E5C",
"LU 	c #F36462",
"MU 	c #EC6160",
"NU 	c #F06762",
"OU 	c #E9635E",
"PU 	c #EE6863",
"QU 	c #E7635E",
"RU 	c #ED6663",
"SU 	c #F26462",
"TU 	c #EB6565",
"UU 	c #F06667",
"VU 	c #E65D60",
"WU 	c #EC6368",
"XU 	c #F1676B",
"YU 	c #EF6264",
"ZU 	c #EE6666",
"`U 	c #E5615F",
" V 	c #EB6F6C",
".V 	c #F06A68",
"+V 	c #E76A67",
"@V 	c #ED6C69",
"#V 	c #E56766",
"$V 	c #E3615E",
"%V 	c #E96563",
"&V 	c #ED6C6A",
"*V 	c #E66866",
"=V 	c #EC6B67",
"-V 	c #EA6A68",
";V 	c #E86765",
">V 	c #EE6D6C",
",V 	c #EC6463",
"'V 	c #E46262",
")V 	c #EE6F72",
"!V 	c #E56B6A",
"~V 	c #E96A68",
"{V 	c #E16665",
"]V 	c #E76969",
"^V 	c #ED6D6C",
"/V 	c #E56C69",
"(V 	c #EB716E",
"_V 	c #E46F6B",
":V 	c #EA736F",
"<V 	c #E26E6B",
"[V 	c #E8716E",
"}V 	c #E06D6A",
"|V 	c #E6706E",
"1V 	c #E26F6D",
"2V 	c #E07170",
"3V 	c #E77673",
"4V 	c #DE756F",
"5V 	c #E57A75",
"6V 	c #EB817A",
"7V 	c #E37E76",
"8V 	c #E9837C",
"9V 	c #E17E78",
"0V 	c #E77E77",
"aV 	c #DF7A73",
"bV 	c #E57E78",
"cV 	c #DD7973",
"dV 	c #E37C77",
"eV 	c #E97F7A",
"fV 	c #E17975",
"gV 	c #E87A77",
"hV 	c #DF7473",
"iV 	c #DB7070",
"jV 	c #E27574",
"kV 	c #E87979",
"lV 	c #E07475",
"mV 	c #E67878",
"nV 	c #E57877",
"oV 	c #DC7475",
"pV 	c #E57C7D",
"qV 	c #DC7777",
"rV 	c #E37C7B",
"sV 	c #DA7776",
"tV 	c #E17C7A",
"uV 	c #E6827D",
"vV 	c #DD7E78",
"wV 	c #E4807B",
"xV 	c #DA7B75",
"yV 	c #E17F79",
"zV 	c #D87B75",
"AV 	c #DF817B",
"BV 	c #E68881",
"CV 	c #DD857E",
"DV 	c #E48D85",
"EV 	c #DB8880",
"FV 	c #E28D86",
"GV 	c #E08B84",
"HV 	c #D7847D",
"IV 	c #DE8880",
"JV 	c #E58A84",
"KV 	c #DC847F",
"LV 	c #E28781",
"MV 	c #D9827D",
"NV 	c #E18682",
"OV 	c #D77F7B",
"PV 	c #DE8380",
"QV 	c #D57D7A",
"RV 	c #DC8580",
"SV 	c #E38D88",
"TV 	c #DA8A83",
"UV 	c #E19289",
"VV 	c #D88E86",
"WV 	c #DF9289",
"XV 	c #D68C83",
"YV 	c #DD928A",
"ZV 	c #D3847B",
"`V 	c #DB827B",
" W 	c #E28D87",
".W 	c #D8857F",
"+W 	c #E08984",
"@W 	c #D6827D",
"#W 	c #D4817C",
"$W 	c #DB8580",
"%W 	c #D98280",
"&W 	c #E08683",
"*W 	c #D77A78",
"=W 	c #DE7D7D",
"-W 	c #D47676",
";W 	c #DC7C7B",
">W 	c #D27A78",
",W 	c #D97E7C",
"'W 	c #CF7C78",
")W 	c #D7807C",
"!W 	c #DE8781",
"~W 	c #DC807D",
"{W 	c #D27471",
"]W 	c #D97573",
"^W 	c #D06664",
"/W 	c #B46769",
"(W 	c #A35E5F",
"_W 	c #975B5D",
":W 	c #935B5C",
"<W 	c #65412F",
"[W 	c #7A321D",
"}W 	c #74311E",
"|W 	c #4D3924",
"1W 	c #372E1B",
"2W 	c #332A19",
"3W 	c #3E311D",
"4W 	c #654E37",
"5W 	c #6F6045",
"6W 	c #6C5C3F",
"7W 	c #6D5038",
"8W 	c #604D35",
"9W 	c #67573C",
"0W 	c #7B6748",
"aW 	c #766344",
"bW 	c #6E583B",
"cW 	c #705338",
"dW 	c #6A563D",
"eW 	c #684D35",
"fW 	c #674B34",
"gW 	c #6D5238",
"hW 	c #735D41",
"iW 	c #6D5A3E",
"jW 	c #63513A",
"kW 	c #6E5138",
"lW 	c #5E4D33",
"mW 	c #4A3825",
"nW 	c #503D26",
"oW 	c #813E2F",
"pW 	c #CD3A37",
"qW 	c #DA403E",
"rW 	c #DF4040",
"sW 	c #E44341",
"tW 	c #E64340",
"uW 	c #E1413E",
"vW 	c #EA4543",
"wW 	c #E6403F",
"xW 	c #EB4544",
"yW 	c #F04847",
"zW 	c #EF4948",
"AW 	c #E84644",
"BW 	c #E54342",
"CW 	c #EC4646",
"DW 	c #F6514F",
"EW 	c #F04E4D",
"FW 	c #F54D4D",
"GW 	c #EF4A4B",
"HW 	c #F34B4A",
"IW 	c #F74F4E",
"JW 	c #F6504F",
"KW 	c #EF4949",
"LW 	c #F85152",
"MW 	c #F5504D",
"NW 	c #F04C4B",
"OW 	c #F4504F",
"PW 	c #F55656",
"QW 	c #F05454",
"RW 	c #E95354",
"SW 	c #F65A5A",
"TW 	c #EE5354",
"UW 	c #EE5758",
"VW 	c #E35454",
"WW 	c #EB4F50",
"XW 	c #F45652",
"YW 	c #F45A59",
"ZW 	c #F15655",
"`W 	c #E75354",
" X 	c #D75052",
".X 	c #D7565A",
"+X 	c #EA5A5D",
"@X 	c #D3575A",
"#X 	c #D3595D",
"$X 	c #EE5B5D",
"%X 	c #F15F5C",
"&X 	c #EA5C5A",
"*X 	c #E95B59",
"=X 	c #F3625F",
"-X 	c #ED605D",
";X 	c #F1625F",
">X 	c #EB5E5C",
",X 	c #EF625E",
"'X 	c #ED6461",
")X 	c #F16565",
"!X 	c #EF6566",
"~X 	c #E65F5F",
"{X 	c #EA6264",
"]X 	c #F06467",
"^X 	c #F26666",
"/X 	c #EB5D5C",
"(X 	c #E96B69",
"_X 	c #EF6966",
":X 	c #E76361",
"<X 	c #ED6F6C",
"[X 	c #E56864",
"}X 	c #EB6B66",
"|X 	c #EF6766",
"1X 	c #ED6B69",
"2X 	c #E46361",
"3X 	c #EA6766",
"4X 	c #EC6B6B",
"5X 	c #ED6D6F",
"6X 	c #E36866",
"7X 	c #E26764",
"8X 	c #E66A67",
"9X 	c #E46A68",
"0X 	c #EA6E6D",
"aX 	c #E26B69",
"bX 	c #E06C69",
"cX 	c #E66F6B",
"dX 	c #EC726E",
"eX 	c #E56E6A",
"fX 	c #EB726E",
"gX 	c #E36D6A",
"hX 	c #E9716E",
"iX 	c #E16E6B",
"jX 	c #E77270",
"kX 	c #DE706D",
"lX 	c #E57570",
"mX 	c #EB7A74",
"nX 	c #E37771",
"oX 	c #E97A75",
"pX 	c #E17671",
"qX 	c #E77974",
"rX 	c #DF7470",
"sX 	c #DD7570",
"tX 	c #E47B73",
"uX 	c #EA7F78",
"vX 	c #E27A73",
"wX 	c #E87C76",
"xX 	c #E0756F",
"yX 	c #E27373",
"zX 	c #E07272",
"AX 	c #E77676",
"BX 	c #DE7271",
"CX 	c #E57675",
"DX 	c #DC7371",
"EX 	c #E37776",
"FX 	c #DA7272",
"GX 	c #E57B7A",
"HX 	c #E37C79",
"IX 	c #DA756F",
"JX 	c #E17D77",
"KX 	c #E8827C",
"LX 	c #DF7D78",
"MX 	c #E6847D",
"NX 	c #DD8079",
"OX 	c #E4827D",
"PX 	c #DB7D78",
"QX 	c #E27F7C",
"RX 	c #D97A76",
"SX 	c #E07D7A",
"TX 	c #E6827F",
"UX 	c #DE7B75",
"VX 	c #E4817B",
"WX 	c #E28881",
"XX 	c #D9847D",
"YX 	c #E08981",
"ZX 	c #D7817A",
"`X 	c #DE867F",
" Y 	c #E58A83",
".Y 	c #DC847E",
"+Y 	c #E38982",
"@Y 	c #DA857E",
"#Y 	c #E18A82",
"$Y 	c #D8837D",
"%Y 	c #DF8781",
"&Y 	c #D5817C",
"*Y 	c #E38B83",
"=Y 	c #DA887F",
"-Y 	c #E18D83",
";Y 	c #D88A81",
">Y 	c #DF8C82",
",Y 	c #D6887E",
"'Y 	c #DD8F86",
")Y 	c #D49389",
"!Y 	c #DB9C91",
"~Y 	c #E29F95",
"{Y 	c #D9958A",
"]Y 	c #E09A8F",
"^Y 	c #D68980",
"/Y 	c #DE8A82",
"(Y 	c #D47E78",
"_Y 	c #DC8078",
":Y 	c #D27E76",
"<Y 	c #D97F77",
"[Y 	c #E1837B",
"}Y 	c #D77C74",
"|Y 	c #DE8079",
"1Y 	c #D57A74",
"2Y 	c #DC7B76",
"3Y 	c #D2736F",
"4Y 	c #DA7B79",
"5Y 	c #D07472",
"6Y 	c #D87A78",
"7Y 	c #DF807C",
"8Y 	c #D57A77",
"9Y 	c #DD837E",
"0Y 	c #D37D79",
"aY 	c #DB837F",
"bY 	c #D07F7A",
"cY 	c #D8807D",
"dY 	c #CE7270",
"eY 	c #D67875",
"fY 	c #D46867",
"gY 	c #CD6A6B",
"hY 	c #C96565",
"iY 	c #B86A6B",
"jY 	c #A36062",
"kY 	c #8E5B5B",
"lY 	c #6F4E4E",
"mY 	c #6E341F",
"nY 	c #792D19",
"oY 	c #643922",
"pY 	c #3A311C",
"qY 	c #352D1B",
"rY 	c #4A3E26",
"sY 	c #5F4B34",
"tY 	c #685139",
"uY 	c #6E5A40",
"vY 	c #6B553A",
"wY 	c #5F533C",
"xY 	c #564A35",
"yY 	c #705437",
"zY 	c #6E5136",
"AY 	c #6B563B",
"BY 	c #654C35",
"CY 	c #5F4D35",
"DY 	c #65533A",
"EY 	c #73573A",
"FY 	c #77583C",
"GY 	c #6C4D34",
"HY 	c #624A34",
"IY 	c #634E34",
"JY 	c #463721",
"KY 	c #44321F",
"LY 	c #4D3822",
"MY 	c #9D3D34",
"NY 	c #D03D3A",
"OY 	c #D93E3C",
"PY 	c #D73D3B",
"QY 	c #E14341",
"RY 	c #E14240",
"SY 	c #E5403E",
"TY 	c #E9423F",
"UY 	c #E64543",
"VY 	c #E84443",
"WY 	c #EE4847",
"XY 	c #EE4B4A",
"YY 	c #E64544",
"ZY 	c #EA4443",
"`Y 	c #EA4646",
" Z 	c #EF4745",
".Z 	c #F24745",
"+Z 	c #EF4947",
"@Z 	c #F54A48",
"#Z 	c #ED4946",
"$Z 	c #F14C4C",
"%Z 	c #F64C4C",
"&Z 	c #F14949",
"*Z 	c #F64D4D",
"=Z 	c #F44B4B",
"-Z 	c #F84D4C",
";Z 	c #F34B4B",
">Z 	c #F14D4B",
",Z 	c #F05250",
"'Z 	c #F3504E",
")Z 	c #F64E4E",
"!Z 	c #F45353",
"~Z 	c #EA5150",
"{Z 	c #EC5152",
"]Z 	c #F15150",
"^Z 	c #F55757",
"/Z 	c #EE5658",
"(Z 	c #E74F4E",
"_Z 	c #EF5555",
":Z 	c #EE5654",
"<Z 	c #F35956",
"[Z 	c #EB5452",
"}Z 	c #EC5756",
"|Z 	c #E55353",
"1Z 	c #D75353",
"2Z 	c #DA5557",
"3Z 	c #DB5B5D",
"4Z 	c #D45559",
"5Z 	c #EC5A5B",
"6Z 	c #F05C5A",
"7Z 	c #E95A59",
"8Z 	c #ED5F5D",
"9Z 	c #F2615E",
"0Z 	c #F0605F",
"aZ 	c #ED5E5B",
"bZ 	c #EC615E",
"cZ 	c #F16663",
"dZ 	c #F06265",
"eZ 	c #EE6264",
"fZ 	c #E75E60",
"gZ 	c #F26364",
"hZ 	c #E86563",
"iZ 	c #ED625E",
"jZ 	c #E65A58",
"kZ 	c #F1716E",
"lZ 	c #EA6B65",
"mZ 	c #EF6C69",
"nZ 	c #E86E6A",
"oZ 	c #E6615F",
"pZ 	c #EC6C68",
"qZ 	c #F06463",
"rZ 	c #E76263",
"sZ 	c #ED6467",
"tZ 	c #E56163",
"uZ 	c #E96467",
"vZ 	c #EC706F",
"wZ 	c #E46864",
"xZ 	c #E26461",
"yZ 	c #E86764",
"zZ 	c #EC6A67",
"AZ 	c #E96B68",
"BZ 	c #E06964",
"CZ 	c #E76C66",
"DZ 	c #EC716B",
"EZ 	c #E56E68",
"FZ 	c #EB716B",
"GZ 	c #E36D68",
"HZ 	c #E9706C",
"IZ 	c #E16D69",
"JZ 	c #E7706C",
"KZ 	c #DF6D6A",
"LZ 	c #E6716D",
"MZ 	c #EB7572",
"NZ 	c #E3716E",
"OZ 	c #EA7472",
"PZ 	c #E1706E",
"QZ 	c #DF6F6E",
"RZ 	c #E67371",
"SZ 	c #DD6E6C",
"TZ 	c #E4736E",
"UZ 	c #EA7772",
"VZ 	c #E2746E",
"WZ 	c #E87872",
"XZ 	c #E0736E",
"YZ 	c #E77671",
"ZZ 	c #E47371",
"`Z 	c #EA7676",
" ` 	c #DF706F",
".` 	c #E57573",
"+` 	c #DC716F",
"@` 	c #E37572",
"#` 	c #E97775",
"$` 	c #E17471",
"%` 	c #E87975",
"&` 	c #DF7571",
"*` 	c #E67A75",
"=` 	c #DD7772",
"-` 	c #E47C78",
";` 	c #DB7974",
">` 	c #E28079",
",` 	c #E8847D",
"'` 	c #E08078",
")` 	c #E6857D",
"!` 	c #DE7F78",
"~` 	c #E2817C",
"{` 	c #D97B77",
"]` 	c #E07F7B",
"^` 	c #E7837F",
"/` 	c #DE7F7A",
"(` 	c #E5847E",
"_` 	c #DC807A",
":` 	c #E3857F",
"<` 	c #E1887F",
"[` 	c #D7837A",
"}` 	c #E59188",
"|` 	c #DD8D85",
"1` 	c #E19188",
"2` 	c #D88D84",
"3` 	c #DF9189",
"4` 	c #D68B83",
"5` 	c #DD9087",
"6` 	c #E4978D",
"7` 	c #DB958B",
"8` 	c #E2948A",
"9` 	c #D9948B",
"0` 	c #E09B90",
"a` 	c #D69287",
"b` 	c #DE968B",
"c` 	c #D49489",
"d` 	c #DC9B90",
"e` 	c #E2A095",
"f` 	c #D99B8F",
"g` 	c #E0A094",
"h` 	c #D7998D",
"i` 	c #DE9D92",
"j` 	c #D4968C",
"k` 	c #D2948A",
"l` 	c #DA988E",
"m` 	c #E19A91",
"n` 	c #D8928A",
"o` 	c #DF948B",
"p` 	c #D58B82",
"q` 	c #D38880",
"r` 	c #DA8880",
"s` 	c #DF8A85",
"t` 	c #D67F7A",
"u` 	c #DD8480",
"v` 	c #D37B76",
"w` 	c #D17B77",
"x` 	c #D97F7A",
"y` 	c #CE7B76",
"z` 	c #D6817D",
"A` 	c #DE7D7C",
"B` 	c #D47A77",
"C` 	c #DC7C7A",
"D` 	c #D27875",
"E` 	c #D97876",
"F` 	c #CF6E6F",
"G` 	c #D76E6F",
"H` 	c #CD6F72",
"I` 	c #D37071",
"J` 	c #DB7374",
"K` 	c #C06B68",
"L` 	c #AC6868",
"M` 	c #935958",
"N` 	c #755352",
"O` 	c #6A4E4D",
"P` 	c #594437",
"Q` 	c #723120",
"R` 	c #7B311C",
"S` 	c #563620",
"T` 	c #382F1C",
"U` 	c #473B27",
"V` 	c #533F29",
"W` 	c #705843",
"X` 	c #6F5B43",
"Y` 	c #624F36",
"Z` 	c #514733",
"`` 	c #645439",
"  .	c #674E35",
". .	c #6C573B",
"+ .	c #6C563C",
"@ .	c #5D4D35",
"# .	c #624933",
"$ .	c #704C33",
"% .	c #78583C",
"& .	c #6D5138",
"* .	c #5C4D37",
"= .	c #664E36",
"- .	c #54412A",
"; .	c #473824",
"> .	c #593826",
", .	c #B23A34",
"' .	c #D53E39",
") .	c #D63A38",
"! .	c #D83D3B",
"~ .	c #E03E3C",
"{ .	c #E13F3C",
"] .	c #E74241",
"^ .	c #E44140",
"/ .	c #E54240",
"( .	c #EA4342",
"_ .	c #E94746",
": .	c #E94847",
"< .	c #EE4644",
"[ .	c #EE4846",
"} .	c #EA4744",
"| .	c #F74D4C",
"1 .	c #F24949",
"2 .	c #EE4745",
"3 .	c #F44A49",
"4 .	c #F44A4A",
"5 .	c #F34D4B",
"6 .	c #F14F4E",
"7 .	c #F64F4F",
"8 .	c #F04B4A",
"9 .	c #F65151",
"0 .	c #DE5050",
"a .	c #F44E4E",
"b .	c #EF5353",
"c .	c #EA5557",
"d .	c #F45657",
"e .	c #EF5755",
"f .	c #D65253",
"g .	c #E7575A",
"h .	c #D8585C",
"i .	c #D35456",
"j .	c #F35C5A",
"k .	c #F15E5C",
"l .	c #EF5F5E",
"m .	c #EC5F5D",
"n .	c #F1625E",
"o .	c #EA615D",
"p .	c #F06462",
"q .	c #F36666",
"r .	c #F06161",
"s .	c #EF6263",
"t .	c #F26363",
"u .	c #EA5F5E",
"v .	c #E85F5F",
"w .	c #EC6262",
"x .	c #F06561",
"y .	c #E96D69",
"z .	c #E76765",
"A .	c #EC6765",
"B .	c #E56564",
"C .	c #EB6664",
"D .	c #E96C6B",
"E .	c #E76669",
"F .	c #E8605E",
"G .	c #E46664",
"H .	c #EA6865",
"I .	c #EE6A66",
"J .	c #EC6866",
"K .	c #E56563",
"L .	c #EB6866",
"M .	c #E36562",
"N .	c #E96965",
"O .	c #E16561",
"P .	c #E76864",
"Q .	c #ED6C67",
"R .	c #E56A65",
"S .	c #EB6D68",
"T .	c #E36A65",
"U .	c #E96C69",
"V .	c #E16A66",
"W .	c #DF6B66",
"X .	c #E66E6B",
"Y .	c #EC716E",
"Z .	c #E46D6B",
"` .	c #EA706E",
" ..	c #E26E6C",
"...	c #E06D6D",
"+..	c #EC7172",
"@..	c #E46F6D",
"#..	c #EA716F",
"$..	c #E97370",
"%..	c #E06F6B",
"&..	c #DE6E6C",
"*..	c #E37072",
"=..	c #DD706D",
"-..	c #E47471",
";..	c #EA7874",
">..	c #E27570",
",..	c #E87974",
"'..	c #E47D76",
")..	c #DB7A73",
"!..	c #E8887E",
"~..	c #E0857C",
"{..	c #E68A80",
"]..	c #DE847B",
"^..	c #E5887F",
"/..	c #DC827A",
"(..	c #E3867E",
"_..	c #DA8179",
":..	c #E1857E",
"<..	c #E78A83",
"[..	c #DF857E",
"}..	c #E58980",
"|..	c #DD847B",
"1..	c #E38880",
"2..	c #DA847A",
"3..	c #D8837B",
"4..	c #DF897F",
"5..	c #E69087",
"6..	c #E4998E",
"7..	c #DB8C82",
"8..	c #E29288",
"9..	c #D98279",
"0..	c #E09086",
"a..	c #D6857B",
"b..	c #DE857A",
"c..	c #E4887E",
"d..	c #DC8379",
"e..	c #E28E83",
"f..	c #D98980",
"g..	c #E09388",
"h..	c #D7948A",
"i..	c #DE9A91",
"j..	c #D4968A",
"k..	c #DC9C90",
"l..	c #E3A194",
"m..	c #DA9A8E",
"n..	c #DF9E92",
"o..	c #D5968B",
"p..	c #DC9B8E",
"q..	c #D29287",
"r..	c #D9978B",
"s..	c #CF8C82",
"t..	c #D89086",
"u..	c #DF988E",
"v..	c #D79489",
"w..	c #DF9A90",
"x..	c #D69489",
"y..	c #DD998E",
"z..	c #D39188",
"A..	c #DB968C",
"B..	c #E2978E",
"C..	c #D99187",
"D..	c #E0928A",
"E..	c #D68C84",
"F..	c #D48881",
"G..	c #D18079",
"H..	c #D9817A",
"I..	c #E0837D",
"J..	c #D77A74",
"K..	c #DE7F79",
"L..	c #D47470",
"M..	c #DC7974",
"N..	c #D27774",
"O..	c #DA7F7D",
"P..	c #D07B77",
"Q..	c #DF7E7B",
"R..	c #D57271",
"S..	c #D36D6E",
"T..	c #C26C6C",
"U..	c #D17674",
"V..	c #BF7272",
"W..	c #A86663",
"X..	c #9C6362",
"Y..	c #7A5555",
"Z..	c #775655",
"`..	c #594235",
" +.	c #752817",
".+.	c #722917",
"++.	c #4E341F",
"@+.	c #372D1C",
"#+.	c #53472F",
"$+.	c #6E5742",
"%+.	c #674F37",
"&+.	c #5A4F3A",
"*+.	c #4D4333",
"=+.	c #534935",
"-+.	c #644D33",
";+.	c #6B472E",
">+.	c #635037",
",+.	c #64553B",
"'+.	c #69563B",
")+.	c #694C33",
"!+.	c #6A472F",
"~+.	c #6F5539",
"{+.	c #6E573C",
"]+.	c #5F4D36",
"^+.	c #5F4934",
"/+.	c #5F4A32",
"(+.	c #403220",
"_+.	c #433321",
":+.	c #55432C",
"<+.	c #763829",
"[+.	c #CE3C39",
"}+.	c #DC403E",
"|+.	c #DC3937",
"1+.	c #DC3B38",
"2+.	c #D83C3B",
"3+.	c #E34140",
"4+.	c #E13E3C",
"5+.	c #E44240",
"6+.	c #E0403F",
"7+.	c #E5403F",
"8+.	c #EC4544",
"9+.	c #EC4949",
"0+.	c #E94240",
"a+.	c #F04746",
"b+.	c #EA4341",
"c+.	c #EE4946",
"d+.	c #F14747",
"e+.	c #F24A49",
"f+.	c #EA4645",
"g+.	c #F74B4B",
"h+.	c #F64946",
"i+.	c #F14948",
"j+.	c #F04E4E",
"k+.	c #F25151",
"l+.	c #D25150",
"m+.	c #DD5354",
"n+.	c #E45252",
"o+.	c #EE5251",
"p+.	c #E74C4C",
"q+.	c #E95050",
"r+.	c #EE5656",
"s+.	c #EE5553",
"t+.	c #F05857",
"u+.	c #D95455",
"v+.	c #E65657",
"w+.	c #E55757",
"x+.	c #D5585A",
"y+.	c #D45556",
"z+.	c #F55C5D",
"A+.	c #EF5E5D",
"B+.	c #E95E5C",
"C+.	c #F36464",
"D+.	c #F26261",
"E+.	c #EB5F5E",
"F+.	c #F16363",
"G+.	c #EA5B5C",
"H+.	c #EF5D5F",
"I+.	c #E65B5B",
"J+.	c #ED6F6A",
"K+.	c #E56663",
"L+.	c #E86163",
"M+.	c #E66867",
"N+.	c #EC6C6C",
"O+.	c #E46765",
"P+.	c #F06967",
"Q+.	c #E96664",
"R+.	c #EE6765",
"S+.	c #E76462",
"T+.	c #E36461",
"U+.	c #E96864",
"V+.	c #EF6B67",
"W+.	c #E86963",
"X+.	c #ED6B66",
"Y+.	c #E56862",
"Z+.	c #E46962",
"`+.	c #EA6C66",
" @.	c #E26964",
".@.	c #E86E68",
"+@.	c #EE736D",
"@@.	c #E66F69",
"#@.	c #EC716D",
"$@.	c #E46C67",
"%@.	c #E26A67",
"&@.	c #E76C6B",
"*@.	c #E36C68",
"=@.	c #E96F6C",
"-@.	c #E16B69",
";@.	c #E76F6E",
">@.	c #DF6B6B",
",@.	c #E16F70",
"'@.	c #E47370",
")@.	c #EA7773",
"!@.	c #E27370",
"~@.	c #E87873",
"{@.	c #E0736F",
"]@.	c #E67872",
"^@.	c #DE706B",
"/@.	c #E57A74",
"(@.	c #DC7972",
"_@.	c #E37F79",
":@.	c #E9887D",
"<@.	c #E78A80",
"[@.	c #DE867B",
"}@.	c #E58B80",
"|@.	c #DC887C",
"1@.	c #E38A80",
"2@.	c #DA857B",
"3@.	c #E18C81",
"4@.	c #E79388",
"5@.	c #DF8D83",
"6@.	c #E69288",
"7@.	c #DD8F84",
"8@.	c #E49085",
"9@.	c #DB877D",
"0@.	c #E28A7F",
"a@.	c #D88479",
"b@.	c #DF8C80",
"c@.	c #E69186",
"d@.	c #DD8E82",
"e@.	c #E49489",
"f@.	c #DB9186",
"g@.	c #E2988D",
"h@.	c #D9958B",
"i@.	c #D79187",
"j@.	c #DE8F85",
"k@.	c #E59086",
"l@.	c #DC9488",
"m@.	c #E3998D",
"n@.	c #DA9388",
"o@.	c #E1998E",
"p@.	c #DE9A8E",
"q@.	c #E59F94",
"r@.	c #E3A094",
"s@.	c #D9998E",
"t@.	c #DE9E92",
"u@.	c #D5988B",
"v@.	c #DC9C8F",
"w@.	c #D19287",
"x@.	c #D8948A",
"y@.	c #DD9488",
"z@.	c #D58D83",
"A@.	c #DC8D83",
"B@.	c #D38279",
"C@.	c #DA7D75",
"D@.	c #D17E75",
"E@.	c #D9877E",
"F@.	c #D0867C",
"G@.	c #D98F85",
"H@.	c #DF978D",
"I@.	c #D79188",
"J@.	c #D79288",
"K@.	c #DE978D",
"L@.	c #D49087",
"M@.	c #DC958B",
"N@.	c #D28E85",
"O@.	c #DA938A",
"P@.	c #E1958D",
"Q@.	c #D78F87",
"R@.	c #DE938A",
"S@.	c #D58C84",
"T@.	c #DC8A83",
"U@.	c #DA8079",
"V@.	c #D0817B",
"W@.	c #D8817A",
"X@.	c #D67671",
"Y@.	c #DD8681",
"Z@.	c #D37B78",
"`@.	c #DB7E7C",
" #.	c #D17271",
".#.	c #D97978",
"+#.	c #CE6B6C",
"@#.	c #DD777A",
"##.	c #DB797A",
"$#.	c #D17373",
"%#.	c #C67673",
"&#.	c #BD7472",
"*#.	c #BA6C69",
"=#.	c #A76564",
"-#.	c #926160",
";#.	c #715252",
">#.	c #6E5353",
",#.	c #5F3B2E",
"'#.	c #672D1F",
")#.	c #702E1B",
"!#.	c #42341F",
"~#.	c #372E1C",
"{#.	c #524830",
"]#.	c #614B35",
"^#.	c #625642",
"/#.	c #584732",
"(#.	c #514736",
"_#.	c #504534",
":#.	c #654730",
"<#.	c #5F4B31",
"[#.	c #5C4F38",
"}#.	c #7D6349",
"|#.	c #7A553A",
"1#.	c #71583B",
"2#.	c #635138",
"3#.	c #6C563B",
"4#.	c #674830",
"5#.	c #6A422D",
"6#.	c #62472F",
"7#.	c #4D3D27",
"8#.	c #423320",
"9#.	c #4E3D28",
"0#.	c #6E4731",
"a#.	c #96392E",
"b#.	c #D63D3B",
"c#.	c #D93A35",
"d#.	c #E23D3C",
"e#.	c #D73A38",
"f#.	c #DA3C39",
"g#.	c #D83A38",
"h#.	c #E13C39",
"i#.	c #E23F3D",
"j#.	c #DF3F3D",
"k#.	c #E43F3C",
"l#.	c #E34342",
"m#.	c #E33E3B",
"n#.	c #EA4440",
"o#.	c #EF4643",
"p#.	c #ED4646",
"q#.	c #F44646",
"r#.	c #ED4442",
"s#.	c #EE4747",
"t#.	c #F8504E",
"u#.	c #F24D4D",
"v#.	c #F55050",
"w#.	c #F24F4E",
"x#.	c #F55354",
"y#.	c #EF4E4D",
"z#.	c #E25051",
"A#.	c #C94546",
"B#.	c #CA5455",
"C#.	c #D05657",
"D#.	c #DC5050",
"E#.	c #E95455",
"F#.	c #E64E4F",
"G#.	c #DA4E4E",
"H#.	c #EC5456",
"I#.	c #F35353",
"J#.	c #F75455",
"K#.	c #F15152",
"L#.	c #F65252",
"M#.	c #F05151",
"N#.	c #D64F51",
"O#.	c #E64F50",
"P#.	c #D25658",
"Q#.	c #DD5859",
"R#.	c #F45A5B",
"S#.	c #EA5856",
"T#.	c #ED5B59",
"U#.	c #F25E5C",
"V#.	c #EB5A58",
"W#.	c #E95B5A",
"X#.	c #F35C57",
"Y#.	c #EB5E5D",
"Z#.	c #F15F5D",
"`#.	c #EF5E5F",
" $.	c #EE6062",
".$.	c #E75C5D",
"+$.	c #F0615E",
"@$.	c #E95F5E",
"#$.	c #E66462",
"$$.	c #F1716D",
"%$.	c #EF6C6A",
"&$.	c #ED6564",
"*$.	c #E66A68",
"=$.	c #EE615F",
"-$.	c #EB6765",
";$.	c #F06866",
">$.	c #E96562",
",$.	c #E36360",
"'$.	c #EA6664",
")$.	c #EF6A67",
"!$.	c #E86662",
"~$.	c #ED6B65",
"{$.	c #E66762",
"]$.	c #EC6B64",
"^$.	c #E46762",
"/$.	c #EA6C65",
"($.	c #E26A64",
"_$.	c #EE746D",
":$.	c #E6716B",
"<$.	c #EC756E",
"[$.	c #E57069",
"}$.	c #EB716C",
"|$.	c #E96E6B",
"1$.	c #E76B68",
"2$.	c #EB6C69",
"3$.	c #E16766",
"4$.	c #DF6866",
"5$.	c #E66B6B",
"6$.	c #E6706F",
"7$.	c #DE6C6B",
"8$.	c #E2726E",
"9$.	c #E87571",
"0$.	c #E0716D",
"a$.	c #E57771",
"b$.	c #DC756F",
"c$.	c #E37C75",
"d$.	c #E9827A",
"e$.	c #E18077",
"f$.	c #E7857C",
"g$.	c #DF8278",
"h$.	c #E5867D",
"i$.	c #DD8278",
"j$.	c #E3877D",
"k$.	c #DA837A",
"l$.	c #E1897F",
"m$.	c #E88E82",
"n$.	c #E6847B",
"o$.	c #DD887E",
"p$.	c #E4837B",
"q$.	c #DB8278",
"r$.	c #E29084",
"s$.	c #D9877D",
"t$.	c #E08A7F",
"u$.	c #E68F83",
"v$.	c #DE8D80",
"w$.	c #E49287",
"x$.	c #DC8E83",
"y$.	c #E29388",
"z$.	c #D97E75",
"A$.	c #E08B81",
"B$.	c #E78F84",
"C$.	c #DE9489",
"D$.	c #E5948A",
"E$.	c #DC948A",
"F$.	c #E39A8E",
"G$.	c #DA948A",
"H$.	c #E19B8F",
"I$.	c #D89589",
"J$.	c #DF998E",
"K$.	c #E69F92",
"L$.	c #E39D92",
"M$.	c #D9978C",
"N$.	c #DF9C90",
"O$.	c #D5958A",
"P$.	c #DC9A8E",
"Q$.	c #D29286",
"R$.	c #D79589",
"S$.	c #DE958B",
"T$.	c #D38B81",
"U$.	c #DA877E",
"V$.	c #CA726A",
"W$.	c #D87169",
"X$.	c #C8605A",
"Y$.	c #C45D55",
"Z$.	c #AB4843",
"`$.	c #BC5752",
" %.	c #CD5C56",
".%.	c #CD615A",
"+%.	c #D96F67",
"@%.	c #D2736C",
"#%.	c #DA7F77",
"$%.	c #CE7770",
"%%.	c #D9867D",
"&%.	c #D0867D",
"*%.	c #D78A81",
"=%.	c #D88C83",
"-%.	c #DF948A",
";%.	c #D68E85",
">%.	c #DD948B",
",%.	c #D38D85",
"'%.	c #DA9188",
")%.	c #D0887F",
"!%.	c #D88F86",
"~%.	c #DF9087",
"{%.	c #D68A82",
"]%.	c #DD8881",
"^%.	c #D4837C",
"/%.	c #DB847D",
"(%.	c #D17771",
"_%.	c #D97C77",
":%.	c #CF726E",
"<%.	c #D77470",
"[%.	c #DE7B79",
"}%.	c #D47372",
"|%.	c #DC7573",
"1%.	c #D26A6B",
"2%.	c #D96E6E",
"3%.	c #CF6869",
"4%.	c #D76E6E",
"5%.	c #CD6969",
"6%.	c #D57876",
"7%.	c #DC7D7C",
"8%.	c #D27A77",
"9%.	c #D97C79",
"0%.	c #C17371",
"a%.	c #C47675",
"b%.	c #A16462",
"c%.	c #966262",
"d%.	c #6B4F4D",
"e%.	c #633224",
"f%.	c #742716",
"g%.	c #66311C",
"h%.	c #3C311D",
"i%.	c #342B1A",
"j%.	c #483D28",
"k%.	c #6E543D",
"l%.	c #625744",
"m%.	c #594E3B",
"n%.	c #4F4537",
"o%.	c #704C37",
"p%.	c #7D654E",
"q%.	c #5F4E36",
"r%.	c #594C36",
"s%.	c #75583E",
"t%.	c #7C5F45",
"u%.	c #6E593E",
"v%.	c #614932",
"w%.	c #6D4931",
"x%.	c #574832",
"y%.	c #5C472E",
"z%.	c #41311F",
"A%.	c #51402A",
"B%.	c #7A4634",
"C%.	c #B23A32",
"D%.	c #D43D3A",
"E%.	c #DB3D3B",
"F%.	c #DB3B39",
"G%.	c #D93835",
"H%.	c #D83834",
"I%.	c #D73937",
"J%.	c #DE3A39",
"K%.	c #D83736",
"L%.	c #E0403E",
"M%.	c #E94342",
"N%.	c #E94340",
"O%.	c #E14442",
"P%.	c #E84240",
"Q%.	c #E9433F",
"R%.	c #E6403E",
"S%.	c #E94543",
"T%.	c #F14746",
"U%.	c #EF4748",
"V%.	c #F24A48",
"W%.	c #EB4342",
"X%.	c #EF4847",
"Y%.	c #F34C4A",
"Z%.	c #F64947",
"`%.	c #F34B48",
" &.	c #F64F4D",
".&.	c #C43F3F",
"+&.	c #B53E3C",
"@&.	c #BF4D4D",
"#&.	c #C75859",
"$&.	c #D44D4D",
"%&.	c #D54C4A",
"&&.	c #D84B4A",
"*&.	c #D74E4E",
"=&.	c #EA4F4E",
"-&.	c #F35354",
";&.	c #F75656",
">&.	c #F55252",
",&.	c #EF4F50",
"'&.	c #F65755",
")&.	c #EC524F",
"!&.	c #E55455",
"~&.	c #D55154",
"{&.	c #E65153",
"]&.	c #E85658",
"^&.	c #CF5556",
"/&.	c #DD5858",
"(&.	c #E85252",
"_&.	c #F35A59",
":&.	c #EB5554",
"<&.	c #F15E5D",
"[&.	c #EB5D5E",
"}&.	c #F06061",
"|&.	c #F36363",
"1&.	c #ED5F60",
"2&.	c #F0595B",
"3&.	c #E85C5A",
"4&.	c #EC6061",
"5&.	c #EA6361",
"6&.	c #EF615D",
"7&.	c #EE6262",
"8&.	c #E66564",
"9&.	c #F16765",
"0&.	c #E96163",
"a&.	c #E55E5C",
"b&.	c #F06D6B",
"c&.	c #E76463",
"d&.	c #EA6564",
"e&.	c #EE6866",
"f&.	c #E66562",
"g&.	c #EC6863",
"h&.	c #E46561",
"i&.	c #E36863",
"j&.	c #E96D66",
"k&.	c #EE706A",
"l&.	c #E76E67",
"m&.	c #EC726B",
"n&.	c #E36C66",
"o&.	c #E96E6A",
"p&.	c #E76C69",
"q&.	c #E26866",
"r&.	c #E86B6A",
"s&.	c #DF6766",
"t&.	c #E66C6A",
"u&.	c #E46B6A",
"v&.	c #EA6F6F",
"w&.	c #E26B6B",
"x&.	c #E76D6D",
"y&.	c #DE6868",
"z&.	c #E56C6A",
"A&.	c #EB706D",
"B&.	c #E36E6A",
"C&.	c #E9736F",
"D&.	c #E16F6B",
"E&.	c #E7716F",
"F&.	c #E5726F",
"G&.	c #DC706B",
"H&.	c #E37870",
"I&.	c #E97E75",
"J&.	c #E17C74",
"K&.	c #E88077",
"L&.	c #DF7C75",
"M&.	c #E68278",
"N&.	c #DD8076",
"O&.	c #E4857B",
"P&.	c #DB7E76",
"Q&.	c #E8867D",
"R&.	c #E08379",
"S&.	c #E6897F",
"T&.	c #DE877C",
"U&.	c #DB8D83",
"V&.	c #E2847A",
"W&.	c #E9877E",
"X&.	c #E08278",
"Y&.	c #DE897F",
"Z&.	c #E58F84",
"`&.	c #DC8A7F",
" *.	c #E39083",
".*.	c #DA897E",
"+*.	c #E19285",
"@*.	c #E7968A",
"#*.	c #DF9288",
"$*.	c #E5998E",
"%*.	c #DD8B81",
"&*.	c #E39085",
"**.	c #E1998F",
"=*.	c #DF9B8F",
"-*.	c #E6A094",
";*.	c #E49E92",
">*.	c #DF9A8F",
",*.	c #D59489",
"'*.	c #DB978D",
")*.	c #D19085",
"!*.	c #D88F84",
"~*.	c #D28279",
"{*.	c #DA867E",
"]*.	c #D2766E",
"^*.	c #D66D65",
"/*.	c #C05C55",
"(*.	c #B44F4B",
"_*.	c #A64743",
":*.	c #9E413E",
"<*.	c #993F3B",
"[*.	c #833330",
"}*.	c #82302F",
"|*.	c #8D3534",
"1*.	c #943835",
"2*.	c #983B37",
"3*.	c #AB4743",
"4*.	c #C76059",
"5*.	c #D76E66",
"6*.	c #D2726A",
"7*.	c #D98178",
"8*.	c #D27E75",
"9*.	c #CF837B",
"0*.	c #D88B83",
"a*.	c #CE877F",
"b*.	c #D88F85",
"c*.	c #E0958B",
"d*.	c #D68F85",
"e*.	c #DE958A",
"f*.	c #D48F86",
"g*.	c #DC948B",
"h*.	c #D28D84",
"i*.	c #D99188",
"j*.	c #CF8880",
"k*.	c #DE8D85",
"l*.	c #D58079",
"m*.	c #D2807B",
"n*.	c #DA817B",
"o*.	c #D07975",
"p*.	c #D77975",
"q*.	c #DF7D7B",
"r*.	c #D57573",
"s*.	c #DD7776",
"t*.	c #D06F70",
"u*.	c #CE7071",
"v*.	c #D6797A",
"w*.	c #DD8180",
"x*.	c #D07878",
"y*.	c #CC7A78",
"z*.	c #BD7270",
"A*.	c #A26A67",
"B*.	c #6E524F",
"C*.	c #5E3925",
"D*.	c #6A2A18",
"E*.	c #61321F",
"F*.	c #392F1D",
"G*.	c #312817",
"H*.	c #483D26",
"I*.	c #6C563F",
"J*.	c #665843",
"K*.	c #5C4C38",
"L*.	c #624631",
"M*.	c #6C5943",
"N*.	c #7A6B50",
"O*.	c #5E4E36",
"P*.	c #5F4931",
"Q*.	c #745239",
"R*.	c #75593E",
"S*.	c #6B573C",
"T*.	c #67432D",
"U*.	c #5E432F",
"V*.	c #60432E",
"W*.	c #564430",
"X*.	c #58432A",
"Y*.	c #473921",
"Z*.	c #3A2B1A",
"`*.	c #473825",
" =.	c #514029",
".=.	c #904638",
"+=.	c #CC3836",
"@=.	c #DC3E3C",
"#=.	c #D93A38",
"$=.	c #D63935",
"%=.	c #CE3633",
"&=.	c #D53735",
"*=.	c #D43936",
"==.	c #D53836",
"-=.	c #D73634",
";=.	c #D63737",
">=.	c #DD3C3B",
",=.	c #DC3D3C",
"'=.	c #E8403F",
")=.	c #E03E3D",
"!=.	c #DD3C3A",
"~=.	c #F04544",
"{=.	c #EB4240",
"]=.	c #EE4848",
"^=.	c #F24A4A",
"/=.	c #EC4948",
"(=.	c #E84444",
"_=.	c #EF4544",
":=.	c #EB4343",
"<=.	c #EC4543",
"[=.	c #F04545",
"}=.	c #F54E4E",
"|=.	c #F7504F",
"1=.	c #F24F4D",
"2=.	c #D64240",
"3=.	c #B23C3A",
"4=.	c #A93B3A",
"5=.	c #AC4040",
"6=.	c #BE5255",
"7=.	c #C35154",
"8=.	c #D35455",
"9=.	c #D04B4A",
"0=.	c #E85152",
"a=.	c #F65353",
"b=.	c #F05050",
"c=.	c #EF5051",
"d=.	c #ED4F4F",
"e=.	c #F24F51",
"f=.	c #DB5152",
"g=.	c #E34F50",
"h=.	c #E45456",
"i=.	c #CD5354",
"j=.	c #DE5657",
"k=.	c #F1595A",
"l=.	c #F35D5B",
"m=.	c #F15A58",
"n=.	c #F45D5B",
"o=.	c #E85D5C",
"p=.	c #F16264",
"q=.	c #E75E5D",
"r=.	c #F15E5B",
"s=.	c #F06E6A",
"t=.	c #E9625F",
"u=.	c #EF6D6B",
"v=.	c #E4615F",
"w=.	c #E86966",
"x=.	c #E76865",
"y=.	c #EC6664",
"z=.	c #E56461",
"A=.	c #EB6763",
"B=.	c #E3655F",
"C=.	c #E96963",
"D=.	c #EE6E68",
"E=.	c #E76B65",
"F=.	c #ED6E68",
"G=.	c #E56A63",
"H=.	c #EB6C67",
"I=.	c #E36864",
"J=.	c #E16764",
"K=.	c #E86B67",
"L=.	c #E66B67",
"M=.	c #E46B67",
"N=.	c #E26A68",
"O=.	c #E06969",
"P=.	c #E66E6D",
"Q=.	c #EA7171",
"R=.	c #E97070",
"S=.	c #E06B6C",
"T=.	c #ED7270",
"U=.	c #E56D69",
"V=.	c #E36B67",
"W=.	c #E16B66",
"X=.	c #E86F6A",
"Y=.	c #DF6C68",
"Z=.	c #E56F6B",
"`=.	c #EB736E",
" -.	c #E4716C",
".-.	c #EA7670",
"+-.	c #E0766F",
"@-.	c #E67972",
"#-.	c #DD756E",
"$-.	c #EA8278",
"%-.	c #E27E76",
"&-.	c #E07D74",
"*-.	c #E78077",
"=-.	c #DE7C74",
"--.	c #E58178",
";-.	c #DC8178",
">-.	c #E38B80",
",-.	c #E99488",
"'-.	c #E18B80",
")-.	c #E79286",
"!-.	c #DF8A7E",
"~-.	c #DC887D",
"{-.	c #E38D82",
"]-.	c #DA8B80",
"^-.	c #E19287",
"/-.	c #E88B81",
"(-.	c #DF7F76",
"_-.	c #E6897E",
":-.	c #DD8B80",
"<-.	c #E49389",
"[-.	c #DB8E83",
"}-.	c #E29489",
"|-.	c #D98F84",
"1-.	c #E0958A",
"2-.	c #E69C90",
"3-.	c #DE988C",
"4-.	c #E39C91",
"5-.	c #E09A8E",
"6-.	c #D69388",
"7-.	c #DC968B",
"8-.	c #D28E84",
"9-.	c #D89085",
"0-.	c #DD9187",
"a-.	c #D4867B",
"b-.	c #DB8379",
"c-.	c #D2716A",
"d-.	c #D36763",
"e-.	c #BA544E",
"f-.	c #AD4A45",
"g-.	c #9E4440",
"h-.	c #873331",
"i-.	c #893534",
"j-.	c #7C2E2D",
"k-.	c #7C2E2C",
"l-.	c #712A29",
"m-.	c #742E2C",
"n-.	c #702A28",
"o-.	c #732C2B",
"p-.	c #752B2A",
"q-.	c #7B2F2E",
"r-.	c #792D2B",
"s-.	c #883130",
"t-.	c #8F3533",
"u-.	c #A13F3C",
"v-.	c #AA4944",
"w-.	c #C0544F",
"x-.	c #C35752",
"y-.	c #D1706A",
"z-.	c #D27D76",
"A-.	c #D9857C",
"B-.	c #CF8079",
"C-.	c #D88880",
"D-.	c #E1948A",
"E-.	c #D78F85",
"F-.	c #D58E85",
"G-.	c #DD938A",
"H-.	c #D38B83",
"I-.	c #D0847C",
"J-.	c #D88A83",
"K-.	c #DF8A83",
"L-.	c #D6857E",
"M-.	c #DD847E",
"N-.	c #D3807A",
"O-.	c #DB857E",
"P-.	c #D17A75",
"Q-.	c #D97976",
"R-.	c #CE6E6A",
"S-.	c #D66B69",
"T-.	c #D46C69",
"U-.	c #DB7172",
"V-.	c #D16D6E",
"W-.	c #D77B79",
"X-.	c #C57270",
"Y-.	c #A46968",
"Z-.	c #61372A",
"`-.	c #672817",
" ;.	c #5F331E",
".;.	c #2F2616",
"+;.	c #4C4029",
"@;.	c #665740",
"#;.	c #6F5843",
"$;.	c #564C3A",
"%;.	c #554C39",
"&;.	c #6F6048",
"*;.	c #7B654C",
"=;.	c #6B5038",
"-;.	c #73563E",
";;.	c #785F45",
">;.	c #664B35",
",;.	c #69472F",
"';.	c #62412D",
");.	c #524431",
"!;.	c #524432",
"~;.	c #6F3F28",
"{;.	c #503A23",
"];.	c #3B2B1B",
"^;.	c #3C2C1B",
"/;.	c #4C3D27",
"(;.	c #9F4840",
"_;.	c #CF3937",
":;.	c #D63A37",
"<;.	c #D83835",
"[;.	c #CF3331",
"};.	c #CC332E",
"|;.	c #D33732",
"1;.	c #D23431",
"2;.	c #D23634",
"3;.	c #CE3433",
"4;.	c #D43737",
"5;.	c #D13734",
"6;.	c #DA3D3B",
"7;.	c #DC3C3A",
"8;.	c #E03C3A",
"9;.	c #E13E3D",
"0;.	c #E4403D",
"a;.	c #E5413F",
"b;.	c #E33E3C",
"c;.	c #E43F3E",
"d;.	c #EA4344",
"e;.	c #EB4445",
"f;.	c #EC4442",
"g;.	c #E84342",
"h;.	c #EB403E",
"i;.	c #EC4542",
"j;.	c #EA4442",
"k;.	c #EF4846",
"l;.	c #EC4746",
"m;.	c #F54B4A",
"n;.	c #F34D4A",
"o;.	c #F64C4A",
"p;.	c #EE4D4C",
"q;.	c #F65351",
"r;.	c #EF5150",
"s;.	c #E65353",
"t;.	c #C84747",
"u;.	c #BB4A49",
"v;.	c #B04748",
"w;.	c #B34748",
"x;.	c #B94B4E",
"y;.	c #D15353",
"z;.	c #E45455",
"A;.	c #F45152",
"B;.	c #F25152",
"C;.	c #F75353",
"D;.	c #DD5252",
"E;.	c #D85251",
"F;.	c #DE5454",
"G;.	c #C95151",
"H;.	c #DD5355",
"I;.	c #F25858",
"J;.	c #F55B5B",
"K;.	c #F45A5A",
"L;.	c #EC5757",
"M;.	c #F45D5D",
"N;.	c #F35D5F",
"O;.	c #F45F5F",
"P;.	c #F06162",
"Q;.	c #EF6764",
"R;.	c #ED5B58",
"S;.	c #E65B5A",
"T;.	c #EE6360",
"U;.	c #EC6663",
"V;.	c #F06662",
"W;.	c #E9635F",
"X;.	c #EB6968",
"Y;.	c #E3615F",
"Z;.	c #E96461",
"`;.	c #EF6864",
" >.	c #E86560",
".>.	c #ED6A64",
"+>.	c #E66660",
"@>.	c #EC6A63",
"#>.	c #E4655F",
"$>.	c #EA6861",
"%>.	c #EF6A65",
"&>.	c #E86862",
"*>.	c #EE6B66",
"=>.	c #E66763",
"->.	c #EC6C67",
";>.	c #ED7070",
">>.	c #EB7172",
",>.	c #E36E6E",
"'>.	c #E77170",
")>.	c #ED7372",
"!>.	c #E56E6C",
"~>.	c #EB726D",
"{>.	c #E36D69",
"]>.	c #EA706B",
"^>.	c #DF6964",
"/>.	c #E66C68",
"(>.	c #E46D69",
"_>.	c #EA716D",
":>.	c #E26E6A",
"<>.	c #E8726E",
"[>.	c #E06F6A",
"}>.	c #E6726E",
"|>.	c #DE6E6A",
"1>.	c #E4726E",
"2>.	c #EA7671",
"3>.	c #E3746E",
"4>.	c #E97972",
"5>.	c #E1776F",
"6>.	c #E77B73",
"7>.	c #DF766F",
"8>.	c #E57A72",
"9>.	c #DC756E",
"0>.	c #E37973",
"a>.	c #E98078",
"b>.	c #E18076",
"c>.	c #E7897F",
"d>.	c #DF887E",
"e>.	c #E68B81",
"f>.	c #DD867B",
"g>.	c #E4897E",
"h>.	c #E28D81",
"i>.	c #E8978A",
"j>.	c #E08F85",
"k>.	c #E68E86",
"l>.	c #DE8E84",
"m>.	c #E49288",
"n>.	c #E29287",
"o>.	c #D98C82",
"p>.	c #E09085",
"q>.	c #E6958A",
"r>.	c #DE9184",
"s>.	c #E3968A",
"t>.	c #D99086",
"u>.	c #DF968A",
"v>.	c #D68F84",
"w>.	c #DC9286",
"x>.	c #D18B80",
"y>.	c #D88980",
"z>.	c #DC897F",
"A>.	c #D5847B",
"B>.	c #DB8077",
"C>.	c #D16E68",
"D>.	c #C15C55",
"E>.	c #B2504B",
"F>.	c #B24F4B",
"G>.	c #8D3835",
"H>.	c #8D3A38",
"I>.	c #843433",
"J>.	c #732A29",
"K>.	c #752C2A",
"L>.	c #6F2928",
"M>.	c #722927",
"N>.	c #6C2725",
"O>.	c #6C2726",
"P>.	c #6D2826",
"Q>.	c #6A2524",
"R>.	c #712828",
"S>.	c #6D2626",
"T>.	c #712928",
"U>.	c #6C2523",
"V>.	c #6F2827",
"W>.	c #6A2423",
"X>.	c #6F2725",
"Y>.	c #7E2D2B",
"Z>.	c #742827",
"`>.	c #812C2A",
" ,.	c #953632",
".,.	c #993632",
"+,.	c #A33E3B",
"@,.	c #B7504B",
"#,.	c #BE5954",
"$,.	c #CF6863",
"%,.	c #D97770",
"&,.	c #D27970",
"*,.	c #D07D74",
"=,.	c #D1887E",
"-,.	c #D88E84",
";,.	c #CF897F",
">,.	c #E09489",
",,.	c #D68C82",
"',.	c #DE9187",
"),.	c #D48980",
"!,.	c #DB8D84",
"~,.	c #D1867D",
"{,.	c #CF827C",
"],.	c #D7877F",
"^,.	c #D48179",
"/,.	c #DC837D",
"(,.	c #D27673",
"_,.	c #DA7875",
":,.	c #D77374",
"<,.	c #CD7070",
"[,.	c #DC7B7B",
"},.	c #D27675",
"|,.	c #DA7978",
"1,.	c #C1726F",
"2,.	c #C17672",
"3,.	c #A06664",
"4,.	c #795756",
"5,.	c #6C2D1D",
"6,.	c #622D19",
"7,.	c #4F351E",
"8,.	c #312918",
"9,.	c #2E2416",
"0,.	c #4F3D2A",
"a,.	c #6A5841",
"b,.	c #735640",
"c,.	c #564839",
"d,.	c #544B38",
"e,.	c #776751",
"f,.	c #79634A",
"g,.	c #665037",
"h,.	c #725F45",
"i,.	c #6B563E",
"j,.	c #75543A",
"k,.	c #674731",
"l,.	c #504431",
"m,.	c #58412F",
"n,.	c #673B29",
"o,.	c #5A3E28",
"p,.	c #3E311E",
"q,.	c #382A19",
"r,.	c #3B2B1A",
"s,.	c #473722",
"t,.	c #5F3D2B",
"u,.	c #A83D38",
"v,.	c #CA3A36",
"w,.	c #CF3734",
"x,.	c #D33836",
"y,.	c #D53532",
"z,.	c #D03733",
"A,.	c #D03632",
"B,.	c #CE3232",
"C,.	c #CA3231",
"D,.	c #CF3430",
"E,.	c #CD322F",
"F,.	c #CF3432",
"G,.	c #D73836",
"H,.	c #DA3A38",
"I,.	c #E03C3C",
"J,.	c #D83B3B",
"K,.	c #D83C3A",
"L,.	c #DB3B3A",
"M,.	c #E43F3F",
"N,.	c #EF4344",
"O,.	c #E94242",
"P,.	c #E33F3F",
"Q,.	c #E53F3E",
"R,.	c #E13D3B",
"S,.	c #E6413E",
"T,.	c #E64442",
"U,.	c #F34643",
"V,.	c #EE4948",
"W,.	c #F34D4C",
"X,.	c #ED4847",
"Y,.	c #E14F4F",
"Z,.	c #DB5050",
"`,.	c #CC4E4E",
" '.	c #C75050",
".'.	c #CB5151",
"+'.	c #D64D4E",
"@'.	c #E74E4E",
"#'.	c #F55654",
"$'.	c #F85957",
"%'.	c #F34F4F",
"&'.	c #F75151",
"*'.	c #EE4F4F",
"='.	c #F15253",
"-'.	c #D84D4D",
";'.	c #D45253",
">'.	c #DC5051",
",'.	c #D95153",
"''.	c #CE5355",
")'.	c #DB5253",
"!'.	c #F25050",
"~'.	c #F45858",
"{'.	c #F35959",
"]'.	c #F15A5B",
"^'.	c #F45E5E",
"/'.	c #EE5C5C",
"('.	c #EF5F60",
"_'.	c #E75C5C",
":'.	c #EC5C5A",
"<'.	c #E85857",
"['.	c #E65D5B",
"}'.	c #EC5D5B",
"|'.	c #EA5F60",
"1'.	c #F06163",
"2'.	c #EE6162",
"3'.	c #ED605F",
"4'.	c #EB6967",
"5'.	c #F06663",
"6'.	c #E96260",
"7'.	c #E76562",
"8'.	c #ED6A68",
"9'.	c #EF6B68",
"0'.	c #ED6561",
"a'.	c #E6635E",
"b'.	c #EC6561",
"c'.	c #E4635E",
"d'.	c #EA6661",
"e'.	c #F06D67",
"f'.	c #E86864",
"g'.	c #EE6966",
"h'.	c #E66563",
"i'.	c #E5635F",
"j'.	c #EB6663",
"k'.	c #E36460",
"l'.	c #E96763",
"m'.	c #ED6B68",
"n'.	c #E56868",
"o'.	c #EB6E6C",
"p'.	c #E9706F",
"q'.	c #E16D6C",
"r'.	c #ED7371",
"s'.	c #E66F6C",
"t'.	c #EC726D",
"u'.	c #E46E6A",
"v'.	c #EA706D",
"w'.	c #E26D68",
"x'.	c #E86E69",
"y'.	c #E06A65",
"z'.	c #E66E68",
"A'.	c #EC706A",
"B'.	c #E46C66",
"C'.	c #EA706A",
"D'.	c #E26C67",
"E'.	c #E9716B",
"F'.	c #E06D68",
"G'.	c #E7716B",
"H'.	c #DE6C68",
"I'.	c #E56F6C",
"J'.	c #EB736F",
"K'.	c #E36E6B",
"L'.	c #E1706C",
"M'.	c #E7746F",
"N'.	c #DF726C",
"O'.	c #E57670",
"P'.	c #DD716B",
"Q'.	c #E4756F",
"R'.	c #EA7A73",
"S'.	c #E27870",
"T'.	c #E87D75",
"U'.	c #DF7C72",
"V'.	c #E68279",
"W'.	c #DD8178",
"X'.	c #E4867D",
"Y'.	c #DB7B71",
"Z'.	c #E28177",
"`'.	c #E88479",
" ).	c #E68177",
".).	c #DE8478",
"+).	c #E59388",
"@).	c #DC8D82",
"#).	c #E39287",
"$).	c #DA8B81",
"%).	c #E09184",
"&).	c #DD8D82",
"*).	c #E29086",
"=).	c #D98A80",
"-).	c #DF9084",
";).	c #D6887F",
">).	c #D2837A",
",).	c #D9897F",
"').	c #DB8479",
")).	c #D57F75",
"!).	c #DC7B72",
"~).	c #CE6861",
"{).	c #B95650",
"]).	c #AC4A46",
"^).	c #AC4C47",
"/).	c #923937",
"().	c #7D312E",
"_).	c #863432",
":).	c #772C2B",
"<).	c #702927",
"[).	c #712927",
"}).	c #6A2928",
"|).	c #682725",
"1).	c #672827",
"2).	c #602321",
"3).	c #612422",
"4).	c #5B201F",
"5).	c #602523",
"6).	c #5B2220",
"7).	c #622322",
"8).	c #602120",
"9).	c #682422",
"0).	c #6D2726",
"a).	c #6E2727",
"b).	c #6C2322",
"c).	c #682120",
"d).	c #6D2221",
"e).	c #712422",
"f).	c #7C2928",
"g).	c #7A2726",
"h).	c #802927",
"i).	c #93322E",
"j).	c #9A3732",
"k).	c #B14843",
"l).	c #B9544D",
"m).	c #CC655D",
"n).	c #C96A62",
"o).	c #D3746C",
"p).	c #DB7D74",
"q).	c #D28179",
"r).	c #D9887F",
"s).	c #D88981",
"t).	c #CF837A",
"u).	c #D7887E",
"v).	c #DE8D84",
"w).	c #DC8D84",
"x).	c #D2857C",
"y).	c #DA8C84",
"z).	c #D0847D",
"A).	c #CD7C75",
"B).	c #D57C77",
"C).	c #DD7D78",
"D).	c #D3706D",
"E).	c #DB7370",
"F).	c #D06C6B",
"G).	c #D86B6B",
"H).	c #CE6969",
"I).	c #D66F6E",
"J).	c #CB6969",
"K).	c #D37170",
"L).	c #CF7773",
"M).	c #A46563",
"N).	c #8E615F",
"O).	c #69504F",
"P).	c #593E31",
"Q).	c #692F1B",
"R).	c #69321E",
"S).	c #4A321F",
"T).	c #312616",
"U).	c #282012",
"V).	c #40291A",
"W).	c #6B5744",
"X).	c #5F5540",
"Y).	c #4F4A3B",
"Z).	c #584C38",
"`).	c #7A6750",
" !.	c #745B44",
".!.	c #70573F",
"+!.	c #6F5239",
"@!.	c #6C543A",
"#!.	c #604831",
"$!.	c #51432F",
"%!.	c #5B402E",
"&!.	c #5F3D2C",
"*!.	c #5E3A27",
"=!.	c #483A23",
"-!.	c #382B19",
";!.	c #372918",
">!.	c #3D2F1C",
",!.	c #4C3A26",
"'!.	c #723A29",
")!.	c #B33432",
"!!.	c #C63530",
"~!.	c #C93430",
"{!.	c #CF332F",
"]!.	c #CF3534",
"^!.	c #D43836",
"/!.	c #CC3331",
"(!.	c #CC3532",
"_!.	c #D33735",
":!.	c #D13633",
"<!.	c #CF3332",
"[!.	c #CD312F",
"}!.	c #D53837",
"|!.	c #D53431",
"1!.	c #D33633",
"2!.	c #DE3C3B",
"3!.	c #DB3C3A",
"4!.	c #E23E3C",
"5!.	c #E54040",
"6!.	c #EB4443",
"7!.	c #E4403F",
"8!.	c #E03F3C",
"9!.	c #E7413F",
"0!.	c #F04543",
"a!.	c #E74443",
"b!.	c #EA4847",
"c!.	c #F24C4C",
"d!.	c #F5504E",
"e!.	c #EE4A49",
"f!.	c #F34948",
"g!.	c #EE4B4B",
"h!.	c #E04B4A",
"i!.	c #E44F4F",
"j!.	c #EE504E",
"k!.	c #F45552",
"l!.	c #F85B59",
"m!.	c #F75755",
"n!.	c #F04E4F",
"o!.	c #D54F4F",
"p!.	c #D95353",
"q!.	c #D05052",
"r!.	c #C95051",
"s!.	c #DA4F50",
"t!.	c #F05554",
"u!.	c #ED5455",
"v!.	c #EA5859",
"w!.	c #F45C5E",
"x!.	c #F15A5A",
"y!.	c #F35D5D",
"z!.	c #E85A5B",
"A!.	c #E85A58",
"B!.	c #E75A58",
"C!.	c #E75859",
"D!.	c #F1605E",
"E!.	c #E86261",
"F!.	c #EC635F",
"G!.	c #E45F5B",
"H!.	c #EA635F",
"I!.	c #ED5F5B",
"J!.	c #E55C59",
"K!.	c #EB6764",
"L!.	c #E3605D",
"M!.	c #E9645F",
"N!.	c #EF6663",
"O!.	c #E7645F",
"P!.	c #E46462",
"Q!.	c #EA6967",
"R!.	c #E86C6A",
"S!.	c #E66D6A",
"T!.	c #EC706D",
"U!.	c #E46D6A",
"V!.	c #E86F6B",
"W!.	c #E06A66",
"X!.	c #E76F69",
"Y!.	c #E56F67",
"Z!.	c #EB726B",
"`!.	c #E36E67",
" ~.	c #E16D67",
".~.	c #DF6C67",
"+~.	c #E5706B",
"@~.	c #E36F6C",
"#~.	c #E97270",
"$~.	c #E87371",
"%~.	c #DF6E6C",
"&~.	c #E67370",
"*~.	c #DD6E6B",
"=~.	c #E4726C",
"-~.	c #E2726D",
";~.	c #E87971",
">~.	c #E67D74",
",~.	c #DE7B72",
"'~.	c #E48178",
")~.	c #EA877D",
"!~.	c #E2877D",
"~~.	c #E99186",
"{~.	c #E08F83",
"]~.	c #E79084",
"^~.	c #DE8D81",
"/~.	c #E58C82",
"(~.	c #DC8B81",
"_~.	c #E99489",
":~.	c #E79287",
"<~.	c #DD8B82",
"[~.	c #E38F84",
"}~.	c #D9887E",
"|~.	c #E08B82",
"1~.	c #D6857A",
"2~.	c #DB877E",
"3~.	c #E18B81",
"4~.	c #D77F76",
"5~.	c #DE857C",
"6~.	c #D57B73",
"7~.	c #DB746B",
"8~.	c #C9635C",
"9~.	c #C35F57",
"0~.	c #A54440",
"a~.	c #A44643",
"b~.	c #893735",
"c~.	c #853533",
"d~.	c #7C2F2D",
"e~.	c #782D2C",
"f~.	c #712B2A",
"g~.	c #742C2A",
"h~.	c #6A2826",
"i~.	c #662827",
"j~.	c #652625",
"k~.	c #5F2321",
"l~.	c #602D2A",
"m~.	c #5E2521",
"n~.	c #652A28",
"o~.	c #612C2A",
"p~.	c #642928",
"q~.	c #5C2120",
"r~.	c #5E2725",
"s~.	c #5F2625",
"t~.	c #58201E",
"u~.	c #5D2120",
"v~.	c #58211F",
"w~.	c #5D2322",
"x~.	c #5C201E",
"y~.	c #61211F",
"z~.	c #611F1E",
"A~.	c #65201F",
"B~.	c #6A2120",
"C~.	c #671F1E",
"D~.	c #6B211F",
"E~.	c #671F1D",
"F~.	c #6D2120",
"G~.	c #69211F",
"H~.	c #792826",
"I~.	c #712826",
"J~.	c #7E3231",
"K~.	c #8E3533",
"L~.	c #953936",
"M~.	c #A64541",
"N~.	c #B5554F",
"O~.	c #C25C57",
"P~.	c #C6635E",
"Q~.	c #D3726B",
"R~.	c #CA746C",
"S~.	c #D37E75",
"T~.	c #D88279",
"U~.	c #D27F77",
"V~.	c #DA857D",
"W~.	c #CF7D76",
"X~.	c #D9877F",
"Y~.	c #D08379",
"Z~.	c #CE837A",
"`~.	c #D68A80",
" {.	c #DD8E86",
".{.	c #D3887F",
"+{.	c #DB8A83",
"@{.	c #D1817A",
"#{.	c #D9807A",
"${.	c #CE7B75",
"%{.	c #D67D77",
"&{.	c #DE7C78",
"*{.	c #D47774",
"={.	c #DB7B78",
"-{.	c #D17774",
";{.	c #D97A78",
">{.	c #CF7572",
",{.	c #B66E6A",
"'{.	c #AF6D6A",
"){.	c #906160",
"!{.	c #6C5251",
"~{.	c #5B382D",
"{{.	c #653123",
"]{.	c #62331F",
"^{.	c #42321D",
"/{.	c #2C2314",
"({.	c #2A2113",
"_{.	c #422D1E",
":{.	c #6B5B46",
"<{.	c #645A46",
"[{.	c #594C3B",
"}{.	c #624632",
"|{.	c #705F48",
"1{.	c #6D5A42",
"2{.	c #675039",
"3{.	c #73543F",
"4{.	c #644C32",
"5{.	c #65533C",
"6{.	c #514531",
"7{.	c #5B412C",
"8{.	c #673F2D",
"9{.	c #613826",
"0{.	c #543721",
"a{.	c #3A2E1B",
"b{.	c #372A19",
"c{.	c #342616",
"d{.	c #43331F",
"e{.	c #493723",
"f{.	c #822E25",
"g{.	c #B6302C",
"h{.	c #BE3432",
"i{.	c #C4322E",
"j{.	c #C4302D",
"k{.	c #CF332E",
"l{.	c #CE3632",
"m{.	c #CD3431",
"n{.	c #D23734",
"o{.	c #D03331",
"p{.	c #D33533",
"q{.	c #D23735",
"r{.	c #D43533",
"s{.	c #C93533",
"t{.	c #CC3431",
"u{.	c #CC312C",
"v{.	c #D33936",
"w{.	c #D83937",
"x{.	c #D03533",
"y{.	c #D43532",
"z{.	c #D73B39",
"A{.	c #DD3A38",
"B{.	c #D93938",
"C{.	c #E63F3F",
"D{.	c #EF4442",
"E{.	c #E84140",
"F{.	c #DF4140",
"G{.	c #E64342",
"H{.	c #EC4644",
"I{.	c #EA4644",
"J{.	c #EF4747",
"K{.	c #F14847",
"L{.	c #F04A4A",
"M{.	c #EF4D4C",
"N{.	c #EF4F4F",
"O{.	c #F25051",
"P{.	c #EC4E4E",
"Q{.	c #F45151",
"R{.	c #F85252",
"S{.	c #F3514F",
"T{.	c #F75654",
"U{.	c #F54E4F",
"V{.	c #EF4C4D",
"W{.	c #F44C4C",
"X{.	c #EE4C4C",
"Y{.	c #EB5050",
"Z{.	c #ED5051",
"`{.	c #DD5153",
" ].	c #C44F50",
".].	c #C95152",
"+].	c #C34E4F",
"@].	c #C65050",
"#].	c #D84E4E",
"$].	c #EF4C4C",
"%].	c #F65656",
"&].	c #ED5859",
"*].	c #F25B5C",
"=].	c #F05B5D",
"-].	c #F15D5D",
";].	c #EE595A",
">].	c #F25C5E",
",].	c #E75B5B",
"'].	c #F25F60",
")].	c #EF605E",
"!].	c #E85E5C",
"~].	c #EE6865",
"{].	c #E65F5C",
"]].	c #E75E5E",
"^].	c #E55B5B",
"/].	c #EB6461",
"(].	c #F06A66",
"_].	c #E96863",
":].	c #ED6865",
"<].	c #E55F5D",
"[].	c #EB6260",
"}].	c #E45F5C",
"|].	c #E95F5C",
"1].	c #E8625E",
"2].	c #ED6560",
"3].	c #E6615E",
"4].	c #EC6460",
"5].	c #E4605E",
"6].	c #E2605F",
"7].	c #E56764",
"8].	c #EB6B68",
"9].	c #E96D68",
"0].	c #E06A64",
"a].	c #E76E68",
"b].	c #E56D68",
"c].	c #E36D67",
"d].	c #E97069",
"e].	c #E16D66",
"f].	c #E8706A",
"g].	c #DF6C66",
"h].	c #EC736F",
"i].	c #EA7270",
"j].	c #E87372",
"k].	c #E67472",
"l].	c #EC7773",
"m].	c #E4736F",
"n].	c #E2736D",
"o].	c #E87670",
"p].	c #E0726A",
"q].	c #E7776F",
"r].	c #DE756E",
"s].	c #E57A73",
"t].	c #EB8179",
"u].	c #E38177",
"v].	c #E98077",
"w].	c #E17E75",
"x].	c #E7867D",
"y].	c #DF877C",
"z].	c #E39186",
"A].	c #E18E83",
"B].	c #E79187",
"C].	c #DD8A7F",
"D].	c #E28C82",
"E].	c #DA867C",
"F].	c #DF887F",
"G].	c #D68178",
"H].	c #DB857C",
"I].	c #E1877E",
"J].	c #D88177",
"K].	c #DD8177",
"L].	c #D67168",
"M].	c #D76C64",
"N].	c #C05751",
"O].	c #B44C48",
"P].	c #9C3E3A",
"Q].	c #8F3634",
"R].	c #913A37",
"S].	c #833230",
"T].	c #782D2B",
"U].	c #732B2A",
"V].	c #672725",
"W].	c #652727",
"X].	c #662625",
"Y].	c #612625",
"Z].	c #5B211E",
"`].	c #5B2725",
" ^.	c #612523",
".^.	c #5C2827",
"+^.	c #5F2E2C",
"@^.	c #5C2C2B",
"#^.	c #5E2D2C",
"$^.	c #652E2D",
"%^.	c #5E2D2B",
"&^.	c #63302F",
"*^.	c #5B2322",
"=^.	c #642825",
"-^.	c #5B2221",
";^.	c #592825",
">^.	c #5B2423",
",^.	c #5A201F",
"'^.	c #561E1D",
")^.	c #5A2020",
"!^.	c #57211F",
"~^.	c #5E1F1D",
"{^.	c #5D1D1C",
"]^.	c #641E1E",
"^^.	c #611D1C",
"/^.	c #661F1F",
"(^.	c #6C2220",
"_^.	c #6C2524",
":^.	c #722C2B",
"<^.	c #7A2C2A",
"[^.	c #833431",
"}^.	c #792D2C",
"|^.	c #893532",
"1^.	c #9D403B",
"2^.	c #A54642",
"3^.	c #BE534D",
"4^.	c #D0645E",
"5^.	c #CB655F",
"6^.	c #D3736E",
"7^.	c #DB7C76",
"8^.	c #D27873",
"9^.	c #DA7F79",
"0^.	c #D1837B",
"a^.	c #CF8279",
"b^.	c #D7877E",
"c^.	c #DE8B82",
"d^.	c #D4847C",
"e^.	c #DC8780",
"f^.	c #D27F79",
"g^.	c #D9837C",
"h^.	c #CF7B76",
"i^.	c #D77F79",
"j^.	c #CD7772",
"k^.	c #D57B76",
"l^.	c #DC7F7B",
"m^.	c #D27976",
"n^.	c #D97E79",
"o^.	c #CB7572",
"p^.	c #BC706E",
"q^.	c #865A58",
"r^.	c #6E5251",
"s^.	c #513A2C",
"t^.	c #6A301D",
"u^.	c #60361F",
"v^.	c #302716",
"w^.	c #2F2517",
"x^.	c #4B3E2D",
"y^.	c #5C523E",
"z^.	c #625A47",
"A^.	c #614A3B",
"B^.	c #5E4434",
"C^.	c #6D5844",
"D^.	c #6B543D",
"E^.	c #634934",
"F^.	c #705E4A",
"G^.	c #69573E",
"H^.	c #725036",
"I^.	c #5F3F2B",
"J^.	c #643D2A",
"K^.	c #533D2E",
"L^.	c #5B3C29",
"M^.	c #3F331E",
"N^.	c #362817",
"O^.	c #342517",
"P^.	c #3E2D1A",
"Q^.	c #4F3623",
"R^.	c #9D302B",
"S^.	c #B5312D",
"T^.	c #BB3430",
"U^.	c #C23230",
"V^.	c #C52B28",
"W^.	c #D0342F",
"X^.	c #CF3535",
"Y^.	c #CE3330",
"Z^.	c #CC3433",
"`^.	c #D43633",
" /.	c #D73734",
"./.	c #CD332F",
"+/.	c #CC2F2B",
"@/.	c #CB3433",
"#/.	c #D53A38",
"$/.	c #D13735",
"%/.	c #DA3A39",
"&/.	c #DF3B3A",
"*/.	c #DC3B3A",
"=/.	c #E53E3C",
"-/.	c #E83F3D",
";/.	c #EB4542",
">/.	c #E3403F",
",/.	c #E63F3E",
"'/.	c #E3423F",
")/.	c #E7413E",
"!/.	c #EE4543",
"~/.	c #EB4442",
"{/.	c #F74A49",
"]/.	c #EE4646",
"^/.	c #F14645",
"//.	c #EE4A4A",
"(/.	c #F85251",
"_/.	c #F55250",
":/.	c #F84D4E",
"</.	c #F24C4D",
"[/.	c #F74D4D",
"}/.	c #F54F4F",
"|/.	c #F04D4E",
"1/.	c #F55253",
"2/.	c #ED4F50",
"3/.	c #C64E4F",
"4/.	c #BD4E4E",
"5/.	c #B74E4F",
"6/.	c #C4504F",
"7/.	c #D94D4D",
"8/.	c #F65757",
"9/.	c #EE5554",
"0/.	c #F5595A",
"a/.	c #F35657",
"b/.	c #F25A5A",
"c/.	c #EB5758",
"d/.	c #F0585A",
"e/.	c #F55B5D",
"f/.	c #EC5957",
"g/.	c #F05B5A",
"h/.	c #EC605D",
"i/.	c #EB5D5A",
"j/.	c #F05E5A",
"k/.	c #E95C59",
"l/.	c #E75857",
"m/.	c #EF6563",
"n/.	c #E85A56",
"o/.	c #E65B57",
"p/.	c #EC5D5A",
"q/.	c #E45E5C",
"r/.	c #EA6563",
"s/.	c #E2615F",
"t/.	c #ED6460",
"u/.	c #EB635F",
"v/.	c #E3615D",
"w/.	c #E96462",
"x/.	c #E16460",
"y/.	c #ED6C68",
"z/.	c #EB6F6A",
"A/.	c #E36C67",
"B/.	c #E16C66",
"C/.	c #E86F69",
"D/.	c #ED726C",
"E/.	c #E46F69",
"F/.	c #EA736E",
"G/.	c #E2706C",
"H/.	c #E8736F",
"I/.	c #E0706C",
"J/.	c #E67571",
"K/.	c #EC7974",
"L/.	c #EA7873",
"M/.	c #E3746F",
"N/.	c #E1736E",
"O/.	c #E77971",
"P/.	c #DF756D",
"Q/.	c #E57A71",
"R/.	c #EB8076",
"S/.	c #E37F74",
"T/.	c #E9857B",
"U/.	c #E1857A",
"V/.	c #E78B81",
"W/.	c #E58D83",
"X/.	c #E49488",
"Y/.	c #EA978C",
"Z/.	c #E29186",
"`/.	c #E69488",
" (.	c #DD8C80",
".(.	c #E28F83",
"+(.	c #DA877C",
"@(.	c #E0887F",
"#(.	c #D68278",
"$(.	c #DC867D",
"%(.	c #E08980",
"&(.	c #D57B71",
"*(.	c #D47268",
"=(.	c #D16662",
"-(.	c #B6504B",
";(.	c #B54E49",
">(.	c #923734",
",(.	c #923B38",
"'(.	c #8A3534",
")(.	c #80302E",
"!(.	c #7B2E2B",
"~(.	c #782C2B",
"{(.	c #722B29",
"](.	c #712B29",
"^(.	c #642725",
"/(.	c #652826",
"((.	c #692826",
"_(.	c #5D2626",
":(.	c #633230",
"<(.	c #5F2926",
"[(.	c #653331",
"}(.	c #5B2B2B",
"|(.	c #60312F",
"1(.	c #562221",
"2(.	c #582322",
"3(.	c #5C2826",
"4(.	c #582221",
"5(.	c #5C2523",
"6(.	c #562523",
"7(.	c #5A2524",
"8(.	c #5B2624",
"9(.	c #60302F",
"0(.	c #592A29",
"a(.	c #5B2B2A",
"b(.	c #602E2C",
"c(.	c #612524",
"d(.	c #5E2120",
"e(.	c #5A201E",
"f(.	c #5B2523",
"g(.	c #55211F",
"h(.	c #561C1B",
"i(.	c #541E1D",
"j(.	c #5B1F1D",
"k(.	c #652220",
"l(.	c #652424",
"m(.	c #6B2423",
"n(.	c #702726",
"o(.	c #6C2525",
"p(.	c #712827",
"q(.	c #6B2625",
"r(.	c #742B29",
"s(.	c #742A2A",
"t(.	c #83302E",
"u(.	c #963733",
"v(.	c #9C3A38",
"w(.	c #B04743",
"x(.	c #B84E49",
"y(.	c #CA5A56",
"z(.	c #C9605C",
"A(.	c #D36F6A",
"B(.	c #CA716C",
"C(.	c #D37C74",
"D(.	c #D2827A",
"E(.	c #D1827B",
"F(.	c #DA877F",
"G(.	c #D08079",
"H(.	c #D8847C",
"I(.	c #CD7D76",
"J(.	c #D5827B",
"K(.	c #DD877E",
"L(.	c #DB837D",
"M(.	c #D07D76",
"N(.	c #CE7974",
"O(.	c #D67C78",
"P(.	c #D37875",
"Q(.	c #BF7170",
"R(.	c #9A625F",
"S(.	c #715353",
"T(.	c #5D3224",
"U(.	c #682E19",
"V(.	c #583923",
"W(.	c #352B1B",
"X(.	c #2C2315",
"Y(.	c #453922",
"Z(.	c #5A4937",
"`(.	c #635744",
" _.	c #685542",
"._.	c #534D40",
"+_.	c #4F4838",
"@_.	c #665A45",
"#_.	c #5E4B36",
"$_.	c #614831",
"%_.	c #6E604A",
"&_.	c #68593F",
"*_.	c #6A533C",
"=_.	c #66442F",
"-_.	c #5C4331",
";_.	c #673928",
">_.	c #51331F",
",_.	c #382C1A",
"'_.	c #372819",
")_.	c #3E301E",
"!_.	c #672E21",
"~_.	c #B3312D",
"{_.	c #B63230",
"]_.	c #BC322F",
"^_.	c #BC2A26",
"/_.	c #C42E2A",
"(_.	c #C83432",
"__.	c #D03532",
":_.	c #CB3432",
"<_.	c #D33531",
"[_.	c #D13634",
"}_.	c #D43634",
"|_.	c #D23433",
"1_.	c #C73230",
"2_.	c #DA3B39",
"3_.	c #D63938",
"4_.	c #DD3D3B",
"5_.	c #E64240",
"6_.	c #E3403E",
"7_.	c #E4413F",
"8_.	c #E74341",
"9_.	c #E44342",
"0_.	c #EB4340",
"a_.	c #F24B4B",
"b_.	c #F54A49",
"c_.	c #F04949",
"d_.	c #EC4846",
"e_.	c #F64A4A",
"f_.	c #F74948",
"g_.	c #EF4E4E",
"h_.	c #F34E4E",
"i_.	c #F74F50",
"j_.	c #F14B4C",
"k_.	c #EE4A4B",
"l_.	c #F55353",
"m_.	c #D24D4E",
"n_.	c #C45050",
"o_.	c #CD504F",
"p_.	c #E75050",
"q_.	c #F45050",
"r_.	c #F75555",
"s_.	c #F15454",
"t_.	c #EF585A",
"u_.	c #F05858",
"v_.	c #E95758",
"w_.	c #F15855",
"x_.	c #F26161",
"y_.	c #EF6060",
"z_.	c #E45F5D",
"A_.	c #E76561",
"B_.	c #ED6864",
"C_.	c #EB6561",
"D_.	c #EF6561",
"E_.	c #E8625F",
"F_.	c #EC6963",
"G_.	c #E46862",
"H_.	c #EA6D66",
"I_.	c #EE726B",
"J_.	c #E66E67",
"K_.	c #E46F67",
"L_.	c #EA726A",
"M_.	c #E26D67",
"N_.	c #E9726C",
"O_.	c #E06F69",
"P_.	c #E7736D",
"Q_.	c #ED7872",
"R_.	c #E5756F",
"S_.	c #EB7973",
"T_.	c #E3766F",
"U_.	c #E97974",
"V_.	c #E17670",
"W_.	c #DF7871",
"X_.	c #E57E75",
"Y_.	c #EB7B72",
"Z_.	c #E47971",
"`_.	c #EA8076",
" :.	c #E27F75",
".:.	c #E87D74",
"+:.	c #E08076",
"@:.	c #DD897F",
"#:.	c #EA968B",
"$:.	c #E29286",
"%:.	c #E6968B",
"&:.	c #DD8F85",
"*:.	c #E1887E",
"=:.	c #D47B71",
"-:.	c #DF7D75",
";:.	c #D36C64",
">:.	c #CC6158",
",:.	c #B85550",
"':.	c #A23E3B",
"):.	c #89312E",
"!:.	c #8C3533",
"~:.	c #87322F",
"{:.	c #7D2D2C",
"]:.	c #792C2B",
"^:.	c #742A29",
"/:.	c #772B2A",
"(:.	c #702928",
"_:.	c #6E2928",
"::.	c #632524",
"<:.	c #642827",
"[:.	c #5E2523",
"}:.	c #5E2220",
"|:.	c #5D2624",
"1:.	c #602827",
"2:.	c #5B2927",
"3:.	c #5A2421",
"4:.	c #5F2D2A",
"5:.	c #592827",
"6:.	c #5A2928",
"7:.	c #562624",
"8:.	c #5D2926",
"9:.	c #552120",
"0:.	c #5A2321",
"a:.	c #5C2725",
"b:.	c #592524",
"c:.	c #542120",
"d:.	c #5B2625",
"e:.	c #582725",
"f:.	c #552927",
"g:.	c #582826",
"h:.	c #5F2B29",
"i:.	c #592523",
"j:.	c #5D2625",
"k:.	c #5A2221",
"l:.	c #5C1F1D",
"m:.	c #5A1F1D",
"n:.	c #581E1C",
"o:.	c #552220",
"p:.	c #55201E",
"q:.	c #581F1D",
"r:.	c #571F1E",
"s:.	c #662221",
"t:.	c #642321",
"u:.	c #652322",
"v:.	c #6F2726",
"w:.	c #6B2523",
"x:.	c #702625",
"y:.	c #712726",
"z:.	c #752625",
"A:.	c #792726",
"B:.	c #7E2725",
"C:.	c #902F2F",
"D:.	c #A63B38",
"E:.	c #AE4541",
"F:.	c #C3554F",
"G:.	c #C75B55",
"H:.	c #D46962",
"I:.	c #CB6F68",
"J:.	c #D47973",
"K:.	c #CB7670",
"L:.	c #D27C75",
"M:.	c #D18077",
"N:.	c #D9837A",
"O:.	c #CE7C76",
"P:.	c #D6817B",
"Q:.	c #CC7C75",
"R:.	c #D4827B",
"S:.	c #DC867F",
"T:.	c #D9837D",
"U:.	c #CF7C77",
"V:.	c #CB7975",
"W:.	c #BA6F6B",
"X:.	c #9C6462",
"Y:.	c #612F21",
"Z:.	c #682C1A",
"`:.	c #523822",
" <.	c #2A2213",
".<.	c #352B17",
"+<.	c #5E4F39",
"@<.	c #615946",
"#<.	c #655B49",
"$<.	c #514B3E",
"%<.	c #574635",
"&<.	c #5E422E",
"*<.	c #5A4533",
"=<.	c #544735",
"-<.	c #685844",
";<.	c #6F523B",
"><.	c #6D4F37",
",<.	c #5F422D",
"'<.	c #574432",
")<.	c #633C2A",
"!<.	c #4C3320",
"~<.	c #362A19",
"{<.	c #382A1A",
"]<.	c #4D3D29",
"^<.	c #453321",
"/<.	c #892F24",
"(<.	c #B22D29",
"_<.	c #B6322F",
":<.	c #B62924",
"<<.	c #C1302D",
"[<.	c #BE312F",
"}<.	c #C7312C",
"|<.	c #CE2D29",
"1<.	c #C8312D",
"2<.	c #CD302D",
"3<.	c #CB3431",
"4<.	c #CD2F2C",
"5<.	c #D53634",
"6<.	c #CB322F",
"7<.	c #D1312B",
"8<.	c #DA3B38",
"9<.	c #D63936",
"0<.	c #D83A37",
"a<.	c #DD3C39",
"b<.	c #DD3B3A",
"c<.	c #E23D3B",
"d<.	c #DF3B39",
"e<.	c #E84340",
"f<.	c #DB3E3C",
"g<.	c #E54241",
"h<.	c #E44241",
"i<.	c #E3413F",
"j<.	c #EA423E",
"k<.	c #E94441",
"l<.	c #F14A49",
"m<.	c #F84E4D",
"n<.	c #EF4B4B",
"o<.	c #F74D4E",
"p<.	c #F64F50",
"q<.	c #F84E4E",
"r<.	c #F24D4E",
"s<.	c #F65050",
"t<.	c #F14F4F",
"u<.	c #F44F50",
"v<.	c #EE4E4D",
"w<.	c #EE4F51",
"x<.	c #DC4E4F",
"y<.	c #D85051",
"z<.	c #DA4F4F",
"A<.	c #ED4E4E",
"B<.	c #F45859",
"C<.	c #F35858",
"D<.	c #F45B5C",
"E<.	c #E75959",
"F<.	c #F16161",
"G<.	c #E65C5C",
"H<.	c #EC605F",
"I<.	c #E96060",
"J<.	c #EE6363",
"K<.	c #E76262",
"L<.	c #EF6C6C",
"M<.	c #ED6763",
"N<.	c #E66460",
"O<.	c #E46360",
"P<.	c #EA6662",
"Q<.	c #EF6965",
"R<.	c #E86561",
"S<.	c #EC6762",
"T<.	c #E4645F",
"U<.	c #EA6863",
"V<.	c #E2665F",
"W<.	c #E86B64",
"X<.	c #EE6E67",
"Y<.	c #E76C65",
"Z<.	c #EC7069",
"`<.	c #E56E66",
" [.	c #EB726A",
".[.	c #E36E66",
"+[.	c #E9726A",
"@[.	c #E16E66",
"#[.	c #E7716A",
"$[.	c #ED756E",
"%[.	c #E5726A",
"&[.	c #EB766E",
"*[.	c #E3736C",
"=[.	c #E97871",
"-[.	c #DF7C73",
";[.	c #EC887E",
">[.	c #E4887C",
",[.	c #EA8D83",
"'[.	c #E28B81",
")[.	c #E88F84",
"![.	c #E0887E",
"~[.	c #E68C82",
"{[.	c #DE867C",
"][.	c #E48A80",
"^[.	c #EA8F84",
"/[.	c #E08B80",
"([.	c #E69086",
"_[.	c #DA8C81",
":[.	c #DF8F83",
"<[.	c #D6897E",
"[[.	c #DD8A80",
"}[.	c #DE847A",
"|[.	c #D97F76",
"1[.	c #D5726A",
"2[.	c #D06961",
"3[.	c #C75E57",
"4[.	c #AC4842",
"5[.	c #9E3E3B",
"6[.	c #903534",
"7[.	c #7D2E2D",
"8[.	c #7D2C2C",
"9[.	c #762928",
"0[.	c #792B2A",
"a[.	c #732927",
"b[.	c #762A29",
"c[.	c #6A2827",
"d[.	c #692928",
"e[.	c #652725",
"f[.	c #612321",
"g[.	c #57201E",
"h[.	c #5B2422",
"i[.	c #582220",
"j[.	c #4D1A1A",
"k[.	c #562220",
"l[.	c #572220",
"m[.	c #551B1A",
"n[.	c #572321",
"o[.	c #531E1D",
"p[.	c #5A1F1C",
"q[.	c #54211F",
"r[.	c #551E1E",
"s[.	c #531D1B",
"t[.	c #562422",
"u[.	c #582726",
"v[.	c #562A27",
"w[.	c #572422",
"x[.	c #531F1D",
"y[.	c #521D1B",
"z[.	c #511E1D",
"A[.	c #552322",
"B[.	c #53211F",
"C[.	c #511D1B",
"D[.	c #552321",
"E[.	c #592323",
"F[.	c #592220",
"G[.	c #501F1E",
"H[.	c #562524",
"I[.	c #512322",
"J[.	c #5A2B29",
"K[.	c #542524",
"L[.	c #572524",
"M[.	c #572624",
"N[.	c #5C2220",
"O[.	c #551D1B",
"P[.	c #5B201E",
"Q[.	c #551F1D",
"R[.	c #541E1E",
"S[.	c #511C1B",
"T[.	c #5B2120",
"U[.	c #59201E",
"V[.	c #612221",
"W[.	c #612121",
"X[.	c #682323",
"Y[.	c #652221",
"Z[.	c #692524",
"`[.	c #652222",
" }.	c #681E1E",
".}.	c #6C2020",
"+}.	c #671E1E",
"@}.	c #6C211F",
"#}.	c #742424",
"$}.	c #742423",
"%}.	c #792725",
"&}.	c #8B2F2D",
"*}.	c #933532",
"=}.	c #A9433E",
"-}.	c #C15350",
";}.	c #C45C56",
">}.	c #D36D67",
",}.	c #CC6F6A",
"'}.	c #D37A72",
")}.	c #CA7870",
"!}.	c #D27B74",
"~}.	c #C8766F",
"{}.	c #D9837B",
"]}.	c #D07C76",
"^}.	c #DA837B",
"/}.	c #CF7D77",
"(}.	c #D7847B",
"_}.	c #CD7D77",
":}.	c #D5837C",
"<}.	c #CA7D76",
"[}.	c #D3827B",
"}}.	c #D7837E",
"|}.	c #BB7670",
"1}.	c #9B6764",
"2}.	c #682F1D",
"3}.	c #642C18",
"4}.	c #54341E",
"5}.	c #3C2B1A",
"6}.	c #493521",
"7}.	c #594330",
"8}.	c #665946",
"9}.	c #5F5643",
"0}.	c #544C3E",
"a}.	c #5E4731",
"b}.	c #644B36",
"c}.	c #614F3A",
"d}.	c #594835",
"e}.	c #6C4F3C",
"f}.	c #654F3A",
"g}.	c #5D523C",
"h}.	c #4E4332",
"i}.	c #5B4534",
"j}.	c #613926",
"k}.	c #382C1B",
"l}.	c #372919",
"m}.	c #413320",
"n}.	c #50412B",
"o}.	c #523423",
"p}.	c #952F29",
"q}.	c #B2302D",
"r}.	c #B02E2C",
"s}.	c #B82A27",
"t}.	c #C22D29",
"u}.	c #BD2F2B",
"v}.	c #C32E2D",
"w}.	c #C3302B",
"x}.	c #C6312F",
"y}.	c #C42E2B",
"z}.	c #C92E2B",
"A}.	c #C4312F",
"B}.	c #CD312D",
"C}.	c #D2322D",
"D}.	c #CF312E",
"E}.	c #D1312D",
"F}.	c #D33431",
"G}.	c #D13936",
"H}.	c #D83B39",
"I}.	c #D43937",
"J}.	c #DA3C3B",
"K}.	c #DF3D3B",
"L}.	c #DB3837",
"M}.	c #DF3C3B",
"N}.	c #D73A39",
"O}.	c #DF3E3D",
"P}.	c #E03F3D",
"Q}.	c #DE3D3A",
"R}.	c #E44340",
"S}.	c #E53F3D",
"T}.	c #DE413F",
"U}.	c #E2403E",
"V}.	c #E3403D",
"W}.	c #F44D4D",
"X}.	c #F44949",
"Y}.	c #F34646",
"Z}.	c #F54C4C",
"`}.	c #F95050",
" |.	c #F85150",
".|.	c #ED4D4F",
"+|.	c #E94E50",
"@|.	c #F34C4D",
"#|.	c #F45150",
"$|.	c #F05252",
"%|.	c #EA5554",
"&|.	c #F35B5C",
"*|.	c #EA5654",
"=|.	c #EB5956",
"-|.	c #E95654",
";|.	c #EB5F5F",
">|.	c #EC6360",
",|.	c #E4615C",
"'|.	c #EA6460",
")|.	c #EF6763",
"!|.	c #EE6663",
"~|.	c #E56560",
"{|.	c #EB6863",
"]|.	c #E36560",
"^|.	c #EE6C65",
"/|.	c #E76862",
"(|.	c #ED6D66",
"_|.	c #EB6F67",
":|.	c #E36C65",
"<|.	c #E97169",
"[|.	c #ED756C",
"}|.	c #E6716A",
"||.	c #EC756C",
"1|.	c #E47068",
"2|.	c #EA746D",
"3|.	c #E27269",
"4|.	c #E8786F",
"5|.	c #E07870",
"6|.	c #E68277",
"7|.	c #EC8A7F",
"8|.	c #EA857B",
"9|.	c #E27E74",
"0|.	c #E8867C",
"a|.	c #E79186",
"b|.	c #DE8C80",
"c|.	c #EA9187",
"d|.	c #E08A80",
"e|.	c #DD867D",
"f|.	c #E38980",
"g|.	c #DF8B81",
"h|.	c #DA8077",
"i|.	c #DD7F76",
"j|.	c #D97C74",
"k|.	c #DE746B",
"l|.	c #CA625B",
"m|.	c #C45E58",
"n|.	c #A6443F",
"o|.	c #A54641",
"p|.	c #7D2F2D",
"q|.	c #7F2D2C",
"r|.	c #782A2A",
"s|.	c #7C2B2A",
"t|.	c #762A28",
"u|.	c #6B2725",
"v|.	c #692726",
"w|.	c #6A2726",
"x|.	c #622524",
"y|.	c #5E2929",
"z|.	c #592221",
"A|.	c #521C1A",
"B|.	c #4E1B1A",
"C|.	c #521A18",
"D|.	c #541A18",
"E|.	c #501917",
"F|.	c #511B19",
"G|.	c #4E1A19",
"H|.	c #501B1A",
"I|.	c #4B1B19",
"J|.	c #4F1D1B",
"K|.	c #481816",
"L|.	c #501C1A",
"M|.	c #4F1F1F",
"N|.	c #4E1A18",
"O|.	c #521F1F",
"P|.	c #4E1C1B",
"Q|.	c #501715",
"R|.	c #4C1615",
"S|.	c #501F1C",
"T|.	c #592422",
"U|.	c #522321",
"V|.	c #542422",
"W|.	c #4F211F",
"X|.	c #55201F",
"Y|.	c #52211F",
"Z|.	c #511F1F",
"`|.	c #552221",
" 1.	c #501D1C",
".1.	c #51201E",
"+1.	c #552524",
"@1.	c #502120",
"#1.	c #522220",
"$1.	c #50201D",
"%1.	c #582422",
"&1.	c #59211F",
"*1.	c #581F1E",
"=1.	c #571F1D",
"-1.	c #541E1B",
";1.	c #501E1D",
">1.	c #541F1E",
",1.	c #511E1C",
"'1.	c #582020",
")1.	c #5E2221",
"!1.	c #5D2020",
"~1.	c #651E1E",
"{1.	c #651D1D",
"]1.	c #621C1B",
"^1.	c #621D1C",
"/1.	c #68201E",
"(1.	c #6E2221",
"_1.	c #742624",
":1.	c #802D2B",
"<1.	c #772828",
"[1.	c #882F2D",
"}1.	c #8E3432",
"|1.	c #A4403D",
"11.	c #B84F4B",
"21.	c #BE5753",
"31.	c #CE625D",
"41.	c #CA665E",
"51.	c #D46D66",
"61.	c #CB6A63",
"71.	c #D4766F",
"81.	c #CA746D",
"91.	c #D27B75",
"01.	c #D07A72",
"a1.	c #D17E76",
"b1.	c #CE7F76",
"c1.	c #D5847C",
"d1.	c #C47A72",
"e1.	c #BB7872",
"f1.	c #926763",
"g1.	c #554137",
"h1.	c #682F20",
"i1.	c #60341D",
"j1.	c #43351F",
"k1.	c #2E2616",
"l1.	c #3C2D1A",
"m1.	c #604F3C",
"n1.	c #625847",
"o1.	c #6A5844",
"p1.	c #63503E",
"q1.	c #645540",
"r1.	c #685D49",
"s1.	c #5C4E3E",
"t1.	c #634935",
"u1.	c #67513D",
"v1.	c #684E3C",
"w1.	c #65513B",
"x1.	c #574433",
"y1.	c #624633",
"z1.	c #5D3C29",
"A1.	c #3E321F",
"B1.	c #362A1A",
"C1.	c #382B1A",
"D1.	c #61422E",
"E1.	c #672D20",
"F1.	c #A32B28",
"G1.	c #B02E2B",
"H1.	c #B12B28",
"I1.	c #B82D2A",
"J1.	c #B92D2A",
"K1.	c #BB2F2C",
"L1.	c #B92A26",
"M1.	c #BE2B27",
"N1.	c #BA2C29",
"O1.	c #C12926",
"P1.	c #C73231",
"Q1.	c #C5312E",
"R1.	c #CC3231",
"S1.	c #CA312D",
"T1.	c #CE3530",
"U1.	c #D2302D",
"V1.	c #D03431",
"W1.	c #D53835",
"X1.	c #D93B38",
"Y1.	c #D53937",
"Z1.	c #DC3C3C",
"`1.	c #DF3F3E",
" 2.	c #DF3F3C",
".2.	c #E4403E",
"+2.	c #E23F3F",
"@2.	c #E33E3D",
"#2.	c #DC3C3B",
"$2.	c #E2413D",
"%2.	c #F7514F",
"&2.	c #F24E4E",
"*2.	c #F74C4A",
"=2.	c #E74342",
"-2.	c #E84242",
";2.	c #EF4545",
">2.	c #F94F4E",
",2.	c #F44D4E",
"'2.	c #F84F4E",
")2.	c #F7504E",
"!2.	c #F04D4D",
"~2.	c #F84D4D",
"{2.	c #F34848",
"]2.	c #F74C4D",
"^2.	c #F75252",
"/2.	c #F75453",
"(2.	c #F64B4B",
"_2.	c #F65555",
":2.	c #F25C5B",
"<2.	c #EC5A58",
"[2.	c #F36160",
"}2.	c #E65F5E",
"|2.	c #F16263",
"12.	c #E65D5F",
"22.	c #E55C5A",
"32.	c #EA6966",
"42.	c #F06460",
"52.	c #E9625E",
"62.	c #EE6562",
"72.	c #E5615C",
"82.	c #EB6660",
"92.	c #E3645D",
"02.	c #E96760",
"a2.	c #EF6963",
"b2.	c #E7675F",
"c2.	c #ED6962",
"d2.	c #E6665F",
"e2.	c #EB6A62",
"f2.	c #E3685F",
"g2.	c #EA6B63",
"h2.	c #E16962",
"i2.	c #E86E66",
"j2.	c #ED726A",
"k2.	c #E66F66",
"l2.	c #EC746C",
"m2.	c #E47168",
"n2.	c #EA756D",
"o2.	c #E2726A",
"p2.	c #E8776E",
"q2.	c #E0736B",
"r2.	c #E77B71",
"s2.	c #EC847A",
"t2.	c #E5867B",
"u2.	c #EA8E82",
"v2.	c #E98E83",
"w2.	c #ED9589",
"x2.	c #E99387",
"y2.	c #E08D83",
"z2.	c #DE8A80",
"A2.	c #E38C82",
"B2.	c #DA857C",
"C2.	c #DF877E",
"D2.	c #E4887F",
"E2.	c #D97A72",
"F2.	c #E18177",
"G2.	c #DA766E",
"H2.	c #D96C66",
"I2.	c #C25A54",
"J2.	c #B44E4B",
"K2.	c #9E3F3D",
"L2.	c #903836",
"M2.	c #933938",
"N2.	c #802E2D",
"O2.	c #7A2C2B",
"P2.	c #7B2C2B",
"Q2.	c #762A2A",
"R2.	c #692625",
"S2.	c #672826",
"T2.	c #6C2826",
"U2.	c #5D2321",
"V2.	c #561B19",
"W2.	c #511A18",
"X2.	c #531A18",
"Y2.	c #561A18",
"Z2.	c #521917",
"`2.	c #551A18",
" 3.	c #501816",
".3.	c #531917",
"+3.	c #4F1615",
"@3.	c #511716",
"#3.	c #4D1514",
"$3.	c #501716",
"%3.	c #4A1615",
"&3.	c #4C1816",
"*3.	c #491716",
"=3.	c #4A1716",
"-3.	c #451817",
";3.	c #491A18",
">3.	c #451716",
",3.	c #471716",
"'3.	c #4F1918",
")3.	c #461615",
"!3.	c #491A19",
"~3.	c #4C1918",
"{3.	c #471615",
"]3.	c #471A1A",
"^3.	c #4F1E1D",
"/3.	c #511B1A",
"(3.	c #532120",
"_3.	c #4C1C1C",
":3.	c #4F1C1A",
"<3.	c #4F1A18",
"[3.	c #512221",
"}3.	c #512220",
"|3.	c #4E1E1C",
"13.	c #522523",
"23.	c #502524",
"33.	c #582B2A",
"43.	c #532725",
"53.	c #511D1C",
"63.	c #562321",
"73.	c #5A2220",
"83.	c #56201D",
"93.	c #592121",
"03.	c #531D1D",
"a3.	c #4F1C1C",
"b3.	c #591E1E",
"c3.	c #591D1B",
"d3.	c #601C1B",
"e3.	c #631D1D",
"f3.	c #69201F",
"g3.	c #661F1E",
"h3.	c #6B2221",
"i3.	c #762726",
"j3.	c #742726",
"k3.	c #7E2D2C",
"l3.	c #7F312F",
"m3.	c #813534",
"n3.	c #843130",
"o3.	c #953836",
"p3.	c #9A3D3A",
"q3.	c #AE4845",
"r3.	c #C25450",
"s3.	c #C55A55",
"t3.	c #D2655F",
"u3.	c #CB6760",
"v3.	c #D4716A",
"w3.	c #CA6F69",
"x3.	c #D37871",
"y3.	c #C9756E",
"z3.	c #D17C74",
"A3.	c #CF7B73",
"B3.	c #D7837C",
"C3.	c #B9756F",
"D3.	c #8E6460",
"E3.	c #544033",
"F3.	c #672D1C",
"G3.	c #69371D",
"H3.	c #42321E",
"I3.	c #2C2414",
"J3.	c #3B301F",
"K3.	c #44321E",
"L3.	c #5A4935",
"M3.	c #5E5543",
"N3.	c #6B4F3B",
"O3.	c #534A3A",
"P3.	c #6D624D",
"Q3.	c #766047",
"R3.	c #6F523C",
"S3.	c #5F503A",
"T3.	c #5B4C38",
"U3.	c #5E4A36",
"V3.	c #603D2B",
"W3.	c #633E2C",
"X3.	c #563B27",
"Y3.	c #382D1B",
"Z3.	c #372B1A",
"`3.	c #3C2E1D",
" 4.	c #493A25",
".4.	c #53412A",
"+4.	c #7C2B25",
"@4.	c #A42A27",
"#4.	c #AA2D2A",
"$4.	c #B02A28",
"%4.	c #B12C2A",
"&4.	c #B52A27",
"*4.	c #B52825",
"=4.	c #B72D2B",
"-4.	c #BA2B27",
";4.	c #B72722",
">4.	c #BE2C29",
",4.	c #BF2C26",
"'4.	c #C7312F",
")4.	c #C6312E",
"!4.	c #CE322F",
"~4.	c #CF3531",
"{4.	c #CE3634",
"]4.	c #D0312E",
"^4.	c #D33432",
"/4.	c #DC3A38",
"(4.	c #DC3735",
"_4.	c #DE3B38",
":4.	c #DC3F3B",
"<4.	c #E34240",
"[4.	c #E04140",
"}4.	c #DE3E3C",
"|4.	c #E34340",
"14.	c #DF403F",
"24.	c #F3504D",
"34.	c #EA4444",
"44.	c #E13F3E",
"54.	c #EE4343",
"64.	c #F74F4F",
"74.	c #F25253",
"84.	c #F65556",
"94.	c #EF5253",
"04.	c #ED5656",
"a4.	c #EB5658",
"b4.	c #EC5554",
"c4.	c #F35A58",
"d4.	c #F06060",
"e4.	c #EF5E5E",
"f4.	c #EB5F61",
"g4.	c #F16364",
"h4.	c #EA5F5F",
"i4.	c #E85E5D",
"j4.	c #E55C5D",
"k4.	c #E95D5A",
"l4.	c #EE6461",
"m4.	c #E7605D",
"n4.	c #E55E5A",
"o4.	c #EB635D",
"p4.	c #F06560",
"q4.	c #E9635D",
"r4.	c #EF675F",
"s4.	c #E8635C",
"t4.	c #ED665F",
"u4.	c #E6625C",
"v4.	c #EC6560",
"w4.	c #E4625C",
"x4.	c #EA655F",
"y4.	c #EF6861",
"z4.	c #E8665F",
"A4.	c #EE6D63",
"B4.	c #E66A63",
"C4.	c #EC6F66",
"D4.	c #E46D64",
"E4.	c #EA7169",
"F4.	c #E27068",
"G4.	c #E9746C",
"H4.	c #EE7971",
"I4.	c #E7786F",
"J4.	c #ED786F",
"K4.	c #E5766C",
"L4.	c #EB7C73",
"M4.	c #E37D73",
"N4.	c #E9837A",
"O4.	c #E18279",
"P4.	c #E78C82",
"Q4.	c #ED9387",
"R4.	c #E48E82",
"S4.	c #E99084",
"T4.	c #E3887C",
"U4.	c #DC7D74",
"V4.	c #D86F67",
"W4.	c #D76761",
"X4.	c #CF625A",
"Y4.	c #B54F4A",
"Z4.	c #AB4642",
"`4.	c #943A36",
" 5.	c #893533",
".5.	c #8D3836",
"+5.	c #853231",
"@5.	c #7E2F2E",
"#5.	c #712A28",
"$5.	c #692929",
"%5.	c #682726",
"&5.	c #692927",
"*5.	c #5D2523",
"=5.	c #5F2221",
"-5.	c #58201F",
";5.	c #571E1D",
">5.	c #521B19",
",5.	c #541C1A",
"'5.	c #521A19",
")5.	c #551B19",
"!5.	c #511917",
"~5.	c #511817",
"{5.	c #521716",
"]5.	c #4F1614",
"^5.	c #521615",
"/5.	c #521715",
"(5.	c #4E1514",
"_5.	c #501614",
":5.	c #4B1514",
"<5.	c #4D1615",
"[5.	c #491514",
"}5.	c #4B1615",
"|5.	c #461513",
"15.	c #481614",
"25.	c #481413",
"35.	c #4C1413",
"45.	c #471312",
"55.	c #4A1312",
"65.	c #461210",
"75.	c #481211",
"85.	c #491313",
"95.	c #441313",
"05.	c #421312",
"a5.	c #471413",
"b5.	c #431414",
"c5.	c #481A19",
"d5.	c #4D2020",
"e5.	c #4F1D1C",
"f5.	c #481312",
"g5.	c #4D1D1D",
"h5.	c #491919",
"i5.	c #521D1C",
"j5.	c #4D1C1B",
"k5.	c #4F201F",
"l5.	c #4B1B1A",
"m5.	c #4E2422",
"n5.	c #542724",
"o5.	c #4D201E",
"p5.	c #522423",
"q5.	c #552323",
"r5.	c #4E1E1D",
"s5.	c #572221",
"t5.	c #511F1D",
"u5.	c #531D1C",
"v5.	c #4D1818",
"w5.	c #531C1B",
"x5.	c #521C1B",
"y5.	c #571D1B",
"z5.	c #601E1C",
"A5.	c #611E1C",
"B5.	c #681F1F",
"C5.	c #6A2222",
"D5.	c #672120",
"E5.	c #6C2422",
"F5.	c #6A2626",
"G5.	c #722929",
"H5.	c #772A29",
"I5.	c #792A29",
"J5.	c #883230",
"K5.	c #8E3430",
"L5.	c #A43D3B",
"M5.	c #A9423E",
"N5.	c #BD4E4A",
"O5.	c #CD5A56",
"P5.	c #CA5D57",
"Q5.	c #D46761",
"R5.	c #CA6862",
"S5.	c #D37069",
"T5.	c #CA6E68",
"U5.	c #D2756F",
"V5.	c #B76C67",
"W5.	c #8B5D5A",
"X5.	c #583528",
"Y5.	c #632D1A",
"Z5.	c #5A331D",
"`5.	c #3C311C",
" 6.	c #302818",
".6.	c #3B311E",
"+6.	c #493724",
"@6.	c #594A35",
"#6.	c #5C5241",
"$6.	c #615240",
"%6.	c #584E3D",
"&6.	c #756750",
"*6.	c #76654C",
"=6.	c #6D5E45",
"-6.	c #5B4931",
";6.	c #644E3A",
">6.	c #5B4736",
",6.	c #6D4834",
"'6.	c #4E4536",
")6.	c #594234",
"!6.	c #56321F",
"~6.	c #352A18",
"{6.	c #352817",
"]6.	c #423421",
"^6.	c #52432C",
"/6.	c #5B3B28",
"(6.	c #7D2D24",
"_6.	c #A02927",
":6.	c #AB2927",
"<6.	c #AC2A27",
"[6.	c #AB2926",
"}6.	c #AF2B29",
"|6.	c #AA2A26",
"16.	c #B32824",
"26.	c #B32A28",
"36.	c #BA2D2B",
"46.	c #C22D2C",
"56.	c #C92F2D",
"66.	c #CB2F2C",
"76.	c #CB3633",
"86.	c #CA3331",
"96.	c #D13432",
"06.	c #CA3432",
"a6.	c #CE322D",
"b6.	c #CE3534",
"c6.	c #D33734",
"d6.	c #D73633",
"e6.	c #E03C38",
"f6.	c #DF3E3C",
"g6.	c #DC3B39",
"h6.	c #E23C3A",
"i6.	c #E24442",
"j6.	c #E64140",
"k6.	c #DF3D3C",
"l6.	c #E1413F",
"m6.	c #DF4240",
"n6.	c #DD403E",
"o6.	c #E94948",
"p6.	c #EB4948",
"q6.	c #EF4845",
"r6.	c #F24845",
"s6.	c #F34A4A",
"t6.	c #EA4545",
"u6.	c #E94343",
"v6.	c #E94241",
"w6.	c #F84D4B",
"x6.	c #F55151",
"y6.	c #F45051",
"z6.	c #F75250",
"A6.	c #F05152",
"B6.	c #ED5351",
"C6.	c #EA5552",
"D6.	c #EB5755",
"E6.	c #F25C5D",
"F6.	c #EA5D5E",
"G6.	c #E95E60",
"H6.	c #E86461",
"I6.	c #EB625E",
"J6.	c #F16561",
"K6.	c #EA615C",
"L6.	c #EF645E",
"M6.	c #E8625A",
"N6.	c #EE655E",
"O6.	c #E6625A",
"P6.	c #EC645D",
"Q6.	c #E4625A",
"R6.	c #EA645D",
"S6.	c #F06760",
"T6.	c #E9655E",
"U6.	c #EE6760",
"V6.	c #E7645E",
"W6.	c #EC6761",
"X6.	c #E5665F",
"Y6.	c #EB6A63",
"Z6.	c #E36A62",
"`6.	c #E96F67",
" 7.	c #EE736C",
".7.	c #E7736A",
"+7.	c #E57970",
"@7.	c #EB8177",
"#7.	c #E38278",
"$7.	c #EA877C",
"%7.	c #E1887C",
"&7.	c #E88E83",
"*7.	c #ED9388",
"=7.	c #E48F84",
"-7.	c #E99286",
";7.	c #E08C81",
">7.	c #E68E83",
",7.	c #DD887D",
"'7.	c #E38C81",
")7.	c #DA867B",
"!7.	c #DD8279",
"~7.	c #E4877D",
"{7.	c #D4746B",
"]7.	c #E0756C",
"^7.	c #C25B53",
"/7.	c #C95E58",
"(7.	c #AA4742",
"_7.	c #AB4744",
":7.	c #8B3835",
"<7.	c #8A3533",
"[7.	c #702929",
"}7.	c #6B2A28",
"|7.	c #672524",
"17.	c #652A29",
"27.	c #5A211F",
"37.	c #622522",
"47.	c #511A19",
"57.	c #531B1A",
"67.	c #501A18",
"77.	c #541B18",
"87.	c #4F1817",
"97.	c #4F1716",
"07.	c #521816",
"a7.	c #511615",
"b7.	c #531715",
"c7.	c #501514",
"d7.	c #531615",
"e7.	c #4D1513",
"f7.	c #4F1514",
"g7.	c #4B1312",
"h7.	c #4E1614",
"i7.	c #4A1413",
"j7.	c #4C1614",
"k7.	c #461413",
"l7.	c #461211",
"m7.	c #481212",
"n7.	c #491312",
"o7.	c #461111",
"p7.	c #481111",
"q7.	c #44100F",
"r7.	c #451210",
"s7.	c #42110F",
"t7.	c #431111",
"u7.	c #401110",
"v7.	c #421212",
"w7.	c #431212",
"x7.	c #401211",
"y7.	c #421414",
"z7.	c #3F1312",
"A7.	c #431413",
"B7.	c #421413",
"C7.	c #411514",
"D7.	c #451413",
"E7.	c #491818",
"F7.	c #471B1A",
"G7.	c #471B19",
"H7.	c #441514",
"I7.	c #4A201F",
"J7.	c #4C1A19",
"K7.	c #491B18",
"L7.	c #4C2221",
"M7.	c #502423",
"N7.	c #4C1E1C",
"O7.	c #461616",
"P7.	c #4D1E1D",
"Q7.	c #551F1F",
"R7.	c #521F1D",
"S7.	c #4E1918",
"T7.	c #501A19",
"U7.	c #5F1E1E",
"V7.	c #662020",
"W7.	c #692323",
"X7.	c #662121",
"Y7.	c #6A2323",
"Z7.	c #642121",
"`7.	c #682322",
" 8.	c #632020",
".8.	c #6D2423",
"+8.	c #6F2523",
"@8.	c #6E2423",
"#8.	c #7D2928",
"$8.	c #822C28",
"%8.	c #943430",
"&8.	c #9C3835",
"*8.	c #AF433F",
"=8.	c #B34843",
"-8.	c #C75751",
";8.	c #D66761",
">8.	c #CC6862",
",8.	c #A16661",
"'8.	c #865A57",
")8.	c #5D2F1F",
"!8.	c #692514",
"~8.	c #56331F",
"{8.	c #362D1A",
"]8.	c #2C2515",
"^8.	c #3E3521",
"/8.	c #513522",
"(8.	c #624C39",
"_8.	c #585040",
":8.	c #5A513F",
"<8.	c #62523D",
"[8.	c #7A654D",
"}8.	c #735C44",
"|8.	c #635741",
"18.	c #5D5141",
"28.	c #513E2D",
"38.	c #5C3B29",
"48.	c #554432",
"58.	c #6B3A27",
"68.	c #4F311D",
"78.	c #352918",
"88.	c #352716",
"98.	c #473A24",
"08.	c #72342A",
"a8.	c #9C2825",
"b8.	c #A12925",
"c8.	c #A52725",
"d8.	c #A92725",
"e8.	c #A72724",
"f8.	c #A92825",
"g8.	c #AB2623",
"h8.	c #B42E2C",
"i8.	c #BB2D2A",
"j8.	c #BD2E2C",
"k8.	c #C3302D",
"l8.	c #C7312E",
"m8.	c #C5312F",
"n8.	c #C6322F",
"o8.	c #C4302C",
"p8.	c #CD3531",
"q8.	c #D2312E",
"r8.	c #C7302C",
"s8.	c #CC3432",
"t8.	c #C8312F",
"u8.	c #CC322F",
"v8.	c #D73C38",
"w8.	c #E24140",
"x8.	c #E33F3D",
"y8.	c #DD3E3C",
"z8.	c #E1403F",
"A8.	c #E1403E",
"B8.	c #E94A48",
"C8.	c #E74746",
"D8.	c #E54242",
"E8.	c #ED4243",
"F8.	c #E74141",
"G8.	c #E64444",
"H8.	c #ED4948",
"I8.	c #F84949",
"J8.	c #F84C4E",
"K8.	c #F04A49",
"L8.	c #F94C4B",
"M8.	c #F84B4A",
"N8.	c #F24E4F",
"O8.	c #F04F50",
"P8.	c #EF504F",
"Q8.	c #F85151",
"R8.	c #EE585C",
"S8.	c #F3595D",
"T8.	c #F65354",
"U8.	c #ED504F",
"V8.	c #EC4F4F",
"W8.	c #EE524F",
"X8.	c #E95553",
"Y8.	c #EA5C5D",
"Z8.	c #E95C5D",
"`8.	c #F36162",
" 9.	c #ED5F61",
".9.	c #E65956",
"+9.	c #F16461",
"@9.	c #EF635F",
"#9.	c #E8605B",
"$9.	c #EE625D",
"%9.	c #E6605A",
"&9.	c #E5625B",
"*9.	c #EB655E",
"=9.	c #F06961",
"-9.	c #EE6A62",
";9.	c #E7675E",
">9.	c #ED6861",
",9.	c #E5635D",
"'9.	c #EB6861",
")9.	c #E36760",
"!9.	c #E96861",
"~9.	c #EF6D66",
"{9.	c #E76B66",
"]9.	c #ED716A",
"^9.	c #E66D67",
"/9.	c #EC766D",
"(9.	c #E4736B",
"_9.	c #EA8279",
":9.	c #EC8E82",
"<9.	c #E48B7F",
"[9.	c #E68E84",
"}9.	c #E28A81",
"|9.	c #D88078",
"19.	c #DE8379",
"29.	c #DE7C72",
"39.	c #DD786F",
"49.	c #DE6F67",
"59.	c #C95D56",
"69.	c #BA514B",
"79.	c #923735",
"89.	c #8B3634",
"99.	c #863331",
"09.	c #843230",
"a9.	c #792C2A",
"b9.	c #762B2A",
"c9.	c #762C2B",
"d9.	c #6C2928",
"e9.	c #6A2927",
"f9.	c #551E1C",
"g9.	c #541C1B",
"h9.	c #541B19",
"i9.	c #531A19",
"j9.	c #4E1716",
"k9.	c #541716",
"l9.	c #511614",
"m9.	c #4E1513",
"n9.	c #511514",
"o9.	c #4D1413",
"p9.	c #4E1414",
"q9.	c #4A1311",
"r9.	c #4C1412",
"s9.	c #481411",
"t9.	c #491412",
"u9.	c #451311",
"v9.	c #481412",
"w9.	c #491513",
"x9.	c #461212",
"y9.	c #441311",
"z9.	c #461312",
"A9.	c #430F0F",
"B9.	c #441212",
"C9.	c #40100F",
"D9.	c #431210",
"E9.	c #451211",
"F9.	c #411010",
"G9.	c #441312",
"H9.	c #401111",
"I9.	c #3F1211",
"J9.	c #401212",
"K9.	c #3E1110",
"L9.	c #3F1111",
"M9.	c #3F1212",
"N9.	c #411313",
"O9.	c #3E1313",
"P9.	c #411212",
"Q9.	c #3D1212",
"R9.	c #401514",
"S9.	c #431C1B",
"T9.	c #3E1413",
"U9.	c #441817",
"V9.	c #451B1B",
"W9.	c #451918",
"X9.	c #4C1E1D",
"Y9.	c #4A2222",
"Z9.	c #552725",
"`9.	c #4B2021",
" 0.	c #522222",
".0.	c #4E1D1D",
"+0.	c #542221",
"@0.	c #562120",
"#0.	c #4D1F1E",
"$0.	c #541D1D",
"%0.	c #5D2323",
"&0.	c #642323",
"*0.	c #692121",
"=0.	c #682121",
"-0.	c #621F1F",
";0.	c #601D1D",
">0.	c #652121",
",0.	c #792624",
"'0.	c #752321",
")0.	c #963633",
"!0.	c #9E3D3A",
"~0.	c #B44643",
"{0.	c #C75D58",
"]0.	c #96615E",
"^0.	c #865F5D",
"/0.	c #5C2E1E",
"(0.	c #612E1C",
"_0.	c #50301C",
":0.	c #322A18",
"<0.	c #3F3520",
"[0.	c #635540",
"}0.	c #554B39",
"|0.	c #5D4F3B",
"10.	c #694B36",
"20.	c #79634C",
"30.	c #6A5E46",
"40.	c #69543E",
"50.	c #58402E",
"60.	c #563424",
"70.	c #523E2E",
"80.	c #4C4332",
"90.	c #5E4734",
"00.	c #623D2A",
"a0.	c #4B3320",
"b0.	c #342818",
"c0.	c #362918",
"d0.	c #4A3C27",
"e0.	c #483723",
"f0.	c #953733",
"g0.	c #A12826",
"h0.	c #A32927",
"i0.	c #AA2A28",
"j0.	c #AB2A28",
"k0.	c #AA2722",
"l0.	c #AB2723",
"m0.	c #AD2825",
"n0.	c #B92E2A",
"o0.	c #BD2B27",
"p0.	c #BD2925",
"q0.	c #C62E2C",
"r0.	c #C62F2D",
"s0.	c #C6302E",
"t0.	c #C7322D",
"u0.	c #C6302C",
"v0.	c #CE3331",
"w0.	c #C82F2B",
"x0.	c #BF2D2A",
"y0.	c #C72E2D",
"z0.	c #C7302E",
"A0.	c #CB312E",
"B0.	c #D53432",
"C0.	c #DC3A37",
"D0.	c #DC403D",
"E0.	c #DA3F3D",
"F0.	c #DA3D3D",
"G0.	c #DE3F3E",
"H0.	c #DE403F",
"I0.	c #E1403D",
"J0.	c #D83F3D",
"K0.	c #DC423F",
"L0.	c #DD4442",
"M0.	c #E54444",
"N0.	c #EB4646",
"O0.	c #E94545",
"P0.	c #EC4445",
"Q0.	c #EE4645",
"R0.	c #EB4847",
"S0.	c #EF4546",
"T0.	c #F64949",
"U0.	c #F54B4C",
"V0.	c #F84B4C",
"W0.	c #F54F50",
"X0.	c #F85352",
"Y0.	c #F75050",
"Z0.	c #F2575A",
"`0.	c #F6585B",
" a.	c #ED5152",
".a.	c #F55352",
"+a.	c #F55555",
"@a.	c #EF5654",
"#a.	c #F05654",
"$a.	c #F35F61",
"%a.	c #E85D5F",
"&a.	c #F26264",
"*a.	c #EC595A",
"=a.	c #F16061",
"-a.	c #E65C5B",
";a.	c #F06764",
">a.	c #E75E5A",
",a.	c #ED615B",
"'a.	c #E55E58",
")a.	c #EB625B",
"!a.	c #F0665F",
"~a.	c #E9645D",
"{a.	c #EF6760",
"]a.	c #ED6961",
"^a.	c #E6675F",
"/a.	c #EB6B63",
"(a.	c #E46A63",
"_a.	c #EF786F",
":a.	c #E8766E",
"<a.	c #ED776F",
"[a.	c #E6766E",
"}a.	c #EC7B74",
"|a.	c #E4786F",
"1a.	c #EA7B71",
"2a.	c #E2786F",
"3a.	c #E77B74",
"4a.	c #EB8178",
"5a.	c #E48076",
"6a.	c #E08479",
"7a.	c #E68A7F",
"8a.	c #DD857B",
"9a.	c #E3847A",
"0a.	c #D77C73",
"aa.	c #DA7B72",
"ba.	c #E48077",
"ca.	c #DB746C",
"da.	c #CB5F59",
"ea.	c #C05650",
"fa.	c #B14945",
"ga.	c #993E3C",
"ha.	c #833130",
"ia.	c #732C2A",
"ja.	c #682826",
"ka.	c #682727",
"la.	c #6B2B28",
"ma.	c #632423",
"na.	c #5C2222",
"oa.	c #541F1D",
"pa.	c #511C1A",
"qa.	c #551D1C",
"ra.	c #551C1A",
"sa.	c #531B19",
"ta.	c #511918",
"ua.	c #521817",
"va.	c #4F1715",
"wa.	c #4F1414",
"xa.	c #4D1312",
"ya.	c #4F1412",
"za.	c #4C1312",
"Aa.	c #481311",
"Ba.	c #4B1412",
"Ca.	c #4B1513",
"Da.	c #4A1412",
"Ea.	c #471211",
"Fa.	c #441110",
"Ga.	c #451312",
"Ha.	c #421211",
"Ia.	c #451313",
"Ja.	c #421110",
"Ka.	c #441211",
"La.	c #411110",
"Ma.	c #431312",
"Na.	c #411311",
"Oa.	c #431412",
"Pa.	c #401312",
"Qa.	c #411413",
"Ra.	c #3E1111",
"Sa.	c #3D1111",
"Ta.	c #3D1010",
"Ua.	c #3F1313",
"Va.	c #3E1212",
"Wa.	c #3F1413",
"Xa.	c #3D1313",
"Ya.	c #3B1111",
"Za.	c #3E1312",
"`a.	c #3F1515",
" b.	c #3B1212",
".b.	c #3D1515",
"+b.	c #461B1A",
"@b.	c #451D1C",
"#b.	c #47201E",
"$b.	c #4C2120",
"%b.	c #512524",
"&b.	c #502322",
"*b.	c #4E1F1E",
"=b.	c #4E2220",
"-b.	c #521E1E",
";b.	c #4D1B1B",
">b.	c #4B1918",
",b.	c #501B1B",
"'b.	c #571C1B",
")b.	c #581A1A",
"!b.	c #621E1E",
"~b.	c #641E1D",
"{b.	c #601C1C",
"]b.	c #621A19",
"^b.	c #5D1818",
"/b.	c #611B1A",
"(b.	c #5E1B1A",
"_b.	c #661F1D",
":b.	c #7A2B2A",
"<b.	c #A8423F",
"[b.	c #D56761",
"}b.	c #91605D",
"|b.	c #825D5B",
"1b.	c #5D281B",
"2b.	c #612B17",
"3b.	c #3A301C",
"4b.	c #312916",
"5b.	c #2C2415",
"6b.	c #3E301C",
"7b.	c #4A3B2E",
"8b.	c #5A503E",
"9b.	c #484030",
"0b.	c #534534",
"ab.	c #67553E",
"bb.	c #665A42",
"cb.	c #5B503C",
"db.	c #614633",
"eb.	c #4F3B2B",
"fb.	c #4A3A28",
"gb.	c #524030",
"hb.	c #554232",
"ib.	c #5F3F30",
"jb.	c #623B28",
"kb.	c #3D321F",
"lb.	c #3E2F1B",
"mb.	c #4A3B28",
"nb.	c #513222",
"ob.	c #91312B",
"pb.	c #A02826",
"qb.	c #A22826",
"rb.	c #AC2623",
"sb.	c #B22826",
"tb.	c #B02B29",
"ub.	c #AF2C2A",
"vb.	c #A92624",
"wb.	c #AF2B28",
"xb.	c #B42823",
"yb.	c #BB2F2B",
"zb.	c #BB2D28",
"Ab.	c #BD2A28",
"Bb.	c #C52B26",
"Cb.	c #C72C27",
"Db.	c #C62E29",
"Eb.	c #C12C27",
"Fb.	c #C9312E",
"Gb.	c #C12F2C",
"Hb.	c #BD2D2B",
"Ib.	c #C82E2A",
"Jb.	c #C8322F",
"Kb.	c #D93A37",
"Lb.	c #DB3C3B",
"Mb.	c #DD3D3A",
"Nb.	c #D73C3C",
"Ob.	c #D43B38",
"Pb.	c #DE3F3D",
"Qb.	c #DA3F3E",
"Rb.	c #DC4543",
"Sb.	c #DB433F",
"Tb.	c #DD3E3D",
"Ub.	c #E54442",
"Vb.	c #E64241",
"Wb.	c #EE4444",
"Xb.	c #F84A49",
"Yb.	c #F44B4C",
"Zb.	c #F14A4A",
"`b.	c #F34D4D",
" c.	c #F44A48",
".c.	c #F05A57",
"+c.	c #ED5452",
"@c.	c #EC5453",
"#c.	c #F25E5F",
"$c.	c #EA5B5B",
"%c.	c #F36364",
"&c.	c #EE5E60",
"*c.	c #EF5A56",
"=c.	c #E55D57",
"-c.	c #EB5E59",
";c.	c #F0635B",
">c.	c #E95F59",
",c.	c #EF635D",
"'c.	c #E8615A",
")c.	c #ED645D",
"!c.	c #EC6760",
"~c.	c #E4655E",
"{c.	c #EF726A",
"]c.	c #E87770",
"^c.	c #EE7D75",
"/c.	c #EC7C75",
"(c.	c #E47871",
"_c.	c #EA7C74",
":c.	c #F07F76",
"<c.	c #E77871",
"[c.	c #EB7A71",
"}c.	c #E3766D",
"|c.	c #E97971",
"1c.	c #E57F75",
"2c.	c #DD7D74",
"3c.	c #E07971",
"4c.	c #E68378",
"5c.	c #D8746C",
"6c.	c #E5786F",
"7c.	c #D76963",
"8c.	c #CF5F59",
"9c.	c #B74E48",
"0c.	c #A9423F",
"ac.	c #903733",
"bc.	c #933837",
"cc.	c #8B3432",
"dc.	c #812F2E",
"ec.	c #7C2D2D",
"fc.	c #782E2C",
"gc.	c #752F2E",
"hc.	c #712D2C",
"ic.	c #672B2A",
"jc.	c #682928",
"kc.	c #6A2E2C",
"lc.	c #5E2423",
"mc.	c #632624",
"nc.	c #531C1A",
"oc.	c #531918",
"pc.	c #4E1715",
"qc.	c #511616",
"rc.	c #511515",
"sc.	c #4E1413",
"tc.	c #511513",
"uc.	c #4E1412",
"vc.	c #4B1211",
"wc.	c #4B1413",
"xc.	c #471311",
"yc.	c #43110F",
"zc.	c #451010",
"Ac.	c #431211",
"Bc.	c #451110",
"Cc.	c #42100F",
"Dc.	c #411211",
"Ec.	c #421111",
"Fc.	c #3F1311",
"Gc.	c #421313",
"Hc.	c #401413",
"Ic.	c #401515",
"Jc.	c #3D1312",
"Kc.	c #3F1414",
"Lc.	c #411515",
"Mc.	c #3C1010",
"Nc.	c #3E0F0F",
"Oc.	c #3B1110",
"Pc.	c #3C1211",
"Qc.	c #3E1515",
"Rc.	c #462525",
"Sc.	c #472A2B",
"Tc.	c #462726",
"Uc.	c #462422",
"Vc.	c #4B2623",
"Wc.	c #49201E",
"Xc.	c #4D2221",
"Yc.	c #4A2121",
"Zc.	c #4B2220",
"`c.	c #4E2221",
" d.	c #49211F",
".d.	c #4D2120",
"+d.	c #4B1F1D",
"@d.	c #4F2220",
"#d.	c #4F1F1E",
"$d.	c #4C1C1B",
"%d.	c #4A1919",
"&d.	c #4E1B1B",
"*d.	c #5A1818",
"=d.	c #591717",
"-d.	c #5F1918",
";d.	c #631C1B",
">d.	c #601C1A",
",d.	c #641C1B",
"'d.	c #631F1F",
")d.	c #AA4440",
"!d.	c #D06762",
"~d.	c #A0605C",
"{d.	c #765553",
"]d.	c #514139",
"^d.	c #612A1D",
"/d.	c #602517",
"(d.	c #4C311C",
"_d.	c #2D2516",
":d.	c #292213",
"<d.	c #3C2F1C",
"[d.	c #4B3E2F",
"}d.	c #5D4A39",
"|d.	c #5E4A37",
"1d.	c #63573F",
"2d.	c #654934",
"3d.	c #513B2C",
"4d.	c #463B2A",
"5d.	c #4E4334",
"6d.	c #5F3F2E",
"7d.	c #574737",
"8d.	c #5A3C27",
"9d.	c #3A2E1D",
"0d.	c #362B1A",
"ad.	c #3C2F1E",
"bd.	c #483B27",
"cd.	c #6D2F23",
"dd.	c #9F2A28",
"ed.	c #A52927",
"fd.	c #B32D29",
"gd.	c #AF2926",
"hd.	c #B22824",
"id.	c #AD2A27",
"jd.	c #AE2A28",
"kd.	c #B32B29",
"ld.	c #B52B28",
"md.	c #B92C2A",
"nd.	c #B42B27",
"od.	c #BD2B29",
"pd.	c #BF302C",
"qd.	c #C82E2B",
"rd.	c #C32F29",
"sd.	c #C6302D",
"td.	c #C93431",
"ud.	c #C52A27",
"vd.	c #BA2A28",
"wd.	c #BD2B28",
"xd.	c #C12C2A",
"yd.	c #BF2E2A",
"zd.	c #C6312B",
"Ad.	c #D43A38",
"Bd.	c #D53D3B",
"Cd.	c #D63837",
"Dd.	c #CD3532",
"Ed.	c #D93D3D",
"Fd.	c #DE3E3B",
"Gd.	c #D73D3A",
"Hd.	c #D8423F",
"Id.	c #D23E3A",
"Jd.	c #D94240",
"Kd.	c #D33D3B",
"Ld.	c #E04240",
"Md.	c #E04442",
"Nd.	c #E24240",
"Od.	c #E94140",
"Pd.	c #E64443",
"Qd.	c #E94443",
"Rd.	c #E84241",
"Sd.	c #EE4544",
"Td.	c #F54A4B",
"Ud.	c #F54848",
"Vd.	c #F84B4B",
"Wd.	c #F84948",
"Xd.	c #F34747",
"Yd.	c #F04646",
"Zd.	c #F54946",
"`d.	c #EF5955",
" e.	c #F45B5E",
".e.	c #F85556",
"+e.	c #F75152",
"@e.	c #F05051",
"#e.	c #F75556",
"$e.	c #F25553",
"%e.	c #EF5656",
"&e.	c #F2595B",
"*e.	c #EB5E60",
"=e.	c #E65651",
"-e.	c #EC625D",
";e.	c #F1605A",
">e.	c #EA5D57",
",e.	c #EF5F59",
"'e.	c #E85E57",
")e.	c #EE615C",
"!e.	c #E65F59",
"~e.	c #F1665F",
"{e.	c #EA655E",
"]e.	c #F06B63",
"^e.	c #E96B63",
"/e.	c #EE756E",
"(e.	c #E77970",
"_e.	c #ED7E75",
":e.	c #E57870",
"<e.	c #EB7B74",
"[e.	c #EF7E76",
"}e.	c #E47670",
"|e.	c #E1736C",
"1e.	c #E5766E",
"2e.	c #DD746B",
"3e.	c #E0776F",
"4e.	c #E27770",
"5e.	c #D56861",
"6e.	c #D16059",
"7e.	c #C35652",
"8e.	c #AA4540",
"9e.	c #9C3D39",
"0e.	c #933B39",
"ae.	c #8B3533",
"be.	c #883231",
"ce.	c #7D2D2D",
"de.	c #782B2A",
"ee.	c #6F2B2A",
"fe.	c #682827",
"ge.	c #642525",
"he.	c #5B2524",
"ie.	c #622624",
"je.	c #582523",
"ke.	c #531F1E",
"le.	c #521E1D",
"me.	c #501D1B",
"ne.	c #541D1C",
"oe.	c #501C1B",
"pe.	c #501B19",
"qe.	c #541B1A",
"re.	c #4E1816",
"se.	c #501817",
"te.	c #4C1616",
"ue.	c #4F1816",
"ve.	c #4E1615",
"we.	c #4F1513",
"xe.	c #501413",
"ye.	c #4C1212",
"ze.	c #4D1313",
"Ae.	c #491111",
"Be.	c #4B1212",
"Ce.	c #471210",
"De.	c #471212",
"Ee.	c #441210",
"Fe.	c #411210",
"Ge.	c #431110",
"He.	c #451212",
"Ie.	c #401010",
"Je.	c #400F0E",
"Ke.	c #3F0F0F",
"Le.	c #410F0E",
"Me.	c #3F1110",
"Ne.	c #3C1011",
"Oe.	c #411415",
"Pe.	c #401616",
"Qe.	c #3D1414",
"Re.	c #3C1413",
"Se.	c #3A1111",
"Te.	c #401210",
"Ue.	c #3C1514",
"Ve.	c #722F30",
"We.	c #533030",
"Xe.	c #432B2C",
"Ye.	c #3B1F1E",
"Ze.	c #421E1D",
"`e.	c #481E1D",
" f.	c #4A2423",
".f.	c #4C2524",
"+f.	c #46201F",
"@f.	c #4B2322",
"#f.	c #47211F",
"$f.	c #4B201E",
"%f.	c #502221",
"&f.	c #48201E",
"*f.	c #4A1E1D",
"=f.	c #4D1D1C",
"-f.	c #491A1A",
";f.	c #4B1A19",
">f.	c #481818",
",f.	c #471616",
"'f.	c #4A1818",
")f.	c #4A1817",
"!f.	c #5C1919",
"~f.	c #5D1A19",
"{f.	c #642020",
"]f.	c #611E1E",
"^f.	c #7C2D2B",
"/f.	c #BB4A48",
"(f.	c #CA635F",
"_f.	c #A36562",
":f.	c #735351",
"<f.	c #4F4033",
"[f.	c #61281B",
"}f.	c #582B19",
"|f.	c #452D1B",
"1f.	c #2D2515",
"2f.	c #372C1A",
"3f.	c #4B3C27",
"4f.	c #48392D",
"5f.	c #5E4837",
"6f.	c #473D2F",
"7f.	c #645745",
"8f.	c #68503A",
"9f.	c #6B503A",
"0f.	c #564230",
"af.	c #484031",
"bf.	c #473D30",
"cf.	c #4C3727",
"df.	c #583A29",
"ef.	c #533B2C",
"ff.	c #514638",
"gf.	c #543925",
"hf.	c #362A1B",
"if.	c #433621",
"jf.	c #463622",
"kf.	c #7F2C25",
"lf.	c #A42926",
"mf.	c #A62A27",
"nf.	c #AD2C29",
"of.	c #AC2825",
"pf.	c #AE2A27",
"qf.	c #B32B28",
"rf.	c #AF2E2C",
"sf.	c #AC2421",
"tf.	c #B32825",
"uf.	c #B12723",
"vf.	c #B52E2C",
"wf.	c #B82C28",
"xf.	c #BE2E2B",
"yf.	c #C82C28",
"zf.	c #C5322F",
"Af.	c #C82E29",
"Bf.	c #C52F2D",
"Cf.	c #BF2F2C",
"Df.	c #BC2925",
"Ef.	c #BA2926",
"Ff.	c #C32C27",
"Gf.	c #C42B27",
"Hf.	c #BB2B26",
"If.	c #C2302C",
"Jf.	c #C73431",
"Kf.	c #D13834",
"Lf.	c #D23633",
"Mf.	c #D03735",
"Nf.	c #D13938",
"Of.	c #D73E3B",
"Pf.	c #DC3D3A",
"Qf.	c #D73B38",
"Rf.	c #D13935",
"Sf.	c #D33E3C",
"Tf.	c #CE3937",
"Uf.	c #E1403C",
"Vf.	c #DE4240",
"Wf.	c #E23E3E",
"Xf.	c #ED4342",
"Yf.	c #EA3E3B",
"Zf.	c #F84C4C",
"`f.	c #F24748",
" g.	c #EF4645",
".g.	c #F14445",
"+g.	c #F54747",
"@g.	c #F74848",
"#g.	c #F54847",
"$g.	c #F44A4B",
"%g.	c #F45450",
"&g.	c #F75657",
"*g.	c #F25B5E",
"=g.	c #F65859",
"-g.	c #F05557",
";g.	c #ED5454",
">g.	c #EF5D5B",
",g.	c #ED5D5B",
"'g.	c #EA5B57",
")g.	c #F06660",
"!g.	c #E85B56",
"~g.	c #EE605A",
"{g.	c #E65C57",
"]g.	c #EC605B",
"^g.	c #F1645E",
"/g.	c #EB625C",
"(g.	c #F0655F",
"_g.	c #EE6962",
":g.	c #E76861",
"<g.	c #ED6964",
"[g.	c #E5746E",
"}g.	c #F07E74",
"|g.	c #E97870",
"1g.	c #EC7A74",
"2g.	c #E0746D",
"3g.	c #E57770",
"4g.	c #DB6F68",
"5g.	c #DF6F69",
"6g.	c #E6756C",
"7g.	c #DF6D65",
"8g.	c #DF675F",
"9g.	c #C95953",
"0g.	c #BA4B48",
"ag.	c #A03F3C",
"bg.	c #A13F3B",
"cg.	c #7F2E2D",
"dg.	c #87312F",
"eg.	c #84302E",
"fg.	c #782A29",
"gg.	c #792B29",
"hg.	c #6E2827",
"ig.	c #682A2A",
"jg.	c #652524",
"kg.	c #612726",
"lg.	c #5D2826",
"mg.	c #542220",
"ng.	c #54201E",
"og.	c #501F1D",
"pg.	c #521B1B",
"qg.	c #4E1917",
"rg.	c #4F1818",
"sg.	c #511816",
"tg.	c #4F1413",
"ug.	c #4E1313",
"vg.	c #4B1111",
"wg.	c #4D1211",
"xg.	c #4A1211",
"yg.	c #491212",
"zg.	c #480F0F",
"Ag.	c #440F0E",
"Bg.	c #41100F",
"Cg.	c #3F0E0E",
"Dg.	c #411111",
"Eg.	c #421210",
"Fg.	c #401313",
"Gg.	c #3C1212",
"Hg.	c #3E1414",
"Ig.	c #390F0F",
"Jg.	c #3C1213",
"Kg.	c #3F1010",
"Lg.	c #3C1111",
"Mg.	c #3C1313",
"Ng.	c #4F1B1C",
"Og.	c #822624",
"Pg.	c #882826",
"Qg.	c #852A26",
"Rg.	c #6D302E",
"Sg.	c #472220",
"Tg.	c #3E1917",
"Ug.	c #3D1715",
"Vg.	c #471F1E",
"Wg.	c #431B19",
"Xg.	c #451F1F",
"Yg.	c #451E1E",
"Zg.	c #4D2422",
"`g.	c #462120",
" h.	c #461F1D",
".h.	c #49201F",
"+h.	c #4A211F",
"@h.	c #4A2422",
"#h.	c #491F1E",
"$h.	c #491C1B",
"%h.	c #4A1D1C",
"&h.	c #471816",
"*h.	c #4A1B19",
"=h.	c #4E1919",
"-h.	c #591919",
";h.	c #692626",
">h.	c #7D2A28",
",h.	c #BB4B47",
"'h.	c #C45F5B",
")h.	c #AC6561",
"!h.	c #705755",
"~h.	c #59362A",
"{h.	c #65281C",
"]h.	c #572E1B",
"^h.	c #3A311D",
"/h.	c #2B2313",
"(h.	c #352C1A",
"_h.	c #564732",
":h.	c #564031",
"<h.	c #5D4939",
"[h.	c #5E5240",
"}h.	c #564C38",
"|h.	c #5E4E3A",
"1h.	c #4E3827",
"2h.	c #484032",
"3h.	c #4C392B",
"4h.	c #573624",
"5h.	c #483F2D",
"6h.	c #513F30",
"7h.	c #554031",
"8h.	c #512F1C",
"9h.	c #3D311E",
"0h.	c #41331E",
"ah.	c #4F3020",
"bh.	c #8F2723",
"ch.	c #A22725",
"dh.	c #A42826",
"eh.	c #A62826",
"fh.	c #A32521",
"gh.	c #AA2825",
"hh.	c #AD2521",
"ih.	c #AC2926",
"jh.	c #AA2927",
"kh.	c #B72B27",
"lh.	c #B82A28",
"mh.	c #C02C29",
"nh.	c #C42C28",
"oh.	c #C62F2C",
"ph.	c #C02D2B",
"qh.	c #C32D29",
"rh.	c #C02E2A",
"sh.	c #BE2D29",
"th.	c #BF2C28",
"uh.	c #C1302C",
"vh.	c #BD2E2B",
"wh.	c #BC302D",
"xh.	c #B82B28",
"yh.	c #C7332F",
"zh.	c #D23632",
"Ah.	c #D13431",
"Bh.	c #D83936",
"Ch.	c #D1332F",
"Dh.	c #D03938",
"Eh.	c #D33F3B",
"Fh.	c #D53F3B",
"Gh.	c #CF3935",
"Hh.	c #D53935",
"Ih.	c #D93C39",
"Jh.	c #D93D3A",
"Kh.	c #DA3836",
"Lh.	c #E03D3D",
"Mh.	c #E74140",
"Nh.	c #EC4443",
"Oh.	c #E74343",
"Ph.	c #E54343",
"Qh.	c #EB4747",
"Rh.	c #EF4444",
"Sh.	c #E84142",
"Th.	c #ED4341",
"Uh.	c #F44849",
"Vh.	c #F74A4A",
"Wh.	c #F54949",
"Xh.	c #F14546",
"Yh.	c #F64F4E",
"Zh.	c #F34442",
"`h.	c #F25354",
" i.	c #F64A47",
".i.	c #F15956",
"+i.	c #F55E61",
"@i.	c #EF5557",
"#i.	c #F45759",
"$i.	c #F35253",
"%i.	c #F45354",
"&i.	c #F25654",
"*i.	c #EC5654",
"=i.	c #EE5E5B",
"-i.	c #EE635E",
";i.	c #E7645D",
">i.	c #ED5E59",
",i.	c #F2635D",
"'i.	c #EB605B",
")i.	c #F0635D",
"!i.	c #E9615C",
"~i.	c #EF655E",
"{i.	c #E7615C",
"]i.	c #EB6E67",
"^i.	c #F17A72",
"/i.	c #EA7A72",
"(i.	c #E87870",
"_i.	c #EB7971",
":i.	c #E3746D",
"<i.	c #E5776F",
"[i.	c #DC736C",
"}i.	c #E2726B",
"|i.	c #E76F67",
"1i.	c #DD655D",
"2i.	c #D65F58",
"3i.	c #BE4E49",
"4i.	c #B14540",
"5i.	c #983A37",
"6i.	c #8A3433",
"7i.	c #873230",
"8i.	c #832F2F",
"9i.	c #7C2C2C",
"0i.	c #742928",
"ai.	c #752A2A",
"bi.	c #6A2725",
"ci.	c #692725",
"di.	c #682625",
"ei.	c #642A28",
"fi.	c #5C2322",
"gi.	c #501E1C",
"hi.	c #521E1C",
"ii.	c #4D1C1A",
"ji.	c #4F1B19",
"ki.	c #4C1211",
"li.	c #4F1312",
"mi.	c #4B1210",
"ni.	c #4A1212",
"oi.	c #461110",
"pi.	c #45100F",
"qi.	c #47100F",
"ri.	c #49100F",
"si.	c #46100F",
"ti.	c #490F0F",
"ui.	c #440E0E",
"vi.	c #461010",
"wi.	c #420F0F",
"xi.	c #410E0D",
"yi.	c #431010",
"zi.	c #441111",
"Ai.	c #400F0F",
"Bi.	c #421010",
"Ci.	c #3F100F",
"Di.	c #3D1110",
"Ei.	c #3B1313",
"Fi.	c #3E1314",
"Gi.	c #390E0D",
"Hi.	c #3B100F",
"Ii.	c #3A0F0F",
"Ji.	c #3A1211",
"Ki.	c #742422",
"Li.	c #8E2927",
"Mi.	c #8A2926",
"Ni.	c #8D2927",
"Oi.	c #872725",
"Pi.	c #7F2825",
"Qi.	c #5A1C1B",
"Ri.	c #431615",
"Si.	c #341110",
"Ti.	c #421817",
"Ui.	c #461D1C",
"Vi.	c #421A18",
"Wi.	c #451D1B",
"Xi.	c #421E1C",
"Yi.	c #401B1A",
"Zi.	c #481F1E",
"`i.	c #492322",
" j.	c #47201F",
".j.	c #481F1D",
"+j.	c #431F1E",
"@j.	c #431E1C",
"#j.	c #491E1C",
"$j.	c #431918",
"%j.	c #471D1C",
"&j.	c #4A1D1D",
"*j.	c #461A1A",
"=j.	c #4A1A1A",
"-j.	c #451615",
";j.	c #4C1919",
">j.	c #571918",
",j.	c #631E1E",
"'j.	c #5F2120",
")j.	c #862D2C",
"!j.	c #BA4C49",
"~j.	c #D26560",
"{j.	c #9A615E",
"]j.	c #6E5453",
"^j.	c #543728",
"/j.	c #622817",
"(j.	c #4F2F1B",
"_j.	c #403722",
":j.	c #564C35",
"<j.	c #494030",
"[j.	c #564B3A",
"}j.	c #4A3D2E",
"|j.	c #664536",
"1j.	c #614634",
"2j.	c #494031",
"3j.	c #3E3729",
"4j.	c #43372A",
"5j.	c #563525",
"6j.	c #4F3A27",
"7j.	c #554330",
"8j.	c #553D2C",
"9j.	c #603224",
"0j.	c #492D1B",
"aj.	c #34291A",
"bj.	c #40321F",
"cj.	c #60281C",
"dj.	c #962825",
"ej.	c #9E2824",
"fj.	c #9E2725",
"gj.	c #982523",
"hj.	c #9E2724",
"ij.	c #A42421",
"jj.	c #AA2321",
"kj.	c #A2211E",
"lj.	c #A32624",
"mj.	c #A92A29",
"nj.	c #AA2C28",
"oj.	c #B12D2A",
"pj.	c #B02523",
"qj.	c #B7302E",
"rj.	c #BB2F2D",
"sj.	c #BD2F2C",
"tj.	c #BC2F2E",
"uj.	c #BE2B28",
"vj.	c #BD2A27",
"wj.	c #B92927",
"xj.	c #BF2926",
"yj.	c #BA2C28",
"zj.	c #BE2F2D",
"Aj.	c #B82E2B",
"Bj.	c #BE302D",
"Cj.	c #C42F2C",
"Dj.	c #CC332F",
"Ej.	c #CF322F",
"Fj.	c #D43632",
"Gj.	c #D63633",
"Hj.	c #CF3130",
"Ij.	c #D13231",
"Jj.	c #D03C39",
"Kj.	c #CF3834",
"Lj.	c #D63C3A",
"Mj.	c #D83836",
"Nj.	c #DA3937",
"Oj.	c #E33C3B",
"Pj.	c #E9403E",
"Qj.	c #EB4545",
"Rj.	c #EE4748",
"Sj.	c #EA4140",
"Tj.	c #EC4241",
"Uj.	c #E73E3D",
"Vj.	c #EE4242",
"Wj.	c #EF4443",
"Xj.	c #F64948",
"Yj.	c #F14545",
"Zj.	c #EE4546",
"`j.	c #F44848",
" k.	c #F54846",
".k.	c #F55152",
"+k.	c #EF4E4F",
"@k.	c #F5524E",
"#k.	c #EF5450",
"$k.	c #F75354",
"%k.	c #F75454",
"&k.	c #EA5757",
"*k.	c #E85656",
"=k.	c #E95653",
"-k.	c #EF5754",
";k.	c #E75450",
">k.	c #ED635C",
",k.	c #F25E59",
"'k.	c #EB5E57",
")k.	c #F1625B",
"!k.	c #EA6059",
"~k.	c #EF635C",
"{k.	c #E8605A",
"]k.	c #ED625D",
"^k.	c #EC635E",
"/k.	c #F16962",
"(k.	c #EA6A62",
"_k.	c #EF7B72",
":k.	c #E87A72",
"<k.	c #EE7F77",
"[k.	c #E67971",
"}k.	c #E97B72",
"|k.	c #E0756E",
"1k.	c #E4766E",
"2k.	c #E07068",
"3k.	c #E2655E",
"4k.	c #B94945",
"5k.	c #B04642",
"6k.	c #8C312F",
"7k.	c #8F3632",
"8k.	c #822F2D",
"9k.	c #802F2C",
"0k.	c #7C2C2B",
"ak.	c #732928",
"bk.	c #682523",
"ck.	c #672624",
"dk.	c #5C201F",
"ek.	c #5E211F",
"fk.	c #4F1B1A",
"gk.	c #511D1D",
"hk.	c #4E1C1A",
"ik.	c #4F1C1B",
"jk.	c #4E1B19",
"kk.	c #4F1917",
"lk.	c #4D1715",
"mk.	c #4E1515",
"nk.	c #4C1311",
"ok.	c #4E1312",
"pk.	c #501313",
"qk.	c #4A1210",
"rk.	c #4B1311",
"sk.	c #471110",
"tk.	c #491210",
"uk.	c #49110F",
"vk.	c #460E0E",
"wk.	c #450E0E",
"xk.	c #470E0E",
"yk.	c #420D0D",
"zk.	c #430E0D",
"Ak.	c #420D0C",
"Bk.	c #430F0E",
"Ck.	c #400E0E",
"Dk.	c #3F0F0D",
"Ek.	c #420E0D",
"Fk.	c #3E0E0D",
"Gk.	c #3F100E",
"Hk.	c #3E1010",
"Ik.	c #3A1212",
"Jk.	c #3B1314",
"Kk.	c #391111",
"Lk.	c #371010",
"Mk.	c #390F0E",
"Nk.	c #360D0D",
"Ok.	c #360F0F",
"Pk.	c #381514",
"Qk.	c #5F1D1C",
"Rk.	c #752322",
"Sk.	c #792221",
"Tk.	c #7E2524",
"Uk.	c #802423",
"Vk.	c #832624",
"Wk.	c #892725",
"Xk.	c #832522",
"Yk.	c #74211F",
"Zk.	c #3D1817",
"`k.	c #381311",
" l.	c #3D1616",
".l.	c #3B1717",
"+l.	c #431A18",
"@l.	c #441C1B",
"#l.	c #401D1B",
"$l.	c #441F1D",
"%l.	c #421C1A",
"&l.	c #462221",
"*l.	c #421E1E",
"=l.	c #461D1D",
"-l.	c #46201E",
";l.	c #471E1D",
">l.	c #441B1A",
",l.	c #471C1B",
"'l.	c #471918",
")l.	c #411414",
"!l.	c #4C1817",
"~l.	c #5D1B1B",
"{l.	c #601F1E",
"]l.	c #641F1F",
"^l.	c #682020",
"/l.	c #872D2B",
"(l.	c #B84C47",
"_l.	c #CC625D",
":l.	c #A8615D",
"<l.	c #6C514F",
"[l.	c #59362B",
"}l.	c #5E2817",
"|l.	c #4E311C",
"1l.	c #332B19",
"2l.	c #2E2716",
"3l.	c #564B36",
"4l.	c #4E4434",
"5l.	c #5B4D3B",
"6l.	c #4C382B",
"7l.	c #4C4033",
"8l.	c #42392A",
"9l.	c #494133",
"0l.	c #443327",
"al.	c #4C3326",
"bl.	c #473E30",
"cl.	c #433A2B",
"dl.	c #5B412F",
"el.	c #533E2C",
"fl.	c #583827",
"gl.	c #442E1D",
"hl.	c #352B1A",
"il.	c #4C3F2A",
"jl.	c #752822",
"kl.	c #942725",
"ll.	c #992824",
"ml.	c #952624",
"nl.	c #982725",
"ol.	c #A12A28",
"pl.	c #A72521",
"ql.	c #A72723",
"rl.	c #A42927",
"sl.	c #A52826",
"tl.	c #A62D29",
"ul.	c #AB2320",
"vl.	c #AC2622",
"wl.	c #AF2522",
"xl.	c #B62C29",
"yl.	c #BD302D",
"zl.	c #C32F2C",
"Al.	c #B72C29",
"Bl.	c #B72823",
"Cl.	c #B62C2A",
"Dl.	c #BE2E2C",
"El.	c #BB2724",
"Fl.	c #BF2A27",
"Gl.	c #B72825",
"Hl.	c #B62A27",
"Il.	c #B52D2B",
"Jl.	c #C22F2D",
"Kl.	c #C32E2C",
"Ll.	c #CD2E2B",
"Ml.	c #D4302D",
"Nl.	c #D23A38",
"Ol.	c #D43835",
"Pl.	c #D33834",
"Ql.	c #D03B38",
"Rl.	c #D43837",
"Sl.	c #D73732",
"Tl.	c #CF3936",
"Ul.	c #D93533",
"Vl.	c #D43433",
"Wl.	c #DB3631",
"Xl.	c #E6413F",
"Yl.	c #EC423F",
"Zl.	c #E03E3E",
"`l.	c #EC4242",
" m.	c #E94141",
".m.	c #E53F3F",
"+m.	c #EB4242",
"@m.	c #F44948",
"#m.	c #F24444",
"$m.	c #EC4142",
"%m.	c #EB4142",
"&m.	c #F24647",
"*m.	c #ED4747",
"=m.	c #EA413F",
"-m.	c #F14D4C",
";m.	c #F44F4F",
">m.	c #F85051",
",m.	c #F34C48",
"'m.	c #F85754",
")m.	c #F35A5B",
"!m.	c #F04F51",
"~m.	c #F15759",
"{m.	c #F55957",
"]m.	c #EB5352",
"^m.	c #E95956",
"/m.	c #ED5753",
"(m.	c #F2625E",
"_m.	c #EA5B56",
":m.	c #EF5F5A",
"<m.	c #E85E58",
"[m.	c #E65D57",
"}m.	c #EC605A",
"|m.	c #F1635C",
"1m.	c #EA625B",
"2m.	c #E9665E",
"3m.	c #EE766D",
"4m.	c #E77C75",
"5m.	c #ED8279",
"6m.	c #E47D75",
"7m.	c #E87E74",
"8m.	c #EB7E75",
"9m.	c #E3766E",
"0m.	c #E6776F",
"am.	c #DE6F65",
"bm.	c #DC615B",
"cm.	c #AC423E",
"dm.	c #832F2E",
"em.	c #832F2D",
"fm.	c #762827",
"gm.	c #792929",
"hm.	c #762929",
"im.	c #6D2727",
"jm.	c #662424",
"km.	c #662524",
"lm.	c #632827",
"mm.	c #4D1A19",
"nm.	c #4D1B1A",
"om.	c #501A1A",
"pm.	c #501918",
"qm.	c #4D1817",
"rm.	c #521918",
"sm.	c #4D1311",
"tm.	c #491110",
"um.	c #47110F",
"vm.	c #481110",
"wm.	c #491311",
"xm.	c #450F0E",
"ym.	c #440D0D",
"zm.	c #470E0D",
"Am.	c #480F0E",
"Bm.	c #440F0F",
"Cm.	c #410D0D",
"Dm.	c #3E100F",
"Em.	c #3A1010",
"Fm.	c #390E0E",
"Gm.	c #3B1010",
"Hm.	c #360E0F",
"Im.	c #361212",
"Jm.	c #431819",
"Km.	c #601F1F",
"Lm.	c #5E1E1E",
"Mm.	c #692120",
"Nm.	c #712322",
"Om.	c #732220",
"Pm.	c #782422",
"Qm.	c #75221F",
"Rm.	c #7C2321",
"Sm.	c #75201E",
"Tm.	c #78221E",
"Um.	c #631E1C",
"Vm.	c #4D1414",
"Wm.	c #3D1413",
"Xm.	c #391211",
"Ym.	c #3C1917",
"Zm.	c #3E1A19",
"`m.	c #411E1D",
" n.	c #421C1B",
".n.	c #3E1B1A",
"+n.	c #411E1C",
"@n.	c #421F1D",
"#n.	c #421B1A",
"$n.	c #441D1B",
"%n.	c #421918",
"&n.	c #461919",
"*n.	c #451514",
"=n.	c #5B1B1B",
"-n.	c #5C1A1A",
";n.	c #672020",
">n.	c #862E2C",
",n.	c #C85852",
"'n.	c #C65D57",
")n.	c #AB6664",
"!n.	c #584032",
"~n.	c #67371F",
"{n.	c #4E2E17",
"]n.	c #3A321B",
"^n.	c #2F2918",
"/n.	c #2F2716",
"(n.	c #4A3C25",
"_n.	c #5D4C3B",
":n.	c #4D4435",
"<n.	c #584D3A",
"[n.	c #4A3929",
"}n.	c #3D3428",
"|n.	c #3F382A",
"1n.	c #463B2C",
"2n.	c #44392A",
"3n.	c #453D2D",
"4n.	c #4A3E2E",
"5n.	c #493C2A",
"6n.	c #543525",
"7n.	c #523D2B",
"8n.	c #5D3A28",
"9n.	c #382E1B",
"0n.	c #372C1C",
"an.	c #4A3E29",
"bn.	c #4E2C1A",
"cn.	c #872624",
"dn.	c #932320",
"en.	c #992622",
"fn.	c #962623",
"gn.	c #9C2725",
"hn.	c #A22420",
"in.	c #A72B29",
"jn.	c #A32220",
"kn.	c #A52A28",
"ln.	c #A82B29",
"mn.	c #AC2E2C",
"nn.	c #B22B28",
"on.	c #B12725",
"pn.	c #BB2926",
"qn.	c #BC2C29",
"rn.	c #B72924",
"sn.	c #AF2823",
"tn.	c #B72A27",
"un.	c #B92924",
"vn.	c #B92D2C",
"wn.	c #B92F2C",
"xn.	c #BA2C2B",
"yn.	c #B32A26",
"zn.	c #B62F2C",
"An.	c #BE2925",
"Bn.	c #C12927",
"Cn.	c #D0322F",
"Dn.	c #D23330",
"En.	c #CF3532",
"Fn.	c #D33C39",
"Gn.	c #D13331",
"Hn.	c #CE332F",
"In.	c #CC3230",
"Jn.	c #D43230",
"Kn.	c #D63431",
"Ln.	c #DD3835",
"Mn.	c #DF3C3A",
"Nn.	c #E63E3E",
"On.	c #E43E3D",
"Pn.	c #EC4747",
"Qn.	c #E64242",
"Rn.	c #E54140",
"Sn.	c #E7403E",
"Tn.	c #E43E3C",
"Un.	c #E9413E",
"Vn.	c #F04749",
"Wn.	c #F74C4C",
"Xn.	c #EF4241",
"Yn.	c #EA4242",
"Zn.	c #EC4444",
"`n.	c #F44F4E",
" o.	c #F04C4D",
".o.	c #F64745",
"+o.	c #EF504E",
"@o.	c #EE5051",
"#o.	c #F35152",
"$o.	c #F05657",
"%o.	c #E85755",
"&o.	c #F25D59",
"*o.	c #EC5955",
"=o.	c #F15A55",
"-o.	c #EA605A",
";o.	c #EE5F58",
">o.	c #F3635D",
",o.	c #EC5E57",
"'o.	c #EB5E58",
")o.	c #F0605B",
"!o.	c #E95F5A",
"~o.	c #EE645E",
"{o.	c #E7635D",
"]o.	c #ED736A",
"^o.	c #F28077",
"/o.	c #EB837A",
"(o.	c #EE857C",
"_o.	c #EA8077",
":o.	c #E17870",
"<o.	c #E5796F",
"[o.	c #DD6E66",
"}o.	c #DA6058",
"|o.	c #B0423E",
"1o.	c #812E2B",
"2o.	c #782928",
"3o.	c #732725",
"4o.	c #6D2625",
"5o.	c #692624",
"6o.	c #662423",
"7o.	c #672A29",
"8o.	c #4C1B19",
"9o.	c #4F1A19",
"0o.	c #4C1C1A",
"ao.	c #4C1B1A",
"bo.	c #4F1B1B",
"co.	c #4D1A18",
"do.	c #4C1A18",
"eo.	c #4D1918",
"fo.	c #4D1614",
"go.	c #501513",
"ho.	c #4E1311",
"io.	c #481210",
"jo.	c #4A1111",
"ko.	c #470F0F",
"lo.	c #430E0E",
"mo.	c #441010",
"no.	c #380E0E",
"oo.	c #390D0D",
"po.	c #350E0E",
"qo.	c #381312",
"ro.	c #4C1617",
"so.	c #531A1B",
"to.	c #531B1B",
"uo.	c #5A1E1D",
"vo.	c #5B1D1D",
"wo.	c #62201E",
"xo.	c #681F1E",
"yo.	c #671D1B",
"zo.	c #6D1D1B",
"Ao.	c #731E1D",
"Bo.	c #721E1C",
"Co.	c #741E1D",
"Do.	c #621A18",
"Eo.	c #531716",
"Fo.	c #3A1312",
"Go.	c #3C1817",
"Ho.	c #411A18",
"Io.	c #3D1B1B",
"Jo.	c #431D1C",
"Ko.	c #3F1B1A",
"Lo.	c #411D1C",
"Mo.	c #411C1B",
"No.	c #401D1C",
"Oo.	c #421D1C",
"Po.	c #401919",
"Qo.	c #401717",
"Ro.	c #461B1B",
"So.	c #441716",
"To.	c #481717",
"Uo.	c #5A1C1C",
"Vo.	c #642424",
"Wo.	c #86302D",
"Xo.	c #C65851",
"Yo.	c #C15A55",
"Zo.	c #A86360",
"`o.	c #544437",
" p.	c #6C3B20",
".p.	c #5A3A1D",
"+p.	c #3F351B",
"@p.	c #473D25",
"#p.	c #524332",
"$p.	c #3F3629",
"%p.	c #4B3628",
"&p.	c #483326",
"*p.	c #493527",
"=p.	c #473F31",
"-p.	c #563929",
";p.	c #523726",
">p.	c #5A402C",
",p.	c #4A331F",
"'p.	c #372B1B",
")p.	c #5B3F2B",
"!p.	c #62291E",
"~p.	c #8C201E",
"{p.	c #942624",
"]p.	c #972624",
"^p.	c #9A2825",
"/p.	c #992623",
"(p.	c #9C2524",
"_p.	c #9D2321",
":p.	c #A82724",
"<p.	c #A22B2A",
"[p.	c #AA2624",
"}p.	c #B02A27",
"|p.	c #B72927",
"1p.	c #B42C29",
"2p.	c #B12421",
"3p.	c #B42522",
"4p.	c #B52824",
"5p.	c #B92825",
"6p.	c #B92926",
"7p.	c #BA2724",
"8p.	c #B82D2B",
"9p.	c #B92B27",
"0p.	c #BD2C29",
"ap.	c #C42B29",
"bp.	c #CF2E2C",
"cp.	c #D42F2C",
"dp.	c #D1322F",
"ep.	c #D03432",
"fp.	c #CD3632",
"gp.	c #D63D3A",
"hp.	c #D33331",
"ip.	c #C8312E",
"jp.	c #D03433",
"kp.	c #D7322F",
"lp.	c #D73837",
"mp.	c #D93936",
"np.	c #D63433",
"op.	c #DF3A39",
"pp.	c #E53E3B",
"qp.	c #E73F3E",
"rp.	c #EA4241",
"sp.	c #E33F3E",
"tp.	c #EB4141",
"up.	c #ED4241",
"vp.	c #EC4140",
"wp.	c #EB4241",
"xp.	c #F54646",
"yp.	c #F84747",
"zp.	c #F44747",
"Ap.	c #EB4444",
"Bp.	c #F04647",
"Cp.	c #F54C4D",
"Dp.	c #F44E4F",
"Ep.	c #F35051",
"Fp.	c #F35254",
"Gp.	c #EC5754",
"Hp.	c #EA5652",
"Ip.	c #F05954",
"Jp.	c #E95751",
"Kp.	c #EE5F59",
"Lp.	c #ED5651",
"Mp.	c #F25A55",
"Np.	c #EB5C56",
"Op.	c #F05D56",
"Pp.	c #E95A53",
"Qp.	c #EF5D56",
"Rp.	c #E75D56",
"Sp.	c #F2675F",
"Tp.	c #EB6E66",
"Up.	c #F18077",
"Vp.	c #ED847B",
"Wp.	c #E98178",
"Xp.	c #E07A72",
"Yp.	c #E47A71",
"Zp.	c #E9736A",
"`p.	c #D35B55",
" q.	c #A73D3B",
".q.	c #802B2A",
"+q.	c #772826",
"@q.	c #722625",
"#q.	c #5C211F",
"$q.	c #592120",
"%q.	c #572323",
"&q.	c #4D1917",
"*q.	c #4B1A18",
"=q.	c #4D1B19",
"-q.	c #521B1A",
";q.	c #4F1919",
">q.	c #4E1817",
",q.	c #4D1716",
"'q.	c #4D1212",
")q.	c #46100E",
"!q.	c #48100F",
"~q.	c #460F0E",
"{q.	c #481010",
"]q.	c #420E0E",
"^q.	c #411616",
"/q.	c #401414",
"(q.	c #3B0F0F",
"_q.	c #3D1211",
":q.	c #391010",
"<q.	c #380F0F",
"[q.	c #350D0C",
"}q.	c #351111",
"|q.	c #371212",
"1q.	c #421314",
"2q.	c #4B1818",
"3q.	c #541B1B",
"4q.	c #581B1A",
"5q.	c #5C1D1B",
"6q.	c #5D1B19",
"7q.	c #621C1A",
"8q.	c #611B18",
"9q.	c #6A1B1A",
"0q.	c #671A19",
"aq.	c #6E1C1B",
"bq.	c #691B19",
"cq.	c #601918",
"dq.	c #471412",
"eq.	c #371312",
"fq.	c #3F1919",
"gq.	c #3A1918",
"hq.	c #3B1917",
"iq.	c #3C1B19",
"jq.	c #431D1B",
"kq.	c #3F1D1C",
"lq.	c #45211F",
"mq.	c #3F1C1B",
"nq.	c #451F1D",
"oq.	c #401B19",
"pq.	c #421A19",
"qq.	c #441A1A",
"rq.	c #431716",
"sq.	c #471818",
"tq.	c #5A1D1D",
"uq.	c #601E1E",
"vq.	c #5C1E1D",
"wq.	c #933633",
"xq.	c #C65751",
"yq.	c #D1635D",
"zq.	c #A16360",
"Aq.	c #534537",
"Bq.	c #64361A",
"Cq.	c #5F4021",
"Dq.	c #372F1A",
"Eq.	c #3A301E",
"Fq.	c #67513F",
"Gq.	c #4E3F2E",
"Hq.	c #4B4130",
"Iq.	c #42392B",
"Jq.	c #493627",
"Kq.	c #4D3D2D",
"Lq.	c #473A28",
"Mq.	c #423A2D",
"Nq.	c #453C2F",
"Oq.	c #503829",
"Pq.	c #493A2B",
"Qq.	c #463B2B",
"Rq.	c #4C3D2B",
"Sq.	c #53341D",
"Tq.	c #342A18",
"Uq.	c #683F2D",
"Vq.	c #722B23",
"Wq.	c #902321",
"Xq.	c #902523",
"Yq.	c #962725",
"Zq.	c #932422",
"`q.	c #962422",
" r.	c #992523",
".r.	c #9C2625",
"+r.	c #A52522",
"@r.	c #A82C2A",
"#r.	c #9D2625",
"$r.	c #A32522",
"%r.	c #AA2723",
"&r.	c #AC2521",
"*r.	c #AF2521",
"=r.	c #B12B29",
"-r.	c #AD2927",
";r.	c #B02928",
">r.	c #B82723",
",r.	c #B22724",
"'r.	c #BB2A27",
")r.	c #B92521",
"!r.	c #B92925",
"~r.	c #B52621",
"{r.	c #C62927",
"]r.	c #CF2F2C",
"^r.	c #D22F2C",
"/r.	c #D43735",
"(r.	c #D33430",
"_r.	c #D23331",
":r.	c #CA3431",
"<r.	c #D03634",
"[r.	c #D0302C",
"}r.	c #D83433",
"|r.	c #D43430",
"1r.	c #D73936",
"2r.	c #DD3A37",
"3r.	c #E03B38",
"4r.	c #E8403E",
"5r.	c #E74442",
"6r.	c #E13D3C",
"7r.	c #F64746",
"8r.	c #F84848",
"9r.	c #F14646",
"0r.	c #F14444",
"ar.	c #F04443",
"br.	c #EA4343",
"cr.	c #F75153",
"dr.	c #F65152",
"er.	c #F65253",
"fr.	c #EE4E4F",
"gr.	c #F35754",
"hr.	c #EB5451",
"ir.	c #F05652",
"jr.	c #E95350",
"kr.	c #EF5550",
"lr.	c #F35852",
"mr.	c #F25853",
"nr.	c #EB5551",
"or.	c #F15753",
"pr.	c #EA5955",
"qr.	c #EF5D57",
"rr.	c #E85D57",
"sr.	c #F26059",
"tr.	c #EC5E58",
"ur.	c #F1655D",
"vr.	c #E87C73",
"wr.	c #E37D74",
"xr.	c #E87F76",
"yr.	c #EB7F77",
"zr.	c #E27A71",
"Ar.	c #E7726A",
"Br.	c #CD5651",
"Cr.	c #9E3B36",
"Dr.	c #7D2A2A",
"Er.	c #722525",
"Fr.	c #572120",
"Gr.	c #4A1A18",
"Hr.	c #4C1917",
"Ir.	c #4B1817",
"Jr.	c #4E1D1B",
"Kr.	c #531E1C",
"Lr.	c #4F1717",
"Mr.	c #4D1412",
"Nr.	c #4A1110",
"Or.	c #450F0F",
"Pr.	c #471111",
"Qr.	c #46110F",
"Rr.	c #3B1211",
"Sr.	c #3A1110",
"Tr.	c #3A0C0C",
"Ur.	c #380B0B",
"Vr.	c #3B0E0D",
"Wr.	c #350E0F",
"Xr.	c #361312",
"Yr.	c #481618",
"Zr.	c #451616",
"`r.	c #4E1818",
" s.	c #521919",
".s.	c #571A19",
"+s.	c #541816",
"@s.	c #591A19",
"#s.	c #561917",
"$s.	c #5B1A18",
"%s.	c #611B19",
"&s.	c #661C1A",
"*s.	c #671B18",
"=s.	c #681A19",
"-s.	c #561514",
";s.	c #351212",
">s.	c #3B1C1A",
",s.	c #3B1A1A",
"'s.	c #401E1D",
")s.	c #3D1818",
"!s.	c #411D1B",
"~s.	c #421B19",
"{s.	c #411918",
"]s.	c #411716",
"^s.	c #461717",
"/s.	c #501C1C",
"(s.	c #602222",
"_s.	c #5F211F",
":s.	c #641F1E",
"<s.	c #682321",
"[s.	c #973936",
"}s.	c #C45954",
"|s.	c #CE615C",
"1s.	c #8E5756",
"2s.	c #5B4336",
"3s.	c #5A3F1B",
"4s.	c #534021",
"5s.	c #382D19",
"6s.	c #332B1A",
"7s.	c #3C3520",
"8s.	c #5A5243",
"9s.	c #473F2F",
"0s.	c #4D4533",
"as.	c #493D2D",
"bs.	c #473A2A",
"cs.	c #493E2D",
"ds.	c #433A2C",
"es.	c #42392D",
"fs.	c #503427",
"gs.	c #463829",
"hs.	c #433B2D",
"is.	c #473C2D",
"js.	c #583523",
"ks.	c #4C321F",
"ls.	c #433824",
"ms.	c #6E3728",
"ns.	c #7F241F",
"os.	c #8C2321",
"ps.	c #8E2320",
"qs.	c #912624",
"rs.	c #922523",
"ss.	c #932321",
"ts.	c #93211D",
"us.	c #9C2A27",
"vs.	c #A52B29",
"ws.	c #A12422",
"xs.	c #9D2724",
"ys.	c #9F2927",
"zs.	c #A22421",
"As.	c #A82825",
"Bs.	c #A52825",
"Cs.	c #AA2421",
"Ds.	c #A72220",
"Es.	c #AD2624",
"Fs.	c #B32926",
"Gs.	c #B92D2B",
"Hs.	c #B42C2B",
"Is.	c #B52A28",
"Js.	c #B62D2A",
"Ks.	c #BB2C29",
"Ls.	c #B82A26",
"Ms.	c #BD2D29",
"Ns.	c #B72724",
"Os.	c #BF2B28",
"Ps.	c #C62D2B",
"Qs.	c #C32B27",
"Rs.	c #CF2C28",
"Ss.	c #D4302E",
"Ts.	c #CC3430",
"Us.	c #CC3533",
"Vs.	c #D03330",
"Ws.	c #CC302D",
"Xs.	c #CB302E",
"Ys.	c #D83532",
"Zs.	c #D63634",
"`s.	c #D53533",
" t.	c #DF3936",
".t.	c #E13A37",
"+t.	c #EC4141",
"@t.	c #E74441",
"#t.	c #E13C3B",
"$t.	c #E43F3D",
"%t.	c #E43D3C",
"&t.	c #EE4342",
"*t.	c #E73F3F",
"=t.	c #F04343",
"-t.	c #F8504F",
";t.	c #F85353",
">t.	c #F45052",
",t.	c #F75051",
"'t.	c #EF4F51",
")t.	c #EB5251",
"!t.	c #EB5351",
"~t.	c #E9524F",
"{t.	c #EF5451",
"]t.	c #ED534F",
"^t.	c #F25551",
"/t.	c #F15451",
"(t.	c #EA534E",
"_t.	c #E8534E",
":t.	c #F35651",
"<t.	c #EC514B",
"[t.	c #F1615C",
"}t.	c #EA5A55",
"|t.	c #EE7770",
"1t.	c #EA7C73",
"2t.	c #EE8077",
"3t.	c #E57C73",
"4t.	c #E97D73",
"5t.	c #E1766E",
"6t.	c #E47066",
"7t.	c #C7534B",
"8t.	c #973733",
"9t.	c #772827",
"0t.	c #602020",
"at.	c #491918",
"bt.	c #4A1A19",
"ct.	c #4A1816",
"dt.	c #4B1917",
"et.	c #4E1A1A",
"ft.	c #532020",
"gt.	c #4C1716",
"ht.	c #491211",
"it.	c #410F0F",
"jt.	c #431313",
"kt.	c #3E1213",
"lt.	c #3C1312",
"mt.	c #350D0D",
"nt.	c #361111",
"ot.	c #471516",
"pt.	c #4B1919",
"qt.	c #521717",
"rt.	c #571818",
"st.	c #551716",
"tt.	c #581917",
"ut.	c #581817",
"vt.	c #5C1A18",
"wt.	c #591816",
"xt.	c #5E1A17",
"yt.	c #5B1716",
"zt.	c #5F1816",
"At.	c #551615",
"Bt.	c #3A0F0E",
"Ct.	c #3E1B1B",
"Dt.	c #41211F",
"Et.	c #391818",
"Ft.	c #3D1918",
"Gt.	c #3B1B19",
"Ht.	c #3C1919",
"It.	c #3E1C1B",
"Jt.	c #401817",
"Kt.	c #401C1A",
"Lt.	c #5E1D1C",
"Mt.	c #9A3A35",
"Nt.	c #D4605C",
"Ot.	c #A25F5D",
"Pt.	c #975F5E",
"Qt.	c #584033",
"Rt.	c #62411B",
"St.	c #4D3D23",
"Tt.	c #3F351F",
"Ut.	c #554632",
"Vt.	c #5D5446",
"Wt.	c #52402C",
"Xt.	c #635340",
"Yt.	c #463D2E",
"Zt.	c #463B27",
"`t.	c #553221",
" u.	c #4B3F2E",
".u.	c #42382A",
"+u.	c #453729",
"@u.	c #493B29",
"#u.	c #593824",
"$u.	c #40321D",
"%u.	c #3A2F1D",
"&u.	c #4C3E27",
"*u.	c #6B382B",
"=u.	c #882624",
"-u.	c #8D2321",
";u.	c #8D211E",
">u.	c #932623",
",u.	c #902624",
"'u.	c #94201D",
")u.	c #9C211F",
"!u.	c #9C2929",
"~u.	c #A22927",
"{u.	c #9F2725",
"]u.	c #9C2826",
"^u.	c #992320",
"/u.	c #A22A28",
"(u.	c #A42724",
"_u.	c #A42624",
":u.	c #A52421",
"<u.	c #A62927",
"[u.	c #AC2927",
"}u.	c #AE2523",
"|u.	c #B52622",
"1u.	c #B32A27",
"2u.	c #B42A28",
"3u.	c #BC2E2B",
"4u.	c #B62A28",
"5u.	c #BA312E",
"6u.	c #BD2621",
"7u.	c #D12D2B",
"8u.	c #CE302B",
"9u.	c #CB322D",
"0u.	c #C83130",
"au.	c #CD3231",
"bu.	c #C72C29",
"cu.	c #CD302C",
"du.	c #D0302D",
"eu.	c #D1302D",
"fu.	c #D83331",
"gu.	c #D73532",
"hu.	c #DF3A38",
"iu.	c #E63E3C",
"ju.	c #E13D3A",
"ku.	c #E73F3D",
"lu.	c #E63F3D",
"mu.	c #DE3D3B",
"nu.	c #DF3937",
"ou.	c #E53E3D",
"pu.	c #EA4040",
"qu.	c #F44647",
"ru.	c #F14647",
"su.	c #F24646",
"tu.	c #EC4341",
"uu.	c #E94341",
"vu.	c #E94644",
"wu.	c #F04747",
"xu.	c #F85452",
"yu.	c #F95352",
"zu.	c #EE4F50",
"Au.	c #F75253",
"Bu.	c #F24F50",
"Cu.	c #F65051",
"Du.	c #F55051",
"Eu.	c #F65455",
"Fu.	c #EA5250",
"Gu.	c #F45553",
"Hu.	c #ED524F",
"Iu.	c #F25450",
"Ju.	c #EC534F",
"Ku.	c #F15551",
"Lu.	c #EA524E",
"Mu.	c #F05450",
"Nu.	c #E8514E",
"Ou.	c #EE5350",
"Pu.	c #EC5551",
"Qu.	c #F15953",
"Ru.	c #EB5650",
"Su.	c #E95E59",
"Tu.	c #EE5C56",
"Uu.	c #F3655E",
"Vu.	c #ED6E67",
"Wu.	c #F28076",
"Xu.	c #ED7A72",
"Yu.	c #DF736B",
"Zu.	c #E36C64",
"`u.	c #CB534C",
" v.	c #923432",
".v.	c #822B2B",
"+v.	c #4B1716",
"@v.	c #4A1918",
"#v.	c #4B1A1A",
"$v.	c #4F1D1D",
"%v.	c #4D1919",
"&v.	c #4C1715",
"*v.	c #4E1616",
"=v.	c #501615",
"-v.	c #4A1414",
";v.	c #481414",
">v.	c #451111",
",v.	c #411314",
"'v.	c #3D1112",
")v.	c #3C1112",
"!v.	c #3A0D0D",
"~v.	c #370F10",
"{v.	c #491516",
"]v.	c #4B1718",
"^v.	c #481516",
"/v.	c #4C1818",
"(v.	c #4B1717",
"_v.	c #501919",
":v.	c #551A19",
"<v.	c #531818",
"[v.	c #561918",
"}v.	c #531717",
"|v.	c #571817",
"1v.	c #541615",
"2v.	c #561716",
"3v.	c #551614",
"4v.	c #551715",
"5v.	c #5D1816",
"6v.	c #581715",
"7v.	c #5C1816",
"8v.	c #581615",
"9v.	c #380D0C",
"0v.	c #391716",
"av.	c #3A1B1A",
"bv.	c #3A1917",
"cv.	c #3F1C1C",
"dv.	c #3C1D1C",
"ev.	c #3D1919",
"fv.	c #3E1B19",
"gv.	c #3C1918",
"hv.	c #3F1B19",
"iv.	c #3E1717",
"jv.	c #511E1E",
"kv.	c #5E1E1D",
"lv.	c #651F1F",
"mv.	c #9D3B37",
"nv.	c #D25E5A",
"ov.	c #9D5C5B",
"pv.	c #945C5C",
"qv.	c #5A3D26",
"rv.	c #623615",
"sv.	c #443920",
"tv.	c #372E1A",
"uv.	c #382E1A",
"vv.	c #534B3C",
"wv.	c #4B4233",
"xv.	c #59503E",
"yv.	c #4B4131",
"zv.	c #4D3F2B",
"Av.	c #4A3425",
"Bv.	c #47392B",
"Cv.	c #453C2E",
"Dv.	c #43392A",
"Ev.	c #463024",
"Fv.	c #543221",
"Gv.	c #4E3724",
"Hv.	c #42301C",
"Iv.	c #443723",
"Jv.	c #702C24",
"Kv.	c #842322",
"Lv.	c #8D2120",
"Mv.	c #8C2322",
"Nv.	c #922927",
"Ov.	c #952220",
"Pv.	c #962624",
"Qv.	c #9A2623",
"Rv.	c #9B2927",
"Sv.	c #982A27",
"Tv.	c #9E221F",
"Uv.	c #982322",
"Vv.	c #982624",
"Wv.	c #A32623",
"Xv.	c #A22623",
"Yv.	c #9E2422",
"Zv.	c #A22422",
"`v.	c #A72726",
" w.	c #B22927",
".w.	c #BA2F2C",
"+w.	c #B62522",
"@w.	c #BA2623",
"#w.	c #B72723",
"$w.	c #B52925",
"%w.	c #B52C28",
"&w.	c #B82927",
"*w.	c #BE2825",
"=w.	c #BC2D2A",
"-w.	c #C8302D",
";w.	c #CC312D",
">w.	c #C3302C",
",w.	c #C32B28",
"'w.	c #C72E2A",
")w.	c #C82B28",
"!w.	c #CA2C2A",
"~w.	c #C12824",
"{w.	c #C62D29",
"]w.	c #C72D29",
"^w.	c #D1302C",
"/w.	c #D33635",
"(w.	c #D63735",
"_w.	c #DA3938",
":w.	c #DE3B39",
"<w.	c #E23C3B",
"[w.	c #E03936",
"}w.	c #E13F3D",
"|w.	c #E83E3E",
"1w.	c #EE4243",
"2w.	c #F24545",
"3w.	c #E94645",
"4w.	c #EB4746",
"5w.	c #F94D4D",
"6w.	c #F85050",
"7w.	c #F14F50",
"8w.	c #EC514F",
"9w.	c #EA504D",
"0w.	c #F0534F",
"aw.	c #EE5450",
"bw.	c #F35552",
"cw.	c #F25651",
"dw.	c #EB544F",
"ew.	c #E95450",
"fw.	c #EF5752",
"gw.	c #F35A54",
"hw.	c #ED605B",
"iw.	c #F2605B",
"jw.	c #EB6D66",
"kw.	c #F07C74",
"lw.	c #EA766D",
"mw.	c #E2736A",
"nw.	c #E5746C",
"ow.	c #E9766D",
"pw.	c #E06861",
"qw.	c #C24C48",
"rw.	c #8D3130",
"sw.	c #7D2927",
"tw.	c #762625",
"uw.	c #752726",
"vw.	c #5D2423",
"ww.	c #591D1C",
"xw.	c #491917",
"yw.	c #481918",
"zw.	c #491615",
"Aw.	c #4B1816",
"Bw.	c #491816",
"Cw.	c #4A1917",
"Dw.	c #512020",
"Ew.	c #4C1513",
"Fw.	c #4A1313",
"Gw.	c #471313",
"Hw.	c #491414",
"Iw.	c #410F10",
"Jw.	c #3F1314",
"Kw.	c #390D0C",
"Lw.	c #351010",
"Mw.	c #3C1314",
"Nw.	c #461112",
"Ow.	c #491617",
"Pw.	c #4D1718",
"Qw.	c #561A19",
"Rw.	c #531919",
"Sw.	c #571B1A",
"Tw.	c #531817",
"Uw.	c #571716",
"Vw.	c #591817",
"Ww.	c #561615",
"Xw.	c #5E1817",
"Yw.	c #591615",
"Zw.	c #581614",
"`w.	c #561614",
" x.	c #381717",
".x.	c #3D1D1B",
"+x.	c #3B1A19",
"@x.	c #3E1D1B",
"#x.	c #3C1A1A",
"$x.	c #3A1A19",
"%x.	c #3D1B1A",
"&x.	c #401918",
"*x.	c #431A1A",
"=x.	c #461818",
"-x.	c #461A19",
";x.	c #5E1D1D",
">x.	c #AA403D",
",x.	c #CD5B59",
"'x.	c #9D5F5D",
")x.	c #875755",
"!x.	c #574028",
"~x.	c #553A1B",
"{x.	c #3E3219",
"]x.	c #352D1A",
"^x.	c #483C25",
"/x.	c #4A3D2A",
"(x.	c #594E40",
"_x.	c #4D4031",
":x.	c #5B5141",
"<x.	c #473E2F",
"[x.	c #453B2E",
"}x.	c #443B2A",
"|x.	c #4B3527",
"1x.	c #4A3426",
"2x.	c #463A2B",
"3x.	c #503321",
"4x.	c #483C27",
"5x.	c #503926",
"6x.	c #6C201D",
"7x.	c #811C1A",
"8x.	c #8D2322",
"9x.	c #8C2421",
"0x.	c #942926",
"ax.	c #8F2523",
"bx.	c #93201F",
"cx.	c #9C2927",
"dx.	c #942625",
"ex.	c #9D2A28",
"fx.	c #9A2A27",
"gx.	c #962625",
"hx.	c #A12421",
"ix.	c #9E2421",
"jx.	c #9F201E",
"kx.	c #A62420",
"lx.	c #AD2724",
"mx.	c #B12724",
"nx.	c #B72C28",
"ox.	c #B42B29",
"px.	c #B32F2C",
"qx.	c #B72D2A",
"rx.	c #B22A27",
"sx.	c #B12A27",
"tx.	c #B52725",
"ux.	c #B72725",
"vx.	c #B92723",
"wx.	c #C02D29",
"xx.	c #BD2723",
"yx.	c #C32C26",
"zx.	c #CB302D",
"Ax.	c #C62E2A",
"Bx.	c #C5302D",
"Cx.	c #C22E2B",
"Dx.	c #C62925",
"Ex.	c #C02927",
"Fx.	c #C32A27",
"Gx.	c #CB2F2B",
"Hx.	c #D5322F",
"Ix.	c #D2322E",
"Jx.	c #CC3330",
"Kx.	c #D23531",
"Lx.	c #D83C39",
"Mx.	c #DE3C3A",
"Nx.	c #E23A38",
"Ox.	c #DE3C39",
"Px.	c #E93F3D",
"Qx.	c #E33D3B",
"Rx.	c #E13B39",
"Sx.	c #E23938",
"Tx.	c #EF4445",
"Ux.	c #F44748",
"Vx.	c #EE4443",
"Wx.	c #F84E4C",
"Xx.	c #F34C4C",
"Yx.	c #F24E4D",
"Zx.	c #F95151",
"`x.	c #F84C4B",
" y.	c #F24B4D",
".y.	c #F14E4F",
"+y.	c #F45253",
"@y.	c #EB504F",
"#y.	c #F0514F",
"$y.	c #EF524F",
"%y.	c #F35551",
"&y.	c #ED524D",
"*y.	c #F25550",
"=y.	c #EB524F",
"-y.	c #F05451",
";y.	c #EF5652",
">y.	c #F45954",
",y.	c #ED514C",
"'y.	c #F2554F",
")y.	c #EC544F",
"!y.	c #F1635D",
"~y.	c #EA635E",
"{y.	c #ED7168",
"]y.	c #E56D65",
"^y.	c #EC766C",
"/y.	c #E4716A",
"(y.	c #DA6059",
"_y.	c #B54742",
":y.	c #872F2E",
"<y.	c #7C2827",
"[y.	c #742625",
"}y.	c #6C2323",
"|y.	c #57201D",
"1y.	c #4E1D1C",
"2y.	c #4B1C1B",
"3y.	c #481715",
"4y.	c #511B1B",
"5y.	c #4F1A1A",
"6y.	c #4C1514",
"7y.	c #501312",
"8y.	c #4B1110",
"9y.	c #461313",
"0y.	c #481313",
"ay.	c #461414",
"by.	c #461213",
"cy.	c #430F10",
"dy.	c #420F0E",
"ey.	c #3F1011",
"fy.	c #411012",
"gy.	c #3B0D0D",
"hy.	c #350F0F",
"iy.	c #3C1616",
"jy.	c #491616",
"ky.	c #4D1717",
"ly.	c #521A1A",
"my.	c #511919",
"ny.	c #561C1C",
"oy.	c #541918",
"py.	c #581A19",
"qy.	c #541817",
"ry.	c #581918",
"sy.	c #5B1A19",
"ty.	c #5B1917",
"uy.	c #5C1917",
"vy.	c #571514",
"wy.	c #591616",
"xy.	c #5E1715",
"yy.	c #5A1614",
"zy.	c #5B1715",
"Ay.	c #5E1918",
"By.	c #381615",
"Cy.	c #3A1A18",
"Dy.	c #3D1A19",
"Ey.	c #3C1E1D",
"Fy.	c #3C1B1A",
"Gy.	c #3F1E1C",
"Hy.	c #391615",
"Iy.	c #3D1A1A",
"Jy.	c #3F1918",
"Ky.	c #421D1D",
"Ly.	c #431E1D",
"My.	c #401716",
"Ny.	c #621E1D",
"Oy.	c #732221",
"Py.	c #A93B38",
"Qy.	c #C85958",
"Ry.	c #9A5E5C",
"Sy.	c #835756",
"Ty.	c #59402A",
"Uy.	c #533417",
"Vy.	c #3F361F",
"Wy.	c #39301E",
"Xy.	c #443B23",
"Yy.	c #433822",
"Zy.	c #594B3B",
"`y.	c #5B5143",
" z.	c #493F31",
".z.	c #493A2C",
"+z.	c #493C2F",
"@z.	c #463D2F",
"#z.	c #483F30",
"$z.	c #483F2F",
"%z.	c #4A3B29",
"&z.	c #483D2D",
"*z.	c #463621",
"=z.	c #342B19",
"-z.	c #403520",
";z.	c #5B2D22",
">z.	c #6F1D1C",
",z.	c #7D201E",
"'z.	c #841F1D",
")z.	c #892624",
"!z.	c #8A2A28",
"~z.	c #8A1D1B",
"{z.	c #8E2321",
"]z.	c #922725",
"^z.	c #9A2826",
"/z.	c #8F2321",
"(z.	c #8D201D",
"_z.	c #992726",
":z.	c #932726",
"<z.	c #972523",
"[z.	c #9C211E",
"}z.	c #A72826",
"|z.	c #A22320",
"1z.	c #A42725",
"2z.	c #A42623",
"3z.	c #AF2422",
"4z.	c #B02725",
"5z.	c #B32623",
"6z.	c #B72F2B",
"7z.	c #B52A26",
"8z.	c #B02F2C",
"9z.	c #B12E2C",
"0z.	c #B42724",
"az.	c #BB2B29",
"bz.	c #BB2A25",
"cz.	c #C12B26",
"dz.	c #BD2928",
"ez.	c #C22B28",
"fz.	c #C52D2A",
"gz.	c #C82D2A",
"hz.	c #C22D2B",
"iz.	c #C72A26",
"jz.	c #C62E2B",
"kz.	c #D13632",
"lz.	c #CF312F",
"mz.	c #C9302E",
"nz.	c #D13532",
"oz.	c #D63937",
"pz.	c #D63733",
"qz.	c #DE3A38",
"rz.	c #E23735",
"sz.	c #DA3634",
"tz.	c #DE3936",
"uz.	c #DE3A37",
"vz.	c #D93C38",
"wz.	c #E13B38",
"xz.	c #E23B3A",
"yz.	c #E33A39",
"zz.	c #E53D3D",
"Az.	c #F54746",
"Bz.	c #E84442",
"Cz.	c #F1494A",
"Dz.	c #EF4B4C",
"Ez.	c #F15052",
"Fz.	c #EE5250",
"Gz.	c #F25350",
"Hz.	c #EC514E",
"Iz.	c #EE5551",
"Jz.	c #F35753",
"Kz.	c #F1554F",
"Lz.	c #EA5F59",
"Mz.	c #F0625C",
"Nz.	c #EC6B63",
"Oz.	c #E86E65",
"Pz.	c #EB7169",
"Qz.	c #E26E67",
"Rz.	c #E76C63",
"Sz.	c #D45A54",
"Tz.	c #A93F3B",
"Uz.	c #7F2C2B",
"Vz.	c #782726",
"Wz.	c #7A2827",
"Xz.	c #712524",
"Yz.	c #6C2625",
"Zz.	c #491817",
"`z.	c #471917",
" A.	c #4C1A1A",
".A.	c #481817",
"+A.	c #4A1715",
"@A.	c #481615",
"#A.	c #481716",
"$A.	c #4A1B1A",
"%A.	c #521C1C",
"&A.	c #4C1313",
"*A.	c #481514",
"=A.	c #4A1616",
"-A.	c #471515",
";A.	c #491515",
">A.	c #43100F",
",A.	c #411112",
"'A.	c #3B0E0E",
")A.	c #3A0C0D",
"!A.	c #360C0C",
"~A.	c #361011",
"{A.	c #431314",
"]A.	c #501718",
"^A.	c #521818",
"/A.	c #511A1A",
"(A.	c #541919",
"_A.	c #591A1A",
":A.	c #5C1C1B",
"<A.	c #581919",
"[A.	c #5C1B1A",
"}A.	c #5B1A1A",
"|A.	c #5B1717",
"1A.	c #591515",
"2A.	c #5C1616",
"3A.	c #591514",
"4A.	c #5C1614",
"5A.	c #591715",
"6A.	c #5E1816",
"7A.	c #5C1817",
"8A.	c #361313",
"9A.	c #3A1816",
"0A.	c #3F2120",
"aA.	c #3D1C1C",
"bA.	c #3B1B1A",
"cA.	c #3D1A18",
"dA.	c #3E1918",
"eA.	c #411818",
"fA.	c #441616",
"gA.	c #5F1919",
"hA.	c #702120",
"iA.	c #A83A38",
"jA.	c #D75F5C",
"kA.	c #955C5B",
"lA.	c #825959",
"mA.	c #554023",
"nA.	c #533615",
"oA.	c #493C1E",
"pA.	c #4D4228",
"qA.	c #483925",
"rA.	c #534837",
"sA.	c #4D4434",
"tA.	c #463C2D",
"uA.	c #473D2C",
"vA.	c #483E30",
"wA.	c #463D30",
"xA.	c #443D2E",
"yA.	c #4F3A2B",
"zA.	c #493F30",
"AA.	c #483E2D",
"BA.	c #563B28",
"CA.	c #43331C",
"DA.	c #2E2514",
"EA.	c #423222",
"FA.	c #612A21",
"GA.	c #712222",
"HA.	c #761816",
"IA.	c #7E1F1D",
"JA.	c #832725",
"KA.	c #882523",
"LA.	c #8E2523",
"MA.	c #8D2221",
"NA.	c #8C2422",
"OA.	c #96211E",
"PA.	c #942523",
"QA.	c #992522",
"RA.	c #A72523",
"SA.	c #A92826",
"TA.	c #A72825",
"UA.	c #9F2625",
"VA.	c #A62A28",
"WA.	c #AF2825",
"XA.	c #AD2B29",
"YA.	c #AC2624",
"ZA.	c #AD2623",
"`A.	c #B42320",
" B.	c #B02724",
".B.	c #B12621",
"+B.	c #AF2622",
"@B.	c #B12B26",
"#B.	c #B42D2A",
"$B.	c #B82523",
"%B.	c #B62926",
"&B.	c #BC2E2A",
"*B.	c #C02925",
"=B.	c #BF2E2C",
"-B.	c #C9302B",
";B.	c #CA2C29",
">B.	c #C22925",
",B.	c #C62B27",
"'B.	c #C62A28",
")B.	c #C62C29",
"!B.	c #C32D2A",
"~B.	c #CC2D2A",
"{B.	c #CB302C",
"]B.	c #C92C28",
"^B.	c #CE3735",
"/B.	c #D53934",
"(B.	c #D83633",
"_B.	c #DF3938",
":B.	c #DF3735",
"<B.	c #DB3432",
"[B.	c #DF3633",
"}B.	c #D93C3A",
"|B.	c #DB3C39",
"1B.	c #DA3735",
"2B.	c #E23B38",
"3B.	c #E33C3A",
"4B.	c #EE4040",
"5B.	c #FA4D4D",
"6B.	c #F94B4A",
"7B.	c #F34F50",
"8B.	c #F74E4F",
"9B.	c #F64E50",
"0B.	c #F54D4E",
"aB.	c #EF5152",
"bB.	c #EC4F4E",
"cB.	c #EA4F4D",
"dB.	c #EC5450",
"eB.	c #EB4E4B",
"fB.	c #EF625B",
"gB.	c #F3665D",
"hB.	c #EE6E66",
"iB.	c #E66B64",
"jB.	c #EA6F66",
"kB.	c #E16C65",
"lB.	c #E46963",
"mB.	c #CC554E",
"nB.	c #9E3936",
"oB.	c #832C2A",
"pB.	c #792C2C",
"qB.	c #652323",
"rB.	c #491C1C",
"sB.	c #4B1B1B",
"tB.	c #441615",
"uB.	c #471513",
"vB.	c #491715",
"wB.	c #4F1E1E",
"xB.	c #4B1414",
"yB.	c #4D1111",
"zB.	c #471414",
"AB.	c #461314",
"BB.	c #441213",
"CB.	c #401213",
"DB.	c #3A0E0E",
"EB.	c #3B0C0D",
"FB.	c #340C0D",
"GB.	c #4B1314",
"HB.	c #4E1618",
"IB.	c #4C1516",
"JB.	c #521718",
"KB.	c #511718",
"LB.	c #551A1A",
"MB.	c #5B1C1C",
"NB.	c #581B1B",
"OB.	c #5D1C1B",
"PB.	c #591B1A",
"QB.	c #591918",
"RB.	c #5D1A1A",
"SB.	c #5F1A19",
"TB.	c #5B1817",
"UB.	c #5D1817",
"VB.	c #5B1615",
"WB.	c #561413",
"XB.	c #5A1514",
"YB.	c #571413",
"ZB.	c #5A1615",
"`B.	c #611817",
" C.	c #5C1715",
".C.	c #621918",
"+C.	c #5C1918",
"@C.	c #481714",
"#C.	c #340F0F",
"$C.	c #391918",
"%C.	c #3A1C1A",
"&C.	c #411F1E",
"*C.	c #3E201E",
"=C.	c #3E1C1A",
"-C.	c #391715",
";C.	c #3A1715",
">C.	c #3A1818",
",C.	c #401A19",
"'C.	c #3F1A19",
")C.	c #3F1615",
"!C.	c #421515",
"~C.	c #601B1B",
"{C.	c #601A19",
"]C.	c #782322",
"^C.	c #A93B39",
"/C.	c #D3605F",
"(C.	c #935B5B",
"_C.	c #7F5857",
":C.	c #574838",
"<C.	c #563B25",
"[C.	c #4D4020",
"}C.	c #493F2A",
"|C.	c #615645",
"1C.	c #473E2D",
"2C.	c #493E30",
"3C.	c #49392A",
"4C.	c #473B2A",
"5C.	c #4A4030",
"6C.	c #4E3E2C",
"7C.	c #533B26",
"8C.	c #462D18",
"9C.	c #302515",
"0C.	c #442A1C",
"aC.	c #681B1A",
"bC.	c #721E1D",
"cC.	c #781D1D",
"dC.	c #80211F",
"eC.	c #7F2422",
"fC.	c #802624",
"gC.	c #7D1E1B",
"hC.	c #80201E",
"iC.	c #8B1D1B",
"jC.	c #8B2322",
"kC.	c #952221",
"lC.	c #992624",
"mC.	c #9B2725",
"nC.	c #992724",
"oC.	c #A12624",
"pC.	c #A72421",
"qC.	c #AC2B29",
"rC.	c #A82422",
"sC.	c #A62422",
"tC.	c #AA2725",
"uC.	c #AD2423",
"vC.	c #A92522",
"wC.	c #B02B28",
"xC.	c #AC2824",
"yC.	c #B02B2A",
"zC.	c #B12521",
"AC.	c #B42220",
"BC.	c #B72522",
"CC.	c #B12422",
"DC.	c #B62622",
"EC.	c #B72A26",
"FC.	c #BE2724",
"GC.	c #C53130",
"HC.	c #C4302E",
"IC.	c #C62825",
"JC.	c #C9312D",
"KC.	c #CA2C28",
"LC.	c #CB312F",
"MC.	c #C92F2B",
"NC.	c #CE302D",
"OC.	c #CB2D2B",
"PC.	c #C93633",
"QC.	c #D13733",
"RC.	c #CF3836",
"SC.	c #DD3735",
"TC.	c #D83431",
"UC.	c #DE3533",
"VC.	c #D93733",
"WC.	c #D93330",
"XC.	c #E13A39",
"YC.	c #DF3734",
"ZC.	c #DB3836",
"`C.	c #E13736",
" D.	c #E43C3B",
".D.	c #EC4342",
"+D.	c #F64E4F",
"@D.	c #F14B4D",
"#D.	c #F44C4D",
"$D.	c #EC4F50",
"%D.	c #ED524E",
"&D.	c #EB534F",
"*D.	c #F05551",
"=D.	c #EF544E",
"-D.	c #F3615B",
";D.	c #F26860",
">D.	c #E96A61",
",D.	c #ED7A73",
"'D.	c #E46C63",
")D.	c #E86D65",
"!D.	c #EB7069",
"~D.	c #CE534E",
"{D.	c #953433",
"]D.	c #7C2A29",
"^D.	c #732726",
"/D.	c #752424",
"(D.	c #6C2221",
"_D.	c #662B2A",
":D.	c #5C2727",
"<D.	c #4B1E1D",
"[D.	c #471817",
"}D.	c #481917",
"|D.	c #51201F",
"1D.	c #4F1515",
"2D.	c #4A1516",
"3D.	c #400D0D",
"4D.	c #3C1110",
"5D.	c #3A0B0B",
"6D.	c #4A0F0F",
"7D.	c #4D1617",
"8D.	c #4B1617",
"9D.	c #561A1A",
"0D.	c #551A1B",
"aD.	c #591B1C",
"bD.	c #571A1A",
"cD.	c #591B19",
"dD.	c #5D1C1C",
"eD.	c #5D1B1A",
"fD.	c #5C1A19",
"gD.	c #601B1A",
"hD.	c #5B1816",
"iD.	c #5D1917",
"jD.	c #5A1716",
"kD.	c #551413",
"lD.	c #581514",
"mD.	c #561313",
"nD.	c #5C1515",
"oD.	c #591513",
"pD.	c #5E1615",
"qD.	c #5F1716",
"rD.	c #531414",
"sD.	c #3B1413",
"tD.	c #3A1817",
"uD.	c #3B1816",
"vD.	c #371716",
"wD.	c #3B1918",
"xD.	c #3B1A18",
"yD.	c #3D1716",
"zD.	c #3F1817",
"AD.	c #3E1817",
"BD.	c #421818",
"CD.	c #611919",
"DD.	c #5E1818",
"ED.	c #792222",
"FD.	c #B74341",
"GD.	c #CF605E",
"HD.	c #A46362",
"ID.	c #7E5454",
"JD.	c #5F3B1D",
"KD.	c #4D3E1D",
"LD.	c #43351E",
"MD.	c #4A412A",
"ND.	c #4E442C",
"OD.	c #52442D",
"PD.	c #635143",
"QD.	c #4C4333",
"RD.	c #4C4434",
"SD.	c #4D4335",
"TD.	c #483A2A",
"UD.	c #43382A",
"VD.	c #433B2C",
"WD.	c #4A3F30",
"XD.	c #4D3F2F",
"YD.	c #4F3822",
"ZD.	c #45311C",
"`D.	c #4B2018",
" E.	c #6F201E",
".E.	c #721C1A",
"+E.	c #791C1A",
"@E.	c #802320",
"#E.	c #7E211F",
"$E.	c #7A2421",
"%E.	c #7C1B19",
"&E.	c #862522",
"*E.	c #8A1F1C",
"=E.	c #852523",
"-E.	c #872322",
";E.	c #9B2A28",
">E.	c #972927",
",E.	c #94211D",
"'E.	c #9E2623",
")E.	c #A72A28",
"!E.	c #AD2A29",
"~E.	c #A62321",
"{E.	c #A92320",
"]E.	c #AB2523",
"^E.	c #AE2725",
"/E.	c #B02422",
"(E.	c #AA2422",
"_E.	c #AD2522",
":E.	c #AD2925",
"<E.	c #B32C2A",
"[E.	c #B62E2B",
"}E.	c #B82F2C",
"|E.	c #B22421",
"1E.	c #B22521",
"2E.	c #C42826",
"3E.	c #C42925",
"4E.	c #D2312D",
"5E.	c #CF3431",
"6E.	c #C32A25",
"7E.	c #C82F2C",
"8E.	c #D13631",
"9E.	c #D13731",
"0E.	c #D53733",
"aE.	c #D1302E",
"bE.	c #D5322E",
"cE.	c #D32F2D",
"dE.	c #D8322F",
"eE.	c #D73331",
"fE.	c #DB3531",
"gE.	c #D73835",
"hE.	c #D43834",
"iE.	c #DD3734",
"jE.	c #DB3734",
"kE.	c #DA3431",
"lE.	c #E03632",
"mE.	c #E13634",
"nE.	c #E73E3B",
"oE.	c #EA4643",
"pE.	c #EB4341",
"qE.	c #EA4A4D",
"rE.	c #F25153",
"sE.	c #F24947",
"tE.	c #F74A4B",
"uE.	c #F94E4D",
"vE.	c #F64C4D",
"wE.	c #F44C4E",
"xE.	c #F34B4C",
"yE.	c #F74B4D",
"zE.	c #F14A4B",
"AE.	c #EF4E50",
"BE.	c #ED4E4F",
"CE.	c #F15153",
"DE.	c #F35452",
"EE.	c #F25451",
"FE.	c #EB514E",
"GE.	c #F55653",
"HE.	c #EF5551",
"IE.	c #F4544F",
"JE.	c #ED554F",
"KE.	c #F25C56",
"LE.	c #EC615D",
"ME.	c #F1645C",
"NE.	c #E7665E",
"OE.	c #EC6F69",
"PE.	c #EE766F",
"QE.	c #E76E66",
"RE.	c #EA7068",
"SE.	c #E06560",
"TE.	c #C94F4B",
"UE.	c #903230",
"VE.	c #7C2A28",
"WE.	c #722424",
"XE.	c #6E2121",
"YE.	c #662220",
"ZE.	c #6F2120",
"`E.	c #601B19",
" F.	c #4D1F1D",
".F.	c #491C1A",
"+F.	c #4D1D1B",
"@F.	c #461716",
"#F.	c #471514",
"$F.	c #471715",
"%F.	c #481919",
"&F.	c #4D1C1C",
"*F.	c #4C1110",
"=F.	c #4B1313",
"-F.	c #4B1616",
";F.	c #481515",
">F.	c #4A1515",
",F.	c #441515",
"'F.	c #3F0E0F",
")F.	c #3A0A0B",
"!F.	c #340B0B",
"~F.	c #3D1011",
"{F.	c #441012",
"]F.	c #4D1517",
"^F.	c #501819",
"/F.	c #541819",
"(F.	c #591A1B",
"_F.	c #561919",
":F.	c #5A1B1B",
"<F.	c #571919",
"[F.	c #5B1B1A",
"}F.	c #5F1B1B",
"|F.	c #5B1919",
"1F.	c #5F1B1A",
"2F.	c #5A1817",
"3F.	c #5C1716",
"4F.	c #571414",
"5F.	c #5C1615",
"6F.	c #5A1515",
"7F.	c #551312",
"8F.	c #581413",
"9F.	c #5A1513",
"0F.	c #571313",
"aF.	c #601716",
"bF.	c #541313",
"cF.	c #3B0F0E",
"dF.	c #371513",
"eF.	c #371413",
"fF.	c #3D1C1B",
"gF.	c #3B1818",
"hF.	c #431616",
"iF.	c #611D1D",
"jF.	c #5E1B1B",
"kF.	c #651C1B",
"lF.	c #792423",
"mF.	c #B94444",
"nF.	c #CA5F5D",
"oF.	c #A36261",
"pF.	c #624A2B",
"qF.	c #59421D",
"rF.	c #43381E",
"sF.	c #3C331F",
"tF.	c #4F4432",
"uF.	c #564C3C",
"vF.	c #4A4031",
"wF.	c #524938",
"xF.	c #4F4536",
"yF.	c #503B2B",
"zF.	c #4B3A27",
"AF.	c #2F2615",
"BF.	c #47241B",
"CF.	c #761D1C",
"DF.	c #7C2422",
"EF.	c #7C2624",
"FF.	c #7A2020",
"GF.	c #76201E",
"HF.	c #781F1C",
"IF.	c #822323",
"JF.	c #822321",
"KF.	c #7D1C1A",
"LF.	c #8B2725",
"MF.	c #8F211E",
"NF.	c #91231F",
"OF.	c #972723",
"PF.	c #A72624",
"QF.	c #A42625",
"RF.	c #AD2725",
"SF.	c #AE2522",
"TF.	c #AC2B28",
"UF.	c #AC2725",
"VF.	c #AA2523",
"WF.	c #AF2826",
"XF.	c #B42421",
"YF.	c #B52724",
"ZF.	c #B32724",
"`F.	c #B32522",
" G.	c #BF2725",
".G.	c #C22725",
"+G.	c #C42522",
"@G.	c #C32824",
"#G.	c #CB2A28",
"$G.	c #CD2926",
"%G.	c #C52C28",
"&G.	c #CC3633",
"*G.	c #CB332F",
"=G.	c #CE2F2D",
"-G.	c #D12D29",
";G.	c #D02F2D",
">G.	c #D7302F",
",G.	c #D73330",
"'G.	c #D93230",
")G.	c #D2332F",
"!G.	c #DC3938",
"~G.	c #DB3331",
"{G.	c #D53230",
"]G.	c #DB3635",
"^G.	c #DE3534",
"/G.	c #DD3B38",
"(G.	c #E73E3E",
"_G.	c #E94040",
":G.	c #E74340",
"<G.	c #E73E3C",
"[G.	c #E4423F",
"}G.	c #EE4E4A",
"|G.	c #E84343",
"1G.	c #F74949",
"2G.	c #F04445",
"3G.	c #F24849",
"4G.	c #EF4A4A",
"5G.	c #F34E4F",
"6G.	c #F85253",
"7G.	c #F15051",
"8G.	c #F75254",
"9G.	c #F45254",
"0G.	c #F25452",
"aG.	c #EC5250",
"bG.	c #F55552",
"cG.	c #EE5451",
"dG.	c #EC524E",
"eG.	c #EA625C",
"fG.	c #F06861",
"gG.	c #F16961",
"hG.	c #ED766F",
"iG.	c #E96F69",
"jG.	c #E0635D",
"kG.	c #C34B49",
"lG.	c #8C3030",
"mG.	c #7C2828",
"nG.	c #7A2928",
"oG.	c #6E2726",
"pG.	c #681C1A",
"qG.	c #601613",
"rG.	c #631A18",
"sG.	c #4A1C1A",
"tG.	c #4F1E1C",
"uG.	c #4B1E1C",
"vG.	c #461514",
"wG.	c #461918",
"xG.	c #491B1A",
"yG.	c #511818",
"zG.	c #4F1212",
"AG.	c #4D1110",
"BG.	c #491010",
"CG.	c #4C1111",
"DG.	c #4B1515",
"EG.	c #4A1717",
"FG.	c #481616",
"GG.	c #3C0F0F",
"HG.	c #3B0C0C",
"IG.	c #33090A",
"JG.	c #380E0F",
"KG.	c #490F10",
"LG.	c #4C1315",
"MG.	c #4E1718",
"NG.	c #55191A",
"OG.	c #53191A",
"PG.	c #591C1C",
"QG.	c #551918",
"RG.	c #5A1A1A",
"SG.	c #5A1918",
"TG.	c #581816",
"UG.	c #5E1716",
"VG.	c #541312",
"WG.	c #561412",
"XG.	c #591413",
"YG.	c #541212",
"ZG.	c #5B1413",
"`G.	c #581312",
" H.	c #5C1513",
".H.	c #3C100F",
"+H.	c #371615",
"@H.	c #3A1716",
"#H.	c #371817",
"$H.	c #3C1E1C",
"%H.	c #381716",
"&H.	c #361614",
"*H.	c #381715",
"=H.	c #3C1A18",
"-H.	c #3E1D1C",
";H.	c #3E1818",
">H.	c #401818",
",H.	c #451818",
"'H.	c #551818",
")H.	c #5D191A",
"!H.	c #7A2525",
"~H.	c #B94744",
"{H.	c #D56563",
"]H.	c #A96261",
"^H.	c #705150",
"/H.	c #5D4228",
"(H.	c #4C3719",
"_H.	c #483D22",
":H.	c #3B311C",
"<H.	c #584D3B",
"[H.	c #544A3C",
"}H.	c #52483A",
"|H.	c #53493B",
"1H.	c #4A3F32",
"2H.	c #463A2A",
"3H.	c #4C3C2E",
"4H.	c #4B4031",
"5H.	c #4A3F2F",
"6H.	c #3C301C",
"7H.	c #4C2C1E",
"8H.	c #691F1C",
"9H.	c #6F2221",
"0H.	c #70201E",
"aH.	c #752220",
"bH.	c #771F1D",
"cH.	c #791D1A",
"dH.	c #741E1C",
"eH.	c #77201E",
"fH.	c #761C1A",
"gH.	c #7A1C1A",
"hH.	c #7C1F1F",
"iH.	c #79201F",
"jH.	c #89201E",
"kH.	c #8A2221",
"lH.	c #8C2523",
"mH.	c #972726",
"nH.	c #A72321",
"oH.	c #A72623",
"pH.	c #AB2925",
"qH.	c #A82824",
"rH.	c #AE2826",
"sH.	c #AD2D2A",
"tH.	c #B02522",
"uH.	c #AE2421",
"vH.	c #B42521",
"wH.	c #B12623",
"xH.	c #B42723",
"yH.	c #B72824",
"zH.	c #B92A28",
"AH.	c #BD2825",
"BH.	c #BD2421",
"CH.	c #C42D2B",
"DH.	c #C02C28",
"EH.	c #C32B29",
"FH.	c #CA2E2B",
"GH.	c #CB2725",
"HH.	c #C42927",
"IH.	c #C22A26",
"JH.	c #BE2722",
"KH.	c #C12826",
"LH.	c #C62F2B",
"MH.	c #CD2C29",
"NH.	c #C92825",
"OH.	c #CE2D2B",
"PH.	c #CF302E",
"QH.	c #D3312E",
"RH.	c #D22F2B",
"SH.	c #D73431",
"TH.	c #D73432",
"UH.	c #DA3432",
"VH.	c #D4302C",
"WH.	c #D2302E",
"XH.	c #DA3230",
"YH.	c #D5312E",
"ZH.	c #E13B3A",
"`H.	c #E53D3B",
" I.	c #E03D3B",
".I.	c #E73F3C",
"+I.	c #ED4A46",
"@I.	c #EB4E4C",
"#I.	c #ED4542",
"$I.	c #EB4543",
"%I.	c #F34546",
"&I.	c #F8494A",
"*I.	c #F94E4E",
"=I.	c #F84C4D",
"-I.	c #F04E50",
";I.	c #F55452",
">I.	c #F35653",
",I.	c #F15652",
"'I.	c #F05853",
")I.	c #F56660",
"!I.	c #EE625B",
"~I.	c #E8645C",
"{I.	c #EB726C",
"]I.	c #E4746C",
"^I.	c #E87069",
"/I.	c #DD615C",
"(I.	c #BD4944",
"_I.	c #903332",
":I.	c #7B2827",
"<I.	c #681E1D",
"[I.	c #6E1B1A",
"}I.	c #641313",
"|I.	c #601412",
"1I.	c #6C1614",
"2I.	c #4B1C1A",
"3I.	c #461C1B",
"4I.	c #491717",
"5I.	c #491D1B",
"6I.	c #451715",
"7I.	c #481A18",
"8I.	c #511715",
"9I.	c #511413",
"0I.	c #4F1211",
"aI.	c #4B100F",
"bI.	c #4E1110",
"cI.	c #4A100E",
"dI.	c #3B0B0B",
"eI.	c #4F1718",
"fI.	c #4E1719",
"gI.	c #54191A",
"hI.	c #5D1B1C",
"iI.	c #5E1C1C",
"jI.	c #5F1C1A",
"kI.	c #5E1919",
"lI.	c #541311",
"mI.	c #571412",
"nI.	c #541111",
"oI.	c #571212",
"pI.	c #531110",
"qI.	c #591411",
"rI.	c #5C1414",
"sI.	c #581313",
"tI.	c #341111",
"uI.	c #381817",
"vI.	c #371717",
"wI.	c #381614",
"xI.	c #391A18",
"yI.	c #381515",
"zI.	c #3B1817",
"AI.	c #3F1818",
"BI.	c #451919",
"CI.	c #641D1D",
"DI.	c #6D2121",
"EI.	c #872E2E",
"FI.	c #CD615D",
"GI.	c #A7615F",
"HI.	c #6B514F",
"II.	c #5D3E24",
"JI.	c #483C20",
"KI.	c #3E341D",
"LI.	c #3F3722",
"MI.	c #4F452E",
"NI.	c #5C4C37",
"OI.	c #514637",
"PI.	c #5D5341",
"QI.	c #5F5546",
"RI.	c #564C3D",
"SI.	c #4B4132",
"TI.	c #483929",
"UI.	c #483C2D",
"VI.	c #4B4032",
"WI.	c #493F2F",
"XI.	c #493E2F",
"YI.	c #49321C",
"ZI.	c #372D1B",
"`I.	c #5D3527",
" J.	c #62211D",
".J.	c #6A1F1D",
"+J.	c #6D211F",
"@J.	c #70221F",
"#J.	c #752221",
"$J.	c #78211F",
"%J.	c #75201F",
"&J.	c #762524",
"*J.	c #741716",
"=J.	c #79221F",
"-J.	c #7A2120",
";J.	c #782120",
">J.	c #82211F",
",J.	c #8A1F1D",
"'J.	c #8F2726",
")J.	c #9A2625",
"!J.	c #A32826",
"~J.	c #AA2C2A",
"{J.	c #A82725",
"]J.	c #9A201E",
"^J.	c #A2211F",
"/J.	c #A22321",
"(J.	c #A8211F",
"_J.	c #A92723",
":J.	c #AB2724",
"<J.	c #A62522",
"[J.	c #A72725",
"}J.	c #B22622",
"|J.	c #B22522",
"1J.	c #B52623",
"2J.	c #BE2623",
"3J.	c #BE2824",
"4J.	c #C02B28",
"5J.	c #C02A27",
"6J.	c #C12A28",
"7J.	c #BC2521",
"8J.	c #C62926",
"9J.	c #C52C29",
"0J.	c #C82D2B",
"aJ.	c #C62C28",
"bJ.	c #C82925",
"cJ.	c #C62924",
"dJ.	c #D22B29",
"eJ.	c #D13330",
"fJ.	c #D1312E",
"gJ.	c #D13130",
"hJ.	c #D02D29",
"iJ.	c #CD2D2A",
"jJ.	c #DB322F",
"kJ.	c #D73430",
"lJ.	c #D73230",
"mJ.	c #E23E3B",
"nJ.	c #E63D3B",
"oJ.	c #E73B39",
"pJ.	c #E84746",
"qJ.	c #ED4A4B",
"rJ.	c #E83F3E",
"sJ.	c #ED413F",
"tJ.	c #E74543",
"uJ.	c #EC4240",
"vJ.	c #F14342",
"wJ.	c #F04444",
"xJ.	c #F64747",
"yJ.	c #F3494A",
"zJ.	c #F64B4C",
"AJ.	c #F94F4F",
"BJ.	c #F24D4F",
"CJ.	c #F55052",
"DJ.	c #ED5551",
"EJ.	c #F25754",
"FJ.	c #F05653",
"GJ.	c #F55754",
"HJ.	c #F3655F",
"IJ.	c #EB665F",
"JJ.	c #E75F5A",
"KJ.	c #E26962",
"LJ.	c #E35F5A",
"MJ.	c #B44340",
"NJ.	c #8C3130",
"OJ.	c #7D2C2B",
"PJ.	c #7D2A29",
"QJ.	c #762828",
"RJ.	c #6D2323",
"SJ.	c #721A19",
"TJ.	c #751514",
"UJ.	c #681212",
"VJ.	c #651312",
"WJ.	c #5F1412",
"XJ.	c #6B1615",
"YJ.	c #4A1D1B",
"ZJ.	c #4E1F1D",
"`J.	c #481C1A",
" K.	c #421615",
".K.	c #461715",
"+K.	c #451614",
"@K.	c #471A18",
"#K.	c #501818",
"$K.	c #501717",
"%K.	c #4B1010",
"&K.	c #461515",
"*K.	c #451516",
"=K.	c #441112",
"-K.	c #3C0B0B",
";K.	c #4B0F10",
">K.	c #4E1516",
",K.	c #571A1C",
"'K.	c #561B1C",
")K.	c #5C1B1B",
"!K.	c #5A1B1A",
"~K.	c #5F1C1B",
"{K.	c #5E1A1A",
"]K.	c #531211",
"^K.	c #561212",
"/K.	c #521110",
"(K.	c #571312",
"_K.	c #591212",
":K.	c #551211",
"<K.	c #591313",
"[K.	c #551313",
"}K.	c #561515",
"|K.	c #37110F",
"1K.	c #3B1715",
"2K.	c #401E1C",
"3K.	c #3F1716",
"4K.	c #3D1717",
"5K.	c #421616",
"6K.	c #642423",
"7K.	c #B84D4A",
"8K.	c #C95E5A",
"9K.	c #B56666",
"0K.	c #6A4D4C",
"aK.	c #614725",
"bK.	c #513D1D",
"cK.	c #473A21",
"dK.	c #38321E",
"eK.	c #51472F",
"fK.	c #584B36",
"gK.	c #5F5647",
"hK.	c #62584A",
"iK.	c #4F4333",
"jK.	c #473A2B",
"kK.	c #4C4132",
"lK.	c #4B3F30",
"mK.	c #473820",
"nK.	c #443921",
"oK.	c #562219",
"pK.	c #6A1F1C",
"qK.	c #6D201E",
"rK.	c #6D1917",
"sK.	c #74201F",
"tK.	c #721C19",
"uK.	c #752020",
"vK.	c #781E1C",
"wK.	c #7D2321",
"xK.	c #7B2321",
"yK.	c #761A17",
"zK.	c #7F1D1A",
"AK.	c #891F1D",
"BK.	c #8E2421",
"CK.	c #942522",
"DK.	c #9B2825",
"EK.	c #A42522",
"FK.	c #98231F",
"GK.	c #992321",
"HK.	c #A82321",
"IK.	c #AA2521",
"JK.	c #A5221F",
"KK.	c #A32825",
"LK.	c #A12320",
"MK.	c #AF2523",
"NK.	c #B22D2A",
"OK.	c #AC2C29",
"PK.	c #AD2B28",
"QK.	c #B62C28",
"RK.	c #C02825",
"SK.	c #B62623",
"TK.	c #B82521",
"UK.	c #B92724",
"VK.	c #BD2927",
"WK.	c #B92722",
"XK.	c #BB2421",
"YK.	c #BF2D29",
"ZK.	c #C0302D",
"`K.	c #BF2B26",
" L.	c #C42A28",
".L.	c #C32823",
"+L.	c #C82826",
"@L.	c #C72925",
"#L.	c #CC2B27",
"$L.	c #CE2B29",
"%L.	c #CC2E2C",
"&L.	c #D02C28",
"*L.	c #CF2D2A",
"=L.	c #D72F2E",
"-L.	c #DA3533",
";L.	c #D4312E",
">L.	c #D42F2E",
",L.	c #E03B39",
"'L.	c #E43C3A",
")L.	c #E33C39",
"!L.	c #DE3634",
"~L.	c #E53D3A",
"{L.	c #E9413F",
"]L.	c #E83F3F",
"^L.	c #EF4141",
"/L.	c #EB4042",
"(L.	c #F04242",
"_L.	c #F64748",
":L.	c #F54B4D",
"<L.	c #F94D4E",
"[L.	c #F84E4F",
"}L.	c #F34C4E",
"|L.	c #F04A4B",
"1L.	c #F54E50",
"2L.	c #EF4D4E",
"3L.	c #F65153",
"4L.	c #EE4E50",
"5L.	c #F25251",
"6L.	c #ED514E",
"7L.	c #F55854",
"8L.	c #F45753",
"9L.	c #ED5650",
"0L.	c #F2625C",
"aL.	c #EA5D55",
"bL.	c #ED6058",
"cL.	c #F1625A",
"dL.	c #E9605A",
"eL.	c #EB645D",
"fL.	c #E6635D",
"gL.	c #DC5B55",
"hL.	c #A73C3B",
"iL.	c #7A2828",
"jL.	c #7D2B2A",
"kL.	c #6D2322",
"lL.	c #741A1A",
"mL.	c #791B1A",
"nL.	c #6E1514",
"oL.	c #711412",
"pL.	c #651211",
"qL.	c #601312",
"rL.	c #691413",
"sL.	c #461B19",
"tL.	c #471C19",
"uL.	c #411B19",
"vL.	c #471614",
"wL.	c #431614",
"xL.	c #461917",
"yL.	c #4C1D1D",
"zL.	c #4C1515",
"AL.	c #4C100F",
"BL.	c #441414",
"CL.	c #471213",
"DL.	c #450F10",
"EL.	c #3C0C0C",
"FL.	c #350E0D",
"GL.	c #4E1213",
"HL.	c #4E1617",
"IL.	c #521719",
"JL.	c #521819",
"KL.	c #571A1B",
"LL.	c #56191A",
"ML.	c #5C1A1B",
"NL.	c #591B1B",
"OL.	c #5A1A18",
"PL.	c #571615",
"QL.	c #531210",
"RL.	c #561211",
"SL.	c #541211",
"TL.	c #521111",
"UL.	c #531010",
"VL.	c #561111",
"WL.	c #5E1616",
"XL.	c #371816",
"YL.	c #361615",
"ZL.	c #381A18",
"`L.	c #371514",
" M.	c #3C1A19",
".M.	c #3A1919",
"+M.	c #401B1B",
"@M.	c #662122",
"#M.	c #622122",
"$M.	c #6F2525",
"%M.	c #86302E",
"&M.	c #C75553",
"*M.	c #C45A57",
"=M.	c #B5615E",
"-M.	c #664C31",
";M.	c #594019",
">M.	c #4A391F",
",M.	c #3B3320",
"'M.	c #50452F",
")M.	c #55492E",
"!M.	c #524738",
"~M.	c #5F5547",
"{M.	c #615748",
"]M.	c #554B3C",
"^M.	c #524636",
"/M.	c #4C4232",
"(M.	c #4E3F2C",
"_M.	c #4C3C29",
":M.	c #3F2F18",
"<M.	c #463924",
"[M.	c #51271D",
"}M.	c #6B1F1D",
"|M.	c #6E2422",
"1M.	c #70211F",
"2M.	c #721917",
"3M.	c #72201E",
"4M.	c #731F1E",
"5M.	c #761D1B",
"6M.	c #7B1F1E",
"7M.	c #802322",
"8M.	c #791E1C",
"9M.	c #771F1C",
"0M.	c #7E2221",
"aM.	c #8B2623",
"bM.	c #841D1B",
"cM.	c #862523",
"dM.	c #8B2220",
"eM.	c #92201D",
"fM.	c #A02320",
"gM.	c #9D201F",
"hM.	c #972422",
"iM.	c #97221F",
"jM.	c #9B2624",
"kM.	c #A22724",
"lM.	c #A82523",
"mM.	c #A92C2A",
"nM.	c #A82726",
"oM.	c #9E2926",
"pM.	c #A12521",
"qM.	c #AB2824",
"rM.	c #A82925",
"sM.	c #C02724",
"tM.	c #B62421",
"uM.	c #B22C2A",
"vM.	c #B3221F",
"wM.	c #B82320",
"xM.	c #C12724",
"yM.	c #C12F2B",
"zM.	c #C32C2A",
"AM.	c #BE2926",
"BM.	c #C32926",
"CM.	c #C42924",
"DM.	c #CB2A27",
"EM.	c #CE2F2C",
"FM.	c #D12B27",
"GM.	c #CC2E2A",
"HM.	c #CC2B29",
"IM.	c #D12C29",
"JM.	c #CE2D28",
"KM.	c #D1312F",
"LM.	c #DB3431",
"MM.	c #DF3634",
"NM.	c #D5312D",
"OM.	c #D32D2B",
"PM.	c #D63432",
"QM.	c #DD3836",
"RM.	c #DD3636",
"SM.	c #E13936",
"TM.	c #DC3533",
"UM.	c #DF3836",
"VM.	c #E43C39",
"WM.	c #EA4240",
"XM.	c #E53D3C",
"YM.	c #E73C3B",
"ZM.	c #DE3938",
"`M.	c #E53E3E",
" N.	c #E93E3D",
".N.	c #E23C3C",
"+N.	c #EE4140",
"@N.	c #F14343",
"#N.	c #EF4242",
"$N.	c #F74849",
"%N.	c #F34D4E",
"&N.	c #F84F51",
"*N.	c #F14D4E",
"=N.	c #F24E50",
"-N.	c #F65052",
";N.	c #F1514F",
">N.	c #EC5753",
",N.	c #F36862",
"'N.	c #E85D56",
")N.	c #EA615A",
"!N.	c #E05D56",
"~N.	c #D2534D",
"{N.	c #9E3836",
"]N.	c #872D2D",
"^N.	c #7E2B2A",
"/N.	c #722827",
"(N.	c #772928",
"_N.	c #771E1E",
":N.	c #711B1C",
"<N.	c #701918",
"[N.	c #6F1412",
"}N.	c #6A1211",
"|N.	c #651210",
"1N.	c #5F1211",
"2N.	c #421917",
"3N.	c #471C1A",
"4N.	c #4B1C19",
"5N.	c #431514",
"6N.	c #4E1E1E",
"7N.	c #4E1211",
"8N.	c #4D1010",
"9N.	c #491614",
"0N.	c #451515",
"aN.	c #441314",
"bN.	c #421213",
"cN.	c #3D0E0E",
"dN.	c #380C0C",
"eN.	c #3A0C0B",
"fN.	c #4D1314",
"gN.	c #51181A",
"hN.	c #57191A",
"iN.	c #551919",
"jN.	c #611C1B",
"kN.	c #571717",
"lN.	c #581414",
"mN.	c #561312",
"nN.	c #551311",
"oN.	c #5A1412",
"pN.	c #521010",
"qN.	c #511010",
"rN.	c #551111",
"sN.	c #521514",
"tN.	c #441413",
"uN.	c #391412",
"vN.	c #391817",
"wN.	c #361817",
"xN.	c #361716",
"yN.	c #3B1615",
"zN.	c #411615",
"AN.	c #5B2121",
"BN.	c #87312E",
"CN.	c #C75550",
"DN.	c #A85B59",
"EN.	c #5C4029",
"FN.	c #563C1C",
"GN.	c #4E4123",
"HN.	c #3E3622",
"IN.	c #514830",
"JN.	c #4F4531",
"KN.	c #5E5445",
"LN.	c #594C3D",
"MN.	c #5C5341",
"NN.	c #534938",
"ON.	c #4E3F2F",
"PN.	c #503E27",
"QN.	c #3E351E",
"RN.	c #463B22",
"SN.	c #413621",
"TN.	c #4B2B1E",
"UN.	c #6C1E1B",
"VN.	c #701D1B",
"WN.	c #702320",
"XN.	c #72201C",
"YN.	c #722120",
"ZN.	c #751A17",
"`N.	c #7E1F1E",
" O.	c #7C201E",
".O.	c #781E1D",
"+O.	c #751F1E",
"@O.	c #7D1E1D",
"#O.	c #842220",
"$O.	c #7F2321",
"%O.	c #7F2522",
"&O.	c #832220",
"*O.	c #8D2422",
"=O.	c #992421",
"-O.	c #952423",
";O.	c #99211E",
">O.	c #98201E",
",O.	c #9D2422",
"'O.	c #A2221F",
")O.	c #A22825",
"!O.	c #9A2424",
"~O.	c #A02726",
"{O.	c #A62523",
"]O.	c #AA2B27",
"^O.	c #B62A26",
"/O.	c #B4241F",
"(O.	c #B12523",
"_O.	c #AE2321",
":O.	c #AF221E",
"<O.	c #AF2623",
"[O.	c #B42B28",
"}O.	c #B82724",
"|O.	c #BF2D2B",
"1O.	c #C32724",
"2O.	c #C42D2A",
"3O.	c #BF2825",
"4O.	c #BF2523",
"5O.	c #C42A26",
"6O.	c #CA2B27",
"7O.	c #CC2927",
"8O.	c #CF2C29",
"9O.	c #CC2A26",
"0O.	c #C72824",
"aO.	c #CC2C2A",
"bO.	c #CE2A27",
"cO.	c #D42D2A",
"dO.	c #D93431",
"eO.	c #D5332F",
"fO.	c #CE2927",
"gO.	c #D5302D",
"hO.	c #D7302E",
"iO.	c #E03633",
"jO.	c #DE3330",
"kO.	c #E73D3D",
"lO.	c #DE3635",
"mO.	c #E03836",
"nO.	c #E73D3B",
"oO.	c #E03A39",
"pO.	c #E33938",
"qO.	c #E03A3A",
"rO.	c #E63D3C",
"sO.	c #EC3E3E",
"tO.	c #EA403F",
"uO.	c #ED4343",
"vO.	c #F5494A",
"wO.	c #EC504D",
"xO.	c #F65652",
"yO.	c #F06059",
"zO.	c #F2615A",
"AO.	c #EB5D56",
"BO.	c #ED5E57",
"CO.	c #E55C55",
"DO.	c #E95F58",
"EO.	c #DC5A53",
"FO.	c #CA4E4A",
"GO.	c #9A3633",
"HO.	c #812B2A",
"IO.	c #792A2A",
"JO.	c #752626",
"KO.	c #74302F",
"LO.	c #79312D",
"MO.	c #772A2A",
"NO.	c #762523",
"OO.	c #771D1A",
"PO.	c #6C1312",
"QO.	c #6C1212",
"RO.	c #651110",
"SO.	c #601211",
"TO.	c #681311",
"UO.	c #5D1918",
"VO.	c #451B19",
"WO.	c #461C1A",
"XO.	c #431816",
"YO.	c #431513",
"ZO.	c #461614",
"`O.	c #461817",
" P.	c #4B1715",
".P.	c #4A1514",
"+P.	c #4A100F",
"@P.	c #481415",
"#P.	c #431112",
"$P.	c #411312",
"%P.	c #360B0B",
"&P.	c #4A1010",
"*P.	c #4E1314",
"=P.	c #561819",
"-P.	c #5F1C1C",
";P.	c #5B1918",
">P.	c #5B1514",
",P.	c #591414",
"'P.	c #5C1514",
")P.	c #5B1513",
"!P.	c #5A1413",
"~P.	c #591312",
"{P.	c #571111",
"]P.	c #581212",
"^P.	c #531111",
"/P.	c #5C1413",
"(P.	c #3C0D0D",
"_P.	c #381413",
":P.	c #331210",
"<P.	c #351716",
"[P.	c #391B1A",
"}P.	c #3D1615",
"|P.	c #421716",
"1P.	c #531F1F",
"2P.	c #933735",
"3P.	c #C45651",
"4P.	c #D05D5A",
"5P.	c #A25A5A",
"6P.	c #594837",
"7P.	c #624825",
"8P.	c #4F4221",
"9P.	c #50442A",
"0P.	c #5C5136",
"aP.	c #584D32",
"bP.	c #504430",
"cP.	c #615746",
"dP.	c #5A4F40",
"eP.	c #564D3D",
"fP.	c #564B3B",
"gP.	c #504536",
"hP.	c #4D3E2E",
"iP.	c #493A23",
"jP.	c #39301A",
"kP.	c #3D331E",
"lP.	c #433921",
"mP.	c #4C2A20",
"nP.	c #6A211F",
"oP.	c #742120",
"pP.	c #722221",
"qP.	c #71201E",
"rP.	c #71201D",
"sP.	c #72201D",
"tP.	c #792220",
"uP.	c #7A2221",
"vP.	c #782321",
"wP.	c #772120",
"xP.	c #7D201F",
"yP.	c #7B1F1D",
"zP.	c #7A1C19",
"AP.	c #7A211F",
"BP.	c #81211F",
"CP.	c #8B2421",
"DP.	c #97211E",
"EP.	c #942320",
"FP.	c #9A221F",
"GP.	c #932725",
"HP.	c #99211F",
"IP.	c #9D201D",
"JP.	c #A0221F",
"KP.	c #A92421",
"LP.	c #A7211F",
"MP.	c #A62220",
"NP.	c #9D221F",
"OP.	c #9D2524",
"PP.	c #9D2420",
"QP.	c #A12523",
"RP.	c #A32A27",
"SP.	c #AF2E2B",
"TP.	c #B7302D",
"UP.	c #B52420",
"VP.	c #B32420",
"WP.	c #B32521",
"XP.	c #AB2420",
"YP.	c #AD2320",
"ZP.	c #B92523",
"`P.	c #C1302E",
" Q.	c #BE2B29",
".Q.	c #C2302E",
"+Q.	c #BD2623",
"@Q.	c #BC2624",
"#Q.	c #B82725",
"$Q.	c #BE2523",
"%Q.	c #C22623",
"&Q.	c #CC2D28",
"*Q.	c #CB2B29",
"=Q.	c #CD2C28",
"-Q.	c #C92824",
";Q.	c #CE302C",
">Q.	c #CA2E2C",
",Q.	c #CF2925",
"'Q.	c #D02A27",
")Q.	c #D3322F",
"!Q.	c #DC3432",
"~Q.	c #DD3633",
"{Q.	c #CF2E2A",
"]Q.	c #D12F2D",
"^Q.	c #D7312D",
"/Q.	c #D7302D",
"(Q.	c #DD332F",
"_Q.	c #D7332F",
":Q.	c #D8312D",
"<Q.	c #D6312E",
"[Q.	c #E33B3A",
"}Q.	c #E33B39",
"|Q.	c #E33A38",
"1Q.	c #DE3937",
"2Q.	c #E23736",
"3Q.	c #E83B3B",
"4Q.	c #E43C3C",
"5Q.	c #EA3D3C",
"6Q.	c #EA3E3D",
"7Q.	c #EB4140",
"8Q.	c #EA3E3E",
"9Q.	c #EE4142",
"0Q.	c #EB4040",
"aQ.	c #F74747",
"bQ.	c #F34748",
"cQ.	c #F34A4B",
"dQ.	c #F64D4E",
"eQ.	c #F94F50",
"fQ.	c #F34E50",
"gQ.	c #F14D4F",
"hQ.	c #F24A4C",
"iQ.	c #F54D4F",
"jQ.	c #EE4D4D",
"kQ.	c #F44E4C",
"lQ.	c #ED4C4C",
"mQ.	c #F65250",
"nQ.	c #EE5C57",
"oQ.	c #F1655E",
"pQ.	c #E95C55",
"qQ.	c #E35A54",
"rQ.	c #E85F58",
"sQ.	c #E55D56",
"tQ.	c #C14944",
"uQ.	c #913330",
"vQ.	c #722727",
"wQ.	c #692525",
"xQ.	c #742C2B",
"yQ.	c #7F3533",
"zQ.	c #78322F",
"AQ.	c #742828",
"BQ.	c #782324",
"CQ.	c #711B1B",
"DQ.	c #701312",
"EQ.	c #69110F",
"FQ.	c #671210",
"GQ.	c #651311",
"HQ.	c #601210",
"IQ.	c #681413",
"JQ.	c #401816",
"KQ.	c #421715",
"LQ.	c #441918",
"MQ.	c #3E1715",
"NQ.	c #431515",
"OQ.	c #471A19",
"PQ.	c #4B1D1D",
"QQ.	c #4C1717",
"RQ.	c #4D1210",
"SQ.	c #451314",
"TQ.	c #471314",
"UQ.	c #3D0C0D",
"VQ.	c #491413",
"WQ.	c #531515",
"XQ.	c #511618",
"YQ.	c #551819",
"ZQ.	c #551719",
"`Q.	c #591818",
" R.	c #5E1A19",
".R.	c #5D1717",
"+R.	c #581412",
"@R.	c #5C1412",
"#R.	c #571211",
"$R.	c #5A1212",
"%R.	c #501010",
"&R.	c #531212",
"*R.	c #361211",
"=R.	c #371917",
"-R.	c #371616",
";R.	c #3A1A1A",
">R.	c #381917",
",R.	c #381918",
"'R.	c #391B19",
")R.	c #3D1B19",
"!R.	c #3C1615",
"~R.	c #532121",
"{R.	c #5F1D1D",
"]R.	c #64201F",
"^R.	c #973736",
"/R.	c #C1534F",
"(R.	c #D16160",
"_R.	c #A35D5F",
":R.	c #5D4629",
"<R.	c #5A4423",
"[R.	c #4E4328",
"}R.	c #564C33",
"|R.	c #5A5035",
"1R.	c #5C513E",
"2R.	c #5C5243",
"3R.	c #5A5141",
"4R.	c #574C3C",
"5R.	c #504332",
"6R.	c #4E4435",
"7R.	c #4F4334",
"8R.	c #51412E",
"9R.	c #4D371F",
"0R.	c #423923",
"aR.	c #453C23",
"bR.	c #3E2F1D",
"cR.	c #5E2420",
"dR.	c #722121",
"eR.	c #70211E",
"fR.	c #711D1A",
"gR.	c #73201F",
"hR.	c #77201F",
"iR.	c #762221",
"jR.	c #781D1A",
"kR.	c #79201E",
"lR.	c #791F1C",
"mR.	c #7C1E1C",
"nR.	c #7C201D",
"oR.	c #822220",
"pR.	c #882421",
"qR.	c #911F1D",
"rR.	c #921E1B",
"sR.	c #921F1E",
"tR.	c #931F1D",
"uR.	c #902220",
"vR.	c #982926",
"wR.	c #9C2724",
"xR.	c #A12724",
"yR.	c #A3211F",
"zR.	c #9E211E",
"AR.	c #9C2321",
"BR.	c #AF2C2B",
"CR.	c #AC2826",
"DR.	c #AD221F",
"ER.	c #AB2421",
"FR.	c #AB221F",
"GR.	c #AB2220",
"HR.	c #B72523",
"IR.	c #B62422",
"JR.	c #BA2925",
"KR.	c #B72521",
"LR.	c #BB2622",
"MR.	c #BA2726",
"NR.	c #B52927",
"OR.	c #BC2623",
"PR.	c #C62D28",
"QR.	c #C52D29",
"RR.	c #C92E2C",
"SR.	c #C42825",
"TR.	c #CA2925",
"UR.	c #CE2E2B",
"VR.	c #CB2C2A",
"WR.	c #D02D2A",
"XR.	c #CD2925",
"YR.	c #DB3632",
"ZR.	c #DE3432",
"`R.	c #DC302E",
" S.	c #D3302E",
".S.	c #D12C2A",
"+S.	c #D8332D",
"@S.	c #D5312F",
"#S.	c #D7312E",
"$S.	c #D22D2B",
"%S.	c #D83330",
"&S.	c #DC3733",
"*S.	c #DB3532",
"=S.	c #E03634",
"-S.	c #DF3736",
";S.	c #E63B3B",
">S.	c #E43D3B",
",S.	c #E63B39",
"'S.	c #E23A39",
")S.	c #E73C3A",
"!S.	c #E33B3B",
"~S.	c #EB3F3F",
"{S.	c #E83E3C",
"]S.	c #EA3F3F",
"^S.	c #E83C3C",
"/S.	c #ED3F3F",
"(S.	c #EC3F40",
"_S.	c #EF4343",
":S.	c #F74D4F",
"<S.	c #F95051",
"[S.	c #F0494A",
"}S.	c #F44A4C",
"|S.	c #EE494A",
"1S.	c #F0504D",
"2S.	c #F5504C",
"3S.	c #EF4E4C",
"4S.	c #F24D4B",
"5S.	c #F45852",
"6S.	c #EC5C55",
"7S.	c #EF615A",
"8S.	c #E75D57",
"9S.	c #EA5B55",
"0S.	c #ED5D57",
"aS.	c #E7605A",
"bS.	c #E35B55",
"cS.	c #B94441",
"dS.	c #8E312F",
"eS.	c #792828",
"fS.	c #752928",
"gS.	c #702626",
"hS.	c #71302F",
"iS.	c #742B2A",
"jS.	c #7D2D2B",
"kS.	c #76302E",
"lS.	c #803535",
"mS.	c #76302F",
"nS.	c #762B2C",
"oS.	c #73191A",
"pS.	c #731818",
"qS.	c #6B1212",
"rS.	c #6B1210",
"sS.	c #60100F",
"tS.	c #651111",
"uS.	c #561715",
"vS.	c #431A19",
"wS.	c #401917",
"xS.	c #4C1E1E",
"yS.	c #48110F",
"zS.	c #441415",
"AS.	c #461415",
"BS.	c #451214",
"CS.	c #451415",
"DS.	c #3D0C0C",
"ES.	c #370A0A",
"FS.	c #511113",
"GS.	c #4F1617",
"HS.	c #531718",
"IS.	c #58191A",
"JS.	c #5D1919",
"KS.	c #621B1A",
"LS.	c #611918",
"MS.	c #5D1615",
"NS.	c #5A1313",
"OS.	c #5D1413",
"PS.	c #591311",
"QS.	c #5B1412",
"RS.	c #551110",
"SS.	c #581210",
"TS.	c #53100F",
"US.	c #571210",
"VS.	c #561110",
"WS.	c #52100F",
"XS.	c #541110",
"YS.	c #4D0F0E",
"ZS.	c #500F0F",
"`S.	c #4F100F",
" T.	c #331111",
".T.	c #351515",
"+T.	c #341413",
"@T.	c #381919",
"#T.	c #3B1C1B",
"$T.	c #391917",
"%T.	c #3B1515",
"&T.	c #5F2020",
"*T.	c #732626",
"=T.	c #973533",
"-T.	c #D05855",
";T.	c #9F5759",
">T.	c #955759",
",T.	c #604327",
"'T.	c #543E1C",
")T.	c #503F26",
"!T.	c #50452E",
"~T.	c #594D34",
"{T.	c #52462D",
"]T.	c #5E523D",
"^T.	c #5F5544",
"/T.	c #5A5040",
"(T.	c #574D3C",
"_T.	c #574C3B",
":T.	c #504737",
"<T.	c #4F4433",
"[T.	c #4D4028",
"}T.	c #443B25",
"|T.	c #493F25",
"1T.	c #532920",
"2T.	c #742322",
"3T.	c #722422",
"4T.	c #6F1814",
"5T.	c #711B19",
"6T.	c #792120",
"7T.	c #7A2422",
"8T.	c #7A211E",
"9T.	c #7B1C19",
"0T.	c #80201F",
"aT.	c #821E1B",
"bT.	c #881B19",
"cT.	c #8C201F",
"dT.	c #8F201D",
"eT.	c #901C1A",
"fT.	c #902320",
"gT.	c #94211F",
"hT.	c #9B2320",
"iT.	c #A62726",
"jT.	c #9C1F1D",
"kT.	c #972221",
"lT.	c #A22B29",
"mT.	c #A52724",
"nT.	c #A6201E",
"oT.	c #A42321",
"pT.	c #AD2421",
"qT.	c #AA2220",
"rT.	c #AA2824",
"sT.	c #A7231E",
"tT.	c #B82522",
"uT.	c #C12825",
"vT.	c #C22722",
"wT.	c #C32723",
"xT.	c #C82A26",
"yT.	c #C62726",
"zT.	c #CB2926",
"AT.	c #CB2C29",
"BT.	c #CD2B27",
"CT.	c #D02B28",
"DT.	c #DB3330",
"ET.	c #DF3330",
"FT.	c #DA322F",
"GT.	c #D82E2C",
"HT.	c #CE3533",
"IT.	c #D82D2A",
"JT.	c #D92F2B",
"KT.	c #D9312E",
"LT.	c #D62D2A",
"MT.	c #DB3835",
"NT.	c #DB3230",
"OT.	c #DA3532",
"PT.	c #EA3B3A",
"QT.	c #E53C3A",
"RT.	c #E23937",
"ST.	c #E63A3A",
"TT.	c #E73D3C",
"UT.	c #E83D3C",
"VT.	c #E53C3B",
"WT.	c #E93F3F",
"XT.	c #E53C3C",
"YT.	c #E93C3B",
"ZT.	c #EC4343",
"`T.	c #F64B4A",
" U.	c #F24B4C",
".U.	c #EF494B",
"+U.	c #F34B4D",
"@U.	c #F4504D",
"#U.	c #ED4F4C",
"$U.	c #F2504D",
"%U.	c #F6534E",
"&U.	c #F14F4B",
"*U.	c #EE514D",
"=U.	c #F35752",
"-U.	c #F55F5A",
";U.	c #ED645C",
">U.	c #EC625C",
",U.	c #E66159",
"'U.	c #E05952",
")U.	c #B0403D",
"!U.	c #88302F",
"~U.	c #792827",
"{U.	c #6D2A2A",
"]U.	c #773332",
"^U.	c #76312F",
"/U.	c #7B302E",
"(U.	c #772E2D",
"_U.	c #7A2B2B",
":U.	c #772A2B",
"<U.	c #762525",
"[U.	c #731E1C",
"}U.	c #741C1A",
"|U.	c #6A1111",
"1U.	c #691210",
"2U.	c #631110",
"3U.	c #5F1312",
"4U.	c #451816",
"5U.	c #401513",
"6U.	c #431817",
"7U.	c #421514",
"8U.	c #481C1B",
"9U.	c #481A1A",
"0U.	c #470F0E",
"aU.	c #481213",
"bU.	c #420F10",
"cU.	c #3C0B0C",
"dU.	c #390A0B",
"eU.	c #3C0B0A",
"fU.	c #531819",
"gU.	c #581818",
"hU.	c #631A19",
"iU.	c #5F1717",
"jU.	c #591412",
"kU.	c #5E1413",
"lU.	c #5A1312",
"mU.	c #5D1412",
"nU.	c #581211",
"oU.	c #54100F",
"pU.	c #591111",
"qU.	c #55100F",
"rU.	c #571110",
"sU.	c #50100F",
"tU.	c #4E0F0F",
"uU.	c #510F0F",
"vU.	c #4A0F0E",
"wU.	c #3E0C0C",
"xU.	c #37100F",
"yU.	c #341414",
"zU.	c #391514",
"AU.	c #341716",
"BU.	c #391A1A",
"CU.	c #361816",
"DU.	c #361715",
"EU.	c #381816",
"FU.	c #571F1F",
"GU.	c #712525",
"HU.	c #983634",
"IU.	c #CD5554",
"JU.	c #D75B5A",
"KU.	c #925456",
"LU.	c #5F4937",
"MU.	c #583C1A",
"NU.	c #534625",
"OU.	c #4E452C",
"PU.	c #53482D",
"QU.	c #4B4127",
"RU.	c #584E3B",
"SU.	c #655B4B",
"TU.	c #5A4F3E",
"UU.	c #5A4F3D",
"VU.	c #554736",
"WU.	c #534838",
"XU.	c #534736",
"YU.	c #51432D",
"ZU.	c #413A22",
"`U.	c #483E26",
" V.	c #3E331F",
".V.	c #4B241A",
"+V.	c #6A2422",
"@V.	c #6D211D",
"#V.	c #6D2220",
"$V.	c #711F1D",
"%V.	c #73201E",
"&V.	c #722321",
"*V.	c #761F1E",
"=V.	c #741F1D",
"-V.	c #731815",
";V.	c #771C19",
">V.	c #7A1D1B",
",V.	c #812120",
"'V.	c #862222",
")V.	c #872220",
"!V.	c #8E2624",
"~V.	c #881F1C",
"{V.	c #90211F",
"]V.	c #922623",
"^V.	c #95221F",
"/V.	c #9B211E",
"(V.	c #A62622",
"_V.	c #9D211E",
":V.	c #9E2221",
"<V.	c #9E2321",
"[V.	c #9C2A28",
"}V.	c #A1201E",
"|V.	c #A01F1C",
"1V.	c #A12220",
"2V.	c #A5211F",
"3V.	c #AB2521",
"4V.	c #A82520",
"5V.	c #AA211E",
"6V.	c #A4221E",
"7V.	c #A82624",
"8V.	c #AE2E2B",
"9V.	c #AF2723",
"0V.	c #B02520",
"aV.	c #AF2420",
"bV.	c #AE2521",
"cV.	c #AF2421",
"dV.	c #B72925",
"eV.	c #B82925",
"fV.	c #B82420",
"gV.	c #B8231F",
"hV.	c #C22521",
"iV.	c #BE2421",
"jV.	c #C92A26",
"kV.	c #CC2D29",
"lV.	c #D32E2B",
"mV.	c #DC312E",
"nV.	c #D92F2D",
"oV.	c #DC3633",
"pV.	c #D63836",
"qV.	c #DD3331",
"rV.	c #DD3837",
"sV.	c #E43B39",
"tV.	c #E13C3A",
"uV.	c #E93E3E",
"vV.	c #E93D3C",
"wV.	c #E73B3A",
"xV.	c #E33C3C",
"yV.	c #E53736",
"zV.	c #E43B3B",
"AV.	c #E93D3D",
"BV.	c #EB3E3E",
"CV.	c #EE4241",
"DV.	c #F14C4D",
"EV.	c #F54C4E",
"FV.	c #F04B4C",
"GV.	c #EF4A4C",
"HV.	c #F14F4C",
"IV.	c #F5514E",
"JV.	c #F04F4C",
"KV.	c #F4524D",
"LV.	c #EE504C",
"MV.	c #F75552",
"NV.	c #F25753",
"OV.	c #F45D57",
"PV.	c #E85F57",
"QV.	c #E05C57",
"RV.	c #D95650",
"SV.	c #AF3E3B",
"TV.	c #832E2B",
"UV.	c #792A28",
"VV.	c #6E2C2C",
"WV.	c #752D2D",
"XV.	c #7A2A2A",
"YV.	c #752A28",
"ZV.	c #792727",
"`V.	c #7B3230",
" W.	c #731616",
".W.	c #6E1313",
"+W.	c #6D1212",
"@W.	c #65110F",
"#W.	c #681111",
"$W.	c #3F1614",
"%W.	c #3B1514",
"&W.	c #421614",
"*W.	c #411412",
"=W.	c #471717",
"-W.	c #461816",
";W.	c #4C1414",
">W.	c #481617",
",W.	c #461516",
"'W.	c #451414",
")W.	c #421214",
"!W.	c #3F0D0D",
"~W.	c #490E10",
"{W.	c #4A1415",
"]W.	c #571819",
"^W.	c #5A1919",
"/W.	c #611A19",
"(W.	c #5C1818",
"_W.	c #621919",
":W.	c #601817",
"<W.	c #621817",
"[W.	c #601615",
"}W.	c #621615",
"|W.	c #5D1514",
"1W.	c #5F1514",
"2W.	c #5D1512",
"3W.	c #5B1312",
"4W.	c #5A1211",
"5W.	c #56110F",
"6W.	c #581110",
"7W.	c #510F0E",
"8W.	c #51100F",
"9W.	c #4F0F0E",
"0W.	c #4C0E0E",
"aW.	c #4A0E0E",
"bW.	c #4D0F0F",
"cW.	c #4E100F",
"dW.	c #350F0D",
"eW.	c #361413",
"fW.	c #321010",
"gW.	c #351715",
"hW.	c #341615",
"iW.	c #361514",
"jW.	c #391A19",
"kW.	c #3B1C1C",
"lW.	c #3C1B1B",
"mW.	c #571D1D",
"nW.	c #631F1E",
"oW.	c #6F2423",
"pW.	c #A43A39",
"qW.	c #CA5250",
"rW.	c #B15755",
"sW.	c #8E4A49",
"tW.	c #5E4F38",
"uW.	c #5B411D",
"vW.	c #564321",
"wW.	c #3E351D",
"xW.	c #4C442B",
"yW.	c #594E39",
"zW.	c #655B4A",
"AW.	c #5D5241",
"BW.	c #5C503F",
"CW.	c #554937",
"DW.	c #554A3A",
"EW.	c #55493A",
"FW.	c #514330",
"GW.	c #44351C",
"HW.	c #3D341E",
"IW.	c #443A22",
"JW.	c #50462B",
"KW.	c #413722",
"LW.	c #4B2B20",
"MW.	c #6A201E",
"NW.	c #6C201E",
"OW.	c #6E1B19",
"PW.	c #701E1D",
"QW.	c #701D1C",
"RW.	c #73211F",
"SW.	c #712220",
"TW.	c #6D1D19",
"UW.	c #72201F",
"VW.	c #76211F",
"WW.	c #751A18",
"XW.	c #751B18",
"YW.	c #7D1C19",
"ZW.	c #7E1C19",
"`W.	c #852323",
" X.	c #84211F",
".X.	c #8C2826",
"+X.	c #8B2321",
"@X.	c #942724",
"#X.	c #A02725",
"$X.	c #A3211E",
"%X.	c #A1231F",
"&X.	c #A2231F",
"*X.	c #A5211D",
"=X.	c #A02523",
"-X.	c #9E201D",
";X.	c #9B1E1B",
">X.	c #A3221F",
",X.	c #A92927",
"'X.	c #A71D1B",
")X.	c #A51E1B",
"!X.	c #A92F2D",
"~X.	c #AF231D",
"{X.	c #AE2622",
"]X.	c #B12A28",
"^X.	c #B4231F",
"/X.	c #B1231F",
"(X.	c #B92522",
"_X.	c #BD2724",
":X.	c #C12320",
"<X.	c #C42724",
"[X.	c #C82927",
"}X.	c #C72927",
"|X.	c #CB2D29",
"1X.	c #C62B26",
"2X.	c #D72E2A",
"3X.	c #DD3431",
"4X.	c #E33734",
"5X.	c #D52C29",
"6X.	c #D12D28",
"7X.	c #D9322F",
"8X.	c #E03835",
"9X.	c #DE3433",
"0X.	c #E13938",
"aX.	c #E53B3B",
"bX.	c #E63E3D",
"cX.	c #E93C3C",
"dX.	c #EA3E3C",
"eX.	c #E23B3B",
"fX.	c #EA3F3E",
"gX.	c #EB3E3D",
"hX.	c #EC403F",
"iX.	c #E9403F",
"jX.	c #ED4242",
"kX.	c #F94B4B",
"lX.	c #F6494B",
"mX.	c #F14547",
"nX.	c #F54A4A",
"oX.	c #F24C4E",
"pX.	c #F64D4F",
"qX.	c #F64D4A",
"rX.	c #F44D4A",
"sX.	c #F7534F",
"tX.	c #F2544F",
"uX.	c #F65854",
"vX.	c #F05A56",
"wX.	c #F35D58",
"xX.	c #EB5853",
"yX.	c #EF5854",
"zX.	c #E7635C",
"AX.	c #EA615B",
"BX.	c #E75F59",
"CX.	c #D4524D",
"DX.	c #A63A38",
"EX.	c #812A2A",
"FX.	c #692424",
"GX.	c #6F2B29",
"HX.	c #792D2D",
"IX.	c #7B3130",
"JX.	c #742A27",
"KX.	c #782F2D",
"LX.	c #76312D",
"MX.	c #7A3532",
"NX.	c #762727",
"OX.	c #751F1F",
"PX.	c #6F1615",
"QX.	c #711919",
"RX.	c #6B1211",
"SX.	c #6A1210",
"TX.	c #600F0E",
"UX.	c #661110",
"VX.	c #641715",
"WX.	c #3F1715",
"XX.	c #3B1513",
"YX.	c #471B1B",
"ZX.	c #441919",
"`X.	c #451717",
" Y.	c #4A1E1E",
".Y.	c #471010",
"+Y.	c #3D0D0E",
"@Y.	c #3C0A0A",
"#Y.	c #350708",
"$Y.	c #440C0C",
"%Y.	c #4F1213",
"&Y.	c #4D1516",
"*Y.	c #541718",
"=Y.	c #601919",
"-Y.	c #5F1817",
";Y.	c #651A18",
">Y.	c #631817",
",Y.	c #5E1614",
"'Y.	c #611615",
")Y.	c #5C1313",
"!Y.	c #5F1414",
"~Y.	c #611513",
"{Y.	c #5D1312",
"]Y.	c #5A1210",
"^Y.	c #55110F",
"/Y.	c #541010",
"(Y.	c #510E0E",
"_Y.	c #520F0E",
":Y.	c #4C0E0D",
"<Y.	c #4E0F0E",
"[Y.	c #4B0D0D",
"}Y.	c #4F0F0F",
"|Y.	c #4C0F0E",
"1Y.	c #341313",
"2Y.	c #341211",
"3Y.	c #341514",
"4Y.	c #361414",
"5Y.	c #371614",
"6Y.	c #381A19",
"7Y.	c #3C1C1A",
"8Y.	c #381212",
"9Y.	c #3A1414",
"0Y.	c #391413",
"aY.	c #49191A",
"bY.	c #5F1C1D",
"cY.	c #6E2222",
"dY.	c #C4504C",
"eY.	c #AA5352",
"fY.	c #8D4F4F",
"gY.	c #61472B",
"hY.	c #543B1C",
"iY.	c #493E25",
"jY.	c #403622",
"kY.	c #5A5037",
"lY.	c #655C4A",
"mY.	c #645A49",
"nY.	c #5E5342",
"oY.	c #584C3C",
"pY.	c #554733",
"qY.	c #4C3F23",
"rY.	c #3E3520",
"sY.	c #4C422B",
"tY.	c #4A3625",
"uY.	c #6A201D",
"vY.	c #691E1C",
"wY.	c #6C2120",
"xY.	c #6E1D1C",
"yY.	c #702220",
"zY.	c #6F1E1D",
"AY.	c #70201D",
"BY.	c #722220",
"CY.	c #742220",
"DY.	c #721F1D",
"EY.	c #751C1A",
"FY.	c #791916",
"GY.	c #7D1B18",
"HY.	c #7F1B19",
"IY.	c #801E1B",
"JY.	c #801F1C",
"KY.	c #872423",
"LY.	c #85211F",
"MY.	c #8C1E1C",
"NY.	c #A52624",
"OY.	c #A12B29",
"PY.	c #9B2523",
"QY.	c #9E211D",
"RY.	c #9A1F1C",
"SY.	c #A3241F",
"TY.	c #A0231F",
"UY.	c #A72827",
"VY.	c #A42D2B",
"WY.	c #A92D2A",
"XY.	c #AC2621",
"YY.	c #AE2B28",
"ZY.	c #AD2321",
"`Y.	c #B22623",
" Z.	c #B02825",
".Z.	c #B3231F",
"+Z.	c #BB2722",
"@Z.	c #BB2522",
"#Z.	c #BA2523",
"$Z.	c #C92B28",
"%Z.	c #D02D2B",
"&Z.	c #DD312F",
"*Z.	c #DC3330",
"=Z.	c #D8302D",
"-Z.	c #CF302D",
";Z.	c #D9312D",
">Z.	c #E23734",
",Z.	c #D63230",
"'Z.	c #DB332F",
")Z.	c #D83230",
"!Z.	c #DF3533",
"~Z.	c #E53A37",
"{Z.	c #DD3433",
"]Z.	c #E03534",
"^Z.	c #E03B3B",
"/Z.	c #ED4040",
"(Z.	c #E83E3D",
"_Z.	c #EA3D3D",
":Z.	c #E83D3D",
"<Z.	c #ED3E3F",
"[Z.	c #EC3F3F",
"}Z.	c #F04141",
"|Z.	c #ED4140",
"1Z.	c #ED4444",
"2Z.	c #F34745",
"3Z.	c #F64646",
"4Z.	c #F14748",
"5Z.	c #F54647",
"6Z.	c #F3484A",
"7Z.	c #F24A4B",
"8Z.	c #F94E4F",
"9Z.	c #F84D4F",
"0Z.	c #F64B4D",
"aZ.	c #F34946",
"bZ.	c #F1524E",
"cZ.	c #F55853",
"dZ.	c #EF5A54",
"eZ.	c #F15B56",
"fZ.	c #EA5650",
"gZ.	c #ED5A55",
"hZ.	c #F05F59",
"iZ.	c #E86964",
"jZ.	c #EB645C",
"kZ.	c #CE514B",
"lZ.	c #A13A37",
"mZ.	c #7F2929",
"nZ.	c #792927",
"oZ.	c #732625",
"pZ.	c #792723",
"qZ.	c #772727",
"rZ.	c #762D2B",
"sZ.	c #75302F",
"tZ.	c #772C2A",
"uZ.	c #7A292A",
"vZ.	c #783030",
"wZ.	c #752021",
"xZ.	c #722724",
"yZ.	c #742021",
"zZ.	c #65100F",
"AZ.	c #61100F",
"BZ.	c #6C1211",
"CZ.	c #3B100E",
"DZ.	c #3F1210",
"EZ.	c #431717",
"FZ.	c #411011",
"GZ.	c #3E1011",
"HZ.	c #3C0D0E",
"IZ.	c #3B0909",
"JZ.	c #370908",
"KZ.	c #410C0C",
"LZ.	c #4B1213",
"MZ.	c #4B1415",
"NZ.	c #511517",
"OZ.	c #621C1C",
"PZ.	c #601A18",
"QZ.	c #601818",
"RZ.	c #5F1917",
"SZ.	c #651A19",
"TZ.	c #641918",
"UZ.	c #5F1615",
"VZ.	c #641615",
"WZ.	c #601413",
"XZ.	c #621513",
"YZ.	c #5C1311",
"ZZ.	c #5E1312",
"`Z.	c #5C1211",
" `.	c #56100F",
".`.	c #540F0E",
"+`.	c #4F0D0D",
"@`.	c #500E0E",
"#`.	c #4C0D0D",
"$`.	c #4E0E0E",
"%`.	c #4A0D0D",
"&`.	c #4D0E0F",
"*`.	c #490E0E",
"=`.	c #4B0F0F",
"-`.	c #371412",
";`.	c #351514",
">`.	c #341312",
",`.	c #351616",
"'`.	c #331212",
")`.	c #33110F",
"!`.	c #351413",
"~`.	c #3B1716",
"{`.	c #391313",
"]`.	c #3E1615",
"^`.	c #631D1C",
"/`.	c #A33B39",
"(`.	c #D35653",
"_`.	c #A55353",
":`.	c #8B4D4D",
"<`.	c #634F2E",
"[`.	c #544122",
"}`.	c #524529",
"|`.	c #382F1B",
"1`.	c #39311C",
"2`.	c #52462B",
"3`.	c #5A4E3B",
"4`.	c #615644",
"5`.	c #5C5140",
"6`.	c #534836",
"7`.	c #574B38",
"8`.	c #56472B",
"9`.	c #3D3321",
"0`.	c #52462F",
"a`.	c #473924",
"b`.	c #542621",
"c`.	c #641C1A",
"d`.	c #681E1A",
"e`.	c #6B1C1A",
"f`.	c #6D1E1D",
"g`.	c #6A1A18",
"h`.	c #6C1C1A",
"i`.	c #6E211F",
"j`.	c #74201E",
"k`.	c #721D1B",
"l`.	c #761F1D",
"m`.	c #791E1D",
"n`.	c #7D1C1B",
"o`.	c #801F1D",
"p`.	c #872422",
"q`.	c #841B18",
"r`.	c #8B2624",
"s`.	c #A52420",
"t`.	c #9D201E",
"u`.	c #A12120",
"v`.	c #A42524",
"w`.	c #9C2624",
"x`.	c #9A2422",
"y`.	c #9B201D",
"z`.	c #9A2220",
"A`.	c #991E1B",
"B`.	c #9F1F1C",
"C`.	c #A82A28",
"D`.	c #AB2827",
"E`.	c #AC1F1D",
"F`.	c #B62723",
"G`.	c #B82826",
"H`.	c #B22926",
"I`.	c #B5241F",
"J`.	c #BD2622",
"K`.	c #BC2724",
"L`.	c #C12624",
"M`.	c #C22522",
"N`.	c #C92D2B",
"O`.	c #C22825",
"P`.	c #CB2B27",
"Q`.	c #DC3230",
"R`.	c #DC302D",
"S`.	c #D22C29",
"T`.	c #D42F2D",
"U`.	c #DD3634",
"V`.	c #D32C29",
"W`.	c #D52E2C",
"X`.	c #DC2F2D",
"Y`.	c #DD3432",
"Z`.	c #D93232",
"``.	c #DC3534",
"  +	c #E03330",
". +	c #DD302D",
"+ +	c #E23838",
"@ +	c #E03735",
"# +	c #E63B38",
"$ +	c #E63C3B",
"% +	c #E93F40",
"& +	c #EF4040",
"* +	c #EF403F",
"= +	c #EE4442",
"- +	c #F44846",
"; +	c #F44547",
"> +	c #ED4244",
", +	c #F04142",
"' +	c #F14648",
") +	c #F5494B",
"! +	c #F34A4C",
"~ +	c #F2494B",
"{ +	c #F04B4D",
"] +	c #F04849",
"^ +	c #F24443",
"/ +	c #F64443",
"( +	c #ED5751",
"_ +	c #F05A55",
": +	c #F3605B",
"< +	c #EC5E59",
"[ +	c #E8645E",
"} +	c #CA504A",
"| +	c #9D3A35",
"1 +	c #7F2928",
"2 +	c #782625",
"3 +	c #702422",
"4 +	c #6B2525",
"5 +	c #7E302B",
"6 +	c #752826",
"7 +	c #742927",
"8 +	c #702423",
"9 +	c #752827",
"0 +	c #732524",
"a +	c #732727",
"b +	c #742525",
"c +	c #78302D",
"d +	c #7A2A2B",
"e +	c #78302F",
"f +	c #782828",
"g +	c #741B1A",
"h +	c #6A1313",
"i +	c #691110",
"j +	c #61100E",
"k +	c #671615",
"l +	c #3D1513",
"m +	c #3E0E0E",
"n +	c #40110F",
"o +	c #411614",
"p +	c #441614",
"q +	c #441816",
"r +	c #471919",
"s +	c #491B1B",
"t +	c #4C1819",
"u +	c #461617",
"v +	c #3E0E0F",
"w +	c #400E0F",
"x +	c #3B0A0A",
"y +	c #370808",
"z +	c #4F1415",
"A +	c #551717",
"B +	c #561717",
"C +	c #5B1819",
"D +	c #5B1818",
"E +	c #631B19",
"F +	c #641919",
"G +	c #611917",
"H +	c #631918",
"I +	c #5F1715",
"J +	c #631716",
"K +	c #661817",
"L +	c #641614",
"M +	c #601513",
"N +	c #631513",
"O +	c #5E1412",
"P +	c #5A1111",
"Q +	c #5D1211",
"R +	c #540F0F",
"S +	c #4E0D0D",
"T +	c #4D0E0E",
"U +	c #490E0D",
"V +	c #4B0E0E",
"W +	c #470D0D",
"X +	c #370C0C",
"Y +	c #351211",
"Z +	c #321413",
"` +	c #351615",
" .+	c #391515",
"..+	c #341513",
"+.+	c #371311",
"@.+	c #3A1515",
"#.+	c #371414",
"$.+	c #611C1C",
"%.+	c #A43C39",
"&.+	c #D05553",
"*.+	c #AD5A5A",
"=.+	c #7E4C4B",
"-.+	c #60441D",
";.+	c #554728",
">.+	c #3C321C",
",.+	c #403721",
"'.+	c #544931",
").+	c #665B49",
"!.+	c #5F5442",
"~.+	c #605643",
"{.+	c #483F29",
"].+	c #4F452C",
"^.+	c #493E28",
"/.+	c #4E261F",
"(.+	c #672220",
"_.+	c #6C1F1D",
":.+	c #6A1D1B",
"<.+	c #712321",
"[.+	c #72211E",
"}.+	c #751D1B",
"|.+	c #741816",
"1.+	c #781B17",
"2.+	c #7B1B19",
"3.+	c #7E2321",
"4.+	c #882722",
"5.+	c #872320",
"6.+	c #951E1C",
"7.+	c #9D2322",
"8.+	c #9E2521",
"9.+	c #9F211E",
"0.+	c #A4221F",
"a.+	c #A12824",
"b.+	c #941B19",
"c.+	c #972220",
"d.+	c #99211D",
"e.+	c #9B211D",
"f.+	c #961F1D",
"g.+	c #98201C",
"h.+	c #9D1F1C",
"i.+	c #9E211F",
"j.+	c #A32A28",
"k.+	c #BC2A27",
"l.+	c #B82B27",
"m.+	c #B42523",
"n.+	c #B62521",
"o.+	c #B4221F",
"p.+	c #BA2522",
"q.+	c #BC221F",
"r.+	c #C22824",
"s.+	c #C02824",
"t.+	c #BA2722",
"u.+	c #BB2523",
"v.+	c #C82926",
"w.+	c #CF2A29",
"x.+	c #D92C29",
"y.+	c #D43330",
"z.+	c #D3302D",
"A.+	c #DB312D",
"B.+	c #D32D2A",
"C.+	c #D72D2B",
"D.+	c #D42E2B",
"E.+	c #D92E2B",
"F.+	c #DE3735",
"G.+	c #D93534",
"H.+	c #E63A39",
"I.+	c #EB3F3E",
"J.+	c #ED3E3E",
"K.+	c #F24544",
"L.+	c #F64545",
"M.+	c #E93F3E",
"N.+	c #F44445",
"O.+	c #F34648",
"P.+	c #F24749",
"Q.+	c #F64A4B",
"R.+	c #EF4848",
"S.+	c #F54444",
"T.+	c #F34E4B",
"U.+	c #F55450",
"V.+	c #F15653",
"W.+	c #E6635C",
"X.+	c #E6615A",
"Y.+	c #CD4F49",
"Z.+	c #993734",
"`.+	c #822C2A",
" ++	c #6E2322",
".++	c #6A2625",
"+++	c #6B2323",
"@++	c #772725",
"#++	c #7B2928",
"$++	c #7B2F2C",
"%++	c #752D2C",
"&++	c #732525",
"*++	c #76312C",
"=++	c #762E2C",
"-++	c #773130",
";++	c #772C2C",
">++	c #752C2C",
",++	c #782A28",
"'++	c #742B28",
")++	c #742221",
"!++	c #6D1C1A",
"~++	c #6E1817",
"{++	c #6C1715",
"]++	c #65100E",
"^++	c #5F100F",
"/++	c #6D1210",
"(++	c #3D110F",
"_++	c #3C0F0E",
":++	c #441818",
"<++	c #4B1819",
"[++	c #3C090A",
"}++	c #3A0909",
"|++	c #390707",
"1++	c #460D0E",
"2++	c #4C1416",
"3++	c #4D1416",
"4++	c #531617",
"5++	c #5A1616",
"6++	c #581717",
"7++	c #641A18",
"8++	c #611716",
"9++	c #651817",
"0++	c #641716",
"a++	c #601614",
"b++	c #631615",
"c++	c #5F1513",
"d++	c #621413",
"e++	c #5D1212",
"f++	c #5F1212",
"g++	c #5B1110",
"h++	c #571010",
"i++	c #520F0F",
"j++	c #500F0E",
"k++	c #4F0E0E",
"l++	c #4C1010",
"m++	c #331110",
"n++	c #331413",
"o++	c #371515",
"p++	c #3C1414",
"q++	c #67201F",
"r++	c #762626",
"s++	c #B04241",
"t++	c #CA5754",
"u++	c #A95C5D",
"v++	c #7A4D4E",
"w++	c #5E4830",
"x++	c #544626",
"y++	c #3C341F",
"z++	c #574D36",
"A++	c #665C4B",
"B++	c #5D5340",
"C++	c #605442",
"D++	c #605542",
"E++	c #5A4A37",
"F++	c #43381C",
"G++	c #38301C",
"H++	c #494129",
"I++	c #51462E",
"J++	c #482C1E",
"K++	c #651E1C",
"L++	c #67211E",
"M++	c #6B2422",
"N++	c #691F1E",
"O++	c #6A1F1E",
"P++	c #6C201F",
"Q++	c #6C1F1E",
"R++	c #701F1C",
"S++	c #701E1C",
"T++	c #6F211F",
"U++	c #721B19",
"V++	c #731D19",
"W++	c #751C19",
"X++	c #751B19",
"Y++	c #7B1E1B",
"Z++	c #7F1D1B",
"`++	c #811E1C",
" @+	c #8E2524",
".@+	c #8B221F",
"+@+	c #8A2522",
"@@+	c #A22926",
"#@+	c #982220",
"$@+	c #911D1B",
"%@+	c #901D1B",
"&@+	c #971F1C",
"*@+	c #9B1E1C",
"=@+	c #9C2220",
"-@+	c #A0201E",
";@+	c #9F221E",
">@+	c #A32926",
",@+	c #AC2522",
"'@+	c #A82521",
")@+	c #B82825",
"!@+	c #BC2B27",
"~@+	c #BE2C28",
"{@+	c #BC2824",
"]@+	c #B92C28",
"^@+	c #BB231F",
"/@+	c #C02721",
"(@+	c #BE2725",
"_@+	c #BC2421",
":@+	c #BE2624",
"<@+	c #CB2722",
"[@+	c #CD2826",
"}@+	c #D52B28",
"|@+	c #D32B27",
"1@+	c #DC3532",
"2@+	c #DD312E",
"3@+	c #D22724",
"4@+	c #CE2E2C",
"5@+	c #D62B29",
"6@+	c #D32B29",
"7@+	c #D22927",
"8@+	c #D82E2B",
"9@+	c #D62E2C",
"0@+	c #D42E2A",
"a@+	c #E43A38",
"b@+	c #EE3E3E",
"c@+	c #E13937",
"d@+	c #EC3F3E",
"e@+	c #E84141",
"f@+	c #ED4344",
"g@+	c #EA4141",
"h@+	c #F04344",
"i@+	c #EC4546",
"j@+	c #F94949",
"k@+	c #F84748",
"l@+	c #F4494A",
"m@+	c #F14A4C",
"n@+	c #F24542",
"o@+	c #F64544",
"p@+	c #F74847",
"q@+	c #F44E4B",
"r@+	c #ED4F4B",
"s@+	c #F05650",
"t@+	c #E85D58",
"u@+	c #E05C54",
"v@+	c #C34B44",
"w@+	c #913230",
"x@+	c #7F2B29",
"y@+	c #782826",
"z@+	c #6E2424",
"A@+	c #7A312D",
"B@+	c #782524",
"C@+	c #782523",
"D@+	c #722925",
"E@+	c #732423",
"F@+	c #722624",
"G@+	c #782F2E",
"H@+	c #742F2E",
"I@+	c #7A3735",
"J@+	c #783834",
"K@+	c #752B29",
"L@+	c #702424",
"M@+	c #762E2D",
"N@+	c #782725",
"O@+	c #752524",
"P@+	c #6B1616",
"Q@+	c #681010",
"R@+	c #60100E",
"S@+	c #3C1412",
"T@+	c #390B0A",
"U@+	c #451917",
"V@+	c #4A1819",
"W@+	c #421011",
"X@+	c #390808",
"Y@+	c #4A1315",
"Z@+	c #4B1416",
"`@+	c #531516",
" #+	c #521415",
".#+	c #581516",
"+#+	c #631715",
"@#+	c #5F1614",
"##+	c #5E1513",
"$#+	c #611614",
"%#+	c #611413",
"&#+	c #641514",
"*#+	c #601212",
"=#+	c #621312",
"-#+	c #5D1111",
";#+	c #5E1211",
">#+	c #591211",
",#+	c #5B1212",
"'#+	c #561010",
")#+	c #530F0F",
"!#+	c #4E0E0D",
"~#+	c #4B0E0F",
"{#+	c #4E1010",
"]#+	c #3E0D0C",
"^#+	c #391110",
"/#+	c #321312",
"(#+	c #351312",
"_#+	c #361412",
":#+	c #361515",
"<#+	c #3A1717",
"[#+	c #B04240",
"}#+	c #C55553",
"|#+	c #BD5856",
"1#+	c #825151",
"2#+	c #654A2B",
"3#+	c #664A26",
"4#+	c #473D24",
"5#+	c #52482F",
"6#+	c #4F4631",
"7#+	c #605644",
"8#+	c #5D5140",
"9#+	c #635745",
"0#+	c #605444",
"a#+	c #615542",
"b#+	c #5B503D",
"c#+	c #594E3A",
"d#+	c #3B321E",
"e#+	c #473E27",
"f#+	c #5A4F34",
"g#+	c #51412C",
"h#+	c #462F23",
"i#+	c #5C201D",
"j#+	c #611E1D",
"k#+	c #631816",
"l#+	c #651B18",
"m#+	c #68211F",
"n#+	c #692221",
"o#+	c #6A1E1C",
"p#+	c #6A1816",
"q#+	c #6D1C1B",
"r#+	c #701C19",
"s#+	c #701F1E",
"t#+	c #711F1E",
"u#+	c #7A1A17",
"v#+	c #88211E",
"w#+	c #911F1C",
"x#+	c #942422",
"y#+	c #90221E",
"z#+	c #97201F",
"A#+	c #952927",
"B#+	c #90211E",
"C#+	c #981F1D",
"D#+	c #9C2322",
"E#+	c #A11C1B",
"F#+	c #A22624",
"G#+	c #A6211F",
"H#+	c #A72927",
"I#+	c #A7211E",
"J#+	c #A82826",
"K#+	c #AF2824",
"L#+	c #BD2826",
"M#+	c #BF2620",
"N#+	c #BB2822",
"O#+	c #BC2825",
"P#+	c #BB2725",
"Q#+	c #BB2422",
"R#+	c #BA2321",
"S#+	c #B92622",
"T#+	c #B42420",
"U#+	c #BB2520",
"V#+	c #C52523",
"W#+	c #CE2C2A",
"X#+	c #D5302E",
"Y#+	c #D52C2A",
"Z#+	c #D52B27",
"`#+	c #D62E2B",
" $+	c #D02D2C",
".$+	c #D52E2B",
"+$+	c #D22B28",
"@$+	c #CC2826",
"#$+	c #D72D2A",
"$$+	c #D42D2B",
"%$+	c #D42C28",
"&$+	c #DB312E",
"*$+	c #DB3430",
"=$+	c #E33737",
"-$+	c #E63A38",
";$+	c #EE4341",
">$+	c #EC413E",
",$+	c #ED4041",
"'$+	c #E83F40",
")$+	c #EC4040",
"!$+	c #F6484A",
"~$+	c #F84A4B",
"{$+	c #F04745",
"]$+	c #F34746",
"^$+	c #F54645",
"/$+	c #EB4945",
"($+	c #EF504C",
"_$+	c #EA5954",
":$+	c #ED5F59",
"<$+	c #D85550",
"[$+	c #B7423E",
"}$+	c #892E2C",
"|$+	c #7B2A28",
"1$+	c #6B2222",
"2$+	c #742724",
"3$+	c #702623",
"4$+	c #6F1E1E",
"5$+	c #711D1D",
"6$+	c #712020",
"7$+	c #742626",
"8$+	c #6D2222",
"9$+	c #732D2C",
"0$+	c #743230",
"a$+	c #742627",
"b$+	c #722826",
"c$+	c #77312E",
"d$+	c #6F1F1D",
"e$+	c #6A1A19",
"f$+	c #650F0E",
"g$+	c #600F0F",
"h$+	c #681210",
"i$+	c #501311",
"j$+	c #390A09",
"k$+	c #3D0E0D",
"l$+	c #3B0E0C",
"m$+	c #421415",
"n$+	c #441717",
"o$+	c #411213",
"p$+	c #401011",
"q$+	c #3A0707",
"r$+	c #400C0C",
"s$+	c #511416",
"t$+	c #511415",
"u$+	c #581415",
"v$+	c #5C1717",
"w$+	c #611717",
"x$+	c #641817",
"y$+	c #601714",
"z$+	c #5D1513",
"A$+	c #631514",
"B$+	c #5F1413",
"C$+	c #621414",
"D$+	c #5B1111",
"E$+	c #5C1212",
"F$+	c #5F1313",
"G$+	c #581111",
"H$+	c #520F10",
"I$+	c #500F10",
"J$+	c #4C0D0F",
"K$+	c #490D0D",
"L$+	c #361110",
"M$+	c #341412",
"N$+	c #3A1616",
"O$+	c #3E1514",
"P$+	c #5C1C1C",
"Q$+	c #631E1D",
"R$+	c #7F2A28",
"S$+	c #AE413F",
"T$+	c #D05958",
"U$+	c #A35657",
"V$+	c #794C4A",
"W$+	c #695638",
"X$+	c #644424",
"Y$+	c #51462B",
"Z$+	c #50472F",
"`$+	c #534731",
" %+	c #5A4F3C",
".%+	c #5A503D",
"+%+	c #5C513F",
"@%+	c #645845",
"#%+	c #5E523F",
"$%+	c #605541",
"%%+	c #615643",
"&%+	c #605340",
"*%+	c #392F1C",
"=%+	c #5B5136",
"-%+	c #574C34",
";%+	c #5A2A28",
">%+	c #65211F",
",%+	c #662321",
"'%+	c #6A2020",
")%+	c #6E1C16",
"!%+	c #6C1917",
"~%+	c #75201C",
"{%+	c #7D2522",
"]%+	c #872826",
"^%+	c #842120",
"/%+	c #912826",
"(%+	c #962724",
"_%+	c #8E2422",
":%+	c #922320",
"<%+	c #961F1C",
"[%+	c #96201D",
"}%+	c #9C2422",
"|%+	c #931D19",
"1%+	c #8E201D",
"2%+	c #8F2120",
"3%+	c #911E1C",
"4%+	c #9F1F1D",
"5%+	c #A41B19",
"6%+	c #A11F1D",
"7%+	c #A1221F",
"8%+	c #9E2524",
"9%+	c #A1201D",
"0%+	c #A31F1D",
"a%+	c #A72420",
"b%+	c #AD2723",
"c%+	c #BE2723",
"d%+	c #B92220",
"e%+	c #B62320",
"f%+	c #B92623",
"g%+	c #BB2623",
"h%+	c #BA2723",
"i%+	c #BA231E",
"j%+	c #BF2421",
"k%+	c #C52825",
"l%+	c #CD2B28",
"m%+	c #D22E2A",
"n%+	c #D42C29",
"o%+	c #D12926",
"p%+	c #D22825",
"q%+	c #D02925",
"r%+	c #CD2824",
"s%+	c #CE2724",
"t%+	c #D12A25",
"u%+	c #D42D29",
"v%+	c #D12A28",
"w%+	c #D12C28",
"x%+	c #CE2B27",
"y%+	c #DA2F2D",
"z%+	c #E13533",
"A%+	c #E33837",
"B%+	c #E53837",
"C%+	c #E13635",
"D%+	c #F44444",
"E%+	c #F14142",
"F%+	c #ED403F",
"G%+	c #F7494A",
"H%+	c #ED4141",
"I%+	c #F14244",
"J%+	c #EF4647",
"K%+	c #F24648",
"L%+	c #F14443",
"M%+	c #F94A48",
"N%+	c #F84B49",
"O%+	c #EE4744",
"P%+	c #F14643",
"Q%+	c #F34844",
"R%+	c #ED4C48",
"S%+	c #EF514D",
"T%+	c #E9534E",
"U%+	c #CF4E49",
"V%+	c #A83C38",
"W%+	c #772726",
"X%+	c #6E2524",
"Y%+	c #672322",
"Z%+	c #702322",
"`%+	c #74302C",
" &+	c #762C2A",
".&+	c #722524",
"+&+	c #722322",
"@&+	c #712724",
"#&+	c #6D1E1E",
"$&+	c #6F1B1B",
"%&+	c #6E201F",
"&&+	c #722D2B",
"*&+	c #783534",
"=&+	c #722E2D",
"-&+	c #752929",
";&+	c #78302E",
">&+	c #792F2F",
",&+	c #751C1B",
"'&+	c #6D1313",
")&+	c #6A1110",
"!&+	c #69100F",
"~&+	c #360E0D",
"{&+	c #3C0E0D",
"]&+	c #3E1211",
"^&+	c #441516",
"/&+	c #3B0808",
"(&+	c #390A0A",
"_&+	c #3E0B0B",
":&+	c #491112",
"<&+	c #4E1517",
"[&+	c #501516",
"}&+	c #561617",
"|&+	c #581616",
"1&+	c #601D1B",
"2&+	c #65201E",
"3&+	c #621614",
"4&+	c #601313",
"5&+	c #5C1111",
"6&+	c #5E1212",
"7&+	c #611312",
"8&+	c #5D1414",
"9&+	c #4C0F0F",
"0&+	c #4F0F10",
"a&+	c #4B0D0F",
"b&+	c #330F0E",
"c&+	c #331211",
"d&+	c #341515",
"e&+	c #351311",
"f&+	c #320F0E",
"g&+	c #331514",
"h&+	c #371715",
"i&+	c #391414",
"j&+	c #621D1D",
"k&+	c #7E2A28",
"l&+	c #AC403E",
"m&+	c #CB5756",
"n&+	c #B35B5D",
"o&+	c #6F4A4A",
"p&+	c #614527",
"q&+	c #564628",
"r&+	c #4D432A",
"s&+	c #594F3C",
"t&+	c #5D513E",
"u&+	c #5F533D",
"v&+	c #655943",
"w&+	c #625743",
"x&+	c #635644",
"y&+	c #5E4632",
"z&+	c #40341B",
"A&+	c #3E3421",
"B&+	c #3F3020",
"C&+	c #542A24",
"D&+	c #622A29",
"E&+	c #612424",
"F&+	c #641F1D",
"G&+	c #6A2220",
"H&+	c #6B1F1E",
"I&+	c #681D1C",
"J&+	c #691F1D",
"K&+	c #6C1D1B",
"L&+	c #6F1A18",
"M&+	c #772522",
"N&+	c #7C211F",
"O&+	c #7E2422",
"P&+	c #821F1C",
"Q&+	c #8B1F1C",
"R&+	c #8F2423",
"S&+	c #942826",
"T&+	c #942B29",
"U&+	c #932522",
"V&+	c #931D1B",
"W&+	c #931F1C",
"X&+	c #961D1B",
"Y&+	c #9B1F1D",
"Z&+	c #9F1E1D",
"`&+	c #A52220",
" *+	c #A41F1E",
".*+	c #9D2522",
"+*+	c #9D2623",
"@*+	c #A12926",
"#*+	c #A02321",
"$*+	c #A32321",
"%*+	c #9F201D",
"&*+	c #A92220",
"**+	c #AD2422",
"=*+	c #BD2A26",
"-*+	c #BC2722",
";*+	c #C02926",
">*+	c #B3211E",
",*+	c #B4211E",
"'*+	c #B92320",
")*+	c #BC2723",
"!*+	c #BC251F",
"~*+	c #B42622",
"{*+	c #B32421",
"]*+	c #B82421",
"^*+	c #CB2E2B",
"/*+	c #CC2D2B",
"(*+	c #CC2522",
"_*+	c #CA2724",
":*+	c #D32C28",
"<*+	c #D62C28",
"[*+	c #D42B28",
"}*+	c #CF2825",
"|*+	c #CC2623",
"1*+	c #CB2522",
"2*+	c #CF2622",
"3*+	c #CF2723",
"4*+	c #CC2C29",
"5*+	c #D12A27",
"6*+	c #DD3533",
"7*+	c #E23633",
"8*+	c #DF3835",
"9*+	c #EA494D",
"0*+	c #F14243",
"a*+	c #EE4445",
"b*+	c #F14345",
"c*+	c #F14344",
"d*+	c #F34545",
"e*+	c #F74746",
"f*+	c #F34544",
"g*+	c #F74B49",
"h*+	c #F34846",
"i*+	c #F74B46",
"j*+	c #EF4441",
"k*+	c #F24642",
"l*+	c #EB4946",
"m*+	c #E74E4A",
"n*+	c #E34E4A",
"o*+	c #C34440",
"p*+	c #993532",
"q*+	c #7E2928",
"r*+	c #752624",
"s*+	c #692423",
"t*+	c #651E1F",
"u*+	c #6E1E1D",
"v*+	c #701B1B",
"w*+	c #6D1B1A",
"x*+	c #722B28",
"y*+	c #752B28",
"z*+	c #732424",
"A*+	c #702523",
"B*+	c #722324",
"C*+	c #6B1D1D",
"D*+	c #6F2322",
"E*+	c #733231",
"F*+	c #763432",
"G*+	c #783433",
"H*+	c #742E2D",
"I*+	c #792D2A",
"J*+	c #721E1E",
"K*+	c #71191A",
"L*+	c #67100E",
"M*+	c #64110F",
"N*+	c #6A110F",
"O*+	c #360E0E",
"P*+	c #3D100F",
"Q*+	c #3D0F0E",
"R*+	c #3F110F",
"S*+	c #45191A",
"T*+	c #3B0809",
"U*+	c #3A0808",
"V*+	c #400A0A",
"W*+	c #471011",
"X*+	c #4E1415",
"Y*+	c #551617",
"Z*+	c #5C1617",
"`*+	c #5E1717",
" =+	c #611C1A",
".=+	c #601E1D",
"+=+	c #621715",
"@=+	c #611212",
"#=+	c #58100F",
"$=+	c #5E1313",
"%=+	c #5B1313",
"&=+	c #5E1514",
"*=+	c #4F1010",
"==+	c #480D0D",
"-=+	c #480E0E",
";=+	c #371211",
">=+	c #351614",
",=+	c #3A1413",
"'=+	c #6A2121",
")=+	c #BA4846",
"!=+	c #C4514F",
"~=+	c #AC595B",
"{=+	c #614727",
"]=+	c #554526",
"^=+	c #51482F",
"/=+	c #4C4329",
"(=+	c #5A4F35",
"_=+	c #584D3C",
":=+	c #5B4E37",
"<=+	c #615544",
"[=+	c #635743",
"}=+	c #645946",
"|=+	c #645846",
"1=+	c #60533C",
"2=+	c #493A22",
"3=+	c #372F1B",
"4=+	c #5C5036",
"5=+	c #4B2821",
"6=+	c #641E1B",
"7=+	c #651E1D",
"8=+	c #68201F",
"9=+	c #6B201E",
"0=+	c #6A201F",
"a=+	c #6B201F",
"b=+	c #702421",
"c=+	c #71211F",
"d=+	c #7B201D",
"e=+	c #822423",
"f=+	c #861D1B",
"g=+	c #8A201D",
"h=+	c #8D1F1C",
"i=+	c #8C211D",
"j=+	c #892422",
"k=+	c #8D1F1E",
"l=+	c #951F1B",
"m=+	c #94201E",
"n=+	c #9D2421",
"o=+	c #9C201E",
"p=+	c #9A211F",
"q=+	c #A31D1C",
"r=+	c #A52422",
"s=+	c #9E1F1C",
"t=+	c #9D1E1B",
"u=+	c #992422",
"v=+	c #9E2320",
"w=+	c #A5211E",
"x=+	c #AC221F",
"y=+	c #BB2621",
"z=+	c #B92621",
"A=+	c #B82722",
"B=+	c #B52522",
"C=+	c #B5211F",
"D=+	c #BC2621",
"E=+	c #B72420",
"F=+	c #BA2421",
"G=+	c #BF2724",
"H=+	c #C62521",
"I=+	c #C0211F",
"J=+	c #C72421",
"K=+	c #D02723",
"L=+	c #D22925",
"M=+	c #D32A26",
"N=+	c #D42825",
"O=+	c #CF2926",
"P=+	c #D22926",
"Q=+	c #CB2724",
"R=+	c #CC2925",
"S=+	c #D02824",
"T=+	c #D02A26",
"U=+	c #CC2624",
"V=+	c #CE2623",
"W=+	c #CD2823",
"X=+	c #D02F2C",
"Y=+	c #E13534",
"Z=+	c #DB3533",
"`=+	c #E14343",
" -+	c #E84648",
".-+	c #F04143",
"+-+	c #EE4141",
"@-+	c #E23837",
"#-+	c #DF3535",
"$-+	c #F6494A",
"%-+	c #F94C4D",
"&-+	c #F04546",
"*-+	c #F24546",
"=-+	c #EF4244",
"--+	c #F64546",
";-+	c #F04342",
">-+	c #F84C4A",
",-+	c #F64C48",
"'-+	c #EF4D49",
")-+	c #F14D49",
"!-+	c #EB4C47",
"~-+	c #EB4D49",
"{-+	c #EB4E49",
"]-+	c #DE4A46",
"^-+	c #C1413E",
"/-+	c #902E2C",
"(-+	c #7A2625",
"_-+	c #722423",
":-+	c #6A1E1E",
"<-+	c #681919",
"[-+	c #6D1C19",
"}-+	c #691919",
"|-+	c #6D1A1A",
"1-+	c #6A1A1A",
"2-+	c #70201F",
"3-+	c #6F2222",
"4-+	c #6F1F1E",
"5-+	c #732522",
"6-+	c #722222",
"7-+	c #712A27",
"8-+	c #7A3633",
"9-+	c #793937",
"0-+	c #742D29",
"a-+	c #773230",
"b-+	c #732021",
"c-+	c #772321",
"d-+	c #6E1918",
"e-+	c #6C1111",
"f-+	c #63100E",
"g-+	c #5F1311",
"h-+	c #370D0D",
"i-+	c #380E0D",
"j-+	c #3D0C0B",
"k-+	c #431818",
"l-+	c #431516",
"m-+	c #3F0F10",
"n-+	c #400C0D",
"o-+	c #3E0A09",
"p-+	c #450E0F",
"q-+	c #4D1415",
"r-+	c #541616",
"s-+	c #551415",
"t-+	c #5F1818",
"u-+	c #601D1C",
"v-+	c #631B1B",
"w-+	c #611715",
"x-+	c #5E1414",
"y-+	c #5B1311",
"z-+	c #5A1110",
"A-+	c #581010",
"B-+	c #57100F",
"C-+	c #5A1010",
"D-+	c #5B1616",
"E-+	c #450D0D",
"F-+	c #410E0E",
"G-+	c #360D0C",
"H-+	c #321210",
"I-+	c #32100F",
"J-+	c #35110F",
"K-+	c #B94746",
"L-+	c #BF4F4E",
"M-+	c #B25557",
"N-+	c #6E4E4E",
"O-+	c #5D472B",
"P-+	c #664323",
"Q-+	c #4A3F25",
"R-+	c #524930",
"S-+	c #4B4229",
"T-+	c #584E3C",
"U-+	c #5B4E3A",
"V-+	c #655946",
"W-+	c #675B47",
"X-+	c #5E5137",
"Y-+	c #60543F",
"Z-+	c #635640",
"`-+	c #4F4128",
" ;+	c #3D3520",
".;+	c #4A4229",
"+;+	c #403720",
"@;+	c #472E24",
"#;+	c #5E2826",
"$;+	c #612320",
"%;+	c #61211E",
"&;+	c #66201F",
"*;+	c #681C1B",
"=;+	c #691A18",
"-;+	c #6B1B16",
";;+	c #6D1D1A",
">;+	c #6F2424",
",;+	c #781F1E",
"';+	c #801C19",
");+	c #842523",
"!;+	c #861D19",
"~;+	c #861C1A",
"{;+	c #85221D",
"];+	c #8F1E19",
"^;+	c #911B18",
"/;+	c #8F201F",
"(;+	c #98211E",
"_;+	c #9E1F1B",
":;+	c #9B211F",
"<;+	c #A02625",
"[;+	c #99221E",
"};+	c #9D1F1B",
"|;+	c #9C201D",
"1;+	c #971F1D",
"2;+	c #9D231E",
"3;+	c #A1221E",
"4;+	c #A8231F",
"5;+	c #B6231F",
"6;+	c #B72422",
"7;+	c #B22321",
"8;+	c #B62420",
"9;+	c #B92421",
"0;+	c #BF2521",
"a;+	c #C42521",
"b;+	c #C92926",
"c;+	c #D12925",
"d;+	c #CE2925",
"e;+	c #D22A27",
"f;+	c #CC2622",
"g;+	c #D42A25",
"h;+	c #CF2B29",
"i;+	c #CF2724",
"j;+	c #CD2623",
"k;+	c #CD2A27",
"l;+	c #D12825",
"m;+	c #CF2C2B",
"n;+	c #D72F2B",
"o;+	c #D9302E",
"p;+	c #DE3431",
"q;+	c #D93430",
"r;+	c #D8312E",
"s;+	c #E3433E",
"t;+	c #E03F40",
"u;+	c #E73A39",
"v;+	c #ED3F3E",
"w;+	c #E03734",
"x;+	c #DA3330",
"y;+	c #E13836",
"z;+	c #F74B4C",
"A;+	c #EC4243",
"B;+	c #F24344",
"C;+	c #E53C3D",
"D;+	c #F54545",
"E;+	c #F24445",
"F;+	c #F04243",
"G;+	c #F44545",
"H;+	c #F14241",
"I;+	c #F44442",
"J;+	c #F74543",
"K;+	c #F44644",
"L;+	c #F5524D",
"M;+	c #EE504A",
"N;+	c #F0514D",
"O;+	c #F3514D",
"P;+	c #EA4C48",
"Q;+	c #EB4D4A",
"R;+	c #DA4844",
"S;+	c #BC3C39",
"T;+	c #8B2A29",
"U;+	c #772322",
"V;+	c #6F2121",
"W;+	c #662123",
"X;+	c #661515",
"Y;+	c #691717",
"Z;+	c #6A1C1B",
"`;+	c #6F241F",
" >+	c #6E1C1C",
".>+	c #6E2220",
"+>+	c #6F1C1B",
"@>+	c #70201C",
"#>+	c #6C1B1B",
"$>+	c #712120",
"%>+	c #701A1A",
"&>+	c #6F201F",
"*>+	c #702323",
"=>+	c #772D2C",
"->+	c #773331",
";>+	c #773635",
">>+	c #793534",
",>+	c #753230",
"'>+	c #701717",
")>+	c #67100F",
"!>+	c #680F0E",
"~>+	c #5E0E0B",
"{>+	c #6F100F",
"]>+	c #370B0A",
"^>+	c #380D0D",
"/>+	c #3C0E0E",
"(>+	c #46191A",
"_>+	c #410D0E",
":>+	c #410C0D",
"<>+	c #5B1617",
"[>+	c #5A1717",
"}>+	c #5E1F1E",
"|>+	c #611A1A",
"1>+	c #5A1311",
"2>+	c #591010",
"3>+	c #5B1010",
"4>+	c #5B1213",
"5>+	c #5F1415",
"6>+	c #571112",
"7>+	c #571513",
"8>+	c #531413",
"9>+	c #511110",
"0>+	c #430B0B",
"a>+	c #391311",
"b>+	c #321212",
"c>+	c #331312",
"d>+	c #310F0E",
"e>+	c #321211",
"f>+	c #31100F",
"g>+	c #330E0E",
"h>+	c #351412",
"i>+	c #341311",
"j>+	c #652020",
"k>+	c #B74745",
"l>+	c #CB5454",
"m>+	c #A35355",
"n>+	c #5F5039",
"o>+	c #6C4F29",
"p>+	c #4E4327",
"q>+	c #4A4127",
"r>+	c #645844",
"s>+	c #645842",
"t>+	c #665844",
"u>+	c #645741",
"v>+	c #463D27",
"w>+	c #544A30",
"x>+	c #443024",
"y>+	c #5A2927",
"z>+	c #602725",
"A>+	c #5E2321",
"B>+	c #622221",
"C>+	c #621D1B",
"D>+	c #642322",
"E>+	c #672422",
"F>+	c #6B1E1D",
"G>+	c #6B1C18",
"H>+	c #6C1F1C",
"I>+	c #6E1D1B",
"J>+	c #751F1D",
"K>+	c #7B2120",
"L>+	c #7C1F1D",
"M>+	c #841E1D",
"N>+	c #812421",
"O>+	c #812422",
"P>+	c #861E1B",
"Q>+	c #8E1E1B",
"R>+	c #8F1E1A",
"S>+	c #8D2220",
"T>+	c #95211E",
"U>+	c #9B221F",
"V>+	c #961E1C",
"W>+	c #961E1B",
"X>+	c #97201D",
"Y>+	c #9A1F1D",
"Z>+	c #9A2524",
"`>+	c #972522",
" ,+	c #971E1C",
".,+	c #9D221E",
"+,+	c #98211D",
"@,+	c #99221F",
"#,+	c #9D211C",
"$,+	c #A3221D",
"%,+	c #A6221F",
"&,+	c #A3231F",
"*,+	c #AB241F",
"=,+	c #AF2624",
"-,+	c #B32422",
";,+	c #B2231F",
">,+	c #B7201D",
",,+	c #B3211F",
"',+	c #B5221E",
"),+	c #BB2420",
"!,+	c #B7241F",
"~,+	c #B82520",
"{,+	c #B2211E",
"],+	c #BA2725",
"^,+	c #B82623",
"/,+	c #BC2522",
"(,+	c #BE2321",
"_,+	c #BF2623",
":,+	c #C82723",
"<,+	c #CE2522",
"[,+	c #D12724",
"},+	c #D02927",
"|,+	c #D22924",
"1,+	c #CF2722",
"2,+	c #D22723",
"3,+	c #CE2523",
"4,+	c #D32927",
"5,+	c #D12E2C",
"6,+	c #CF2A28",
"7,+	c #D82F2E",
"8,+	c #DB302E",
"9,+	c #DB302D",
"0,+	c #D72E2B",
"a,+	c #DE3C38",
"b,+	c #DC3936",
"c,+	c #DE3736",
"d,+	c #DE3C3C",
"e,+	c #E43836",
"f,+	c #E73938",
"g,+	c #DF3534",
"h,+	c #F34645",
"i,+	c #F74B4A",
"j,+	c #E83E3B",
"k,+	c #E63C3C",
"l,+	c #EA4041",
"m,+	c #F34445",
"n,+	c #F84746",
"o,+	c #F0504B",
"p,+	c #F35650",
"q,+	c #F65953",
"r,+	c #EF554F",
"s,+	c #EA504B",
"t,+	c #ED504C",
"u,+	c #D94845",
"v,+	c #B93B39",
"w,+	c #872928",
"x,+	c #752222",
"y,+	c #742323",
"z,+	c #702222",
"A,+	c #672324",
"B,+	c #671D1D",
"C,+	c #681917",
"D,+	c #661717",
"E,+	c #6A1B1B",
"F,+	c #6B1919",
"G,+	c #6A1918",
"H,+	c #702624",
"I,+	c #6E1E1C",
"J,+	c #6E2522",
"K,+	c #742524",
"L,+	c #762826",
"M,+	c #722020",
"N,+	c #6E2021",
"O,+	c #77322F",
"P,+	c #73302D",
"Q,+	c #793634",
"R,+	c #74302E",
"S,+	c #6F1F1F",
"T,+	c #6C1919",
"U,+	c #6A1212",
"V,+	c #690F0F",
"W,+	c #630E0D",
"X,+	c #6A100F",
"Y,+	c #611210",
"Z,+	c #350B0A",
"`,+	c #461718",
" '+	c #3B0908",
".'+	c #380707",
"+'+	c #430B0C",
"@'+	c #481112",
"#'+	c #591617",
"$'+	c #5F1A1A",
"%'+	c #5C1312",
"&'+	c #5D1311",
"*'+	c #591011",
"='+	c #560F0F",
"-'+	c #581213",
";'+	c #5B1414",
">'+	c #551212",
",'+	c #511212",
"''+	c #541414",
")'+	c #321313",
"!'+	c #341210",
"~'+	c #311110",
"{'+	c #311010",
"]'+	c #852D2C",
"^'+	c #B34845",
"/'+	c #C75151",
"('+	c #A04F4F",
"_'+	c #5C4829",
":'+	c #554B31",
"<'+	c #574D34",
"['+	c #584F34",
"}'+	c #544937",
"|'+	c #62553C",
"1'+	c #64573F",
"2'+	c #635742",
"3'+	c #685A47",
"4'+	c #54452D",
"5'+	c #43371F",
"6'+	c #372F1C",
"7'+	c #52482E",
"8'+	c #473E26",
"9'+	c #4B261D",
"0'+	c #5D1F1D",
"a'+	c #612322",
"b'+	c #612220",
"c'+	c #702221",
"d'+	c #801D1C",
"e'+	c #80201C",
"f'+	c #811D1B",
"g'+	c #84201E",
"h'+	c #89201C",
"i'+	c #8A2524",
"j'+	c #8C1F1D",
"k'+	c #93201D",
"l'+	c #951E1A",
"m'+	c #95201D",
"n'+	c #92201C",
"o'+	c #8F2320",
"p'+	c #96231F",
"q'+	c #982422",
"r'+	c #A21F1C",
"s'+	c #A7221D",
"t'+	c #AD231F",
"u'+	c #B6221F",
"v'+	c #B31D1B",
"w'+	c #AF2220",
"x'+	c #AE221F",
"y'+	c #B51F1B",
"z'+	c #B5211E",
"A'+	c #B22420",
"B'+	c #B7211F",
"C'+	c #C02321",
"D'+	c #BA2320",
"E'+	c #C02420",
"F'+	c #C82421",
"G'+	c #CC2724",
"H'+	c #CE2723",
"I'+	c #CC2723",
"J'+	c #CB2521",
"K'+	c #D12824",
"L'+	c #D62C29",
"M'+	c #D42A28",
"N'+	c #D52825",
"O'+	c #D52925",
"P'+	c #D02B29",
"Q'+	c #D12B2A",
"R'+	c #D62B28",
"S'+	c #D52D2B",
"T'+	c #D72F2C",
"U'+	c #D63632",
"V'+	c #D8312F",
"W'+	c #DA3331",
"X'+	c #DA3534",
"Y'+	c #E03533",
"Z'+	c #E03938",
"`'+	c #F44746",
" )+	c #EC4041",
".)+	c #E73E3F",
"+)+	c #E13A3A",
"@)+	c #EA3E3F",
"#)+	c #E73D3E",
"$)+	c #F74545",
"%)+	c #F74646",
"&)+	c #E7403D",
"*)+	c #E8403D",
"=)+	c #E33D3A",
"-)+	c #EE4B46",
";)+	c #F85550",
">)+	c #F25A53",
",)+	c #F45A54",
"')+	c #EE5751",
"))+	c #E95650",
"!)+	c #D84B47",
"~)+	c #B63B38",
"{)+	c #8C2B2A",
"])+	c #6D2021",
"^)+	c #642122",
"/)+	c #661C1B",
"()+	c #621515",
"_)+	c #661716",
":)+	c #691918",
"<)+	c #671817",
"[)+	c #691A1A",
"})+	c #6C1C1B",
"|)+	c #711D1C",
"1)+	c #72211F",
"2)+	c #752723",
"3)+	c #772927",
"4)+	c #742D2C",
"5)+	c #772D2A",
"6)+	c #752C2B",
"7)+	c #712425",
"8)+	c #752C29",
"9)+	c #732B29",
"0)+	c #732425",
"a)+	c #6D1614",
"b)+	c #6C1916",
"c)+	c #660F0F",
"d)+	c #5F0E0C",
"e)+	c #70100E",
"f)+	c #460C0B",
"g)+	c #340909",
"h)+	c #390C0B",
"i)+	c #3C0A09",
"j)+	c #3C0D0C",
"k)+	c #431919",
"l)+	c #410A09",
"m)+	c #3D0A0B",
"n)+	c #461011",
"o)+	c #4F1315",
"p)+	c #511414",
"q)+	c #571516",
"r)+	c #632120",
"s)+	c #611B1B",
"t)+	c #611A18",
"u)+	c #5B1011",
"v)+	c #591415",
"w)+	c #5B1415",
"x)+	c #541514",
"y)+	c #521414",
"z)+	c #501515",
"A)+	c #531616",
"B)+	c #450D0C",
"C)+	c #380C0B",
"D)+	c #321514",
"E)+	c #32100E",
"F)+	c #33100F",
"G)+	c #6C2222",
"H)+	c #822C2B",
"I)+	c #BF4A47",
"J)+	c #C04D4B",
"K)+	c #AB5254",
"L)+	c #654E2B",
"M)+	c #644F2C",
"N)+	c #574C2F",
"O)+	c #534A31",
"P)+	c #584C36",
"Q)+	c #61553F",
"R)+	c #6D604B",
"S)+	c #675A44",
"T)+	c #665945",
"U)+	c #655843",
"V)+	c #65573E",
"W)+	c #453119",
"X)+	c #2F2816",
"Y)+	c #3A301D",
"Z)+	c #4E2A25",
"`)+	c #5C2926",
" !+	c #5F2725",
".!+	c #5C1D1C",
"+!+	c #5F201E",
"@!+	c #61201D",
"#!+	c #632322",
"$!+	c #6A2322",
"%!+	c #6D1816",
"&!+	c #6B1C19",
"*!+	c #702321",
"=!+	c #75211E",
"-!+	c #7D1F1C",
";!+	c #7E1B18",
">!+	c #7E1D1A",
",!+	c #821D1A",
"'!+	c #861C19",
")!+	c #831F1D",
"!!+	c #861F1C",
"~!+	c #8B201E",
"{!+	c #911E1D",
"]!+	c #951C18",
"^!+	c #92211F",
"/!+	c #94241F",
"(!+	c #952524",
"_!+	c #8D1D1B",
":!+	c #8E1D1B",
"<!+	c #93211F",
"[!+	c #9B201E",
"}!+	c #A02422",
"|!+	c #9F1E1C",
"1!+	c #9E231F",
"2!+	c #A7201C",
"3!+	c #AB211E",
"4!+	c #AB201D",
"5!+	c #AE211F",
"6!+	c #B0201D",
"7!+	c #AF2120",
"8!+	c #A9211E",
"9!+	c #AE211E",
"0!+	c #B0221E",
"a!+	c #B5231F",
"b!+	c #B72622",
"c!+	c #B52723",
"d!+	c #B32321",
"e!+	c #B4221E",
"f!+	c #C1221F",
"g!+	c #C32422",
"h!+	c #CD2723",
"i!+	c #CB2523",
"j!+	c #CC2320",
"k!+	c #CE2421",
"l!+	c #CB2421",
"m!+	c #D22725",
"n!+	c #D52824",
"o!+	c #CF2824",
"p!+	c #D92E2C",
"q!+	c #D32E2A",
"r!+	c #CE2A28",
"s!+	c #CE2A26",
"t!+	c #CE2924",
"u!+	c #D32925",
"v!+	c #D02724",
"w!+	c #D42924",
"x!+	c #D32926",
"y!+	c #D42A26",
"z!+	c #D42C2A",
"A!+	c #E43937",
"B!+	c #E43835",
"C!+	c #EE3F3F",
"D!+	c #E93D3E",
"E!+	c #E93D3F",
"F!+	c #E43A3A",
"G!+	c #DF3939",
"H!+	c #E43A3B",
"I!+	c #F54745",
"J!+	c #F24341",
"K!+	c #EA413D",
"L!+	c #EA4B47",
"M!+	c #F15952",
"N!+	c #EB5751",
"O!+	c #EF5853",
"P!+	c #E85651",
"Q!+	c #DD514B",
"R!+	c #B33D39",
"S!+	c #762423",
"T!+	c #762222",
"U!+	c #702121",
"V!+	c #671715",
"W!+	c #651716",
"X!+	c #671918",
"Y!+	c #6A1C1C",
"Z!+	c #6C1F1F",
"`!+	c #6D201D",
" ~+	c #6C1C1C",
".~+	c #701F1D",
"+~+	c #701E1B",
"@~+	c #732222",
"#~+	c #6E1B1B",
"$~+	c #722A28",
"%~+	c #762927",
"&~+	c #712323",
"*~+	c #6D1916",
"=~+	c #600E0D",
"-~+	c #70110F",
";~+	c #610D0C",
">~+	c #390908",
",~+	c #3E1210",
"'~+	c #451819",
")~+	c #47191A",
"!~+	c #421617",
"~~+	c #571515",
"{~+	c #642826",
"]~+	c #63201E",
"^~+	c #611818",
"/~+	c #580F10",
"(~+	c #581011",
"_~+	c #561414",
":~+	c #521616",
"<~+	c #4B0F0E",
"[~+	c #341212",
"}~+	c #331010",
"|~+	c #331311",
"1~+	c #34100F",
"2~+	c #310F0F",
"3~+	c #340F0E",
"4~+	c #3A1514",
"5~+	c #391212",
"6~+	c #5B1C1B",
"7~+	c #692222",
"8~+	c #BA4946",
"9~+	c #B84A47",
"0~+	c #914C4C",
"a~+	c #674D37",
"b~+	c #6A4D27",
"c~+	c #4C4126",
"d~+	c #433B25",
"e~+	c #554B32",
"f~+	c #51472E",
"g~+	c #6D614C",
"h~+	c #675C49",
"i~+	c #61523A",
"j~+	c #625542",
"k~+	c #312B18",
"l~+	c #2B2414",
"m~+	c #503026",
"n~+	c #5D2524",
"o~+	c #5F2524",
"p~+	c #642221",
"q~+	c #652624",
"r~+	c #661E1D",
"s~+	c #67201D",
"t~+	c #6C1B19",
"u~+	c #6C1E1D",
"v~+	c #6F1E1C",
"w~+	c #79211F",
"x~+	c #7B1D1B",
"y~+	c #7E1F1C",
"z~+	c #7F2423",
"A~+	c #871E1A",
"B~+	c #861E1A",
"C~+	c #861C18",
"D~+	c #881D1A",
"E~+	c #901F1C",
"F~+	c #921F1C",
"G~+	c #93201C",
"H~+	c #952623",
"I~+	c #932420",
"J~+	c #8F2322",
"K~+	c #8F1D1A",
"L~+	c #951F1D",
"M~+	c #951F1C",
"N~+	c #9E241F",
"O~+	c #A0211D",
"P~+	c #A9231F",
"Q~+	c #A8201D",
"R~+	c #A71F1D",
"S~+	c #AC1E1B",
"T~+	c #A91D1A",
"U~+	c #AE2420",
"V~+	c #B2221F",
"W~+	c #B1201D",
"X~+	c #B52421",
"Y~+	c #B12524",
"Z~+	c #B22E2C",
"`~+	c #BC201E",
" {+	c #BE211D",
".{+	c #C12725",
"+{+	c #BF2423",
"@{+	c #C5221F",
"#{+	c #CB2622",
"${+	c #CA2723",
"%{+	c #CD2722",
"&{+	c #CA2320",
"*{+	c #CB2320",
"={+	c #CC2421",
"-{+	c #D22824",
";{+	c #CE2622",
">{+	c #D42927",
",{+	c #D32B28",
"'{+	c #D52D29",
"){+	c #D22E2B",
"!{+	c #C82824",
"~{+	c #CC2825",
"{{+	c #CF2725",
"]{+	c #D12623",
"^{+	c #CD2422",
"/{+	c #D12622",
"({+	c #CF2924",
"_{+	c #CE2B28",
":{+	c #DD2F2C",
"<{+	c #DE3633",
"[{+	c #F03F40",
"}{+	c #EB3D3C",
"|{+	c #E73B3C",
"1{+	c #E6393A",
"2{+	c #E23A3A",
"3{+	c #E53A38",
"4{+	c #E53B3A",
"5{+	c #F14441",
"6{+	c #F04341",
"7{+	c #EC544E",
"8{+	c #F35853",
"9{+	c #ED5A52",
"0{+	c #EF5B55",
"a{+	c #EF5C55",
"b{+	c #EA5752",
"c{+	c #ED5953",
"d{+	c #E75752",
"e{+	c #D9514B",
"f{+	c #AC3C38",
"g{+	c #882C2A",
"h{+	c #762322",
"i{+	c #6B2120",
"j{+	c #651818",
"k{+	c #671916",
"l{+	c #681A18",
"m{+	c #661917",
"n{+	c #691D1D",
"o{+	c #6E221F",
"p{+	c #6E2020",
"q{+	c #6F2320",
"r{+	c #6F2824",
"s{+	c #712624",
"t{+	c #742A24",
"u{+	c #752423",
"v{+	c #752320",
"w{+	c #6E1E1B",
"x{+	c #6E1B1C",
"y{+	c #712424",
"z{+	c #762B29",
"A{+	c #732624",
"B{+	c #6F2422",
"C{+	c #6E2120",
"D{+	c #6C1616",
"E{+	c #5B0D0C",
"F{+	c #730F0F",
"G{+	c #430C0C",
"H{+	c #350B0B",
"I{+	c #3A0B0A",
"J{+	c #3D0D0D",
"K{+	c #3F1514",
"L{+	c #3A0A0A",
"M{+	c #491415",
"N{+	c #551516",
"O{+	c #591516",
"P{+	c #5D1716",
"Q{+	c #62201F",
"R{+	c #601A1A",
"S{+	c #5E1C1B",
"T{+	c #5D1313",
"U{+	c #550F0F",
"V{+	c #5A1112",
"W{+	c #551515",
"X{+	c #581716",
"Y{+	c #501616",
"Z{+	c #480E0D",
"`{+	c #321110",
" ]+	c #361311",
".]+	c #89302E",
"+]+	c #B44946",
"@]+	c #D05858",
"#]+	c #834A4A",
"$]+	c #6A5944",
"%]+	c #6C5632",
"&]+	c #5A4D2D",
"*]+	c #443B22",
"=]+	c #534A32",
"-]+	c #483E28",
";]+	c #5C4E39",
">]+	c #6C5F4B",
",]+	c #625643",
"']+	c #695C47",
")]+	c #594831",
"!]+	c #3E341F",
"~]+	c #463D28",
"{]+	c #4C3225",
"]]+	c #582624",
"^]+	c #652726",
"/]+	c #682222",
"(]+	c #682221",
"_]+	c #651F1E",
":]+	c #662120",
"<]+	c #6A1D1C",
"[]+	c #6D201C",
"}]+	c #6E2321",
"|]+	c #711A19",
"1]+	c #731B18",
"2]+	c #751816",
"3]+	c #7C1916",
"4]+	c #861B19",
"5]+	c #83211F",
"6]+	c #861F1E",
"7]+	c #931E1B",
"8]+	c #941D1A",
"9]+	c #8E1B18",
"0]+	c #962321",
"a]+	c #91211D",
"b]+	c #9C201C",
"c]+	c #9C1F1C",
"d]+	c #A31E1B",
"e]+	c #A71F1B",
"f]+	c #A5221E",
"g]+	c #A9221E",
"h]+	c #A91F1C",
"i]+	c #AA221F",
"j]+	c #AC1F1C",
"k]+	c #AF1F1D",
"l]+	c #B52422",
"m]+	c #B52320",
"n]+	c #AF2724",
"o]+	c #B9211E",
"p]+	c #C12622",
"q]+	c #BF2320",
"r]+	c #C32420",
"s]+	c #C1231F",
"t]+	c #C6211E",
"u]+	c #C62421",
"v]+	c #C9231F",
"w]+	c #C72622",
"x]+	c #CB221E",
"y]+	c #CE2420",
"z]+	c #CC2523",
"A]+	c #D42B27",
"B]+	c #CB2625",
"C]+	c #D12522",
"D]+	c #CF2823",
"E]+	c #CB2420",
"F]+	c #CD2724",
"G]+	c #D02C27",
"H]+	c #D62D2B",
"I]+	c #D8322E",
"J]+	c #E33835",
"K]+	c #DF3332",
"L]+	c #DF322F",
"M]+	c #E63A37",
"N]+	c #F14143",
"O]+	c #EB3D3F",
"P]+	c #ED3D3E",
"Q]+	c #EC3E3F",
"R]+	c #E53A3B",
"S]+	c #E63939",
"T]+	c #E13735",
"U]+	c #E33939",
"V]+	c #DF3838",
"W]+	c #E43837",
"X]+	c #E83B3A",
"Y]+	c #F0423F",
"Z]+	c #F05550",
"`]+	c #F65D57",
" ^+	c #F75F57",
".^+	c #F15C56",
"+^+	c #E85954",
"@^+	c #EA5953",
"#^+	c #E35650",
"$^+	c #D45049",
"%^+	c #A63B37",
"&^+	c #641616",
"*^+	c #671716",
"=^+	c #691D1C",
"-^+	c #6D1F1E",
";^+	c #6D2321",
">^+	c #691F1F",
",^+	c #6D2020",
"'^+	c #6E1F1F",
")^+	c #6F1D1D",
"!^+	c #6E1D1D",
"~^+	c #6F2020",
"{^+	c #711E1E",
"]^+	c #712625",
"^^+	c #6E1E1F",
"/^+	c #732724",
"(^+	c #712523",
"_^+	c #620E0E",
":^+	c #5E0D0C",
"<^+	c #6E0F0F",
"[^+	c #540B0B",
"}^+	c #340A09",
"|^+	c #370D0C",
"1^+	c #451A1A",
"2^+	c #521314",
"3^+	c #581515",
"4^+	c #642625",
"5^+	c #63201F",
"6^+	c #5F1E1D",
"7^+	c #591110",
"8^+	c #591112",
"9^+	c #571011",
"0^+	c #5B1E1E",
"a^+	c #4B0E0D",
"b^+	c #490C0C",
"c^+	c #470D0C",
"d^+	c #4A0E0D",
"e^+	c #450E0D",
"f^+	c #3F0F0E",
"g^+	c #311312",
"h^+	c #320F0F",
"i^+	c #351110",
"j^+	c #371110",
"k^+	c #893230",
"l^+	c #AE4746",
"m^+	c #985252",
"n^+	c #6A5F4A",
"o^+	c #705B3B",
"p^+	c #5B4B2A",
"q^+	c #433820",
"r^+	c #474028",
"s^+	c #4B4228",
"t^+	c #5A5038",
"u^+	c #645543",
"v^+	c #6D614E",
"w^+	c #655942",
"x^+	c #6D6048",
"y^+	c #5E533F",
"z^+	c #5F533E",
"A^+	c #675B46",
"B^+	c #61533A",
"C^+	c #41381F",
"D^+	c #2E2715",
"E^+	c #302816",
"F^+	c #3E3722",
"G^+	c #4B3727",
"H^+	c #512A23",
"I^+	c #5D2827",
"J^+	c #5F2A29",
"K^+	c #5E201E",
"L^+	c #5F201F",
"M^+	c #622220",
"N^+	c #632523",
"O^+	c #651F1C",
"P^+	c #67211F",
"Q^+	c #692020",
"R^+	c #6E1C1A",
"S^+	c #6D2422",
"T^+	c #6F201D",
"U^+	c #702522",
"V^+	c #721412",
"W^+	c #741B19",
"X^+	c #741A16",
"Y^+	c #7C1A17",
"Z^+	c #801D19",
"`^+	c #811D1A",
" /+	c #87211E",
"./+	c #871F1C",
"+/+	c #8C2624",
"@/+	c #8B211E",
"#/+	c #8F1F1E",
"$/+	c #92211C",
"%/+	c #891E1C",
"&/+	c #91211E",
"*/+	c #931F1B",
"=/+	c #941D1B",
"-/+	c #8F1B19",
";/+	c #90211D",
">/+	c #981E1C",
",/+	c #A12723",
"'/+	c #A11D1A",
")/+	c #A6221E",
"!/+	c #A3201C",
"~/+	c #A5201E",
"{/+	c #A61F1D",
"]/+	c #A9201E",
"^/+	c #AC221E",
"//+	c #AC1D1A",
"(/+	c #AF211E",
"_/+	c #AB1F1D",
":/+	c #B1211E",
"</+	c #BB221F",
"[/+	c #BE221F",
"}/+	c #B9221F",
"|/+	c #BD201D",
"1/+	c #C4211E",
"2/+	c #C6221F",
"3/+	c #CA251F",
"4/+	c #C6231F",
"5/+	c #C9201B",
"6/+	c #C9221F",
"7/+	c #C72420",
"8/+	c #CA2521",
"9/+	c #D52A25",
"0/+	c #C82420",
"a/+	c #CD2521",
"b/+	c #D12523",
"c/+	c #D02521",
"d/+	c #CD2621",
"e/+	c #D02825",
"f/+	c #D32E2C",
"g/+	c #E23432",
"h/+	c #E13633",
"i/+	c #E03432",
"j/+	c #DF3532",
"k/+	c #E53735",
"l/+	c #F14040",
"m/+	c #EE3E3F",
"n/+	c #EA3C3C",
"o/+	c #EC3D3D",
"p/+	c #E13838",
"q/+	c #E53A3A",
"r/+	c #E73C3C",
"s/+	c #DE3435",
"t/+	c #DA3535",
"u/+	c #E9403D",
"v/+	c #F14743",
"w/+	c #F95853",
"x/+	c #F55A54",
"y/+	c #F65F58",
"z/+	c #F05D57",
"A/+	c #F35D57",
"B/+	c #E95953",
"C/+	c #E2554E",
"D/+	c #D04E47",
"E/+	c #A63A37",
"F/+	c #772423",
"G/+	c #712221",
"H/+	c #631C1C",
"I/+	c #631414",
"J/+	c #661616",
"K/+	c #671818",
"L/+	c #681D1D",
"M/+	c #6B2322",
"N/+	c #671F1F",
"O/+	c #6A2221",
"P/+	c #6D1F1F",
"Q/+	c #6D1B1B",
"R/+	c #6B1C1B",
"S/+	c #6D1D1C",
"T/+	c #691718",
"U/+	c #721F1E",
"V/+	c #6C2321",
"W/+	c #6E1F20",
"X/+	c #6B1D1C",
"Y/+	c #671413",
"Z/+	c #620F0E",
"`/+	c #5E0E0C",
" (+	c #78100F",
".(+	c #350C0C",
"+(+	c #380908",
"@(+	c #3A0907",
"#(+	c #3D0F0F",
"$(+	c #401615",
"%(+	c #3F0B0B",
"&(+	c #3F0B0A",
"*(+	c #5D1616",
"=(+	c #5D1E1D",
"-(+	c #5C1D1D",
";(+	c #550F10",
">(+	c #561817",
",(+	c #541818",
"'(+	c #490D0C",
")(+	c #470C0C",
"!(+	c #480C0C",
"~(+	c #430D0B",
"{(+	c #3C100E",
"](+	c #381313",
"^(+	c #61201F",
"/(+	c #843231",
"((+	c #BA4C4B",
"_(+	c #6E4B4B",
":(+	c #6C5739",
"<(+	c #695131",
"[(+	c #4A4125",
"}(+	c #423A22",
"|(+	c #3E351F",
"1(+	c #493E26",
"2(+	c #574B35",
"3(+	c #685D4B",
"4(+	c #695D4A",
"5(+	c #6A5C48",
"6(+	c #5F543E",
"7(+	c #62553D",
"8(+	c #6A5E48",
"9(+	c #6A5D43",
"0(+	c #49381D",
"a(+	c #2F2916",
"b(+	c #423A24",
"c(+	c #463926",
"d(+	c #532E28",
"e(+	c #5C2C2A",
"f(+	c #5E2C2B",
"g(+	c #5D2220",
"h(+	c #60201E",
"i(+	c #5F1F1E",
"j(+	c #632221",
"k(+	c #65221F",
"l(+	c #652120",
"m(+	c #661D1C",
"n(+	c #6A1E1B",
"o(+	c #6E211D",
"p(+	c #6E201E",
"q(+	c #721F1C",
"r(+	c #75211F",
"s(+	c #781B18",
"t(+	c #7B1C1A",
"u(+	c #7E1C1A",
"v(+	c #7F1F1A",
"w(+	c #831D1A",
"x(+	c #87211D",
"y(+	c #88201D",
"z(+	c #8E201E",
"A(+	c #8D1C19",
"B(+	c #8C2320",
"C(+	c #922624",
"D(+	c #94221F",
"E(+	c #8F1F1C",
"F(+	c #961F1B",
"G(+	c #9F211D",
"H(+	c #A4211E",
"I(+	c #A21F1D",
"J(+	c #A81E1C",
"K(+	c #A61F1C",
"L(+	c #A91E1C",
"M(+	c #A71F1C",
"N(+	c #AD211F",
"O(+	c #A81F1C",
"P(+	c #AB1F1C",
"Q(+	c #AC201E",
"R(+	c #B8211E",
"S(+	c #B6201D",
"T(+	c #C2201E",
"U(+	c #BF2520",
"V(+	c #C62721",
"W(+	c #C3241E",
"X(+	c #C7231D",
"Y(+	c #CB2422",
"Z(+	c #CA2321",
"`(+	c #D02726",
" _+	c #CD2522",
"._+	c #D02623",
"+_+	c #D62C2B",
"@_+	c #DB3634",
"#_+	c #DD3230",
"$_+	c #E03532",
"%_+	c #DB3231",
"&_+	c #DF3331",
"*_+	c #E43736",
"=_+	c #ED3C3E",
"-_+	c #EB3D3E",
";_+	c #ED3E40",
">_+	c #EA3C3D",
",_+	c #E53636",
"'_+	c #E93B3B",
")_+	c #E03737",
"!_+	c #D93332",
"~_+	c #E3393A",
"{_+	c #EA413E",
"]_+	c #F75550",
"^_+	c #F45B56",
"/_+	c #F56059",
"(_+	c #EF5E57",
"__+	c #F15F57",
":_+	c #E75851",
"<_+	c #CD4C47",
"[_+	c #A33835",
"}_+	c #7E2926",
"|_+	c #651D1E",
"1_+	c #621718",
"2_+	c #651515",
"3_+	c #6A1C1A",
"4_+	c #6B2020",
"5_+	c #6B1F20",
"6_+	c #6E2122",
"7_+	c #6B1F1F",
"8_+	c #742925",
"9_+	c #732826",
"0_+	c #711F20",
"a_+	c #6A1E1D",
"b_+	c #671414",
"c_+	c #620E0D",
"d_+	c #710F0E",
"e_+	c #340D0C",
"f_+	c #360909",
"g_+	c #390909",
"h_+	c #461A18",
"i_+	c #451A19",
"j_+	c #421A1A",
"k_+	c #3F0C0C",
"l_+	c #441011",
"m_+	c #4C1314",
"n_+	c #551616",
"o_+	c #5B1515",
"p_+	c #5F2121",
"q_+	c #5F1D1B",
"r_+	c #581112",
"s_+	c #5A1A19",
"t_+	c #5A1B19",
"u_+	c #511717",
"v_+	c #480D0C",
"w_+	c #460B0B",
"x_+	c #39100F",
"y_+	c #320D0C",
"z_+	c #35100F",
"A_+	c #351313",
"B_+	c #381211",
"C_+	c #3A1313",
"D_+	c #863D3B",
"E_+	c #794B4A",
"F_+	c #6A5E4E",
"G_+	c #745D3C",
"H_+	c #615330",
"I_+	c #443822",
"J_+	c #3C3420",
"K_+	c #52472E",
"L_+	c #5B4F36",
"M_+	c #625540",
"N_+	c #6B604C",
"O_+	c #6D6149",
"P_+	c #6B614D",
"Q_+	c #6C5F4E",
"R_+	c #6C614E",
"S_+	c #6A5E4A",
"T_+	c #51452E",
"U_+	c #423925",
"V_+	c #503327",
"W_+	c #582625",
"X_+	c #602826",
"Y_+	c #602625",
"Z_+	c #5F2424",
"`_+	c #622222",
" :+	c #631B1A",
".:+	c #682320",
"+:+	c #6B1D1A",
"@:+	c #711B18",
"#:+	c #761817",
"$:+	c #7D2221",
"%:+	c #841F1C",
"&:+	c #86201C",
"*:+	c #891D1A",
"=:+	c #861A18",
"-:+	c #851F1C",
";:+	c #892320",
">:+	c #91221F",
",:+	c #94221E",
"':+	c #94231F",
"):+	c #942524",
"!:+	c #991E19",
"~:+	c #A3201D",
"{:+	c #A31E1C",
"]:+	c #A61D1A",
"^:+	c #A31B19",
"/:+	c #A71E1C",
"(:+	c #AB1D1A",
"_:+	c #AA1D1A",
"::+	c #AC1E1C",
"<:+	c #AE221E",
"[:+	c #B42422",
"}:+	c #B92321",
"|:+	c #AF2320",
"1:+	c #AC201D",
"2:+	c #B0201E",
"3:+	c #B01C19",
"4:+	c #B21D1A",
"5:+	c #B11E1B",
"6:+	c #B01F1B",
"7:+	c #B71F1D",
"8:+	c #BD211E",
"9:+	c #C2221F",
"0:+	c #C4221D",
"a:+	c #C82523",
"b:+	c #C42221",
"c:+	c #C82522",
"d:+	c #CA2624",
"e:+	c #CE2725",
"f:+	c #D02C2A",
"g:+	c #D22A28",
"h:+	c #D5302C",
"i:+	c #DD3332",
"j:+	c #E13431",
"k:+	c #E33330",
"l:+	c #DF3432",
"m:+	c #E43535",
"n:+	c #E33937",
"o:+	c #E83A3A",
"p:+	c #EA3D3E",
"q:+	c #E83C3B",
"r:+	c #E43A39",
"s:+	c #E93A39",
"t:+	c #E33A3A",
"u:+	c #E43B3A",
"v:+	c #E13837",
"w:+	c #E43939",
"x:+	c #E03837",
"y:+	c #F24D4A",
"z:+	c #F2534D",
"A:+	c #F55953",
"B:+	c #ED5B54",
"C:+	c #F15B55",
"D:+	c #F15E57",
"E:+	c #EC5A53",
"F:+	c #E75651",
"G:+	c #C74943",
"H:+	c #9B3733",
"I:+	c #772222",
"J:+	c #611617",
"K:+	c #641815",
"L:+	c #681C19",
"M:+	c #691C1C",
"N:+	c #691E1E",
"O:+	c #6C2423",
"P:+	c #6A1E1F",
"Q:+	c #6D1F21",
"R:+	c #6E2022",
"S:+	c #6D1E1C",
"T:+	c #6F1F1C",
"U:+	c #6C1D1C",
"V:+	c #701E1E",
"W:+	c #722421",
"X:+	c #702524",
"Y:+	c #6B1C1D",
"Z:+	c #6B191A",
"`:+	c #651010",
" <+	c #640F0E",
".<+	c #6B0E0D",
"+<+	c #360707",
"@<+	c #350706",
"#<+	c #360808",
"$<+	c #401311",
"%<+	c #441715",
"&<+	c #3A0908",
"*<+	c #3C0809",
"=<+	c #622424",
"-<+	c #5A100F",
";<+	c #570F0E",
"><+	c #5A1213",
",<+	c #561112",
"'<+	c #581A18",
")<+	c #5B1B19",
"!<+	c #460C0C",
"~<+	c #311212",
"{<+	c #310D0C",
"]<+	c #330F0F",
"^<+	c #361513",
"/<+	c #371111",
"(<+	c #682424",
"_<+	c #642524",
":<+	c #843736",
"<<+	c #8C4C4C",
"[<+	c #695A43",
"}<+	c #725A38",
"|<+	c #6E5F3A",
"1<+	c #413920",
"2<+	c #4D442D",
"3<+	c #5B5036",
"4<+	c #60533D",
"5<+	c #685B44",
"6<+	c #6D604A",
"7<+	c #6D6250",
"8<+	c #665A48",
"9<+	c #695C48",
"0<+	c #5C5037",
"a<+	c #362E1B",
"b<+	c #3A321F",
"c<+	c #4C412A",
"d<+	c #51372B",
"e<+	c #582A28",
"f<+	c #5A2322",
"g<+	c #5C2524",
"h<+	c #5F2523",
"i<+	c #602524",
"j<+	c #5E2020",
"k<+	c #6B2724",
"l<+	c #6B2220",
"m<+	c #6B2624",
"n<+	c #6E1A19",
"o<+	c #701917",
"p<+	c #711C1B",
"q<+	c #721816",
"r<+	c #741D1B",
"s<+	c #771D1B",
"t<+	c #761E1A",
"u<+	c #7D1A15",
"v<+	c #821E1A",
"w<+	c #851F1A",
"x<+	c #841E1B",
"y<+	c #831F1C",
"z<+	c #84201C",
"A<+	c #881A17",
"B<+	c #8F221E",
"C<+	c #921D1A",
"D<+	c #972320",
"E<+	c #91211B",
"F<+	c #992725",
"G<+	c #982522",
"H<+	c #A01E1C",
"I<+	c #A2201D",
"J<+	c #9F1D1A",
"K<+	c #A21C1A",
"L<+	c #A7201D",
"M<+	c #A71E1B",
"N<+	c #A9201D",
"O<+	c #AC2422",
"P<+	c #A41E1B",
"Q<+	c #AB201E",
"R<+	c #AA1F1C",
"S<+	c #AE1E1B",
"T<+	c #AB1F1B",
"U<+	c #C52320",
"V<+	c #C72623",
"W<+	c #C32523",
"X<+	c #C72522",
"Y<+	c #C72723",
"Z<+	c #CD2825",
"`<+	c #C82320",
" [+	c #CC2521",
".[+	c #D22523",
"+[+	c #D52C28",
"@[+	c #D32B2A",
"#[+	c #D4302B",
"$[+	c #DC312D",
"%[+	c #DE302E",
"&[+	c #E0322E",
"*[+	c #DE3331",
"=[+	c #DE3130",
"-[+	c #DA312E",
";[+	c #E03332",
">[+	c #E63736",
",[+	c #E23A3B",
"'[+	c #E63B3A",
")[+	c #EA3C3B",
"![+	c #E03B3A",
"~[+	c #F1534E",
"{[+	c #EF5751",
"][+	c #EF5B54",
"^[+	c #EA5751",
"/[+	c #E1524D",
"([+	c #BD4441",
"_[+	c #963230",
":[+	c #661D1D",
"<[+	c #621A1A",
"[[+	c #661818",
"}[+	c #681918",
"|[+	c #691E1D",
"1[+	c #702324",
"2[+	c #6A1F1F",
"3[+	c #691C1D",
"4[+	c #6E1F1C",
"5[+	c #6B1917",
"6[+	c #6D1919",
"7[+	c #6B1A18",
"8[+	c #6E1F1E",
"9[+	c #6E2420",
"0[+	c #6D201F",
"a[+	c #721B1B",
"b[+	c #6E1A1B",
"c[+	c #6D1616",
"d[+	c #6C1A19",
"e[+	c #702723",
"f[+	c #6C1E1E",
"g[+	c #5F0E0D",
"h[+	c #6D0E0D",
"i[+	c #560C0B",
"j[+	c #350707",
"k[+	c #3A0A09",
"l[+	c #400F10",
"m[+	c #3E0A0A",
"n[+	c #521312",
"o[+	c #591716",
"p[+	c #612323",
"q[+	c #631F1D",
"r[+	c #560F0E",
"s[+	c #5C2221",
"t[+	c #561818",
"u[+	c #4F1110",
"v[+	c #450C0C",
"w[+	c #460E0D",
"x[+	c #361917",
"y[+	c #321311",
"z[+	c #321111",
"A[+	c #361516",
"B[+	c #813634",
"C[+	c #814846",
"D[+	c #6D614A",
"E[+	c #6E5E3B",
"F[+	c #675936",
"G[+	c #403820",
"H[+	c #413823",
"I[+	c #50442D",
"J[+	c #6B604A",
"K[+	c #6D5E46",
"L[+	c #60553B",
"M[+	c #463C24",
"N[+	c #49412A",
"O[+	c #533B2F",
"P[+	c #572E2B",
"Q[+	c #5B2E2C",
"R[+	c #5D2927",
"S[+	c #5F2322",
"T[+	c #622120",
"U[+	c #63201D",
"V[+	c #692322",
"W[+	c #69221E",
"X[+	c #6B221F",
"Y[+	c #6D1F1D",
"Z[+	c #711E1C",
"`[+	c #731916",
" }+	c #721C18",
".}+	c #751E19",
"+}+	c #861F1B",
"@}+	c #851D1A",
"#}+	c #821D19",
"$}+	c #831B18",
"%}+	c #822422",
"&}+	c #8A2623",
"*}+	c #891F1A",
"=}+	c #921C19",
"-}+	c #8A1D1A",
";}+	c #90201C",
">}+	c #911E1B",
",}+	c #981F1C",
"'}+	c #991E1C",
")}+	c #9E1F1D",
"!}+	c #A01B18",
"~}+	c #A11917",
"{}+	c #A41F1D",
"]}+	c #A11D1B",
"^}+	c #A31F1C",
"/}+	c #A81E1A",
"(}+	c #A9221F",
"_}+	c #AA201E",
":}+	c #AA201D",
"<}+	c #A81D1A",
"[}+	c #A81C19",
"}}+	c #B5221F",
"|}+	c #B72520",
"1}+	c #B51F1C",
"2}+	c #BD231F",
"3}+	c #C62320",
"4}+	c #C72523",
"5}+	c #C92320",
"6}+	c #C32320",
"7}+	c #C32421",
"8}+	c #C32623",
"9}+	c #C62724",
"0}+	c #CB2925",
"a}+	c #CE2825",
"b}+	c #D42A27",
"c}+	c #D22826",
"d}+	c #D42B26",
"e}+	c #CD2A28",
"f}+	c #D52F2C",
"g}+	c #DC2E2B",
"h}+	c #DA3030",
"i}+	c #DF302D",
"j}+	c #DE312F",
"k}+	c #E13432",
"l}+	c #E03635",
"m}+	c #E53838",
"n}+	c #E83838",
"o}+	c #E53938",
"p}+	c #E73939",
"q}+	c #E6393B",
"r}+	c #E23E3D",
"s}+	c #EA4845",
"t}+	c #EA514C",
"u}+	c #E4524C",
"v}+	c #E85450",
"w}+	c #E4534E",
"x}+	c #DB514A",
"y}+	c #BB433F",
"z}+	c #8C2E2C",
"A}+	c #742222",
"B}+	c #671919",
"C}+	c #692021",
"D}+	c #69201E",
"E}+	c #6C2121",
"F}+	c #691A19",
"G}+	c #6B1818",
"H}+	c #6E1F1B",
"I}+	c #6B1B1A",
"J}+	c #732A28",
"K}+	c #6C1515",
"L}+	c #6A1919",
"M}+	c #691515",
"N}+	c #6A1515",
"O}+	c #711F1F",
"P}+	c #6E2625",
"Q}+	c #6C2122",
"R}+	c #6A1818",
"S}+	c #671312",
"T}+	c #6A0E0D",
"U}+	c #2E0605",
"V}+	c #370807",
"W}+	c #431B1B",
"X}+	c #451C1C",
"Y}+	c #421B1B",
"Z}+	c #400B0B",
"`}+	c #390607",
" |+	c #5B1614",
".|+	c #590F0F",
"+|+	c #560E0E",
"@|+	c #580F0F",
"#|+	c #551414",
"$|+	c #57201F",
"%|+	c #5A2121",
"&|+	c #4B0F0D",
"*|+	c #450B0B",
"=|+	c #440C0B",
"-|+	c #460D0D",
";|+	c #420C0B",
">|+	c #3A0E0D",
",|+	c #330E0D",
"'|+	c #321414",
")|+	c #331513",
"!|+	c #351210",
"~|+	c #371313",
"{|+	c #341010",
"]|+	c #391717",
"^|+	c #361818",
"/|+	c #5D1E1E",
"(|+	c #642222",
"_|+	c #8A4948",
":|+	c #715E40",
"<|+	c #6B5D3A",
"[|+	c #625533",
"}|+	c #685744",
"||+	c #6A5E49",
"1|+	c #655A46",
"2|+	c #695D49",
"3|+	c #6C5F49",
"4|+	c #544528",
"5|+	c #352B16",
"6|+	c #332C19",
"7|+	c #413A23",
"8|+	c #533F2C",
"9|+	c #5A2A29",
"0|+	c #5B2C2A",
"a|+	c #5C2320",
"b|+	c #5D201F",
"c|+	c #622020",
"d|+	c #652523",
"e|+	c #672424",
"f|+	c #6B2927",
"g|+	c #761B18",
"h|+	c #801D1B",
"i|+	c #86201D",
"j|+	c #811B18",
"k|+	c #801916",
"l|+	c #811F1C",
"m|+	c #86221E",
"n|+	c #851D19",
"o|+	c #881E1B",
"p|+	c #921E1C",
"q|+	c #972622",
"r|+	c #8C1B17",
"s|+	c #891B19",
"t|+	c #8E2420",
"u|+	c #8A1A18",
"v|+	c #8E1D19",
"w|+	c #941F1D",
"x|+	c #9A1D1B",
"y|+	c #9E1915",
"z|+	c #A31D1A",
"A|+	c #A01C19",
"B|+	c #A51C1A",
"C|+	c #A91F1D",
"D|+	c #A8211C",
"E|+	c #AC2320",
"F|+	c #AB1E1C",
"G|+	c #A41E1C",
"H|+	c #A41C19",
"I|+	c #AA201C",
"J|+	c #A61B18",
"K|+	c #AE201E",
"L|+	c #B4211F",
"M|+	c #B72320",
"N|+	c #B7221F",
"O|+	c #BF2321",
"P|+	c #C72321",
"Q|+	c #C4221E",
"R|+	c #C72521",
"S|+	c #C62522",
"T|+	c #CB2825",
"U|+	c #CA2825",
"V|+	c #CF2623",
"W|+	c #D22823",
"X|+	c #CF2D2C",
"Y|+	c #CD2A26",
"Z|+	c #DC302C",
"`|+	c #DF302E",
" 1+	c #DC3130",
".1+	c #DE3230",
"+1+	c #D93131",
"@1+	c #D92D2A",
"#1+	c #DE322F",
"$1+	c #E23634",
"%1+	c #E13636",
"&1+	c #E93C3D",
"*1+	c #E43938",
"=1+	c #E23F3E",
"-1+	c #DF4844",
";1+	c #E4514D",
">1+	c #DB4C47",
",1+	c #DE4D47",
"'1+	c #E14F49",
")1+	c #D34C46",
"!1+	c #B23E3B",
"~1+	c #862B2B",
"{1+	c #712121",
"]1+	c #681F20",
"^1+	c #621E1F",
"/1+	c #601514",
"(1+	c #671A18",
"_1+	c #661919",
":1+	c #6C2A29",
"<1+	c #6B1D1E",
"[1+	c #6A1817",
"}1+	c #681817",
"|1+	c #6B1918",
"11+	c #6C1B1A",
"21+	c #691818",
"31+	c #6C1817",
"41+	c #691615",
"51+	c #701C1B",
"61+	c #6F1B19",
"71+	c #6D1B19",
"81+	c #671212",
"91+	c #6A1617",
"01+	c #681717",
"a1+	c #6F2321",
"b1+	c #621010",
"c1+	c #6F0E0D",
"d1+	c #550C0B",
"e1+	c #330706",
"f1+	c #360907",
"g1+	c #3C0C0B",
"h1+	c #451B1A",
"i1+	c #461C1C",
"j1+	c #411717",
"k1+	c #3F1616",
"l1+	c #3E0909",
"m1+	c #370606",
"n1+	c #601F1D",
"o1+	c #550E0E",
"p1+	c #59100F",
"q1+	c #550F0E",
"r1+	c #53100E",
"s1+	c #531313",
"t1+	c #592020",
"u1+	c #551817",
"v1+	c #531A1A",
"w1+	c #4F1616",
"x1+	c #470D0B",
"y1+	c #4A0D0C",
"z1+	c #470C0B",
"A1+	c #400C0B",
"B1+	c #311211",
"C1+	c #3B1919",
"D1+	c #391312",
"E1+	c #571B1B",
"F1+	c #702C29",
"G1+	c #914A48",
"H1+	c #71623E",
"I1+	c #53472B",
"J1+	c #443D27",
"K1+	c #675948",
"L1+	c #6B5F4D",
"M1+	c #6A5D4C",
"N1+	c #6B5D48",
"O1+	c #51452C",
"P1+	c #322B18",
"Q1+	c #2A2413",
"R1+	c #413623",
"S1+	c #483C28",
"T1+	c #52302A",
"U1+	c #582A29",
"V1+	c #592C2A",
"W1+	c #5C2624",
"X1+	c #5F2928",
"Y1+	c #622423",
"Z1+	c #632222",
"`1+	c #622121",
" 2+	c #652423",
".2+	c #652422",
"+2+	c #682624",
"@2+	c #6B2524",
"#2+	c #6E2826",
"$2+	c #6C1915",
"%2+	c #6E1915",
"&2+	c #701B18",
"*2+	c #742321",
"=2+	c #752120",
"-2+	c #7F2B2A",
";2+	c #822424",
">2+	c #7E1A17",
",2+	c #7D1D19",
"'2+	c #852423",
")2+	c #8A2320",
"!2+	c #851E1B",
"~2+	c #8F1E1C",
"{2+	c #8F1D1C",
"]2+	c #8A1C19",
"^2+	c #8A231F",
"/2+	c #8A211D",
"(2+	c #891F1C",
"_2+	c #8C1E1B",
":2+	c #901C19",
"<2+	c #971E19",
"[2+	c #991C19",
"}2+	c #A2221E",
"|2+	c #9F1C1A",
"12+	c #A11D19",
"22+	c #A21E1B",
"32+	c #A51F1D",
"42+	c #A61F1E",
"52+	c #AC211F",
"62+	c #AE1F1C",
"72+	c #AD1E1B",
"82+	c #AA1F1D",
"92+	c #AA1E1B",
"02+	c #A41B18",
"a2+	c #A91E1B",
"b2+	c #A91D19",
"c2+	c #AB211F",
"d2+	c #B2201F",
"e2+	c #B2201D",
"f2+	c #C12521",
"g2+	c #C8221F",
"h2+	c #C7221F",
"i2+	c #C92724",
"j2+	c #C52521",
"k2+	c #C62523",
"l2+	c #C42423",
"m2+	c #C92520",
"n2+	c #CF2522",
"o2+	c #D32623",
"p2+	c #D22C28",
"q2+	c #D02A28",
"r2+	c #CC2C28",
"s2+	c #CE2C29",
"t2+	c #CF2A25",
"u2+	c #D9302D",
"v2+	c #D82F2C",
"w2+	c #DD302B",
"x2+	c #DB2D29",
"y2+	c #D62A29",
"z2+	c #D92B28",
"A2+	c #D72C2A",
"B2+	c #DD2F2E",
"C2+	c #DD302F",
"D2+	c #DA312F",
"E2+	c #EA3B3B",
"F2+	c #E53B39",
"G2+	c #DB3838",
"H2+	c #D9423F",
"I2+	c #DE4845",
"J2+	c #DE4C47",
"K2+	c #D74A43",
"L2+	c #DB4D48",
"M2+	c #CA4944",
"N2+	c #A93A37",
"O2+	c #7F2A29",
"P2+	c #732322",
"Q2+	c #692122",
"R2+	c #621717",
"S2+	c #621818",
"T2+	c #681E1C",
"U2+	c #6A2424",
"V2+	c #661E1E",
"W2+	c #6C191A",
"X2+	c #691716",
"Y2+	c #681715",
"Z2+	c #691617",
"`2+	c #681616",
" 3+	c #691B1B",
".3+	c #6B1B19",
"+3+	c #6C1717",
"@3+	c #6F1717",
"#3+	c #691312",
"$3+	c #6C1815",
"%3+	c #661312",
"&3+	c #661212",
"*3+	c #691513",
"=3+	c #6B1515",
"-3+	c #6B1C1C",
";3+	c #6C1D1D",
">3+	c #640E0D",
",3+	c #680E0D",
"'3+	c #620C0B",
")3+	c #300808",
"!3+	c #421717",
"~3+	c #441B1B",
"{3+	c #411516",
"]3+	c #3F0C0B",
"^3+	c #3D0808",
"/3+	c #4F1313",
"(3+	c #570F0F",
"_3+	c #540E0D",
":3+	c #551010",
"<3+	c #541A1A",
"[3+	c #501414",
"}3+	c #410C0B",
"|3+	c #430C0B",
"13+	c #310E0D",
"23+	c #351513",
"33+	c #381513",
"43+	c #381819",
"53+	c #3E1616",
"63+	c #6F2929",
"73+	c #8B4442",
"83+	c #756645",
"93+	c #736340",
"03+	c #493E24",
"a3+	c #312A1A",
"b3+	c #352E1A",
"c3+	c #564834",
"d3+	c #685944",
"e3+	c #6A5F4B",
"f3+	c #63533B",
"g3+	c #443923",
"h3+	c #2C2514",
"i3+	c #3B331F",
"j3+	c #4D442E",
"k3+	c #4D3028",
"l3+	c #592F2C",
"m3+	c #5B302D",
"n3+	c #5A2624",
"o3+	c #5B2825",
"p3+	c #5E2A2A",
"q3+	c #5B211F",
"r3+	c #5D1F1E",
"s3+	c #642220",
"t3+	c #692623",
"u3+	c #6A2320",
"v3+	c #6F2C2B",
"w3+	c #6F2D2B",
"x3+	c #6C1E1C",
"y3+	c #6E1D1A",
"z3+	c #701C18",
"A3+	c #772421",
"B3+	c #7B2625",
"C3+	c #7C1F1C",
"D3+	c #7D1917",
"E3+	c #842320",
"F3+	c #872523",
"G3+	c #86231F",
"H3+	c #89231F",
"I3+	c #8B1B18",
"J3+	c #8C1F1C",
"K3+	c #881C18",
"L3+	c #891B18",
"M3+	c #8F201C",
"N3+	c #991A16",
"O3+	c #A1211F",
"P3+	c #A11C17",
"Q3+	c #A1211D",
"R3+	c #AD201E",
"S3+	c #AF1E1A",
"T3+	c #B0211E",
"U3+	c #AD1D18",
"V3+	c #AB1C1A",
"W3+	c #A61D1B",
"X3+	c #A91E1A",
"Y3+	c #A61C18",
"Z3+	c #B4201D",
"`3+	c #B9211D",
" 4+	c #BA231F",
".4+	c #BE2522",
"+4+	c #C1211E",
"@4+	c #CA221F",
"#4+	c #C72725",
"$4+	c #C62623",
"%4+	c #CB2623",
"&4+	c #D02C29",
"*4+	c #CB2C28",
"=4+	c #C82C29",
"-4+	c #CB2726",
";4+	c #D62F2A",
">4+	c #DA302C",
",4+	c #DE2F2E",
"'4+	c #DA302F",
")4+	c #DB2D2B",
"!4+	c #DB2F2E",
"~4+	c #DB3738",
"{4+	c #DF4641",
"]4+	c #DD4C45",
"^4+	c #DD4A44",
"/4+	c #D74943",
"(4+	c #D94B44",
"_4+	c #C84642",
":4+	c #A23834",
"<4+	c #722122",
"[4+	c #601515",
"}4+	c #641A19",
"|4+	c #641E1C",
"14+	c #641D1C",
"24+	c #691A1B",
"34+	c #681718",
"44+	c #671514",
"54+	c #641212",
"64+	c #651313",
"74+	c #6A1A17",
"84+	c #6D2424",
"94+	c #661314",
"04+	c #671111",
"a4+	c #661313",
"b4+	c #6E2421",
"c4+	c #681C1C",
"d4+	c #640E0E",
"e4+	c #710D0D",
"f4+	c #540B0A",
"g4+	c #300606",
"h4+	c #360706",
"i4+	c #411817",
"j4+	c #3D0909",
"k4+	c #521212",
"l4+	c #5D1D1D",
"m4+	c #590F0E",
"n4+	c #530E0D",
"o4+	c #531314",
"p4+	c #562020",
"q4+	c #541717",
"r4+	c #511617",
"s4+	c #440B0B",
"t4+	c #450C0B",
"u4+	c #3D0B0A",
"v4+	c #340E0E",
"w4+	c #331412",
"x4+	c #371512",
"y4+	c #361616",
"z4+	c #39191A",
"A4+	c #934442",
"B4+	c #6A5E47",
"C4+	c #796B4A",
"D4+	c #72633F",
"E4+	c #272112",
"F4+	c #60503C",
"G4+	c #685C49",
"H4+	c #695E4A",
"I4+	c #66593E",
"J4+	c #4D4328",
"K4+	c #322A17",
"L4+	c #403724",
"M4+	c #462D22",
"N4+	c #572C2A",
"O4+	c #5B2B29",
"P4+	c #5B2826",
"Q4+	c #5D2A29",
"R4+	c #5C2020",
"S4+	c #602322",
"T4+	c #61201E",
"U4+	c #641B19",
"V4+	c #6D2D2C",
"W4+	c #6D2B29",
"X4+	c #6F2927",
"Y4+	c #702D2B",
"Z4+	c #6D2623",
"`4+	c #742223",
" 5+	c #772221",
".5+	c #781919",
"+5+	c #7F1E1C",
"@5+	c #82221F",
"#5+	c #831F1A",
"$5+	c #86211C",
"%5+	c #8A211E",
"&5+	c #8B1E1B",
"*5+	c #902825",
"=5+	c #91201E",
"-5+	c #8C1D1A",
";5+	c #89211D",
">5+	c #8D1D19",
",5+	c #9F1B17",
"'5+	c #A41F1C",
")5+	c #AD201F",
"!5+	c #AD1F1C",
"~5+	c #AE2220",
"{5+	c #B02220",
"]5+	c #AF1E1B",
"^5+	c #AA1B18",
"/5+	c #A71C19",
"(5+	c #A61C19",
"_5+	c #AC211E",
":5+	c #B8221F",
"<5+	c #C12422",
"[5+	c #C82622",
"}5+	c #C82520",
"|5+	c #C32521",
"15+	c #CE2722",
"25+	c #D22F2D",
"35+	c #CA2C27",
"45+	c #C82A25",
"55+	c #C82825",
"65+	c #CF2C27",
"75+	c #D22A26",
"85+	c #D92D2C",
"95+	c #E0302E",
"05+	c #DB2F2D",
"a5+	c #DD2D2B",
"b5+	c #D82D2B",
"c5+	c #D52A27",
"d5+	c #E33836",
"e5+	c #E43634",
"f5+	c #E0413E",
"g5+	c #DC4741",
"h5+	c #DE4942",
"i5+	c #D84844",
"j5+	c #DA4D47",
"k5+	c #CB4843",
"l5+	c #9F3733",
"m5+	c #7E2826",
"n5+	c #6A1F20",
"o5+	c #5E191B",
"p5+	c #641B1B",
"q5+	c #681B1B",
"r5+	c #671616",
"s5+	c #641414",
"t5+	c #671718",
"u5+	c #621212",
"v5+	c #631313",
"w5+	c #6C221F",
"x5+	c #681716",
"y5+	c #6A1717",
"z5+	c #6E1717",
"A5+	c #6C1615",
"B5+	c #6B1414",
"C5+	c #671313",
"D5+	c #651212",
"E5+	c #691C1A",
"F5+	c #6A1D1E",
"G5+	c #5E0E0F",
"H5+	c #690E0D",
"I5+	c #650E0C",
"J5+	c #2E0505",
"K5+	c #350808",
"L5+	c #3B0A08",
"M5+	c #441A19",
"N5+	c #411919",
"O5+	c #390606",
"P5+	c #39090A",
"Q5+	c #511312",
"R5+	c #551514",
"S5+	c #5A0F0F",
"T5+	c #580F0E",
"U5+	c #550E0C",
"V5+	c #570F0D",
"W5+	c #59100E",
"X5+	c #530F0E",
"Y5+	c #53110F",
"Z5+	c #592322",
"`5+	c #561F1F",
" 6+	c #440D0C",
".6+	c #400B0A",
"+6+	c #3D0B0B",
"@6+	c #3E0C0B",
"#6+	c #3E0F0E",
"$6+	c #361411",
"%6+	c #381412",
"&6+	c #60201F",
"*6+	c #672525",
"=6+	c #A24543",
"-6+	c #70613E",
";6+	c #685937",
">6+	c #3B311B",
",6+	c #2D2614",
"'6+	c #413925",
")6+	c #635543",
"!6+	c #6C614D",
"~6+	c #655944",
"{6+	c #534223",
"]6+	c #574A33",
"^6+	c #463124",
"/6+	c #552C2A",
"(6+	c #562927",
"_6+	c #5D2727",
":6+	c #5E2828",
"<6+	c #5C2423",
"[6+	c #692827",
"}6+	c #6E2F2E",
"|6+	c #703031",
"16+	c #6D1F1C",
"26+	c #712725",
"36+	c #762829",
"46+	c #7E2320",
"56+	c #7C1C1A",
"66+	c #82211C",
"76+	c #85201C",
"86+	c #851B17",
"96+	c #88221D",
"06+	c #8C1E1A",
"a6+	c #93221D",
"b6+	c #92221F",
"c6+	c #8F211F",
"d6+	c #871A16",
"e6+	c #94201C",
"f6+	c #981B16",
"g6+	c #9F1E1B",
"h6+	c #A31C19",
"i6+	c #A01E1B",
"j6+	c #A51F1C",
"k6+	c #AD211D",
"l6+	c #B11D1A",
"m6+	c #B01D1A",
"n6+	c #B12220",
"o6+	c #AD1B18",
"p6+	c #A91B17",
"q6+	c #AB1C19",
"r6+	c #AB1E1B",
"s6+	c #B61F1B",
"t6+	c #C92522",
"u6+	c #C42823",
"v6+	c #C4231E",
"w6+	c #CA2A26",
"x6+	c #CD2C27",
"y6+	c #CD2E2A",
"z6+	c #CC2C27",
"A6+	c #CA2D28",
"B6+	c #C92B27",
"C6+	c #C92B26",
"D6+	c #CB2723",
"E6+	c #CC2A25",
"F6+	c #CB2A26",
"G6+	c #D92C28",
"H6+	c #DA2E29",
"I6+	c #E23231",
"J6+	c #DF312F",
"K6+	c #E0302D",
"L6+	c #D82C29",
"M6+	c #DE2F2D",
"N6+	c #E0302F",
"O6+	c #DD4641",
"P6+	c #E14B45",
"Q6+	c #E24D48",
"R6+	c #DE4D46",
"S6+	c #D34944",
"T6+	c #A03734",
"U6+	c #7E2828",
"V6+	c #642022",
"W6+	c #601D1E",
"X6+	c #5D1715",
"Y6+	c #621B1B",
"Z6+	c #651C1C",
"`6+	c #621314",
" 7+	c #671816",
".7+	c #631211",
"+7+	c #641211",
"@7+	c #651616",
"#7+	c #6B2121",
"$7+	c #6B1717",
"%7+	c #71201C",
"&7+	c #6A1314",
"*7+	c #6B1413",
"=7+	c #661211",
"-7+	c #631011",
";7+	c #661111",
">7+	c #671211",
",7+	c #681615",
"'7+	c #651919",
")7+	c #671C1C",
"!7+	c #691F20",
"~7+	c #6D1D1D",
"{7+	c #620E0F",
"]7+	c #610D0D",
"^7+	c #770E0E",
"/7+	c #500B0A",
"(7+	c #310808",
"_7+	c #3B0A09",
":7+	c #370505",
"<7+	c #3A100F",
"[7+	c #551412",
"}7+	c #521210",
"|7+	c #531312",
"17+	c #5C2323",
"27+	c #5B2323",
"37+	c #5D1A18",
"47+	c #5B100F",
"57+	c #5A100E",
"67+	c #560F0D",
"77+	c #58100E",
"87+	c #520E0D",
"97+	c #540F0D",
"07+	c #50100E",
"a7+	c #52110F",
"b7+	c #521211",
"c7+	c #4E1111",
"d7+	c #551D1D",
"e7+	c #56201F",
"f7+	c #4D1515",
"g7+	c #440E0C",
"h7+	c #420C0C",
"i7+	c #430D0C",
"j7+	c #410D0C",
"k7+	c #3E0D0B",
"l7+	c #3A0D0C",
"m7+	c #350F0E",
"n7+	c #340D0D",
"o7+	c #32110F",
"p7+	c #3B1414",
"q7+	c #612020",
"r7+	c #662323",
"s7+	c #672625",
"t7+	c #913D3A",
"u7+	c #764A4A",
"v7+	c #706147",
"w7+	c #6F613F",
"x7+	c #605433",
"y7+	c #3F3620",
"z7+	c #544835",
"A7+	c #695B4A",
"B7+	c #6E624B",
"C7+	c #5F5538",
"D7+	c #3A321E",
"E7+	c #443525",
"F7+	c #53302D",
"G7+	c #592B2A",
"H7+	c #5A2F2D",
"I7+	c #592E2C",
"J7+	c #5A2D2C",
"K7+	c #5D2A2A",
"L7+	c #602A29",
"M7+	c #632D2B",
"N7+	c #622323",
"O7+	c #64211D",
"P7+	c #662624",
"Q7+	c #6C3331",
"R7+	c #703232",
"S7+	c #6E2828",
"T7+	c #731C19",
"U7+	c #761E1C",
"V7+	c #772320",
"W7+	c #791D1B",
"X7+	c #7F221F",
"Y7+	c #86221F",
"Z7+	c #8C1C1A",
"`7+	c #8F211D",
" 8+	c #8E201C",
".8+	c #851C19",
"+8+	c #8E1916",
"@8+	c #911D19",
"#8+	c #991D1A",
"$8+	c #A21B18",
"%8+	c #9D1C18",
"&8+	c #9E1E1B",
"*8+	c #AB211D",
"=8+	c #A82320",
"-8+	c #AA1C19",
";8+	c #AF201E",
">8+	c #AD1C19",
",8+	c #AC1B18",
"'8+	c #AE1F1D",
")8+	c #AD1F1D",
"!8+	c #AE201C",
"~8+	c #B7221E",
"{8+	c #BF221E",
"]8+	c #C7211E",
"^8+	c #C82725",
"/8+	c #CA2A25",
"(8+	c #C52623",
"_8+	c #CF2A27",
":8+	c #CC2C26",
"<8+	c #C52925",
"[8+	c #C82A27",
"}8+	c #C42926",
"|8+	c #C32A26",
"18+	c #C72924",
"28+	c #CC2A27",
"38+	c #D32A27",
"48+	c #E1302F",
"58+	c #DB2E2C",
"68+	c #DC2D2A",
"78+	c #DC3331",
"88+	c #DD3535",
"98+	c #E5413E",
"08+	c #E34B46",
"a8+	c #E34C47",
"b8+	c #DD4A45",
"c8+	c #DD4C47",
"d8+	c #BA423E",
"e8+	c #852D2B",
"f8+	c #601314",
"g8+	c #631112",
"h8+	c #611111",
"i8+	c #621111",
"j8+	c #631212",
"k8+	c #661615",
"l8+	c #661A18",
"m8+	c #6A1D1D",
"n8+	c #6C1918",
"o8+	c #6A1616",
"p8+	c #711E1D",
"q8+	c #701A18",
"r8+	c #6A1716",
"s8+	c #6B1613",
"t8+	c #671515",
"u8+	c #651414",
"v8+	c #5D0F10",
"w8+	c #6D0F0E",
"x8+	c #2F0505",
"y8+	c #431B1A",
"z8+	c #3C0606",
"A8+	c #390B0B",
"B8+	c #551210",
"C8+	c #5B1E1D",
"D8+	c #511111",
"E8+	c #501110",
"F8+	c #542222",
"G8+	c #440E0D",
"H8+	c #430D0D",
"I8+	c #3E0D0D",
"J8+	c #3B0D0C",
"K8+	c #370F0E",
"L8+	c #4E1717",
"M8+	c #8D3A37",
"N8+	c #734C4C",
"O8+	c #6F6246",
"P8+	c #71633F",
"Q8+	c #55492C",
"R8+	c #332C18",
"S8+	c #51482E",
"T8+	c #5F513A",
"U8+	c #6C5D4A",
"V8+	c #63563B",
"W8+	c #413924",
"X8+	c #564B32",
"Y8+	c #423721",
"Z8+	c #4F3029",
"`8+	c #59302E",
" 9+	c #5A2E2D",
".9+	c #592C2B",
"+9+	c #5A2625",
"@9+	c #5C2726",
"#9+	c #5F2626",
"$9+	c #622828",
"%9+	c #642624",
"&9+	c #672828",
"*9+	c #6F3433",
"=9+	c #6E302F",
"-9+	c #692422",
";9+	c #6A2525",
">9+	c #6B1E1B",
",9+	c #731A18",
"'9+	c #731918",
")9+	c #721916",
"!9+	c #7A1F1C",
"~9+	c #871F1D",
"{9+	c #84211E",
"]9+	c #86201F",
"^9+	c #8A211F",
"/9+	c #8D1C18",
"(9+	c #921F1A",
"_9+	c #801C1A",
":9+	c #901D1A",
"<9+	c #951D1A",
"[9+	c #9D1C19",
"}9+	c #9A1E18",
"|9+	c #9B201C",
"19+	c #9D211D",
"29+	c #A11E1C",
"39+	c #A11E1B",
"49+	c #A11B18",
"59+	c #A41D1A",
"69+	c #A61E1C",
"79+	c #AA1C18",
"89+	c #AF1D1A",
"99+	c #AC1C19",
"09+	c #B01D1C",
"a9+	c #B01F1C",
"b9+	c #C2231F",
"c9+	c #C72721",
"d9+	c #C92623",
"e9+	c #C82B27",
"f9+	c #C0231E",
"g9+	c #C52824",
"h9+	c #CA2B28",
"i9+	c #CC2B28",
"j9+	c #CF2B26",
"k9+	c #C52B27",
"l9+	c #C02521",
"m9+	c #E2322F",
"n9+	c #E33332",
"o9+	c #E13330",
"p9+	c #D72F2D",
"q9+	c #E1423F",
"r9+	c #E64F4A",
"s9+	c #DD4B45",
"t9+	c #CC4742",
"u9+	c #9F3836",
"v9+	c #732323",
"w9+	c #611C1D",
"x9+	c #602121",
"y9+	c #621313",
"z9+	c #611311",
"A9+	c #601110",
"B9+	c #631413",
"C9+	c #671614",
"D9+	c #6E1617",
"E9+	c #6F1B1A",
"F9+	c #641110",
"G9+	c #661210",
"H9+	c #600E0E",
"I9+	c #5E0D0D",
"J9+	c #720D0D",
"K9+	c #4A0A09",
"L9+	c #330908",
"M9+	c #380808",
"N9+	c #3B0807",
"O9+	c #370A08",
"P9+	c #541412",
"Q9+	c #572121",
"R9+	c #550E0D",
"S9+	c #57100E",
"T9+	c #530F0D",
"U9+	c #4F0E0D",
"V9+	c #4F100E",
"W9+	c #501212",
"X9+	c #410E0C",
"Y9+	c #3F0D0C",
"Z9+	c #400E0D",
"`9+	c #3F0E0D",
" 0+	c #381111",
".0+	c #682525",
"+0+	c #893634",
"@0+	c #734847",
"#0+	c #75684A",
"$0+	c #756540",
"%0+	c #483E24",
"&0+	c #3F3723",
"*0+	c #4F462E",
"=0+	c #5D4C37",
"-0+	c #5F5235",
";0+	c #524729",
">0+	c #413820",
",0+	c #4C3127",
"'0+	c #582928",
")0+	c #572927",
"!0+	c #5A2E2B",
"~0+	c #5A2B2A",
"{0+	c #5C2B2A",
"]0+	c #5E2827",
"^0+	c #5F2A2A",
"/0+	c #632A29",
"(0+	c #612423",
"_0+	c #632525",
":0+	c #692E2C",
"<0+	c #6C2F2E",
"[0+	c #6F3231",
"}0+	c #6C2624",
"|0+	c #702F2F",
"10+	c #6E2927",
"20+	c #742D2D",
"30+	c #742826",
"40+	c #732120",
"50+	c #721918",
"60+	c #831D19",
"70+	c #831C18",
"80+	c #841D1A",
"90+	c #83201C",
"00+	c #8B1F1B",
"a0+	c #8F1F1B",
"b0+	c #911A18",
"c0+	c #8F1C17",
"d0+	c #7D201C",
"e0+	c #851E1C",
"f0+	c #8A1917",
"g0+	c #8C1C18",
"h0+	c #951B18",
"i0+	c #941E1B",
"j0+	c #95201F",
"k0+	c #9A1C18",
"l0+	c #9C1C18",
"m0+	c #9D1B18",
"n0+	c #AD1F1E",
"o0+	c #AC1D19",
"p0+	c #AE1D1A",
"q0+	c #B11F1B",
"r0+	c #AF201D",
"s0+	c #B8211F",
"t0+	c #BE2521",
"u0+	c #BF2522",
"v0+	c #C8241F",
"w0+	c #C62824",
"x0+	c #C92925",
"y0+	c #C82924",
"z0+	c #CB2B26",
"A0+	c #C62A25",
"B0+	c #C42A25",
"C0+	c #C12925",
"D0+	c #C02624",
"E0+	c #C22723",
"F0+	c #C42623",
"G0+	c #C92723",
"H0+	c #C72724",
"I0+	c #DC2E2A",
"J0+	c #DA2D29",
"K0+	c #DF302F",
"L0+	c #DF3431",
"M0+	c #E23434",
"N0+	c #DC302F",
"O0+	c #DB2F2C",
"P0+	c #D93432",
"Q0+	c #DE3837",
"R0+	c #E34844",
"S0+	c #E5524D",
"T0+	c #DC4C47",
"U0+	c #DC4D48",
"V0+	c #BB403C",
"W0+	c #872C2C",
"X0+	c #5D1D1E",
"Y0+	c #621E1C",
"Z0+	c #611616",
"`0+	c #611211",
" a+	c #641111",
".a+	c #621311",
"+a+	c #641717",
"@a+	c #691414",
"#a+	c #6D1513",
"$a+	c #691212",
"%a+	c #6B1514",
"&a+	c #681313",
"*a+	c #66100F",
"=a+	c #68100F",
"-a+	c #64100F",
";a+	c #661413",
">a+	c #712324",
",a+	c #641C1C",
"'a+	c #5C0C0C",
")a+	c #6C0E0E",
"!a+	c #660E0C",
"~a+	c #300505",
"{a+	c #421919",
"]a+	c #360A0A",
"^a+	c #531412",
"/a+	c #571616",
"(a+	c #571C1C",
"_a+	c #500E0D",
":a+	c #51110F",
"<a+	c #511211",
"[a+	c #552121",
"}a+	c #552020",
"|a+	c #3D0D0C",
"1a+	c #351414",
"2a+	c #3C1717",
"3a+	c #792F2E",
"4a+	c #844948",
"5a+	c #7A6A4A",
"6a+	c #766541",
"7a+	c #554930",
"8a+	c #5F4F37",
"9a+	c #5D5136",
"0a+	c #544B32",
"aa+	c #443B21",
"ba+	c #453226",
"ca+	c #57302E",
"da+	c #572726",
"ea+	c #5A2E2C",
"fa+	c #5B2827",
"ga+	c #5D2929",
"ha+	c #5E2323",
"ia+	c #622B2B",
"ja+	c #65302F",
"ka+	c #632422",
"la+	c #642724",
"ma+	c #682B2A",
"na+	c #6C3131",
"oa+	c #6D2C2A",
"pa+	c #712C2C",
"qa+	c #722F2E",
"ra+	c #732E2F",
"sa+	c #732321",
"ta+	c #7D2220",
"ua+	c #821B18",
"va+	c #801815",
"wa+	c #7F1914",
"xa+	c #8D1E1A",
"ya+	c #901E1C",
"za+	c #901D19",
"Aa+	c #861B18",
"Ba+	c #7E201D",
"Ca+	c #821F1E",
"Da+	c #7C1714",
"Ea+	c #7C1511",
"Fa+	c #861B17",
"Ga+	c #911D1A",
"Ha+	c #971C18",
"Ia+	c #971C1A",
"Ja+	c #9B1D19",
"Ka+	c #991C18",
"La+	c #A21B17",
"Ma+	c #A91C18",
"Na+	c #AB1E1A",
"Oa+	c #AE1E1C",
"Pa+	c #B22220",
"Qa+	c #B7231F",
"Ra+	c #B9231F",
"Sa+	c #BD1F1C",
"Ta+	c #BB211C",
"Ua+	c #C2251F",
"Va+	c #C92621",
"Wa+	c #C12321",
"Xa+	c #C42421",
"Ya+	c #C92622",
"Za+	c #C72621",
"`a+	c #C52723",
" b+	c #BF2723",
".b+	c #C62520",
"+b+	c #D02722",
"@b+	c #DE2E2C",
"#b+	c #E23433",
"$b+	c #DE302D",
"%b+	c #DB2C28",
"&b+	c #D62D2C",
"*b+	c #D83432",
"=b+	c #DE3B37",
"-b+	c #DE423E",
";b+	c #E44D46",
">b+	c #DD504B",
",b+	c #DB4A46",
"'b+	c #CC4641",
")b+	c #A03936",
"!b+	c #662223",
"~b+	c #631A1A",
"{b+	c #621B19",
"]b+	c #5F1819",
"^b+	c #611515",
"/b+	c #611110",
"(b+	c #631515",
"_b+	c #641515",
":b+	c #631412",
"<b+	c #651011",
"[b+	c #6D1515",
"}b+	c #681211",
"|b+	c #640F0F",
"1b+	c #641312",
"2b+	c #702020",
"3b+	c #65191A",
"4b+	c #611718",
"5b+	c #5F0F0F",
"6b+	c #5D0B0B",
"7b+	c #780E0D",
"8b+	c #4B0A0A",
"9b+	c #320706",
"0b+	c #380706",
"ab+	c #3B0C0B",
"bb+	c #3A0706",
"cb+	c #350C0B",
"db+	c #3C1614",
"eb+	c #490F0D",
"fb+	c #4D0D0D",
"gb+	c #521311",
"hb+	c #56100E",
"ib+	c #541A19",
"jb+	c #3E0E0C",
"kb+	c #3D0E0C",
"lb+	c #381818",
"mb+	c #3A1213",
"nb+	c #672121",
"ob+	c #824A49",
"pb+	c #695D46",
"qb+	c #716240",
"rb+	c #6B5C3A",
"sb+	c #5D4E36",
"tb+	c #594B32",
"ub+	c #53462F",
"vb+	c #55372D",
"wb+	c #582F2C",
"xb+	c #5B322F",
"yb+	c #5A2F2E",
"zb+	c #5B2D2C",
"Ab+	c #632F2D",
"Bb+	c #612B2A",
"Cb+	c #602323",
"Db+	c #642A29",
"Eb+	c #632321",
"Fb+	c #652C2B",
"Gb+	c #6C3332",
"Hb+	c #6B2C2A",
"Ib+	c #723031",
"Jb+	c #702A2B",
"Kb+	c #6D1A16",
"Lb+	c #6F1B17",
"Mb+	c #6E1C18",
"Nb+	c #731E1B",
"Ob+	c #771C1A",
"Pb+	c #7F201E",
"Qb+	c #7E1B19",
"Rb+	c #811E1A",
"Sb+	c #8D1F1D",
"Tb+	c #901E1A",
"Ub+	c #811E1B",
"Vb+	c #7D1C18",
"Wb+	c #771814",
"Xb+	c #751613",
"Yb+	c #911F1B",
"Zb+	c #9B2724",
"`b+	c #931E19",
" c+	c #932523",
".c+	c #941915",
"+c+	c #981C16",
"@c+	c #991D18",
"#c+	c #A31C18",
"$c+	c #A51D1A",
"%c+	c #A71E18",
"&c+	c #AD1D1A",
"*c+	c #A81B1A",
"=c+	c #A91C1B",
"-c+	c #AF1F1C",
";c+	c #B2201E",
">c+	c #B7231E",
",c+	c #BB201C",
"'c+	c #BA211E",
")c+	c #C0221E",
"!c+	c #C82724",
"~c+	c #C42824",
"{c+	c #C22523",
"]c+	c #C2231E",
"^c+	c #C5231F",
"/c+	c #BD2722",
"(c+	c #BE2823",
"_c+	c #C32624",
":c+	c #C22624",
"<c+	c #C52823",
"[c+	c #C12420",
"}c+	c #C42420",
"|c+	c #CE2824",
"1c+	c #D52926",
"2c+	c #DD3030",
"3c+	c #DA2C28",
"4c+	c #D32A28",
"5c+	c #D72E2D",
"6c+	c #DC2F2C",
"7c+	c #DA3733",
"8c+	c #D93A34",
"9c+	c #DE4A44",
"0c+	c #DA4C46",
"ac+	c #D14A46",
"bc+	c #BA4442",
"cc+	c #702525",
"dc+	c #612022",
"ec+	c #541413",
"fc+	c #5A1E1F",
"gc+	c #5D2121",
"hc+	c #62191A",
"ic+	c #601819",
"jc+	c #621110",
"kc+	c #631210",
"lc+	c #611313",
"mc+	c #611514",
"nc+	c #671010",
"oc+	c #63100F",
"pc+	c #650D0D",
"qc+	c #691514",
"rc+	c #661516",
"sc+	c #5D0D0D",
"tc+	c #600D0D",
"uc+	c #5B0B0A",
"vc+	c #6C0F0E",
"wc+	c #680F0F",
"xc+	c #310908",
"yc+	c #370707",
"zc+	c #3D0A0A",
"Ac+	c #3C0706",
"Bc+	c #340807",
"Cc+	c #411816",
"Dc+	c #4B1614",
"Ec+	c #561D1C",
"Fc+	c #550F0D",
"Gc+	c #4F1111",
"Hc+	c #522121",
"Ic+	c #3D0F0D",
"Jc+	c #361010",
"Kc+	c #3A1617",
"Lc+	c #743231",
"Mc+	c #754242",
"Nc+	c #6B5E47",
"Oc+	c #72613F",
"Pc+	c #625334",
"Qc+	c #4F462F",
"Rc+	c #574934",
"Sc+	c #5E5035",
"Tc+	c #51452B",
"Uc+	c #57382F",
"Vc+	c #5C312F",
"Wc+	c #5A2C2A",
"Xc+	c #5B2A2A",
"Yc+	c #5B2726",
"Zc+	c #61302F",
"`c+	c #5E2B2A",
" d+	c #602C2B",
".d+	c #602624",
"+d+	c #662E2D",
"@d+	c #642A2A",
"#d+	c #6B3939",
"$d+	c #6A2B2A",
"%d+	c #6E2E2F",
"&d+	c #6F2828",
"*d+	c #732C2D",
"=d+	c #691C1B",
"-d+	c #6E1D18",
";d+	c #731D1A",
">d+	c #751A15",
",d+	c #771C18",
"'d+	c #791B18",
")d+	c #7B1C18",
"!d+	c #7A1D19",
"~d+	c #7C1B18",
"{d+	c #8A201C",
"]d+	c #801915",
"^d+	c #7B1713",
"/d+	c #781815",
"(d+	c #761614",
"_d+	c #831C17",
":d+	c #95211D",
"<d+	c #90201D",
"[d+	c #941E1A",
"}d+	c #951B17",
"|d+	c #981A16",
"1d+	c #941C17",
"2d+	c #981E1B",
"3d+	c #9B1C19",
"4d+	c #A01D19",
"5d+	c #AC201C",
"6d+	c #A71D1A",
"7d+	c #A21D1A",
"8d+	c #A7221E",
"9d+	c #AF1F1B",
"0d+	c #B31E1C",
"ad+	c #B32220",
"bd+	c #BB2220",
"cd+	c #C52622",
"dd+	c #C52A26",
"ed+	c #C52722",
"fd+	c #BB221E",
"gd+	c #C52621",
"hd+	c #BB2824",
"id+	c #C02623",
"jd+	c #BF2420",
"kd+	c #BD211D",
"ld+	c #BF211E",
"md+	c #C22520",
"nd+	c #C9241F",
"od+	c #D02823",
"pd+	c #D32825",
"qd+	c #D83C37",
"rd+	c #D94C45",
"sd+	c #DA4C47",
"td+	c #D94E49",
"ud+	c #CC4945",
"vd+	c #A43A38",
"wd+	c #6E2324",
"xd+	c #6C2223",
"yd+	c #561A1B",
"zd+	c #521413",
"Ad+	c #531514",
"Bd+	c #591D1D",
"Cd+	c #5E2121",
"Dd+	c #601A1B",
"Ed+	c #60191A",
"Fd+	c #62100F",
"Gd+	c #601111",
"Hd+	c #601414",
"Id+	c #611414",
"Jd+	c #5D1112",
"Kd+	c #610F10",
"Ld+	c #5F0E0F",
"Md+	c #620D0C",
"Nd+	c #671110",
"Od+	c #630F0F",
"Pd+	c #650F0F",
"Qd+	c #6D1F20",
"Rd+	c #681C1D",
"Sd+	c #601616",
"Td+	c #5D1110",
"Ud+	c #5E0C0B",
"Vd+	c #5D0C0A",
"Wd+	c #7B1311",
"Xd+	c #4C0A0A",
"Yd+	c #330605",
"Zd+	c #441917",
"`d+	c #421513",
" e+	c #3F0A0A",
".e+	c #3B0706",
"+e+	c #350606",
"@e+	c #571E1E",
"#e+	c #501111",
"$e+	c #532221",
"%e+	c #3E0F0D",
"&e+	c #38100F",
"*e+	c #752F2F",
"=e+	c #824141",
"-e+	c #706249",
";e+	c #756441",
">e+	c #574C2E",
",e+	c #483F26",
"'e+	c #4A4028",
")e+	c #544A31",
"!e+	c #5B4C33",
"~e+	c #51442A",
"{e+	c #59372E",
"]e+	c #572C28",
"^e+	c #572826",
"/e+	c #5B2E2E",
"(e+	c #572827",
"_e+	c #5A2A2A",
":e+	c #5B2C2B",
"<e+	c #5C2B2B",
"[e+	c #5B2D2B",
"}e+	c #5E302E",
"|e+	c #5E3030",
"1e+	c #5E2623",
"2e+	c #5E2422",
"3e+	c #622B2A",
"4e+	c #602424",
"5e+	c #632828",
"6e+	c #612A28",
"7e+	c #662F2E",
"8e+	c #693332",
"9e+	c #6C3233",
"0e+	c #6F2323",
"ae+	c #742725",
"be+	c #712626",
"ce+	c #6D2320",
"de+	c #721A18",
"ee+	c #731614",
"fe+	c #751716",
"ge+	c #711716",
"he+	c #751714",
"ie+	c #7C1915",
"je+	c #7F1916",
"ke+	c #7D1612",
"le+	c #7D1B1A",
"me+	c #881B18",
"ne+	c #98221E",
"oe+	c #911E1A",
"pe+	c #971F1A",
"qe+	c #951F1A",
"re+	c #981E19",
"se+	c #9D1815",
"te+	c #A81D19",
"ue+	c #A51C18",
"ve+	c #A92B29",
"we+	c #A91F1B",
"xe+	c #B1201E",
"ye+	c #AE231F",
"ze+	c #B01F1A",
"Ae+	c #B51E1B",
"Be+	c #C12924",
"Ce+	c #BF2722",
"De+	c #BC2520",
"Ee+	c #BE211E",
"Fe+	c #BC221E",
"Ge+	c #C3241F",
"He+	c #C02522",
"Ie+	c #C22621",
"Je+	c #C12523",
"Ke+	c #BA201C",
"Le+	c #B7201B",
"Me+	c #BD211C",
"Ne+	c #CC2722",
"Oe+	c #CF2521",
"Pe+	c #D83734",
"Qe+	c #E04440",
"Re+	c #E34B43",
"Se+	c #DD4F49",
"Te+	c #DB524C",
"Ue+	c #D34D48",
"Ve+	c #C44843",
"We+	c #8D302F",
"Xe+	c #612122",
"Ye+	c #5B1C1D",
"Ze+	c #5B1F20",
"`e+	c #5F191A",
" f+	c #611010",
".f+	c #5B1112",
"+f+	c #5C1011",
"@f+	c #5B0E0E",
"#f+	c #600C0C",
"$f+	c #630C0C",
"%f+	c #620D0D",
"&f+	c #630D0C",
"*f+	c #651A1A",
"=f+	c #671717",
"-f+	c #631718",
";f+	c #621616",
">f+	c #601315",
",f+	c #590F10",
"'f+	c #5D0E0E",
")f+	c #5A0B0B",
"!f+	c #771211",
"~f+	c #410B0B",
"{f+	c #3A0807",
"]f+	c #360D0B",
"^f+	c #3C1513",
"/f+	c #5A2222",
"(f+	c #52100E",
"_f+	c #4D100F",
":f+	c #3C0F0D",
"<f+	c #320D0D",
"[f+	c #33100E",
"}f+	c #692B2B",
"|f+	c #7E4241",
"1f+	c #6D614D",
"2f+	c #75664A",
"3f+	c #736441",
"4f+	c #4A4029",
"5f+	c #594A32",
"6f+	c #635439",
"7f+	c #443922",
"8f+	c #402F1F",
"9f+	c #52342C",
"0f+	c #5B302E",
"af+	c #5A2B2B",
"bf+	c #572523",
"cf+	c #5C2D2C",
"df+	c #5D2F2E",
"ef+	c #5E3130",
"ff+	c #5F2D2B",
"gf+	c #612D2B",
"hf+	c #602C2A",
"if+	c #5F2624",
"jf+	c #622726",
"kf+	c #612825",
"lf+	c #632E2D",
"mf+	c #663332",
"nf+	c #682E2E",
"of+	c #632421",
"pf+	c #6C2E2C",
"qf+	c #722B2C",
"rf+	c #6F1A16",
"sf+	c #6C1B18",
"tf+	c #711E1A",
"uf+	c #701E1A",
"vf+	c #731C1A",
"wf+	c #701712",
"xf+	c #731C18",
"yf+	c #891C19",
"zf+	c #821B19",
"Af+	c #7E1814",
"Bf+	c #831917",
"Cf+	c #982320",
"Df+	c #951D19",
"Ef+	c #8A1915",
"Ff+	c #881C19",
"Gf+	c #8D1A18",
"Hf+	c #931C19",
"If+	c #961C18",
"Jf+	c #941B17",
"Kf+	c #971915",
"Lf+	c #9C1C19",
"Mf+	c #A31D19",
"Nf+	c #A51B18",
"Of+	c #A91C19",
"Pf+	c #A92420",
"Qf+	c #A7201E",
"Rf+	c #B0231F",
"Sf+	c #B4201E",
"Tf+	c #BF231F",
"Uf+	c #BA1F1B",
"Vf+	c #BA201D",
"Wf+	c #B9211C",
"Xf+	c #BE2420",
"Yf+	c #BC2320",
"Zf+	c #BD221F",
"`f+	c #B6211E",
" g+	c #B5211D",
".g+	c #BA221D",
"+g+	c #B81F1C",
"@g+	c #BF211C",
"#g+	c #C1221E",
"$g+	c #CA2420",
"%g+	c #C92420",
"&g+	c #D92F2E",
"*g+	c #DB3B37",
"=g+	c #E34540",
"-g+	c #E14E47",
";g+	c #E0524B",
">g+	c #D5524B",
",g+	c #CB4C47",
"'g+	c #AB3F3C",
")g+	c #7D2B2B",
"!g+	c #722526",
"~g+	c #672222",
"{g+	c #5C1F1F",
"]g+	c #5F1010",
"^g+	c #61110F",
"/g+	c #5F1111",
"(g+	c #5D1010",
"_g+	c #5B0E0F",
":g+	c #5C0C0D",
"<g+	c #5B0C0C",
"[g+	c #5F0F0E",
"}g+	c #5E0E0E",
"|g+	c #610C0C",
"1g+	c #5F0C0B",
"2g+	c #610E0D",
"3g+	c #631111",
"4g+	c #631616",
"5g+	c #661B1A",
"6g+	c #641A1B",
"7g+	c #621617",
"8g+	c #631617",
"9g+	c #671617",
"0g+	c #5E1010",
"ag+	c #5D100F",
"bg+	c #580C0C",
"cg+	c #821311",
"dg+	c #430909",
"eg+	c #320807",
"fg+	c #3B0707",
"gg+	c #3D1210",
"hg+	c #410B0A",
"ig+	c #410908",
"jg+	c #330808",
"kg+	c #3B1312",
"lg+	c #592525",
"mg+	c #4E100E",
"ng+	c #50110F",
"og+	c #501211",
"pg+	c #4E1F1F",
"qg+	c #3A0E0C",
"rg+	c #3A0F0D",
"sg+	c #320E0C",
"tg+	c #360F0E",
"ug+	c #6B2A29",
"vg+	c #823D3C",
"wg+	c #73644F",
"xg+	c #73643F",
"yg+	c #4A3F26",
"zg+	c #5B5034",
"Ag+	c #5D5034",
"Bg+	c #63553E",
"Cg+	c #625136",
"Dg+	c #3C351E",
"Eg+	c #342D19",
"Fg+	c #443224",
"Gg+	c #5B342F",
"Hg+	c #5A302E",
"Ig+	c #592B29",
"Jg+	c #592826",
"Kg+	c #5C2C2C",
"Lg+	c #5D2B2B",
"Mg+	c #5D2C2A",
"Ng+	c #5F2E2E",
"Og+	c #5F2B2A",
"Pg+	c #622E2E",
"Qg+	c #612929",
"Rg+	c #632928",
"Sg+	c #64312F",
"Tg+	c #64302E",
"Ug+	c #642726",
"Vg+	c #6C2A28",
"Wg+	c #723333",
"Xg+	c #702B2B",
"Yg+	c #6F1E1B",
"Zg+	c #6C1C19",
"`g+	c #721817",
" h+	c #711A18",
".h+	c #6F1C1A",
"+h+	c #761E19",
"@h+	c #7D1A18",
"#h+	c #791815",
"$h+	c #7F1A18",
"%h+	c #881D19",
"&h+	c #8D1B1A",
"*h+	c #92211D",
"=h+	c #931E1A",
"-h+	c #8D1B16",
";h+	c #871C19",
">h+	c #891D1B",
",h+	c #951A16",
"'h+	c #98241F",
")h+	c #961B16",
"!h+	c #971A17",
"~h+	c #9E201C",
"{h+	c #A11B17",
"]h+	c #A51B17",
"^h+	c #A81B17",
"/h+	c #A62B29",
"(h+	c #A21E19",
"_h+	c #AA1D19",
":h+	c #C02421",
"<h+	c #B6231D",
"[h+	c #B71F1B",
"}h+	c #B9201B",
"|h+	c #BA231D",
"1h+	c #C1241F",
"2h+	c #C02723",
"3h+	c #C32520",
"4h+	c #BF231E",
"5h+	c #BE221E",
"6h+	c #B8201C",
"7h+	c #B11F1D",
"8h+	c #B31F1B",
"9h+	c #BE201D",
"0h+	c #C5211E",
"ah+	c #C92321",
"bh+	c #DE3F3B",
"ch+	c #DE4642",
"dh+	c #E24F49",
"eh+	c #E0514A",
"fh+	c #D74F49",
"gh+	c #CE4D47",
"hh+	c #9E3736",
"ih+	c #541715",
"jh+	c #5C1C1D",
"kh+	c #610F0F",
"lh+	c #5A0C0D",
"mh+	c #590B0B",
"nh+	c #5A0C0B",
"oh+	c #580C0B",
"ph+	c #5C0B0B",
"qh+	c #5E0F0F",
"rh+	c #631415",
"sh+	c #601717",
"th+	c #631919",
"uh+	c #601415",
"vh+	c #671E1D",
"wh+	c #631818",
"xh+	c #590C0D",
"yh+	c #5B0B0B",
"zh+	c #570A0A",
"Ah+	c #660E0D",
"Bh+	c #2E0707",
"Ch+	c #340908",
"Dh+	c #3E0B0A",
"Eh+	c #400D0C",
"Fh+	c #3B0605",
"Gh+	c #330807",
"Hh+	c #3E1412",
"Ih+	c #581C1C",
"Jh+	c #561B1A",
"Kh+	c #551C1C",
"Lh+	c #501210",
"Mh+	c #4E110F",
"Nh+	c #541210",
"Oh+	c #4F110F",
"Ph+	c #451412",
"Qh+	c #330D0D",
"Rh+	c #35100E",
"Sh+	c #36100F",
"Th+	c #3B1616",
"Uh+	c #682828",
"Vh+	c #923F3D",
"Wh+	c #6E4B4A",
"Xh+	c #776846",
"Yh+	c #655838",
"Zh+	c #51462C",
"`h+	c #564C30",
" i+	c #52452F",
".i+	c #5D4F37",
"+i+	c #352C1B",
"@i+	c #332C1A",
"#i+	c #4C3628",
"$i+	c #57302A",
"%i+	c #5B2F2E",
"&i+	c #5C2B29",
"*i+	c #5D2C2C",
"=i+	c #5E2E2D",
"-i+	c #5F2F2E",
";i+	c #602E2D",
">i+	c #5E2626",
",i+	c #5E2928",
"'i+	c #632B2B",
")i+	c #632F2F",
"!i+	c #642B2A",
"~i+	c #6C2929",
"{i+	c #702F2E",
"]i+	c #6E2725",
"^i+	c #6E1A18",
"/i+	c #711816",
"(i+	c #711A15",
"_i+	c #6E1916",
":i+	c #6F1916",
"<i+	c #751412",
"[i+	c #7A1B18",
"}i+	c #8D1E1B",
"|i+	c #8C2220",
"1i+	c #8E1D1A",
"2i+	c #8E1A18",
"3i+	c #8C1C19",
"4i+	c #871D1A",
"5i+	c #901F1B",
"6i+	c #921D19",
"7i+	c #981F1B",
"8i+	c #971F1B",
"9i+	c #991C16",
"0i+	c #9A1C16",
"ai+	c #9F1E18",
"bi+	c #9D1B15",
"ci+	c #A01D18",
"di+	c #A21A17",
"ei+	c #A81A16",
"fi+	c #A9211F",
"gi+	c #A4201D",
"hi+	c #A11F1B",
"ii+	c #A31E1A",
"ji+	c #A9201B",
"ki+	c #A6211C",
"li+	c #AB1F1A",
"mi+	c #AE1F1B",
"ni+	c #B92824",
"oi+	c #B82422",
"pi+	c #BE2826",
"qi+	c #B5211C",
"ri+	c #B6201C",
"si+	c #C0241F",
"ti+	c #C02621",
"ui+	c #C52A25",
"vi+	c #C0231F",
"wi+	c #C22320",
"xi+	c #BB211D",
"yi+	c #B4211D",
"zi+	c #B3221C",
"Ai+	c #B3201C",
"Bi+	c #C42320",
"Ci+	c #D53331",
"Di+	c #DF3E3B",
"Ei+	c #E04843",
"Fi+	c #E04E48",
"Gi+	c #D94C48",
"Hi+	c #D64C48",
"Ii+	c #C14542",
"Ji+	c #973534",
"Ki+	c #742727",
"Li+	c #732627",
"Mi+	c #5F2323",
"Ni+	c #581B1C",
"Oi+	c #5A1415",
"Pi+	c #5D0F0E",
"Qi+	c #5C0F0F",
"Ri+	c #5B1211",
"Si+	c #580E0E",
"Ti+	c #5A0C0C",
"Ui+	c #590C0C",
"Vi+	c #590C0B",
"Wi+	c #5B0C0B",
"Xi+	c #5A0D0C",
"Yi+	c #5C0D0D",
"Zi+	c #5B0D0D",
"`i+	c #601010",
" j+	c #601516",
".j+	c #560B0B",
"+j+	c #5A0A0A",
"@j+	c #630D0D",
"#j+	c #821310",
"$j+	c #440808",
"%j+	c #320606",
"&j+	c #3C0707",
"*j+	c #3C0808",
"=j+	c #5A1E1E",
"-j+	c #511210",
";j+	c #4D110F",
">j+	c #501D1D",
",j+	c #4E1C1C",
"'j+	c #3A100E",
")j+	c #38110F",
"!j+	c #340E0D",
"~j+	c #43191A",
"{j+	c #561B1B",
"]j+	c #621F1E",
"^j+	c #632626",
"/j+	c #8D3B3B",
"(j+	c #6F4545",
"_j+	c #796B53",
":j+	c #776845",
"<j+	c #5F5233",
"[j+	c #524831",
"}j+	c #564631",
"|j+	c #5F4E38",
"1j+	c #322B19",
"2j+	c #3B341F",
"3j+	c #5B3730",
"4j+	c #592726",
"5j+	c #5B2929",
"6j+	c #612F2F",
"7j+	c #612E2E",
"8j+	c #612E2D",
"9j+	c #622D2C",
"0j+	c #602626",
"aj+	c #612A29",
"bj+	c #622825",
"cj+	c #602726",
"dj+	c #642B28",
"ej+	c #6C2F2D",
"fj+	c #703132",
"gj+	c #6E1C19",
"hj+	c #6C1B17",
"ij+	c #701815",
"jj+	c #6F1210",
"kj+	c #721B17",
"lj+	c #761C16",
"mj+	c #871E1B",
"nj+	c #87221F",
"oj+	c #881F1B",
"pj+	c #871A18",
"qj+	c #8B1B16",
"rj+	c #971E1A",
"sj+	c #981D1A",
"tj+	c #9A1C19",
"uj+	c #9C1A16",
"vj+	c #9E1C18",
"wj+	c #A11C18",
"xj+	c #A81C16",
"yj+	c #9F1C18",
"zj+	c #9F1F1A",
"Aj+	c #9C1E1A",
"Bj+	c #A7211D",
"Cj+	c #A7201B",
"Dj+	c #A8201B",
"Ej+	c #B2221D",
"Fj+	c #B6221E",
"Gj+	c #B5201D",
"Hj+	c #B4221D",
"Ij+	c #C12B27",
"Jj+	c #BD2B26",
"Kj+	c #C02A26",
"Lj+	c #C12421",
"Mj+	c #BE2320",
"Nj+	c #C02320",
"Oj+	c #B9251F",
"Pj+	c #B6231E",
"Qj+	c #B2211C",
"Rj+	c #B81F1A",
"Sj+	c #BB1F1C",
"Tj+	c #BC201D",
"Uj+	c #D4322F",
"Vj+	c #D93F3B",
"Wj+	c #E04B47",
"Xj+	c #D74945",
"Yj+	c #D64946",
"Zj+	c #CE4B45",
"`j+	c #AE3E3B",
" k+	c #812C2B",
".k+	c #772829",
"+k+	c #752828",
"@k+	c #5B1A1B",
"#k+	c #5D0F0F",
"$k+	c #590E0D",
"%k+	c #580D0E",
"&k+	c #570C0C",
"*k+	c #5A0D0D",
"=k+	c #5C0E0E",
"-k+	c #5F1515",
";k+	c #611314",
">k+	c #5F1011",
",k+	c #5E1111",
"'k+	c #580A09",
")k+	c #760F0E",
"!k+	c #550B0A",
"~k+	c #421412",
"{k+	c #420B0A",
"]k+	c #511313",
"^k+	c #521515",
"/k+	c #561616",
"(k+	c #4C110F",
"_k+	c #421311",
":k+	c #3B1210",
"<k+	c #3A1210",
"[k+	c #381110",
"}k+	c #361210",
"|k+	c #3E1516",
"1k+	c #672323",
"2k+	c #8B3938",
"3k+	c #694948",
"4k+	c #7B6C52",
"5k+	c #7A6946",
"6k+	c #53482C",
"7k+	c #4A4128",
"8k+	c #4B4028",
"9k+	c #60513A",
"0k+	c #5F5034",
"ak+	c #4E3528",
"bk+	c #592A28",
"ck+	c #5B2928",
"dk+	c #5F2C2B",
"ek+	c #62302F",
"fk+	c #612C2B",
"gk+	c #642F2E",
"hk+	c #612623",
"ik+	c #632D2C",
"jk+	c #652F2E",
"kk+	c #692E2D",
"lk+	c #6E3535",
"mk+	c #6E2D2C",
"nk+	c #6D1918",
"ok+	c #6F2623",
"pk+	c #721B18",
"qk+	c #711512",
"rk+	c #721615",
"sk+	c #751916",
"tk+	c #7E1D19",
"uk+	c #841C1A",
"vk+	c #7C1D1A",
"wk+	c #841915",
"xk+	c #8C1D19",
"yk+	c #912523",
"zk+	c #941F1B",
"Ak+	c #921B18",
"Bk+	c #971D19",
"Ck+	c #9C1E1B",
"Dk+	c #A1201B",
"Ek+	c #9D1A18",
"Fk+	c #A21A16",
"Gk+	c #AB201C",
"Hk+	c #A61E1B",
"Ik+	c #9C1C17",
"Jk+	c #991F1C",
"Kk+	c #A21F19",
"Lk+	c #A61F1A",
"Mk+	c #A5201C",
"Nk+	c #A82421",
"Ok+	c #AF2321",
"Pk+	c #B02320",
"Qk+	c #B0201C",
"Rk+	c #B2211B",
"Sk+	c #B4211B",
"Tk+	c #B1211B",
"Uk+	c #BD2A25",
"Vk+	c #BF251F",
"Wk+	c #C22620",
"Xk+	c #BE2822",
"Yk+	c #B6211C",
"Zk+	c #B41E1B",
"`k+	c #B71E1B",
" l+	c #C42621",
".l+	c #C72A27",
"+l+	c #D7403D",
"@l+	c #D54744",
"#l+	c #D24944",
"$l+	c #D44945",
"%l+	c #C64541",
"&l+	c #973432",
"*l+	c #722726",
"=l+	c #662425",
"-l+	c #5D1E1C",
";l+	c #5C191A",
">l+	c #5A0F0E",
",l+	c #5B0F0F",
"'l+	c #5C100F",
")l+	c #570E0C",
"!l+	c #590E0E",
"~l+	c #5C1110",
"{l+	c #5F1213",
"]l+	c #5F1516",
"^l+	c #5C0B0A",
"/l+	c #6C0E0C",
"(l+	c #8A1412",
"_l+	c #340808",
":l+	c #3D0C0A",
"<l+	c #330C0C",
"[l+	c #4C1310",
"}l+	c #4F1210",
"|l+	c #461412",
"1l+	c #381210",
"2l+	c #3A1412",
"3l+	c #381616",
"4l+	c #401C1C",
"5l+	c #3B1415",
"6l+	c #411819",
"7l+	c #672727",
"8l+	c #7C3332",
"9l+	c #744A49",
"0l+	c #78684E",
"al+	c #7A6945",
"bl+	c #463E28",
"cl+	c #4F462D",
"dl+	c #362D19",
"el+	c #302917",
"fl+	c #5B3A30",
"gl+	c #592D2A",
"hl+	c #5A2C2B",
"il+	c #5A2827",
"jl+	c #61302E",
"kl+	c #5E2524",
"ll+	c #602D2C",
"ml+	c #633130",
"nl+	c #5F2827",
"ol+	c #642C2B",
"pl+	c #673535",
"ql+	c #692D2D",
"rl+	c #6F3537",
"sl+	c #6B201D",
"tl+	c #6F1714",
"ul+	c #701A17",
"vl+	c #6D1815",
"wl+	c #6E1614",
"xl+	c #731B1A",
"yl+	c #7B1E1C",
"zl+	c #771817",
"Al+	c #761412",
"Bl+	c #761815",
"Cl+	c #8B201D",
"Dl+	c #90221F",
"El+	c #921C18",
"Fl+	c #941C1B",
"Gl+	c #97201C",
"Hl+	c #9B1F1C",
"Il+	c #9B1E1A",
"Jl+	c #9D1C17",
"Kl+	c #9E1B17",
"Ll+	c #9A1D19",
"Ml+	c #A01F1B",
"Nl+	c #A8201C",
"Ol+	c #A41D18",
"Pl+	c #A01D1A",
"Ql+	c #9A211D",
"Rl+	c #A21E1A",
"Sl+	c #A72520",
"Tl+	c #AD231E",
"Ul+	c #AB231F",
"Vl+	c #B4201A",
"Wl+	c #B2201C",
"Xl+	c #BA2420",
"Yl+	c #BE2B26",
"Zl+	c #B93330",
"`l+	c #B92A25",
" m+	c #BD2824",
".m+	c #C02823",
"+m+	c #C02C26",
"@m+	c #C02A23",
"#m+	c #BD2520",
"$m+	c #B91F1C",
"%m+	c #C12723",
"&m+	c #C52E2B",
"*m+	c #CD3B38",
"=m+	c #D4403D",
"-m+	c #D14A45",
";m+	c #CF4A46",
">m+	c #CA4641",
",m+	c #B63F3D",
"'m+	c #802C2C",
")m+	c #782929",
"!m+	c #6E2626",
"~m+	c #5D2021",
"{m+	c #521513",
"]m+	c #580D0D",
"^m+	c #580E0D",
"/m+	c #5C1113",
"(m+	c #611A1B",
"_m+	c #7A1110",
":m+	c #580D0C",
"<m+	c #2F0606",
"[m+	c #380606",
"}m+	c #490F0E",
"|m+	c #562323",
"1m+	c #441513",
"2m+	c #391210",
"3m+	c #3C1819",
"4m+	c #3F1718",
"5m+	c #77302F",
"6m+	c #814A49",
"7m+	c #75664E",
"8m+	c #756641",
"9m+	c #4F4428",
"0m+	c #3F3521",
"am+	c #594D37",
"bm+	c #453923",
"cm+	c #312A17",
"dm+	c #58382E",
"em+	c #592D2C",
"fm+	c #5A2D2B",
"gm+	c #5B2E2D",
"hm+	c #5C2E2D",
"im+	c #5E2C2C",
"jm+	c #5E2E2E",
"km+	c #5F302F",
"lm+	c #5F2C2C",
"mm+	c #602A2A",
"nm+	c #5E2625",
"om+	c #612828",
"pm+	c #612928",
"qm+	c #673433",
"rm+	c #693737",
"sm+	c #6C3736",
"tm+	c #6A2A28",
"um+	c #6B1816",
"vm+	c #6D2523",
"wm+	c #6B1B17",
"xm+	c #6E1B18",
"ym+	c #6E1816",
"zm+	c #6E1615",
"Am+	c #731917",
"Bm+	c #721612",
"Cm+	c #751917",
"Dm+	c #711A17",
"Em+	c #761915",
"Fm+	c #801F1A",
"Gm+	c #8D2421",
"Hm+	c #8A2220",
"Im+	c #88211F",
"Jm+	c #8C221F",
"Km+	c #8F1E1B",
"Lm+	c #9A201D",
"Mm+	c #9B1F1B",
"Nm+	c #A01C18",
"Om+	c #9E1B18",
"Pm+	c #A01A17",
"Qm+	c #961D1A",
"Rm+	c #9F1D19",
"Sm+	c #A42521",
"Tm+	c #A4231F",
"Um+	c #A72622",
"Vm+	c #A62320",
"Wm+	c #A7221F",
"Xm+	c #A61F1B",
"Ym+	c #AD211C",
"Zm+	c #B3211C",
"`m+	c #B12420",
" n+	c #BB2521",
".n+	c #BD2C28",
"+n+	c #B82924",
"@n+	c #BA2823",
"#n+	c #BE2621",
"$n+	c #BE2622",
"%n+	c #BD2823",
"&n+	c #BF2D27",
"*n+	c #C33029",
"=n+	c #C42C27",
"-n+	c #BF2621",
";n+	c #C0211E",
">n+	c #BB201D",
",n+	c #BB2320",
"'n+	c #BE2A26",
")n+	c #C23533",
"!n+	c #CB4441",
"~n+	c #CD4743",
"{n+	c #C54642",
"]n+	c #C34542",
"^n+	c #9B3735",
"/n+	c #782827",
"(n+	c #692526",
"_n+	c #4A1513",
":n+	c #5C1B1C",
"<n+	c #5B191A",
"[n+	c #590D0D",
"}n+	c #560C0C",
"|n+	c #560D0D",
"1n+	c #5A0E0E",
"2n+	c #5B0F0E",
"3n+	c #5A0F10",
"4n+	c #5E1213",
"5n+	c #5C1314",
"6n+	c #5D1314",
"7n+	c #5F0C0C",
"8n+	c #6F0F0F",
"9n+	c #851412",
"0n+	c #330707",
"an+	c #340606",
"bn+	c #3C0908",
"cn+	c #3E1311",
"dn+	c #4E1212",
"en+	c #531C1C",
"fn+	c #381411",
"gn+	c #3A1513",
"hn+	c #3F1A1A",
"in+	c #744443",
"jn+	c #70624E",
"kn+	c #72654F",
"ln+	c #756642",
"mn+	c #554A2D",
"nn+	c #3D341D",
"on+	c #544430",
"pn+	c #574B30",
"qn+	c #2E2615",
"rn+	c #423224",
"sn+	c #522F28",
"tn+	c #592D2B",
"un+	c #5D2E2E",
"vn+	c #5E2A29",
"wn+	c #612D2D",
"xn+	c #622E2D",
"yn+	c #622C2A",
"zn+	c #673534",
"An+	c #6A3C3C",
"Bn+	c #693131",
"Cn+	c #692C2C",
"Dn+	c #6A2C2A",
"En+	c #661E1B",
"Fn+	c #691A16",
"Gn+	c #741C1C",
"Hn+	c #741D1C",
"In+	c #731E1A",
"Jn+	c #701817",
"Kn+	c #701714",
"Ln+	c #81201C",
"Mn+	c #851F1D",
"Nn+	c #8A1C18",
"On+	c #95241F",
"Pn+	c #992420",
"Qn+	c #9B1C17",
"Rn+	c #9F1C17",
"Sn+	c #9C1E19",
"Tn+	c #99201C",
"Un+	c #981E1A",
"Vn+	c #9B1B16",
"Wn+	c #9B1C18",
"Xn+	c #971B17",
"Yn+	c #9B1D1A",
"Zn+	c #991E1A",
"`n+	c #AA201B",
" o+	c #BF2A24",
".o+	c #BF2823",
"+o+	c #BA2721",
"@o+	c #BA2D28",
"#o+	c #C12D28",
"$o+	c #C42722",
"%o+	c #B92F2B",
"&o+	c #C33C38",
"*o+	c #C54541",
"=o+	c #C74844",
"-o+	c #C84A45",
";o+	c #B6433F",
">o+	c #822E2E",
",o+	c #602324",
"'o+	c #551B1B",
")o+	c #5E1F1F",
"!o+	c #570D0D",
"~o+	c #570E0E",
"{o+	c #5E1112",
"]o+	c #5E1819",
"^o+	c #5C1516",
"/o+	c #5A0E0D",
"(o+	c #590A09",
"_o+	c #7E110E",
":o+	c #300707",
"<o+	c #420B0B",
"[o+	c #381414",
"}o+	c #4B1C1C",
"|o+	c #441412",
"1o+	c #401412",
"2o+	c #3B1311",
"3o+	c #3D1514",
"4o+	c #411B1B",
"5o+	c #41191A",
"6o+	c #5F1F1F",
"7o+	c #662525",
"8o+	c #682C2C",
"9o+	c #6F4343",
"0o+	c #6A5F4E",
"ao+	c #746750",
"bo+	c #796947",
"co+	c #766741",
"do+	c #5B4D2F",
"eo+	c #3E331C",
"fo+	c #605135",
"go+	c #594E30",
"ho+	c #39261A",
"io+	c #542D28",
"jo+	c #592F2E",
"ko+	c #592828",
"lo+	c #5F2B2B",
"mo+	c #643231",
"no+	c #693736",
"oo+	c #693433",
"po+	c #6B1E1C",
"qo+	c #6B1E1A",
"ro+	c #6A1B18",
"so+	c #6F1C19",
"to+	c #741A17",
"uo+	c #701A16",
"vo+	c #7D1D1A",
"wo+	c #84201D",
"xo+	c #8D211D",
"yo+	c #961C17",
"zo+	c #9A1A16",
"Ao+	c #9D1C16",
"Bo+	c #941E19",
"Co+	c #9B1C16",
"Do+	c #981A15",
"Eo+	c #981B17",
"Fo+	c #991B17",
"Go+	c #9E1F1A",
"Ho+	c #A1201C",
"Io+	c #9D1D19",
"Jo+	c #A0201D",
"Ko+	c #A01E19",
"Lo+	c #A2201C",
"Mo+	c #B3241F",
"No+	c #B52924",
"Oo+	c #B52B27",
"Po+	c #BB2924",
"Qo+	c #BA2521",
"Ro+	c #B32622",
"So+	c #BA2D29",
"To+	c #C02C27",
"Uo+	c #BC3732",
"Vo+	c #C4443F",
"Wo+	c #C74C46",
"Xo+	c #C84C46",
"Yo+	c #C24945",
"Zo+	c #C34A45",
"`o+	c #9D3A37",
" p+	c #561D1D",
".p+	c #550D0C",
"+p+	c #5E1617",
"@p+	c #5C1819",
"#p+	c #5A1819",
"$p+	c #6B0E0E",
"%p+	c #730F0D",
"&p+	c #370909",
"*p+	c #4D1816",
"=p+	c #4A1B1B",
"-p+	c #3D1614",
";p+	c #3A1614",
">p+	c #421A1B",
",p+	c #421C1C",
"'p+	c #3F1415",
")p+	c #7C4342",
"!p+	c #6C5F4D",
"~p+	c #796A47",
"{p+	c #776842",
"]p+	c #5C5030",
"^p+	c #574A2F",
"/p+	c #625237",
"(p+	c #55482B",
"_p+	c #2C2413",
":p+	c #463022",
"<p+	c #5A332E",
"[p+	c #5A2E2E",
"}p+	c #5C2E2C",
"|p+	c #5D2E2C",
"1p+	c #5D2C2B",
"2p+	c #5F2828",
"3p+	c #633131",
"4p+	c #673636",
"5p+	c #6C3C3C",
"6p+	c #6C3B3B",
"7p+	c #692D2C",
"8p+	c #6A292A",
"9p+	c #6A2321",
"0p+	c #711B17",
"ap+	c #751B16",
"bp+	c #78201E",
"cp+	c #812321",
"dp+	c #7D1E1A",
"ep+	c #811D19",
"fp+	c #9A221D",
"gp+	c #9C1C16",
"hp+	c #921C17",
"ip+	c #8F1815",
"jp+	c #981814",
"kp+	c #9A1E1B",
"lp+	c #951915",
"mp+	c #9B1C1A",
"np+	c #9D1B19",
"op+	c #9E1D1A",
"pp+	c #A11F1C",
"qp+	c #AB231E",
"rp+	c #B02521",
"sp+	c #B22520",
"tp+	c #B32520",
"up+	c #B02623",
"vp+	c #B52B26",
"wp+	c #B92B26",
"xp+	c #BB241F",
"yp+	c #B92420",
"zp+	c #C32621",
"Ap+	c #BD2521",
"Bp+	c #BB2321",
"Cp+	c #B9322E",
"Dp+	c #BF3E39",
"Ep+	c #C34742",
"Fp+	c #C54D48",
"Gp+	c #C34E49",
"Hp+	c #C44C47",
"Ip+	c #B54642",
"Jp+	c #913634",
"Kp+	c #6F2625",
"Lp+	c #622425",
"Mp+	c #541C1C",
"Np+	c #550C0C",
"Op+	c #570D0C",
"Pp+	c #540D0D",
"Qp+	c #550D0D",
"Rp+	c #570D0E",
"Sp+	c #5A0F11",
"Tp+	c #570F10",
"Up+	c #5A1011",
"Vp+	c #5A1414",
"Wp+	c #5C0A0A",
"Xp+	c #7C0E0B",
"Yp+	c #370B0B",
"Zp+	c #310907",
"`p+	c #310909",
" q+	c #481513",
".q+	c #441A18",
"+q+	c #3A1615",
"@q+	c #331313",
"#q+	c #6E3A3A",
"$q+	c #6C5F4C",
"%q+	c #776A52",
"&q+	c #7B6B46",
"*q+	c #6E5D3C",
"=q+	c #715F41",
"-q+	c #4C4226",
";q+	c #332B17",
">q+	c #2D2615",
",q+	c #2D2514",
"'q+	c #452C23",
")q+	c #58312E",
"!q+	c #5C2D2B",
"~q+	c #5C2F2E",
"{q+	c #5E3231",
"]q+	c #5D3231",
"^q+	c #5A2725",
"/q+	c #5C2A2A",
"(q+	c #5D2726",
"_q+	c #632E2C",
":q+	c #6A3C3B",
"<q+	c #6D3E3D",
"[q+	c #683030",
"}q+	c #693435",
"|q+	c #683232",
"1q+	c #692C2B",
"2q+	c #67221F",
"3q+	c #671A17",
"4q+	c #6D211E",
"5q+	c #731714",
"6q+	c #721714",
"7q+	c #781A17",
"8q+	c #7E1E1B",
"9q+	c #7F1B17",
"0q+	c #7E1915",
"aq+	c #7F1F1B",
"bq+	c #861D1A",
"cq+	c #8B1D1A",
"dq+	c #8F1D19",
"eq+	c #8B1A17",
"fq+	c #951A15",
"gq+	c #971C16",
"hq+	c #931B16",
"iq+	c #931A15",
"jq+	c #941D19",
"kq+	c #991F1B",
"lq+	c #9A1F1B",
"mq+	c #971C17",
"nq+	c #9A1B18",
"oq+	c #B2221E",
"pq+	c #B1211C",
"qq+	c #B12520",
"rq+	c #AC231F",
"sq+	c #B02C27",
"tq+	c #BA2B28",
"uq+	c #BE2C26",
"vq+	c #B42722",
"wq+	c #BA221F",
"xq+	c #BA2422",
"yq+	c #BE3631",
"zq+	c #BE423E",
"Aq+	c #C24843",
"Bq+	c #C64C47",
"Cq+	c #C44C46",
"Dq+	c #C34C46",
"Eq+	c #A4403B",
"Fq+	c #7A2E2B",
"Gq+	c #702827",
"Hq+	c #581F1F",
"Iq+	c #511C1C",
"Jq+	c #530E0E",
"Kq+	c #581113",
"Lq+	c #5A1314",
"Mq+	c #591213",
"Nq+	c #590D0E",
"Oq+	c #590909",
"Pq+	c #6C0E0D",
"Qq+	c #6C0D0D",
"Rq+	c #2D0505",
"Sq+	c #320505",
"Tq+	c #431311",
"Uq+	c #3E0707",
"Vq+	c #3F0707",
"Wq+	c #310707",
"Xq+	c #2F0E0D",
"Yq+	c #460D0C",
"Zq+	c #3C1716",
"`q+	c #391614",
" r+	c #391513",
".r+	c #612626",
"+r+	c #733A3A",
"@r+	c #78694E",
"#r+	c #6D5C3F",
"$r+	c #473C24",
"%r+	c #2F2516",
"&r+	c #402A1F",
"*r+	c #58302D",
"=r+	c #5E3332",
"-r+	c #5D302F",
";r+	c #5D2B2A",
">r+	c #5C2A28",
",r+	c #623231",
"'r+	c #623433",
")r+	c #693E3D",
"!r+	c #6A3837",
"~r+	c #673130",
"{r+	c #66302F",
"]r+	c #642D2C",
"^r+	c #662B29",
"/r+	c #62211F",
"(r+	c #672321",
"_r+	c #68221E",
":r+	c #6B1F1C",
"<r+	c #711F1B",
"[r+	c #731A16",
"}r+	c #74211E",
"|r+	c #7A1A18",
"1r+	c #791716",
"2r+	c #7F1A17",
"3r+	c #8C201B",
"4r+	c #98201D",
"5r+	c #931F1A",
"6r+	c #8E1C18",
"7r+	c #901E1B",
"8r+	c #991F1A",
"9r+	c #951D18",
"0r+	c #941916",
"ar+	c #911C19",
"br+	c #9D1E1A",
"cr+	c #9F1F1B",
"dr+	c #9F1E1A",
"er+	c #A0201C",
"fr+	c #A5201D",
"gr+	c #AA221D",
"hr+	c #B12924",
"ir+	c #B42C27",
"jr+	c #B92520",
"kr+	c #BC231F",
"lr+	c #BC2D29",
"mr+	c #C23D39",
"nr+	c #C04A45",
"or+	c #BA4944",
"pr+	c #541E1F",
"qr+	c #50191A",
"rr+	c #540F10",
"sr+	c #540E0E",
"tr+	c #550C0D",
"ur+	c #550D0E",
"vr+	c #5A1315",
"wr+	c #560B0A",
"xr+	c #7D0E0C",
"yr+	c #2F0605",
"zr+	c #3E0908",
"Ar+	c #320C0C",
"Br+	c #512222",
"Cr+	c #391616",
"Dr+	c #3C1515",
"Er+	c #401B1C",
"Fr+	c #621F20",
"Gr+	c #6A2425",
"Hr+	c #642728",
"Ir+	c #82393A",
"Jr+	c #6C604C",
"Kr+	c #796B57",
"Lr+	c #68593E",
"Mr+	c #39311D",
"Nr+	c #302815",
"Or+	c #2E2614",
"Pr+	c #2F2515",
"Qr+	c #472A23",
"Rr+	c #5B2A28",
"Sr+	c #5C302F",
"Tr+	c #5E3434",
"Ur+	c #5D3130",
"Vr+	c #5C2E2E",
"Wr+	c #603231",
"Xr+	c #633837",
"Yr+	c #6B4240",
"Zr+	c #653535",
"`r+	c #683334",
" s+	c #652C2A",
".s+	c #662422",
"+s+	c #64211E",
"@s+	c #692421",
"#s+	c #6B1D1B",
"$s+	c #6E1B17",
"%s+	c #6D1E1B",
"&s+	c #6B1A16",
"*s+	c #732020",
"=s+	c #731B19",
"-s+	c #751914",
";s+	c #771B17",
">s+	c #751815",
",s+	c #741915",
"'s+	c #871C1A",
")s+	c #8F1B17",
"!s+	c #881B16",
"~s+	c #8B1C18",
"{s+	c #8E1E1A",
"]s+	c #93201B",
"^s+	c #961D18",
"/s+	c #941A16",
"(s+	c #961C19",
"_s+	c #951F1E",
":s+	c #961A16",
"<s+	c #9E1E19",
"[s+	c #A41D19",
"}s+	c #9E1D19",
"|s+	c #A0211E",
"1s+	c #A1221D",
"2s+	c #A2211D",
"3s+	c #A9221D",
"4s+	c #AB2520",
"5s+	c #B7211D",
"6s+	c #A9201C",
"7s+	c #AE211D",
"8s+	c #AD201D",
"9s+	c #BD3A36",
"0s+	c #C14642",
"as+	c #BB453F",
"bs+	c #BE4743",
"cs+	c #BE4946",
"ds+	c #AB4540",
"es+	c #4C1B1B",
"fs+	c #4D1616",
"gs+	c #560E0F",
"hs+	c #540E0F",
"is+	c #580C0D",
"js+	c #591718",
"ks+	c #571314",
"ls+	c #6D0E0E",
"ms+	c #2D0404",
"ns+	c #41100E",
"os+	c #42100E",
"ps+	c #2E0C0C",
"qs+	c #310A0A",
"rs+	c #480F0D",
"ss+	c #3F1717",
"ts+	c #3E1716",
"us+	c #381010",
"vs+	c #3E1819",
"ws+	c #632121",
"xs+	c #652223",
"ys+	c #642628",
"zs+	c #7C3536",
"As+	c #6A4A49",
"Bs+	c #6F6044",
"Cs+	c #615436",
"Ds+	c #362E1A",
"Es+	c #2E2815",
"Fs+	c #472923",
"Gs+	c #592E2D",
"Hs+	c #5D3635",
"Is+	c #5E3232",
"Js+	c #5E302F",
"Ks+	c #5F3332",
"Ls+	c #623836",
"Ms+	c #673E3E",
"Ns+	c #6A3F3F",
"Os+	c #663434",
"Ps+	c #672F2F",
"Qs+	c #673232",
"Rs+	c #622623",
"Ss+	c #661E1C",
"Ts+	c #6D1A17",
"Us+	c #6E1A17",
"Vs+	c #711813",
"Ws+	c #711613",
"Xs+	c #781B19",
"Ys+	c #761714",
"Zs+	c #731210",
"`s+	c #761916",
" t+	c #751D1C",
".t+	c #781A18",
"+t+	c #7E1713",
"@t+	c #831B19",
"#t+	c #8A1D19",
"$t+	c #861A16",
"%t+	c #8B1A16",
"&t+	c #8F1A14",
"*t+	c #961B17",
"=t+	c #97201B",
"-t+	c #A6231F",
";t+	c #9C1F1A",
">t+	c #9D1D1B",
",t+	c #A1211E",
"'t+	c #A8211D",
")t+	c #AA221E",
"!t+	c #B22825",
"~t+	c #B42623",
"{t+	c #B32320",
"]t+	c #B31F1A",
"^t+	c #B41F1D",
"/t+	c #AC211C",
"(t+	c #AD211B",
"_t+	c #AE211C",
":t+	c #BC3835",
"<t+	c #B9413D",
"[t+	c #B8423F",
"}t+	c #B9433F",
"|t+	c #B64643",
"1t+	c #501F1F",
"2t+	c #560D0E",
"3t+	c #581314",
"4t+	c #561516",
"5t+	c #820F0D",
"6t+	c #530909",
"7t+	c #2D0504",
"8t+	c #400909",
"9t+	c #2F0D0D",
"0t+	c #3E100E",
"at+	c #3F1617",
"bt+	c #331615",
"ct+	c #311514",
"dt+	c #3F1D1D",
"et+	c #682324",
"ft+	c #5F2525",
"gt+	c #7B3434",
"ht+	c #6E4747",
"it+	c #5F5239",
"jt+	c #584C2F",
"kt+	c #352819",
"lt+	c #4B3227",
"mt+	c #5A312E",
"nt+	c #5C3231",
"ot+	c #5F3635",
"pt+	c #5E3131",
"qt+	c #603635",
"rt+	c #694241",
"st+	c #6D4544",
"tt+	c #633535",
"ut+	c #652D2C",
"vt+	c #673333",
"wt+	c #672724",
"xt+	c #6B2827",
"yt+	c #6E1E1A",
"zt+	c #732827",
"At+	c #6F1D1B",
"Bt+	c #6C1F1A",
"Ct+	c #6C1411",
"Dt+	c #721D18",
"Et+	c #751512",
"Ft+	c #741614",
"Gt+	c #751A16",
"Ht+	c #791B19",
"It+	c #7A1815",
"Jt+	c #821A17",
"Kt+	c #891E1A",
"Lt+	c #841F1B",
"Mt+	c #851B19",
"Nt+	c #891A16",
"Ot+	c #8F1A17",
"Pt+	c #941B18",
"Qt+	c #9C1B16",
"Rt+	c #A41F1B",
"St+	c #A9211C",
"Tt+	c #9C1F1B",
"Ut+	c #B0221F",
"Vt+	c #B1221F",
"Wt+	c #B4201B",
"Xt+	c #B1201C",
"Yt+	c #B62321",
"Zt+	c #B42927",
"`t+	c #B7312E",
" u+	c #B93A39",
".u+	c #B43E3B",
"+u+	c #B3413E",
"@u+	c #B13F3C",
"#u+	c #AA423E",
"$u+	c #7E2F2C",
"%u+	c #6E2624",
"&u+	c #612527",
"*u+	c #451A18",
"=u+	c #4F1516",
"-u+	c #521313",
";u+	c #551112",
">u+	c #540D0E",
",u+	c #581617",
"'u+	c #510B0C",
")u+	c #6A0D0D",
"!u+	c #6C0F0D",
"~u+	c #2B0505",
"{u+	c #330606",
"]u+	c #320909",
"^u+	c #2F0B0A",
"/u+	c #460F0F",
"(u+	c #49100E",
"_u+	c #4F2121",
":u+	c #3C1715",
"<u+	c #361717",
"[u+	c #331515",
"}u+	c #34110F",
"|u+	c #360F0D",
"1u+	c #6A2526",
"2u+	c #642626",
"3u+	c #753536",
"4u+	c #5C5138",
"5u+	c #4E4428",
"6u+	c #352C19",
"7u+	c #3E2F20",
"8u+	c #5C3A32",
"9u+	c #5A312F",
"0u+	c #5A302F",
"au+	c #5C3130",
"bu+	c #5E3635",
"cu+	c #603534",
"du+	c #623737",
"eu+	c #6A4242",
"fu+	c #6F4A49",
"gu+	c #673B3B",
"hu+	c #643738",
"iu+	c #653433",
"ju+	c #673334",
"ku+	c #652C2C",
"lu+	c #662E2F",
"mu+	c #652B28",
"nu+	c #672523",
"ou+	c #732825",
"pu+	c #6B1916",
"qu+	c #6A1613",
"ru+	c #6D1F1B",
"su+	c #6F1B18",
"tu+	c #6E1412",
"uu+	c #721D19",
"vu+	c #721915",
"wu+	c #7D1713",
"xu+	c #821814",
"yu+	c #801B16",
"zu+	c #7F1917",
"Au+	c #811815",
"Bu+	c #7C1613",
"Cu+	c #821A16",
"Du+	c #8B1814",
"Eu+	c #941F1C",
"Fu+	c #971B16",
"Gu+	c #971A15",
"Hu+	c #AC211D",
"Iu+	c #A8231E",
"Ju+	c #AF221F",
"Ku+	c #AD221D",
"Lu+	c #B5211B",
"Mu+	c #B3211B",
"Nu+	c #B4201C",
"Ou+	c #AE1F19",
"Pu+	c #AD201C",
"Qu+	c #AD211E",
"Ru+	c #B22925",
"Su+	c #B43430",
"Tu+	c #B03735",
"Uu+	c #AE3835",
"Vu+	c #AA3A38",
"Wu+	c #AF433E",
"Xu+	c #973735",
"Yu+	c #552223",
"Zu+	c #530D0C",
"`u+	c #560D0C",
" v+	c #540D0C",
".v+	c #530C0C",
"+v+	c #530D0E",
"@v+	c #520D0D",
"#v+	c #540C0C",
"$v+	c #571213",
"%v+	c #561315",
"&v+	c #541617",
"*v+	c #4B0909",
"=v+	c #320908",
"-v+	c #2D0E0D",
";v+	c #4C1F1F",
">v+	c #371818",
",v+	c #351717",
"'v+	c #370E0E",
")v+	c #371210",
"!v+	c #3F1B1B",
"~v+	c #431D1D",
"{v+	c #6C2C2C",
"]v+	c #754747",
"^v+	c #5B513A",
"/v+	c #473625",
"(v+	c #5B3731",
"_v+	c #5A3230",
":v+	c #59312F",
"<v+	c #5B3230",
"[v+	c #5D3332",
"}v+	c #603735",
"|v+	c #5E3433",
"1v+	c #643837",
"2v+	c #673938",
"3v+	c #6F4644",
"4v+	c #693E3E",
"5v+	c #673C3E",
"6v+	c #643535",
"7v+	c #633334",
"8v+	c #66201E",
"9v+	c #6A221F",
"0v+	c #712825",
"av+	c #701B17",
"bv+	c #741E1B",
"cv+	c #711F1C",
"dv+	c #6B1512",
"ev+	c #6E1917",
"fv+	c #731613",
"gv+	c #741814",
"hv+	c #721814",
"iv+	c #741412",
"jv+	c #771310",
"kv+	c #7C1A15",
"lv+	c #791714",
"mv+	c #7A1B17",
"nv+	c #791512",
"ov+	c #761511",
"pv+	c #781613",
"qv+	c #831914",
"rv+	c #881916",
"sv+	c #8A1E1A",
"tv+	c #8D1A16",
"uv+	c #A8221E",
"vv+	c #A6221D",
"wv+	c #9A1C1A",
"xv+	c #A01F1D",
"yv+	c #A41E1A",
"zv+	c #AE231E",
"Av+	c #AE2320",
"Bv+	c #B02420",
"Cv+	c #B0201B",
"Dv+	c #B31E1A",
"Ev+	c #B51F1A",
"Fv+	c #B5201B",
"Gv+	c #AF1D19",
"Hv+	c #AC1F1B",
"Iv+	c #A81F1B",
"Jv+	c #AA2420",
"Kv+	c #AA2622",
"Lv+	c #AE2C2A",
"Mv+	c #AC3332",
"Nv+	c #AE3634",
"Ov+	c #AA3636",
"Pv+	c #A73736",
"Qv+	c #88312F",
"Rv+	c #6E2525",
"Sv+	c #501E1F",
"Tv+	c #560E0D",
"Uv+	c #530C0D",
"Vv+	c #561214",
"Wv+	c #561415",
"Xv+	c #561213",
"Yv+	c #520E0E",
"Zv+	c #530D0D",
"`v+	c #510908",
" w+	c #720E0E",
".w+	c #6E100F",
"+w+	c #290504",
"@w+	c #4D1D1E",
"#w+	c #481314",
"$w+	c #431715",
"%w+	c #3E1415",
"&w+	c #321616",
"*w+	c #431C1C",
"=w+	c #451718",
"-w+	c #682526",
";w+	c #6B2E2E",
">w+	c #744746",
",w+	c #5E533A",
"'w+	c #423523",
")w+	c #593331",
"!w+	c #5A3331",
"~w+	c #5A3231",
"{w+	c #5E3533",
"]w+	c #623B3A",
"^w+	c #5F3838",
"/w+	c #5F3837",
"(w+	c #5F3737",
"_w+	c #633636",
":w+	c #683E3D",
"<w+	c #704947",
"[w+	c #6D4444",
"}w+	c #683B3D",
"|w+	c #613333",
"1w+	c #622C2B",
"2w+	c #632C2C",
"3w+	c #672D2A",
"4w+	c #632220",
"5w+	c #6F2220",
"6w+	c #722420",
"7w+	c #6C1A17",
"8w+	c #6A1B15",
"9w+	c #6A1C19",
"0w+	c #6A1915",
"aw+	c #711814",
"bw+	c #731A17",
"cw+	c #731413",
"dw+	c #72120E",
"ew+	c #741610",
"fw+	c #751410",
"gw+	c #751311",
"hw+	c #741513",
"iw+	c #771C17",
"jw+	c #741714",
"kw+	c #731713",
"lw+	c #7B1613",
"mw+	c #7E1A16",
"nw+	c #841B17",
"ow+	c #871914",
"pw+	c #841813",
"qw+	c #811915",
"rw+	c #871A14",
"sw+	c #941E18",
"tw+	c #A7231F",
"uw+	c #9F1D18",
"vw+	c #A61D19",
"ww+	c #AF221D",
"xw+	c #AC221D",
"yw+	c #AD2620",
"zw+	c #AC211A",
"Aw+	c #B01E19",
"Bw+	c #B41F1B",
"Cw+	c #B11F1A",
"Dw+	c #AF1F19",
"Ew+	c #A62924",
"Fw+	c #AA2E2A",
"Gw+	c #AE2F2D",
"Hw+	c #B03532",
"Iw+	c #B03936",
"Jw+	c #A63535",
"Kw+	c #A83938",
"Lw+	c #8F3736",
"Mw+	c #6D2524",
"Nw+	c #5E2526",
"Ow+	c #520C0C",
"Pw+	c #551011",
"Qw+	c #59191A",
"Rw+	c #520A0A",
"Sw+	c #550807",
"Tw+	c #83110F",
"Uw+	c #490808",
"Vw+	c #2E0606",
"Ww+	c #410A0A",
"Xw+	c #400A09",
"Yw+	c #2E0909",
"Zw+	c #300D0D",
"`w+	c #470F0D",
" x+	c #461311",
".x+	c #391919",
"+x+	c #341616",
"@x+	c #351817",
"#x+	c #331616",
"$x+	c #370F0F",
"%x+	c #441F20",
"&x+	c #6D2728",
"*x+	c #672626",
"=x+	c #6B2D2E",
"-x+	c #5F5336",
";x+	c #302A16",
">x+	c #342D1A",
",x+	c #442D22",
"'x+	c #5B3533",
")x+	c #5B3231",
"!x+	c #5D3432",
"~x+	c #5F3736",
"{x+	c #613837",
"]x+	c #603938",
"^x+	c #603837",
"/x+	c #613735",
"(x+	c #673D3C",
"_x+	c #6C4644",
":x+	c #6E4544",
"<x+	c #673C3C",
"[x+	c #653737",
"}x+	c #643A3A",
"|x+	c #633231",
"1x+	c #642F30",
"2x+	c #602927",
"3x+	c #642F2D",
"4x+	c #622A2A",
"5x+	c #661815",
"6x+	c #6A1F1A",
"7x+	c #6D1B18",
"8x+	c #6D1716",
"9x+	c #6E1512",
"0x+	c #701814",
"ax+	c #721A16",
"bx+	c #731512",
"cx+	c #731813",
"dx+	c #721512",
"ex+	c #731311",
"fx+	c #721210",
"gx+	c #721310",
"hx+	c #741712",
"ix+	c #711611",
"jx+	c #741B16",
"kx+	c #791A16",
"lx+	c #7D1815",
"mx+	c #801914",
"nx+	c #7B1614",
"ox+	c #7C1914",
"px+	c #851916",
"qx+	c #A6201D",
"rx+	c #AA211D",
"sx+	c #AD1F1A",
"tx+	c #AD201A",
"ux+	c #AB1C18",
"vx+	c #AE1E19",
"wx+	c #AE1C18",
"xx+	c #AE1D19",
"yx+	c #A81C18",
"zx+	c #A92A26",
"Ax+	c #AD2F2C",
"Bx+	c #B13532",
"Cx+	c #AC3532",
"Dx+	c #A83432",
"Ex+	c #A23230",
"Fx+	c #863534",
"Gx+	c #522021",
"Hx+	c #4F1112",
"Ix+	c #510D0D",
"Jx+	c #561011",
"Kx+	c #561113",
"Lx+	c #571012",
"Mx+	c #551113",
"Nx+	c #591416",
"Ox+	c #581718",
"Px+	c #510B0A",
"Qx+	c #4F090A",
"Rx+	c #760F0D",
"Sx+	c #690D0B",
"Tx+	c #2B0404",
"Ux+	c #350605",
"Vx+	c #390907",
"Wx+	c #410F0D",
"Xx+	c #2E0B0B",
"Yx+	c #4B110F",
"Zx+	c #4A110F",
"`x+	c #451513",
" y+	c #3E1614",
".y+	c #401415",
"+y+	c #331716",
"@y+	c #341717",
"#y+	c #462121",
"$y+	c #6B2829",
"%y+	c #652828",
"&y+	c #704141",
"*y+	c #594E33",
"=y+	c #40371F",
"-y+	c #302A17",
";y+	c #302617",
">y+	c #452E24",
",y+	c #5B3331",
"'y+	c #5C3432",
")y+	c #5E3836",
"!y+	c #613A3A",
"~y+	c #623939",
"{y+	c #5E3535",
"]y+	c #653D3C",
"^y+	c #684240",
"/y+	c #6A4342",
"(y+	c #6B4645",
"_y+	c #684141",
":y+	c #683E40",
"<y+	c #653B3D",
"[y+	c #612F2E",
"}y+	c #662D2D",
"|y+	c #642828",
"1y+	c #631F1B",
"2y+	c #6D1C18",
"3y+	c #6E1A15",
"4y+	c #701716",
"5y+	c #711E1B",
"6y+	c #6F1614",
"7y+	c #6D1512",
"8y+	c #711614",
"9y+	c #721A15",
"0y+	c #731211",
"ay+	c #731914",
"by+	c #771512",
"cy+	c #73120F",
"dy+	c #741F1B",
"ey+	c #761410",
"fy+	c #7D1B16",
"gy+	c #7D1614",
"hy+	c #7E1512",
"iy+	c #801A16",
"jy+	c #841E19",
"ky+	c #901C18",
"ly+	c #981F1A",
"my+	c #AC201A",
"ny+	c #A91D1B",
"oy+	c #A8201E",
"py+	c #AB211C",
"qy+	c #AB1F19",
"ry+	c #AE211A",
"sy+	c #AB1D19",
"ty+	c #A91F19",
"uy+	c #A92722",
"vy+	c #B02E2A",
"wy+	c #B43633",
"xy+	c #AE3633",
"yy+	c #A93531",
"zy+	c #99312E",
"Ay+	c #6E2323",
"By+	c #612324",
"Cy+	c #4E0D0C",
"Dy+	c #530B0B",
"Ey+	c #541011",
"Fy+	c #5A1718",
"Gy+	c #520909",
"Hy+	c #5B0A09",
"Iy+	c #8D110F",
"Jy+	c #4D0808",
"Ky+	c #310807",
"Ly+	c #370706",
"My+	c #3E0808",
"Ny+	c #420A0A",
"Oy+	c #300908",
"Py+	c #2E0F0E",
"Qy+	c #48100E",
"Ry+	c #411715",
"Sy+	c #3D1213",
"Ty+	c #411D1D",
"Uy+	c #461819",
"Vy+	c #5C1E1E",
"Wy+	c #702A2A",
"Xy+	c #74403F",
"Yy+	c #53482F",
"Zy+	c #312718",
"`y+	c #4A2E26",
" z+	c #5B3332",
".z+	c #5E3735",
"+z+	c #5F3A38",
"@z+	c #613A3B",
"#z+	c #623A3A",
"$z+	c #684341",
"%z+	c #684342",
"&z+	c #653E3D",
"*z+	c #6A4646",
"=z+	c #683F40",
"-z+	c #673C3F",
";z+	c #633232",
">z+	c #622F2E",
",z+	c #663131",
"'z+	c #612624",
")z+	c #662522",
"!z+	c #69211E",
"~z+	c #6F1914",
"{z+	c #6F1917",
"]z+	c #721D1A",
"^z+	c #6F1715",
"/z+	c #6F1815",
"(z+	c #711310",
"_z+	c #711410",
":z+	c #731511",
"<z+	c #721713",
"[z+	c #751511",
"}z+	c #791915",
"|z+	c #761312",
"1z+	c #791B17",
"2z+	c #7F1812",
"3z+	c #831814",
"4z+	c #851A16",
"5z+	c #8F1F1A",
"6z+	c #A22220",
"7z+	c #A7201F",
"8z+	c #A61E1A",
"9z+	c #A51F1A",
"0z+	c #AC211B",
"az+	c #AD1F19",
"bz+	c #AD1F1B",
"cz+	c #A81F19",
"dz+	c #A71B17",
"ez+	c #AB1E19",
"fz+	c #A9231E",
"gz+	c #B22D2B",
"hz+	c #B0312D",
"iz+	c #B03330",
"jz+	c #A93532",
"kz+	c #8C322F",
"lz+	c #6D2525",
"mz+	c #501112",
"nz+	c #4E0E0F",
"oz+	c #510E0F",
"pz+	c #520A0B",
"qz+	c #541113",
"rz+	c #510B0B",
"sz+	c #4D0707",
"tz+	c #7A0F0D",
"uz+	c #700F0C",
"vz+	c #2C0505",
"wz+	c #3D0807",
"xz+	c #410909",
"yz+	c #2D0C0B",
"zz+	c #300C0B",
"Az+	c #45100E",
"Bz+	c #491213",
"Cz+	c #3D1311",
"Dz+	c #321615",
"Ez+	c #361919",
"Fz+	c #6A2727",
"Gz+	c #71393A",
"Hz+	c #554C38",
"Iz+	c #53482E",
"Jz+	c #4C2E29",
"Kz+	c #5C3533",
"Lz+	c #5E3634",
"Mz+	c #5E3534",
"Nz+	c #694441",
"Oz+	c #6A4846",
"Pz+	c #674242",
"Qz+	c #694545",
"Rz+	c #663D3E",
"Sz+	c #623233",
"Tz+	c #673E41",
"Uz+	c #633030",
"Vz+	c #643131",
"Wz+	c #663232",
"Xz+	c #673536",
"Yz+	c #663334",
"Zz+	c #632320",
"`z+	c #651E1A",
" A+	c #692220",
".A+	c #6E1815",
"+A+	c #731612",
"@A+	c #731411",
"#A+	c #74120F",
"$A+	c #761610",
"%A+	c #7D1A16",
"&A+	c #781C17",
"*A+	c #781914",
"=A+	c #7C1B17",
"-A+	c #841814",
";A+	c #8C1916",
">A+	c #8D1D1A",
",A+	c #8F1D1B",
"'A+	c #9F231F",
")A+	c #A21D18",
"!A+	c #AA1F19",
"~A+	c #A61F18",
"{A+	c #A81D18",
"]A+	c #A71D18",
"^A+	c #AA1D18",
"/A+	c #AB201A",
"(A+	c #AC2A26",
"_A+	c #AE2C28",
":A+	c #AC2F2B",
"<A+	c #A22F2D",
"[A+	c #6B2321",
"}A+	c #632424",
"|A+	c #510A0A",
"1A+	c #510C0C",
"2A+	c #531213",
"3A+	c #551314",
"4A+	c #551718",
"5A+	c #571415",
"6A+	c #540A09",
"7A+	c #500C0C",
"8A+	c #510707",
"9A+	c #700C0C",
"0A+	c #981310",
"aA+	c #450707",
"bA+	c #420909",
"cA+	c #410606",
"dA+	c #3F0909",
"eA+	c #3F0A09",
"fA+	c #2E0B0A",
"gA+	c #450F0D",
"hA+	c #311615",
"iA+	c #441D1F",
"jA+	c #4A2020",
"kA+	c #6B2727",
"lA+	c #743637",
"mA+	c #524935",
"nA+	c #564C31",
"oA+	c #4D3D2C",
"pA+	c #53342D",
"qA+	c #5E3936",
"rA+	c #5D3634",
"sA+	c #5C3634",
"tA+	c #633E3B",
"uA+	c #684744",
"vA+	c #674240",
"wA+	c #653F3F",
"xA+	c #664041",
"yA+	c #623B3C",
"zA+	c #633C3E",
"AA+	c #613231",
"BA+	c #612C2C",
"CA+	c #663535",
"DA+	c #653132",
"EA+	c #673131",
"FA+	c #631F1C",
"GA+	c #692420",
"HA+	c #6A211E",
"IA+	c #681D18",
"JA+	c #701715",
"KA+	c #6E1613",
"LA+	c #701615",
"MA+	c #701412",
"NA+	c #701210",
"OA+	c #741410",
"PA+	c #741511",
"QA+	c #74130F",
"RA+	c #781411",
"SA+	c #7E1614",
"TA+	c #7D1814",
"UA+	c #7B1A18",
"VA+	c #7C1917",
"WA+	c #7C1814",
"XA+	c #7D1714",
"YA+	c #871B18",
"ZA+	c #9B221E",
"`A+	c #A8221C",
" B+	c #A51E1A",
".B+	c #9E1D18",
"+B+	c #A41E19",
"@B+	c #A41C17",
"#B+	c #A71E19",
"$B+	c #A61E18",
"%B+	c #A71F1A",
"&B+	c #AC1E1A",
"*B+	c #A81F1A",
"=B+	c #A8221F",
"-B+	c #AC2F2D",
";B+	c #922B2A",
">B+	c #5D2526",
",B+	c #411A19",
"'B+	c #4C0E0F",
")B+	c #511011",
"!B+	c #500F11",
"~B+	c #511213",
"{B+	c #501213",
"]B+	c #531415",
"^B+	c #541112",
"/B+	c #521213",
"(B+	c #500909",
"_B+	c #7B0F0E",
":B+	c #700F0E",
"<B+	c #2D0706",
"[B+	c #380A09",
"}B+	c #2D0A0A",
"|B+	c #340C0C",
"1B+	c #44100E",
"2B+	c #401613",
"3B+	c #3D1412",
"4B+	c #341817",
"5B+	c #3F1513",
"6B+	c #581D1C",
"7B+	c #662626",
"8B+	c #843939",
"9B+	c #6A4545",
"0B+	c #644239",
"aB+	c #5C3534",
"bB+	c #623A38",
"cB+	c #664240",
"dB+	c #67423F",
"eB+	c #664341",
"fB+	c #694444",
"gB+	c #633C3C",
"hB+	c #623A3B",
"iB+	c #5F3030",
"jB+	c #603332",
"kB+	c #613130",
"lB+	c #623130",
"mB+	c #693739",
"nB+	c #662D2F",
"oB+	c #66211F",
"pB+	c #6B2726",
"qB+	c #691B17",
"rB+	c #6C1C18",
"sB+	c #6D1B17",
"tB+	c #6F1915",
"uB+	c #6F1D19",
"vB+	c #701D18",
"wB+	c #6F1610",
"xB+	c #72110F",
"yB+	c #741914",
"zB+	c #741916",
"AB+	c #771713",
"BB+	c #7D1915",
"CB+	c #7F1C19",
"DB+	c #7A1511",
"EB+	c #7F1712",
"FB+	c #8A1C1A",
"GB+	c #8B1B17",
"HB+	c #851C18",
"IB+	c #8E1F1D",
"JB+	c #931E1C",
"KB+	c #901813",
"LB+	c #951B15",
"MB+	c #991C17",
"NB+	c #A31F17",
"OB+	c #A61F19",
"PB+	c #AD1E1A",
"QB+	c #AA1E1A",
"RB+	c #A62421",
"SB+	c #A82623",
"TB+	c #822A28",
"UB+	c #532324",
"VB+	c #411A1A",
"WB+	c #431415",
"XB+	c #4D0C0C",
"YB+	c #501314",
"ZB+	c #500E0F",
"`B+	c #521011",
" C+	c #4F0C0C",
".C+	c #500D0D",
"+C+	c #4F0B0B",
"@C+	c #4F0706",
"#C+	c #6B0B0B",
"$C+	c #9A1616",
"%C+	c #4A0808",
"&C+	c #3E0505",
"*C+	c #2F0909",
"=C+	c #2C0C0C",
"-C+	c #300B0B",
";C+	c #43100E",
">C+	c #45110F",
",C+	c #401614",
"'C+	c #391816",
")C+	c #331414",
"!C+	c #351818",
"~C+	c #301212",
"{C+	c #31100E",
"]C+	c #743232",
"^C+	c #434039",
"/C+	c #4B3D37",
"(C+	c #5F3E3B",
"_C+	c #5E3734",
":C+	c #633D3B",
"<C+	c #603A38",
"[C+	c #654140",
"}C+	c #6C4646",
"|C+	c #633D3D",
"1C+	c #5F3434",
"2C+	c #603433",
"3C+	c #603232",
"4C+	c #602F2F",
"5C+	c #653534",
"6C+	c #6B3D3F",
"7C+	c #5F2422",
"8C+	c #6A2623",
"9C+	c #661D1A",
"0C+	c #6B1412",
"aC+	c #691715",
"bC+	c #6D1913",
"cC+	c #701713",
"dC+	c #70120F",
"eC+	c #721311",
"fC+	c #711210",
"gC+	c #731611",
"hC+	c #751612",
"iC+	c #801D1A",
"jC+	c #791412",
"kC+	c #781311",
"lC+	c #7B1916",
"mC+	c #861B16",
"nC+	c #7C1C19",
"oC+	c #881B17",
"pC+	c #A6211D",
"qC+	c #9A1D1A",
"rC+	c #921E1A",
"sC+	c #941B16",
"tC+	c #8B1A15",
"uC+	c #861B14",
"vC+	c #8A1814",
"wC+	c #9B1D17",
"xC+	c #A11D17",
"yC+	c #A21F18",
"zC+	c #AA211B",
"AC+	c #A42A26",
"BC+	c #A12827",
"CC+	c #992D2B",
"DC+	c #4B1E1E",
"EC+	c #421516",
"FC+	c #481718",
"GC+	c #4F1314",
"HC+	c #4F0B0C",
"IC+	c #4F0909",
"JC+	c #520808",
"KC+	c #7E1313",
"LC+	c #721110",
"MC+	c #2B0606",
"NC+	c #300909",
"OC+	c #2A0B0A",
"PC+	c #44110F",
"QC+	c #5B1D1C",
"RC+	c #453431",
"SC+	c #5D3836",
"TC+	c #613A38",
"UC+	c #65413F",
"VC+	c #6C4847",
"WC+	c #643E3E",
"XC+	c #5D3434",
"YC+	c #603535",
"ZC+	c #5D2E2D",
"`C+	c #653231",
" D+	c #683939",
".D+	c #642C2A",
"+D+	c #602423",
"@D+	c #62201C",
"#D+	c #64201E",
"$D+	c #651917",
"%D+	c #661C19",
"&D+	c #691D1B",
"*D+	c #6A1D19",
"=D+	c #6E1713",
"-D+	c #721715",
";D+	c #721815",
">D+	c #761612",
",D+	c #7B1E19",
"'D+	c #7E1C18",
")D+	c #781814",
"!D+	c #761611",
"~D+	c #862019",
"{D+	c #8A1E19",
"]D+	c #801814",
"^D+	c #771A17",
"/D+	c #7E1612",
"(D+	c #821815",
"_D+	c #A11E1A",
":D+	c #901A16",
"<D+	c #901B14",
"[D+	c #8A1A13",
"}D+	c #821411",
"|D+	c #901916",
"1D+	c #A51D17",
"2D+	c #A31D18",
"3D+	c #A52622",
"4D+	c #A42827",
"5D+	c #9F2C2A",
"6D+	c #A12D2C",
"7D+	c #862727",
"8D+	c #572122",
"9D+	c #431213",
"0D+	c #451315",
"aD+	c #451112",
"bD+	c #4B1D1C",
"cD+	c #4C1C1D",
"dD+	c #491718",
"eD+	c #4E0A0B",
"fD+	c #4E0707",
"gD+	c #4F0707",
"hD+	c #500807",
"iD+	c #520807",
"jD+	c #6C0D0C",
"kD+	c #991514",
"lD+	c #3F0606",
"mD+	c #350909",
"nD+	c #2C0A0A",
"oD+	c #2D0B0A",
"pD+	c #3F1816",
"qD+	c #612222",
"rD+	c #6B3030",
"sD+	c #422F2E",
"tD+	c #5B3534",
"uD+	c #5D3533",
"vD+	c #603D3A",
"wD+	c #704E4A",
"xD+	c #684443",
"yD+	c #5F3535",
"zD+	c #613939",
"AD+	c #602F2E",
"BD+	c #673837",
"CD+	c #643331",
"DD+	c #602A28",
"ED+	c #602522",
"FD+	c #611F1D",
"GD+	c #642422",
"HD+	c #631C19",
"ID+	c #661F1C",
"JD+	c #681D19",
"KD+	c #671B17",
"LD+	c #671915",
"MD+	c #661D18",
"ND+	c #6C120F",
"OD+	c #6F1612",
"PD+	c #701512",
"QD+	c #761B17",
"RD+	c #781715",
"SD+	c #7B1A16",
"TD+	c #781B16",
"UD+	c #751712",
"VD+	c #841713",
"WD+	c #7C1812",
"XD+	c #801A17",
"YD+	c #831A16",
"ZD+	c #881D17",
"`D+	c #96201A",
" E+	c #9F1E19",
".E+	c #961F19",
"+E+	c #8F1A16",
"@E+	c #8B1914",
"#E+	c #841511",
"$E+	c #861712",
"%E+	c #901915",
"&E+	c #991D17",
"*E+	c #9F1C16",
"=E+	c #A01E18",
"-E+	c #A21F1A",
";E+	c #A8231D",
">E+	c #A92824",
",E+	c #A82E2B",
"'E+	c #A83330",
")E+	c #A2312E",
"!E+	c #A0312D",
"~E+	c #972D2C",
"{E+	c #732B2B",
"]E+	c #652627",
"^E+	c #4F1E20",
"/E+	c #4B1F1E",
"(E+	c #491E1E",
"_E+	c #4A1C1C",
":E+	c #4B1B1C",
"<E+	c #4B1516",
"[E+	c #4C1112",
"}E+	c #4F1011",
"|E+	c #4D0B0B",
"1E+	c #4C0A0B",
"2E+	c #4C0909",
"3E+	c #540909",
"4E+	c #560908",
"5E+	c #881512",
"6E+	c #2D0606",
"7E+	c #350505",
"8E+	c #420B09",
"9E+	c #2B0A0A",
"0E+	c #330C0B",
"aE+	c #41110F",
"bE+	c #3A1311",
"cE+	c #2F1211",
"dE+	c #6D3030",
"eE+	c #694242",
"fE+	c #442E2D",
"gE+	c #6D4945",
"hE+	c #6E4A47",
"iE+	c #603130",
"jE+	c #643636",
"kE+	c #623232",
"lE+	c #5D211F",
"mE+	c #5F2423",
"nE+	c #602422",
"oE+	c #691B16",
"pE+	c #6A1513",
"qE+	c #6C1712",
"rE+	c #6E1612",
"sE+	c #6D120F",
"tE+	c #751F1B",
"uE+	c #761B16",
"vE+	c #761713",
"wE+	c #741612",
"xE+	c #771613",
"yE+	c #781611",
"zE+	c #7C1512",
"AE+	c #881A15",
"BE+	c #951A17",
"CE+	c #8F1A15",
"DE+	c #941E17",
"EE+	c #911B17",
"FE+	c #8A1914",
"GE+	c #8A1714",
"HE+	c #8D1B15",
"IE+	c #9A1B15",
"JE+	c #9D1B16",
"KE+	c #9E1E1A",
"LE+	c #A92B28",
"ME+	c #AB332E",
"NE+	c #A73531",
"OE+	c #A4312F",
"PE+	c #9B2F2C",
"QE+	c #8A2F2B",
"RE+	c #712727",
"SE+	c #5F2526",
"TE+	c #481B1A",
"UE+	c #4A191A",
"VE+	c #4B1C1D",
"WE+	c #4A1617",
"XE+	c #4D1213",
"YE+	c #4D1112",
"ZE+	c #4D0A0A",
"`E+	c #4E0C0B",
" F+	c #4E0A0A",
".F+	c #6A0F0E",
"+F+	c #6E1611",
"@F+	c #310505",
"#F+	c #390505",
"$F+	c #3E0606",
"%F+	c #440707",
"&F+	c #410808",
"*F+	c #400907",
"=F+	c #2C0B0A",
"-F+	c #390F0D",
";F+	c #431718",
">F+	c #411617",
",F+	c #311414",
"'F+	c #311413",
")F+	c #301110",
"!F+	c #67292A",
"~F+	c #48302E",
"{F+	c #5D3835",
"]F+	c #623D3A",
"^F+	c #6C4A46",
"/F+	c #714E4C",
"(F+	c #664241",
"_F+	c #5F3534",
":F+	c #613737",
"<F+	c #623736",
"[F+	c #602E2E",
"}F+	c #602727",
"|F+	c #5F2826",
"1F+	c #602221",
"2F+	c #661715",
"3F+	c #691D1A",
"4F+	c #691815",
"5F+	c #681816",
"6F+	c #6A1C17",
"7F+	c #6B1A17",
"8F+	c #6B1612",
"9F+	c #741A18",
"0F+	c #741F19",
"aF+	c #771916",
"bF+	c #7E1813",
"cF+	c #7E1914",
"dF+	c #771715",
"eF+	c #75100E",
"fF+	c #78130F",
"gF+	c #821916",
"hF+	c #861C17",
"iF+	c #8A1A16",
"jF+	c #891A13",
"kF+	c #8E1B16",
"lF+	c #931D18",
"mF+	c #901B16",
"nF+	c #901A15",
"oF+	c #891915",
"pF+	c #8E1B15",
"qF+	c #941D16",
"rF+	c #9B1B18",
"sF+	c #AE3430",
"tF+	c #A93634",
"uF+	c #A73431",
"vF+	c #A53834",
"wF+	c #9C322F",
"xF+	c #81302F",
"yF+	c #431011",
"zF+	c #451213",
"AF+	c #4C191A",
"BF+	c #4A1314",
"CF+	c #4E1011",
"DF+	c #4C1415",
"EF+	c #4C0B0B",
"FF+	c #4E0A09",
"GF+	c #4B0808",
"HF+	c #4E0809",
"IF+	c #550B0B",
"JF+	c #791713",
"KF+	c #55100E",
"LF+	c #3F0505",
"MF+	c #420808",
"NF+	c #400605",
"OF+	c #400707",
"PF+	c #3F0908",
"QF+	c #2A0A0A",
"RF+	c #2F0D0C",
"SF+	c #301313",
"TF+	c #692B2C",
"UF+	c #653A3B",
"VF+	c #4C3130",
"WF+	c #674340",
"XF+	c #745250",
"YF+	c #5E3333",
"ZF+	c #5F3533",
"`F+	c #602828",
" G+	c #651B19",
".G+	c #6A1B17",
"+G+	c #69201D",
"@G+	c #691B18",
"#G+	c #681412",
"$G+	c #6A1916",
"%G+	c #6A1612",
"&G+	c #701916",
"*G+	c #701B19",
"=G+	c #711612",
"-G+	c #721410",
";G+	c #7B1411",
">G+	c #7D1813",
",G+	c #751310",
"'G+	c #781610",
")G+	c #7E1815",
"!G+	c #801917",
"~G+	c #841815",
"{G+	c #831614",
"]G+	c #821712",
"^G+	c #8A1A15",
"/G+	c #911E19",
"(G+	c #921E18",
"_G+	c #8C1B16",
":G+	c #8E1C17",
"<G+	c #921916",
"[G+	c #901B15",
"}G+	c #961E19",
"|G+	c #9F2722",
"1G+	c #A72F2C",
"2G+	c #AD3734",
"3G+	c #AC3934",
"4G+	c #AA3A37",
"5G+	c #9F3432",
"6G+	c #91302F",
"7G+	c #732828",
"8G+	c #632425",
"9G+	c #481B1B",
"0G+	c #4A1F1F",
"aG+	c #471617",
"bG+	c #4A1213",
"cG+	c #490A0A",
"dG+	c #4A0A0A",
"eG+	c #4B0707",
"fG+	c #4C0808",
"gG+	c #4A0606",
"hG+	c #6A100B",
"iG+	c #70130F",
"jG+	c #340706",
"kG+	c #390605",
"lG+	c #3D0605",
"mG+	c #440606",
"nG+	c #400808",
"oG+	c #3F0807",
"pG+	c #3F0605",
"qG+	c #331717",
"rG+	c #311311",
"sG+	c #2F1110",
"tG+	c #6B2626",
"uG+	c #6B3A39",
"vG+	c #503331",
"wG+	c #66413F",
"xG+	c #6F4E4A",
"yG+	c #603333",
"zG+	c #5C2A29",
"AG+	c #5B2522",
"BG+	c #5E2424",
"CG+	c #612A2A",
"DG+	c #652622",
"EG+	c #671612",
"FG+	c #6A1B19",
"GG+	c #681D1A",
"HG+	c #691915",
"IG+	c #681A16",
"JG+	c #691713",
"KG+	c #691812",
"LG+	c #6D1E19",
"MG+	c #6F1816",
"NG+	c #711411",
"OG+	c #711311",
"PG+	c #741310",
"QG+	c #731410",
"RG+	c #801412",
"SG+	c #7C1A14",
"TG+	c #7B1512",
"UG+	c #851915",
"VG+	c #8F1D18",
"WG+	c #8E1C16",
"XG+	c #921A16",
"YG+	c #981A17",
"ZG+	c #931B17",
"`G+	c #871815",
" H+	c #8E1B17",
".H+	c #951F19",
"+H+	c #99221D",
"@H+	c #9C2723",
"#H+	c #A7332F",
"$H+	c #AA3B35",
"%H+	c #AB3E39",
"&H+	c #A63936",
"*H+	c #9F3531",
"=H+	c #873432",
"-H+	c #742829",
";H+	c #5C2021",
">H+	c #48191A",
",H+	c #4B0C0B",
"'H+	c #4B0A0B",
")H+	c #490809",
"!H+	c #490606",
"~H+	c #530808",
"{H+	c #8A1512",
"]H+	c #620E0C",
"^H+	c #310404",
"/H+	c #360404",
"(H+	c #3E0706",
"_H+	c #420707",
":H+	c #420606",
"<H+	c #3E0605",
"[H+	c #400606",
"}H+	c #2F0C0B",
"|H+	c #321515",
"1H+	c #2E1211",
"2H+	c #703B3B",
"3H+	c #583634",
"4H+	c #613B39",
"5H+	c #6D4A47",
"6H+	c #6E4B48",
"7H+	c #603836",
"8H+	c #5F3231",
"9H+	c #5F3433",
"0H+	c #5E2A28",
"aH+	c #5E2421",
"bH+	c #642521",
"cH+	c #691C18",
"dH+	c #681916",
"eH+	c #691D19",
"fH+	c #691A15",
"gH+	c #671411",
"hH+	c #6A1917",
"iH+	c #6B1713",
"jH+	c #6E130F",
"kH+	c #6F1613",
"lH+	c #6E1410",
"mH+	c #72130F",
"nH+	c #791A15",
"oH+	c #7B1714",
"pH+	c #791715",
"qH+	c #76120F",
"rH+	c #761510",
"sH+	c #8D1916",
"tH+	c #8B1813",
"uH+	c #891712",
"vH+	c #871813",
"wH+	c #941C16",
"xH+	c #8D1915",
"yH+	c #8D1C16",
"zH+	c #901F18",
"AH+	c #97221C",
"BH+	c #98221D",
"CH+	c #982421",
"DH+	c #9F2F2B",
"EH+	c #A43B36",
"FH+	c #AA3E3A",
"GH+	c #AD423E",
"HH+	c #A73E3A",
"IH+	c #983534",
"JH+	c #7A2D2C",
"KH+	c #722828",
"LH+	c #672425",
"MH+	c #511E20",
"NH+	c #4A1A1B",
"OH+	c #471A1B",
"PH+	c #490D0E",
"QH+	c #4A0B0B",
"RH+	c #490B0B",
"SH+	c #490707",
"TH+	c #470606",
"UH+	c #4A0909",
"VH+	c #490909",
"WH+	c #4E0808",
"XH+	c #76110F",
"YH+	c #2E0504",
"ZH+	c #330505",
"`H+	c #370404",
" I+	c #3D0707",
".I+	c #2F0A0A",
"+I+	c #2B0B0A",
"@I+	c #30100E",
"#I+	c #3E110F",
"$I+	c #3F1213",
"%I+	c #391C1B",
"&I+	c #361918",
"*I+	c #331817",
"=I+	c #301312",
"-I+	c #2F1210",
";I+	c #370E0D",
">I+	c #641F20",
",I+	c #753B3A",
"'I+	c #5A3735",
")I+	c #674441",
"!I+	c #684340",
"~I+	c #602B2A",
"{I+	c #5F2220",
"]I+	c #652C29",
"^I+	c #662222",
"/I+	c #641D1A",
"(I+	c #651F1D",
"_I+	c #681F1D",
":I+	c #681712",
"<I+	c #661512",
"[I+	c #681815",
"}I+	c #681513",
"|I+	c #691311",
"1I+	c #691614",
"2I+	c #681512",
"3I+	c #6A1A16",
"4I+	c #6B1813",
"5I+	c #6B1714",
"6I+	c #6A1712",
"7I+	c #6C1612",
"8I+	c #6E1510",
"9I+	c #75120E",
"0I+	c #851612",
"aI+	c #881813",
"bI+	c #831613",
"cI+	c #831612",
"dI+	c #881915",
"eI+	c #911D17",
"fI+	c #9A2521",
"gI+	c #99231F",
"hI+	c #9F3430",
"iI+	c #A33E3A",
"jI+	c #A5413C",
"kI+	c #A63F3A",
"lI+	c #8B3331",
"mI+	c #772E2E",
"nI+	c #732929",
"oI+	c #6F2626",
"pI+	c #652122",
"qI+	c #491F1F",
"rI+	c #491819",
"sI+	c #491D1E",
"tI+	c #481819",
"uI+	c #491011",
"vI+	c #470F10",
"wI+	c #470B0A",
"xI+	c #48090A",
"yI+	c #480505",
"zI+	c #480606",
"AI+	c #4C0707",
"BI+	c #901413",
"CI+	c #68100E",
"DI+	c #360505",
"EI+	c #3D0606",
"FI+	c #420706",
"GI+	c #2D0A09",
"HI+	c #3B1B1B",
"II+	c #3A1F1D",
"JI+	c #3A1C1B",
"KI+	c #391C1C",
"LI+	c #3A1E1D",
"MI+	c #351A19",
"NI+	c #331918",
"OI+	c #331B1A",
"PI+	c #311918",
"QI+	c #2F1514",
"RI+	c #773333",
"SI+	c #5D3A38",
"TI+	c #633E3C",
"UI+	c #5F3836",
"VI+	c #5E2F2E",
"WI+	c #5B2626",
"XI+	c #5E2522",
"YI+	c #632D2D",
"ZI+	c #63211F",
"`I+	c #621E1B",
" J+	c #65221E",
".J+	c #65201D",
"+J+	c #661C18",
"@J+	c #651611",
"#J+	c #65120F",
"$J+	c #67130F",
"%J+	c #681310",
"&J+	c #671B16",
"*J+	c #691916",
"=J+	c #691816",
"-J+	c #6A1412",
";J+	c #6B100D",
">J+	c #6D1612",
",J+	c #701510",
"'J+	c #701310",
")J+	c #711510",
"!J+	c #741311",
"~J+	c #76140F",
"{J+	c #7D1611",
"]J+	c #811612",
"^J+	c #7F1411",
"/J+	c #811412",
"(J+	c #891815",
"_J+	c #891B16",
":J+	c #871A17",
"<J+	c #8B1A18",
"[J+	c #9A2520",
"}J+	c #9A2621",
"|J+	c #9A2D28",
"1J+	c #9C3834",
"2J+	c #9E3D39",
"3J+	c #A33D38",
"4J+	c #9D3835",
"5J+	c #4A1B1C",
"6J+	c #470B0B",
"7J+	c #480C0B",
"8J+	c #460909",
"9J+	c #480909",
"0J+	c #470505",
"aJ+	c #700F0D",
"bJ+	c #8B1615",
"cJ+	c #4C0A09",
"dJ+	c #2C0B09",
"eJ+	c #300E0E",
"fJ+	c #330D0C",
"gJ+	c #390C0C",
"hJ+	c #3C1311",
"iJ+	c #401C1B",
"jJ+	c #3F201E",
"kJ+	c #391E1D",
"lJ+	c #3E1E1C",
"mJ+	c #3E2120",
"nJ+	c #3D1F1F",
"oJ+	c #3C2322",
"pJ+	c #3C1D1D",
"qJ+	c #3B1D1D",
"rJ+	c #3E2424",
"sJ+	c #3B2322",
"tJ+	c #3D2321",
"uJ+	c #3D2220",
"vJ+	c #382220",
"wJ+	c #3B2221",
"xJ+	c #361E1D",
"yJ+	c #361C1B",
"zJ+	c #331D1C",
"AJ+	c #341C1B",
"BJ+	c #301A19",
"CJ+	c #301918",
"DJ+	c #331D1D",
"EJ+	c #341D1C",
"FJ+	c #5F2222",
"GJ+	c #733132",
"HJ+	c #5D3735",
"IJ+	c #5C2424",
"JJ+	c #622D2B",
"KJ+	c #64302F",
"LJ+	c #66211D",
"MJ+	c #661813",
"NJ+	c #651814",
"OJ+	c #661814",
"PJ+	c #6A1713",
"QJ+	c #691511",
"RJ+	c #701610",
"SJ+	c #73130E",
"TJ+	c #79140F",
"UJ+	c #7F1311",
"VJ+	c #7D1512",
"WJ+	c #7E1411",
"XJ+	c #801612",
"YJ+	c #851A14",
"ZJ+	c #851813",
"`J+	c #96221F",
" K+	c #9C2B26",
".K+	c #9C3531",
"+K+	c #9D3E39",
"@K+	c #9B3936",
"#K+	c #A03E3B",
"$K+	c #8F3A37",
"%K+	c #792E2E",
"&K+	c #662628",
"*K+	c #4A1112",
"=K+	c #480B0B",
"-K+	c #480E10",
";K+	c #470A0A",
">K+	c #450909",
",K+	c #480707",
"'K+	c #5E0B0A",
")K+	c #921513",
"!K+	c #991916",
"~K+	c #841413",
"{K+	c #510B09",
"]K+	c #390807",
"^K+	c #310B0B",
"/K+	c #300E0D",
"(K+	c #3D0A09",
"_K+	c #3C0909",
":K+	c #43201F",
"<K+	c #412221",
"[K+	c #422221",
"}K+	c #422524",
"|K+	c #422121",
"1K+	c #402423",
"2K+	c #422424",
"3K+	c #522726",
"4K+	c #442928",
"5K+	c #4B2928",
"6K+	c #422422",
"7K+	c #3F2725",
"8K+	c #452727",
"9K+	c #412422",
"0K+	c #472A29",
"aK+	c #4D2927",
"bK+	c #4E2A29",
"cK+	c #422222",
"dK+	c #442423",
"eK+	c #40211F",
"fK+	c #402221",
"gK+	c #3B1F1F",
"hK+	c #3C2120",
"iK+	c #3D2221",
"jK+	c #382222",
"kK+	c #3A2624",
"lK+	c #372525",
"mK+	c #361A1A",
"nK+	c #6D3131",
"oK+	c #472E2D",
"pK+	c #602B2B",
"qK+	c #622A28",
"rK+	c #642120",
"sK+	c #661B17",
"tK+	c #661613",
"uK+	c #681915",
"vK+	c #671512",
"wK+	c #681B17",
"xK+	c #6A1410",
"yK+	c #6D1915",
"zK+	c #6D100E",
"AK+	c #711711",
"BK+	c #701411",
"CK+	c #721914",
"DK+	c #6F1712",
"EK+	c #6F140F",
"FK+	c #6F1511",
"GK+	c #761210",
"HK+	c #7D1410",
"IK+	c #7C1311",
"JK+	c #7B1611",
"KK+	c #78120F",
"LK+	c #7A1310",
"MK+	c #7C1410",
"NK+	c #7C1713",
"OK+	c #7D1B15",
"PK+	c #891E1B",
"QK+	c #9A302B",
"RK+	c #993833",
"SK+	c #983936",
"TK+	c #973C39",
"UK+	c #9C423D",
"VK+	c #9A3B38",
"WK+	c #82312F",
"XK+	c #742929",
"YK+	c #742C2C",
"ZK+	c #602425",
"`K+	c #491B1C",
" L+	c #480C0D",
".L+	c #4A0C0C",
"+L+	c #460606",
"@L+	c #4E0908",
"#L+	c #4D0807",
"$L+	c #500808",
"%L+	c #7E1211",
"&L+	c #AE1B1A",
"*L+	c #AB1A19",
"=L+	c #991715",
"-L+	c #701413",
";L+	c #36100E",
">L+	c #5F1616",
",L+	c #570E0D",
"'L+	c #681614",
")L+	c #651615",
"!L+	c #662623",
"~L+	c #6B2D2A",
"{L+	c #672623",
"]L+	c #76322E",
"^L+	c #6C2825",
"/L+	c #692320",
"(L+	c #722C2A",
"_L+	c #6D2926",
":L+	c #6B2C2B",
"<L+	c #783D39",
"[L+	c #6E3230",
"}L+	c #7A3733",
"|L+	c #763532",
"1L+	c #743330",
"2L+	c #713431",
"3L+	c #703531",
"4L+	c #6E3633",
"5L+	c #774441",
"6L+	c #723F3B",
"7L+	c #6F3F3C",
"8L+	c #6F3D3A",
"9L+	c #6C3A38",
"0L+	c #6D3937",
"aL+	c #6D3B38",
"bL+	c #6F3C3B",
"cL+	c #5F3634",
"dL+	c #67413E",
"eL+	c #67413F",
"fL+	c #623F3D",
"gL+	c #5F3D3A",
"hL+	c #5A3938",
"iL+	c #5D403D",
"jL+	c #624542",
"kL+	c #3C2525",
"lL+	c #3A1D1C",
"mL+	c #652C2D",
"nL+	c #472F2E",
"oL+	c #5E3937",
"pL+	c #5F3937",
"qL+	c #602C2C",
"rL+	c #63211E",
"sL+	c #64211F",
"tL+	c #651513",
"uL+	c #671D19",
"vL+	c #6F1311",
"wL+	c #6F1410",
"xL+	c #701410",
"yL+	c #751510",
"zL+	c #7B1310",
"AL+	c #771410",
"BL+	c #76130E",
"CL+	c #771611",
"DL+	c #791511",
"EL+	c #7A1715",
"FL+	c #7D1D18",
"GL+	c #8F2825",
"HL+	c #95302E",
"IL+	c #963A37",
"JL+	c #923936",
"KL+	c #903634",
"LL+	c #8D3332",
"ML+	c #7D302F",
"NL+	c #6F2727",
"OL+	c #542021",
"PL+	c #440E0F",
"QL+	c #450A0A",
"RL+	c #490E0F",
"SL+	c #480A0A",
"TL+	c #470909",
"UL+	c #4A0B0A",
"VL+	c #4B0B0B",
"WL+	c #470808",
"XL+	c #480808",
"YL+	c #490A09",
"ZL+	c #4C0908",
"`L+	c #610B0B",
" M+	c #640C0B",
".M+	c #680C0B",
"+M+	c #6B0E0C",
"@M+	c #720E0D",
"#M+	c #740E0D",
"$M+	c #730F0E",
"%M+	c #791010",
"&M+	c #A81A19",
"*M+	c #A61918",
"=M+	c #A61A19",
"-M+	c #A01B1B",
";M+	c #7A1717",
">M+	c #731615",
",M+	c #7A1916",
"'M+	c #771B18",
")M+	c #79201D",
"!M+	c #701616",
"~M+	c #6D1817",
"{M+	c #701816",
"]M+	c #6F1818",
"^M+	c #711817",
"/M+	c #781918",
"(M+	c #771A19",
"_M+	c #761917",
":M+	c #6F1716",
"<M+	c #721717",
"[M+	c #731A1A",
"}M+	c #7A2423",
"|M+	c #78201F",
"1M+	c #7A2222",
"2M+	c #812523",
"3M+	c #7F2323",
"4M+	c #7E2727",
"5M+	c #7F2F2E",
"6M+	c #7B2D2B",
"7M+	c #7A2F2D",
"8M+	c #7B2D2C",
"9M+	c #83322F",
"0M+	c #802F2E",
"aM+	c #843535",
"bM+	c #813433",
"cM+	c #853634",
"dM+	c #833633",
"eM+	c #8C3E3B",
"fM+	c #8E3F3B",
"gM+	c #883B39",
"hM+	c #8B433E",
"iM+	c #8A4240",
"jM+	c #8B433F",
"kM+	c #873F3A",
"lM+	c #8B4744",
"mM+	c #874642",
"nM+	c #8E4B48",
"oM+	c #8E4743",
"pM+	c #8B4844",
"qM+	c #965250",
"rM+	c #88433F",
"sM+	c #894643",
"tM+	c #864641",
"uM+	c #90504B",
"vM+	c #844442",
"wM+	c #85433F",
"xM+	c #86423E",
"yM+	c #884742",
"zM+	c #8C4D47",
"AM+	c #874944",
"BM+	c #8D514C",
"CM+	c #8F5853",
"DM+	c #8F5952",
"EM+	c #88514C",
"FM+	c #854F49",
"GM+	c #8A544E",
"HM+	c #895650",
"IM+	c #874E4A",
"JM+	c #86534E",
"KM+	c #8E5E58",
"LM+	c #885851",
"MM+	c #8D5B55",
"NM+	c #8C5853",
"OM+	c #8A5A57",
"PM+	c #8B5A55",
"QM+	c #86544F",
"RM+	c #7E4F4B",
"SM+	c #7E4E4B",
"TM+	c #7C4A48",
"UM+	c #7A4644",
"VM+	c #81514F",
"WM+	c #7C4A47",
"XM+	c #7D4C48",
"YM+	c #794947",
"ZM+	c #825752",
"`M+	c #79504D",
" N+	c #7B4F4D",
".N+	c #7B534F",
"+N+	c #815C58",
"@N+	c #845F5A",
"#N+	c #694B48",
"$N+	c #4F3434",
"%N+	c #5D2222",
"&N+	c #672B2C",
"*N+	c #5F3936",
"=N+	c #5D3534",
"-N+	c #5C3230",
";N+	c #5C302E",
">N+	c #632F2E",
",N+	c #691C19",
"'N+	c #671814",
")N+	c #681C17",
"!N+	c #6E1A16",
"~N+	c #701914",
"{N+	c #711714",
"]N+	c #711915",
"^N+	c #6F120F",
"/N+	c #71130F",
"(N+	c #76110E",
"_N+	c #7A1510",
":N+	c #7F1912",
"<N+	c #7B1510",
"[N+	c #74150F",
"}N+	c #791612",
"|N+	c #771412",
"1N+	c #781A16",
"2N+	c #781917",
"3N+	c #80201D",
"4N+	c #8C2A27",
"5N+	c #943532",
"6N+	c #833231",
"7N+	c #752A29",
"8N+	c #652526",
"9N+	c #4E2121",
"0N+	c #410C0A",
"aN+	c #420A09",
"bN+	c #430A0A",
"cN+	c #460A0A",
"dN+	c #440909",
"eN+	c #450A09",
"fN+	c #430809",
"gN+	c #610E0E",
"hN+	c #6D0D0C",
"iN+	c #6E0F0E",
"jN+	c #7F120F",
"kN+	c #81120F",
"lN+	c #811110",
"mN+	c #831111",
"nN+	c #811211",
"oN+	c #841110",
"pN+	c #80110F",
"qN+	c #801010",
"rN+	c #88130F",
"sN+	c #851312",
"tN+	c #861210",
"uN+	c #7C120E",
"vN+	c #77100F",
"wN+	c #78100E",
"xN+	c #82110F",
"yN+	c #8B130F",
"zN+	c #86130F",
"AN+	c #871411",
"BN+	c #77110E",
"CN+	c #7E1311",
"DN+	c #951716",
"EN+	c #9A1917",
"FN+	c #B41D1B",
"GN+	c #AC1A19",
"HN+	c #9E1A1A",
"IN+	c #761919",
"JN+	c #781B1B",
"KN+	c #751B1B",
"LN+	c #731B1C",
"MN+	c #751C1C",
"NN+	c #692321",
"ON+	c #661C1C",
"PN+	c #671E20",
"QN+	c #682425",
"RN+	c #622526",
"SN+	c #682627",
"TN+	c #612526",
"UN+	c #642829",
"VN+	c #61292A",
"WN+	c #662728",
"XN+	c #682829",
"YN+	c #632A2B",
"ZN+	c #652B2D",
"`N+	c #652929",
" O+	c #682A2B",
".O+	c #652829",
"+O+	c #662929",
"@O+	c #672929",
"#O+	c #6A2C2C",
"$O+	c #6B2C2D",
"%O+	c #712F30",
"&O+	c #743434",
"*O+	c #783737",
"=O+	c #773535",
"-O+	c #7B3C3B",
";O+	c #7D3E3D",
">O+	c #7D3F3D",
",O+	c #804140",
"'O+	c #7F3F3E",
")O+	c #844543",
"!O+	c #814441",
"~O+	c #864845",
"{O+	c #834644",
"]O+	c #864945",
"^O+	c #8B4C49",
"/O+	c #884C4A",
"(O+	c #904D49",
"_O+	c #8A4E49",
":O+	c #90524E",
"<O+	c #8B4F4A",
"[O+	c #90524F",
"}O+	c #8B514E",
"|O+	c #905652",
"1O+	c #91534F",
"2O+	c #8E5450",
"3O+	c #925955",
"4O+	c #8E5451",
"5O+	c #945854",
"6O+	c #915954",
"7O+	c #91554F",
"8O+	c #905752",
"9O+	c #955954",
"0O+	c #8E544F",
"aO+	c #975C57",
"bO+	c #935B56",
"cO+	c #915651",
"dO+	c #8A4E48",
"eO+	c #8D4C47",
"fO+	c #985A55",
"gO+	c #915752",
"hO+	c #90524C",
"iO+	c #8C504C",
"jO+	c #945954",
"kO+	c #8E5651",
"lO+	c #8D534E",
"mO+	c #864947",
"nO+	c #935D58",
"oO+	c #995F5A",
"pO+	c #8D5953",
"qO+	c #905854",
"rO+	c #8B5953",
"sO+	c #8B5652",
"tO+	c #885350",
"uO+	c #854D4A",
"vO+	c #865350",
"wO+	c #895954",
"xO+	c #87514D",
"yO+	c #85504D",
"zO+	c #875552",
"AO+	c #83514E",
"BO+	c #7E4543",
"CO+	c #7A4340",
"DO+	c #855250",
"EO+	c #7C4C48",
"FO+	c #7E4D49",
"GO+	c #824F4B",
"HO+	c #815450",
"IO+	c #885C59",
"JO+	c #7D514D",
"KO+	c #805854",
"LO+	c #593736",
"MO+	c #572423",
"NO+	c #662D2E",
"OO+	c #5E3A3B",
"PO+	c #503633",
"QO+	c #5D3633",
"RO+	c #5C3332",
"SO+	c #5F2D2C",
"TO+	c #632C2B",
"UO+	c #632B2A",
"VO+	c #652B2A",
"WO+	c #611D1B",
"XO+	c #652421",
"YO+	c #651C19",
"ZO+	c #691512",
"`O+	c #6E201B",
" P+	c #6F1512",
".P+	c #6E1210",
"+P+	c #7A120F",
"@P+	c #76120E",
"#P+	c #77120E",
"$P+	c #781512",
"%P+	c #882E2C",
"&P+	c #8F3734",
"*P+	c #8D3B37",
"=P+	c #7B2F2D",
"-P+	c #5F2728",
";P+	c #4A2120",
">P+	c #440C0A",
",P+	c #440A0A",
"'P+	c #450B0A",
")P+	c #490C0B",
"!P+	c #5C0F0E",
"~P+	c #6D1110",
"{P+	c #62110F",
"]P+	c #640F0D",
"^P+	c #6F1110",
"/P+	c #771212",
"(P+	c #771210",
"_P+	c #881919",
":P+	c #8A1513",
"<P+	c #891614",
"[P+	c #8A1615",
"}P+	c #8A1716",
"|P+	c #811615",
"1P+	c #8C1616",
"2P+	c #951A18",
"3P+	c #951715",
"4P+	c #8A1613",
"5P+	c #861313",
"6P+	c #881413",
"7P+	c #86191B",
"8P+	c #851413",
"9P+	c #731515",
"0P+	c #7C1717",
"aP+	c #961717",
"bP+	c #931A19",
"cP+	c #871413",
"dP+	c #891513",
"eP+	c #881313",
"fP+	c #861312",
"gP+	c #851715",
"hP+	c #801515",
"iP+	c #871F1E",
"jP+	c #811210",
"kP+	c #801918",
"lP+	c #771716",
"mP+	c #770F0F",
"nP+	c #6E0E0D",
"oP+	c #6B0D0D",
"pP+	c #5A0B0A",
"qP+	c #570B0B",
"rP+	c #540A0A",
"sP+	c #520A09",
"tP+	c #771311",
"uP+	c #A31A1A",
"vP+	c #A51B19",
"wP+	c #B11E1C",
"xP+	c #AA1C1B",
"yP+	c #791C1C",
"zP+	c #561E1E",
"AP+	c #581E1E",
"BP+	c #702224",
"CP+	c #6E2223",
"DP+	c #722323",
"EP+	c #752323",
"FP+	c #782829",
"GP+	c #77292A",
"HP+	c #782727",
"IP+	c #7D2B2C",
"JP+	c #7B2B2B",
"KP+	c #7B2828",
"LP+	c #772626",
"MP+	c #7A2727",
"NP+	c #79292A",
"OP+	c #80302F",
"PP+	c #7F3130",
"QP+	c #833232",
"RP+	c #873535",
"SP+	c #853636",
"TP+	c #893A3A",
"UP+	c #873A3A",
"VP+	c #8A3C3C",
"WP+	c #873D3C",
"XP+	c #8B3E3E",
"YP+	c #883E3D",
"ZP+	c #8E4443",
"`P+	c #924544",
" Q+	c #8C4442",
".Q+	c #904846",
"+Q+	c #8E4644",
"@Q+	c #904745",
"#Q+	c #8B4341",
"$Q+	c #8F4644",
"%Q+	c #924946",
"&Q+	c #934B49",
"*Q+	c #904E4A",
"=Q+	c #96524F",
"-Q+	c #914D4B",
";Q+	c #93504C",
">Q+	c #8D4C48",
",Q+	c #974E4C",
"'Q+	c #954E4C",
")Q+	c #914D49",
"!Q+	c #934E4C",
"~Q+	c #92524E",
"{Q+	c #95504D",
"]Q+	c #8E4C47",
"^Q+	c #955350",
"/Q+	c #935450",
"(Q+	c #985C56",
"_Q+	c #96544F",
":Q+	c #955551",
"<Q+	c #975853",
"[Q+	c #91524E",
"}Q+	c #94504C",
"|Q+	c #8E4D49",
"1Q+	c #965956",
"2Q+	c #8F534F",
"3Q+	c #8D4B46",
"4Q+	c #924C49",
"5Q+	c #92524F",
"6Q+	c #935451",
"7Q+	c #8F524E",
"8Q+	c #905A55",
"9Q+	c #925954",
"0Q+	c #884D4A",
"aQ+	c #8B4D4A",
"bQ+	c #8F5451",
"cQ+	c #874D49",
"dQ+	c #894D4A",
"eQ+	c #844946",
"fQ+	c #8B5350",
"gQ+	c #844D4A",
"hQ+	c #824441",
"iQ+	c #7D4442",
"jQ+	c #86504D",
"kQ+	c #89504D",
"lQ+	c #7E4341",
"mQ+	c #874E4B",
"nQ+	c #824E4C",
"oQ+	c #824F4C",
"pQ+	c #7C4946",
"qQ+	c #814D4B",
"rQ+	c #7A4E4B",
"sQ+	c #6E413F",
"tQ+	c #501617",
"uQ+	c #542323",
"vQ+	c #5C2627",
"wQ+	c #612727",
"xQ+	c #573533",
"yQ+	c #5C3433",
"zQ+	c #5D3030",
"AQ+	c #602D2D",
"BQ+	c #63302E",
"CQ+	c #622422",
"DQ+	c #642623",
"EQ+	c #652320",
"FQ+	c #651E1B",
"GQ+	c #641714",
"HQ+	c #671E1A",
"IQ+	c #691E1A",
"JQ+	c #6A1E1A",
"KQ+	c #681613",
"LQ+	c #681F1C",
"MQ+	c #651D1C",
"NQ+	c #651D1B",
"OQ+	c #6D1412",
"PQ+	c #701511",
"QQ+	c #6F1211",
"RQ+	c #6F1411",
"SQ+	c #6F1310",
"TQ+	c #71120E",
"UQ+	c #73140E",
"VQ+	c #73130F",
"WQ+	c #76130F",
"XQ+	c #781713",
"YQ+	c #771B19",
"ZQ+	c #7D2422",
"`Q+	c #862D2B",
" R+	c #8A3230",
".R+	c #8C3634",
"+R+	c #8C3934",
"@R+	c #853130",
"#R+	c #772929",
"$R+	c #6A2628",
"%R+	c #522424",
"&R+	c #471F1D",
"*R+	c #521512",
"=R+	c #711413",
"-R+	c #7C1A19",
";R+	c #7A1816",
">R+	c #831514",
",R+	c #91211F",
"'R+	c #8E1817",
")R+	c #8E1715",
"!R+	c #8C1815",
"~R+	c #841615",
"{R+	c #871716",
"]R+	c #941918",
"^R+	c #9F1A19",
"/R+	c #8F1716",
"(R+	c #891B1A",
"_R+	c #921A17",
":R+	c #892222",
"<R+	c #941C1C",
"[R+	c #891715",
"}R+	c #9F1A18",
"|R+	c #A51F1E",
"1R+	c #9C1B19",
"2R+	c #9C1D1C",
"3R+	c #971918",
"4R+	c #8F1F1D",
"5R+	c #993030",
"6R+	c #8D1D1D",
"7R+	c #8A201F",
"8R+	c #8B2122",
"9R+	c #8E2728",
"0R+	c #811F1E",
"aR+	c #831E1E",
"bR+	c #812022",
"cR+	c #852A2B",
"dR+	c #78272A",
"eR+	c #6E1C1D",
"fR+	c #6F2326",
"gR+	c #742324",
"hR+	c #6F2425",
"iR+	c #6A1C1D",
"jR+	c #6F2528",
"kR+	c #712124",
"lR+	c #6D1C1E",
"mR+	c #6E191A",
"nR+	c #6D2023",
"oR+	c #6E1C1F",
"pR+	c #6B1A1D",
"qR+	c #6B1516",
"rR+	c #6D2125",
"sR+	c #6F262B",
"tR+	c #701B1D",
"uR+	c #702024",
"vR+	c #6F181A",
"wR+	c #6D1818",
"xR+	c #6C1617",
"yR+	c #6B1819",
"zR+	c #6D1718",
"AR+	c #6B1314",
"BR+	c #691616",
"CR+	c #660E0E",
"DR+	c #691314",
"ER+	c #670F0F",
"FR+	c #691313",
"GR+	c #802321",
"HR+	c #A42423",
"IR+	c #741F1F",
"JR+	c #772020",
"KR+	c #782221",
"LR+	c #782121",
"MR+	c #7B2424",
"NR+	c #802424",
"OR+	c #7E2424",
"PR+	c #822625",
"QR+	c #7F2524",
"RR+	c #822626",
"SR+	c #7F2626",
"TR+	c #842727",
"UR+	c #842626",
"VR+	c #812525",
"WR+	c #832728",
"XR+	c #822727",
"YR+	c #832828",
"ZR+	c #7F2424",
"`R+	c #7C2423",
" S+	c #812827",
".S+	c #852B2A",
"+S+	c #852C2C",
"@S+	c #892E2F",
"#S+	c #862F2F",
"$S+	c #8A3231",
"%S+	c #893333",
"&S+	c #8D3535",
"*S+	c #903838",
"=S+	c #8D3837",
"-S+	c #913B3B",
";S+	c #8E3A39",
">S+	c #913E3D",
",S+	c #8D3C3A",
"'S+	c #903F3D",
")S+	c #8D3E3D",
"!S+	c #92403E",
"~S+	c #8E3E3C",
"{S+	c #91403E",
"]S+	c #8C3F3D",
"^S+	c #914343",
"/S+	c #8E413F",
"(S+	c #934543",
"_S+	c #904342",
":S+	c #944442",
"<S+	c #984744",
"[S+	c #984544",
"}S+	c #904340",
"|S+	c #924543",
"1S+	c #944846",
"2S+	c #8E4544",
"3S+	c #934744",
"4S+	c #9C514F",
"5S+	c #924845",
"6S+	c #944A47",
"7S+	c #914946",
"8S+	c #964E4C",
"9S+	c #944F4C",
"0S+	c #944B4A",
"aS+	c #914C49",
"bS+	c #974F4E",
"cS+	c #954F4C",
"dS+	c #904C48",
"eS+	c #944C4A",
"fS+	c #914D4A",
"gS+	c #934D4B",
"hS+	c #8C4642",
"iS+	c #8F4A46",
"jS+	c #93534E",
"kS+	c #955652",
"lS+	c #8B4B48",
"mS+	c #914F4C",
"nS+	c #894744",
"oS+	c #874440",
"pS+	c #84403E",
"qS+	c #8D4F4C",
"rS+	c #834844",
"sS+	c #884441",
"tS+	c #884B49",
"uS+	c #8A4D4B",
"vS+	c #81413F",
"wS+	c #854645",
"xS+	c #85504E",
"yS+	c #844A48",
"zS+	c #7B4240",
"AS+	c #7E4644",
"BS+	c #895453",
"CS+	c #7E4947",
"DS+	c #77403E",
"ES+	c #541F1F",
"FS+	c #582524",
"GS+	c #5A1D1C",
"HS+	c #652626",
"IS+	c #693B3B",
"JS+	c #5A3432",
"KS+	c #5C3331",
"LS+	c #5D302E",
"MS+	c #5D3331",
"NS+	c #5F2F2F",
"OS+	c #62302E",
"PS+	c #632C2A",
"QS+	c #632726",
"RS+	c #632927",
"SS+	c #671613",
"TS+	c #661B16",
"US+	c #68201D",
"VS+	c #671D1A",
"WS+	c #691917",
"XS+	c #6F1514",
"YS+	c #6F130F",
"ZS+	c #6D1613",
"`S+	c #6C110F",
" T+	c #6E140E",
".T+	c #71150F",
"+T+	c #72140F",
"@T+	c #71140F",
"#T+	c #73140F",
"$T+	c #74110E",
"%T+	c #791210",
"&T+	c #761A16",
"*T+	c #7C2621",
"=T+	c #812E2C",
"-T+	c #873734",
";T+	c #8C3B38",
">T+	c #8A3432",
",T+	c #8C3835",
"'T+	c #752F2D",
")T+	c #8E3131",
"!T+	c #8F2C2A",
"~T+	c #8A2624",
"{T+	c #8B2F2C",
"]T+	c #832826",
"^T+	c #8D2624",
"/T+	c #90201E",
"(T+	c #9A1E1C",
"_T+	c #921F1F",
":T+	c #8E1917",
"<T+	c #A22522",
"[T+	c #AA2A27",
"}T+	c #A4201E",
"|T+	c #B33A38",
"1T+	c #982726",
"2T+	c #9A2624",
"3T+	c #972A29",
"4T+	c #9C3231",
"5T+	c #92201E",
"6T+	c #962A28",
"7T+	c #8D2D2C",
"8T+	c #952929",
"9T+	c #853333",
"0T+	c #833030",
"aT+	c #893939",
"bT+	c #7F2525",
"cT+	c #832B2D",
"dT+	c #833131",
"eT+	c #832A2A",
"fT+	c #802222",
"gT+	c #922D2B",
"hT+	c #8D2F30",
"iT+	c #83292A",
"jT+	c #852B2B",
"kT+	c #8C3433",
"lT+	c #832C2D",
"mT+	c #833133",
"nT+	c #853033",
"oT+	c #812C2D",
"pT+	c #872E30",
"qT+	c #873033",
"rT+	c #822829",
"sT+	c #822425",
"tT+	c #842C2F",
"uT+	c #852B2E",
"vT+	c #833538",
"wT+	c #852F31",
"xT+	c #7C2F33",
"yT+	c #873034",
"zT+	c #87292C",
"AT+	c #872F31",
"BT+	c #892C31",
"CT+	c #86292C",
"DT+	c #852123",
"ET+	c #852C2E",
"FT+	c #862528",
"GT+	c #83262A",
"HT+	c #792427",
"IT+	c #812323",
"JT+	c #7E2425",
"KT+	c #812729",
"LT+	c #7E1E1F",
"MT+	c #84282A",
"NT+	c #812B2E",
"OT+	c #872B2C",
"PT+	c #831F20",
"QT+	c #852324",
"RT+	c #842426",
"ST+	c #7F1F1F",
"TT+	c #7D2528",
"UT+	c #7A1A1C",
"VT+	c #7A1F1F",
"WT+	c #7A2224",
"XT+	c #7B1D1D",
"YT+	c #7C2324",
"ZT+	c #7D2121",
"`T+	c #771C1C",
" U+	c #7B1F21",
".U+	c #771E21",
"+U+	c #791617",
"@U+	c #791919",
"#U+	c #7E2222",
"$U+	c #7D3331",
"%U+	c #903735",
"&U+	c #AB2D29",
"*U+	c #781E1F",
"=U+	c #711B1A",
"-U+	c #741C1B",
";U+	c #701B1A",
">U+	c #721C1B",
",U+	c #721B1A",
"'U+	c #761C1B",
")U+	c #731D1B",
"!U+	c #7A1F1E",
"~U+	c #7E2020",
"{U+	c #7D2020",
"]U+	c #802221",
"^U+	c #7F2121",
"/U+	c #822322",
"(U+	c #832323",
"_U+	c #812322",
":U+	c #862525",
"<U+	c #842424",
"[U+	c #862625",
"}U+	c #832523",
"|U+	c #852424",
"1U+	c #832424",
"2U+	c #852524",
"3U+	c #882625",
"4U+	c #832423",
"5U+	c #842423",
"6U+	c #822524",
"7U+	c #842828",
"8U+	c #882929",
"9U+	c #8C2D2C",
"0U+	c #892E2E",
"aU+	c #8E3231",
"bU+	c #8B3231",
"cU+	c #8F3434",
"dU+	c #8C3535",
"eU+	c #8F3535",
"fU+	c #8F3737",
"gU+	c #923A39",
"hU+	c #8D3735",
"iU+	c #913938",
"jU+	c #8C3635",
"kU+	c #8F3837",
"lU+	c #8C3736",
"mU+	c #8B3736",
"nU+	c #903938",
"oU+	c #943C3B",
"pU+	c #933A39",
"qU+	c #973C3C",
"rU+	c #953C3B",
"sU+	c #963C3B",
"tU+	c #913A38",
"uU+	c #943C3A",
"vU+	c #8F3C3A",
"wU+	c #943F3E",
"xU+	c #97403E",
"yU+	c #943E3C",
"zU+	c #984340",
"AU+	c #903D3B",
"BU+	c #934140",
"CU+	c #8C3D3B",
"DU+	c #8D413F",
"EU+	c #904240",
"FU+	c #924745",
"GU+	c #974848",
"HU+	c #8D4140",
"IU+	c #954A48",
"JU+	c #914C4A",
"KU+	c #934C4A",
"LU+	c #924846",
"MU+	c #98504D",
"NU+	c #924A46",
"OU+	c #924441",
"PU+	c #8C403D",
"QU+	c #914746",
"RU+	c #8B4343",
"SU+	c #8A3E3C",
"TU+	c #863F3C",
"UU+	c #8C4745",
"VU+	c #86413F",
"WU+	c #8C4644",
"XU+	c #863F3F",
"YU+	c #884543",
"ZU+	c #83403E",
"`U+	c #85403E",
" V+	c #8C4A48",
".V+	c #874B49",
"+V+	c #844342",
"@V+	c #7F4140",
"#V+	c #844847",
"$V+	c #814947",
"%V+	c #7F4241",
"&V+	c #743937",
"*V+	c #6B2A2A",
"=V+	c #541A1B",
"-V+	c #542121",
";V+	c #582021",
">V+	c #5C1F1E",
",V+	c #662727",
"'V+	c #603435",
")V+	c #5D3230",
"!V+	c #5C3030",
"~V+	c #5F2E2D",
"{V+	c #623332",
"]V+	c #623131",
"^V+	c #653335",
"/V+	c #663032",
"(V+	c #642C2D",
"_V+	c #632522",
":V+	c #671F1C",
"<V+	c #671E1B",
"[V+	c #66201D",
"}V+	c #6B1410",
"|V+	c #6C1611",
"1V+	c #6C120E",
"2V+	c #6E120D",
"3V+	c #6E110E",
"4V+	c #6F100C",
"5V+	c #70130E",
"6V+	c #71110F",
"7V+	c #761512",
"8V+	c #7B2524",
"9V+	c #813432",
"0V+	c #802D2A",
"aV+	c #832E2C",
"bV+	c #883431",
"cV+	c #843330",
"dV+	c #772B29",
"eV+	c #792F2D",
"fV+	c #712B2C",
"gV+	c #862F2E",
"hV+	c #863431",
"iV+	c #7B201E",
"jV+	c #842E2B",
"kV+	c #872F2C",
"lV+	c #812623",
"mV+	c #87302C",
"nV+	c #88302C",
"oV+	c #8C3532",
"pV+	c #7E201F",
"qV+	c #852928",
"rV+	c #842623",
"sV+	c #892F2C",
"tV+	c #862725",
"uV+	c #8A3434",
"vV+	c #872F2D",
"wV+	c #924644",
"xV+	c #8C2A2A",
"yV+	c #8A2726",
"zV+	c #983735",
"AV+	c #943B3B",
"BV+	c #8F3030",
"CV+	c #8F3D3D",
"DV+	c #933D3E",
"EV+	c #923C3D",
"FV+	c #914041",
"GV+	c #8F3839",
"HV+	c #8C3D3F",
"IV+	c #903B3D",
"JV+	c #934648",
"KV+	c #8F393A",
"LV+	c #8D3A3B",
"MV+	c #913E40",
"NV+	c #8F3233",
"OV+	c #913436",
"PV+	c #94383A",
"QV+	c #923A3C",
"RV+	c #903234",
"SV+	c #8E383A",
"TV+	c #91393C",
"UV+	c #8D3436",
"VV+	c #8F3638",
"WV+	c #8E2D2F",
"XV+	c #8E3437",
"YV+	c #913639",
"ZV+	c #8E2E30",
"`V+	c #8D2A2B",
" W+	c #8D3032",
".W+	c #8F3032",
"+W+	c #8B2326",
"@W+	c #923537",
"#W+	c #8F2D2E",
"$W+	c #953337",
"%W+	c #902C2E",
"&W+	c #933438",
"*W+	c #8F3438",
"=W+	c #913439",
"-W+	c #8A2B2E",
";W+	c #8E3337",
">W+	c #8F3236",
",W+	c #8A2525",
"'W+	c #8A2B2D",
")W+	c #872A2C",
"!W+	c #872729",
"~W+	c #842123",
"{W+	c #882729",
"]W+	c #862526",
"^W+	c #8A2B2C",
"/W+	c #892726",
"(W+	c #8B292A",
"_W+	c #852727",
":W+	c #821E1E",
"<W+	c #812526",
"[W+	c #7E1A1A",
"}W+	c #842122",
"|W+	c #812121",
"1W+	c #822121",
"2W+	c #802524",
"3W+	c #832422",
"4W+	c #832321",
"5W+	c #7A3130",
"6W+	c #82413F",
"7W+	c #904644",
"8W+	c #973A38",
"9W+	c #892020",
"0W+	c #771C1B",
"aW+	c #751B1A",
"bW+	c #7B1D1C",
"cW+	c #791C1B",
"dW+	c #7C1D1C",
"eW+	c #7A1D1C",
"fW+	c #7C1E1D",
"gW+	c #7A1E1D",
"hW+	c #7B1E1D",
"iW+	c #7D1F1E",
"jW+	c #7D1F1D",
"kW+	c #82201F",
"lW+	c #842221",
"mW+	c #83201F",
"nW+	c #7F201F",
"oW+	c #812020",
"pW+	c #7E1F1F",
"qW+	c #822222",
"rW+	c #832222",
"sW+	c #852222",
"tW+	c #832121",
"uW+	c #862423",
"vW+	c #7E2120",
"wW+	c #822221",
"xW+	c #862524",
"yW+	c #842524",
"zW+	c #852626",
"AW+	c #8A2B29",
"BW+	c #882B2A",
"CW+	c #8C2D2D",
"DW+	c #892D2D",
"EW+	c #8E3030",
"FW+	c #913232",
"GW+	c #8E3332",
"HW+	c #923635",
"IW+	c #913433",
"JW+	c #8C3332",
"KW+	c #8F3231",
"LW+	c #8A3131",
"MW+	c #903433",
"NW+	c #8D3131",
"OW+	c #913535",
"PW+	c #8E3333",
"QW+	c #923535",
"RW+	c #8F3635",
"SW+	c #943838",
"TW+	c #913736",
"UW+	c #963F3D",
"VW+	c #99403D",
"WW+	c #943C39",
"XW+	c #983D3B",
"YW+	c #943D3B",
"ZW+	c #983E3C",
"`W+	c #933C39",
" X+	c #943735",
".X+	c #8D3433",
"+X+	c #913838",
"@X+	c #8E3A38",
"#X+	c #913B3A",
"$X+	c #8D3938",
"%X+	c #923D3B",
"&X+	c #8D3D3B",
"*X+	c #913E3C",
"=X+	c #904442",
"-X+	c #903F3E",
";X+	c #934242",
">X+	c #8E3D3C",
",X+	c #913F3E",
"'X+	c #903A39",
")X+	c #8A3936",
"!X+	c #8E3C39",
"~X+	c #903C3C",
"{X+	c #893736",
"]X+	c #8A3D3A",
"^X+	c #8B3B39",
"/X+	c #843937",
"(X+	c #873736",
"_X+	c #823432",
":X+	c #823130",
"<X+	c #81312F",
"[X+	c #863A39",
"}X+	c #864241",
"|X+	c #854240",
"1X+	c #7F3D3C",
"2X+	c #834443",
"3X+	c #7D3E3C",
"4X+	c #813F3E",
"5X+	c #7B3C3C",
"6X+	c #773534",
"7X+	c #602122",
"8X+	c #480D0E",
"9X+	c #582323",
"0X+	c #562122",
"aX+	c #5B2223",
"bX+	c #581D1E",
"cX+	c #5E201F",
"dX+	c #6B3435",
"eX+	c #422C2B",
"fX+	c #67373A",
"gX+	c #632D2E",
"hX+	c #642D2D",
"iX+	c #673030",
"jX+	c #622725",
"kX+	c #641F1C",
"lX+	c #661D19",
"mX+	c #6A140F",
"nX+	c #6A1815",
"oX+	c #6A1411",
"pX+	c #6C1811",
"qX+	c #6B140F",
"rX+	c #6D1811",
"sX+	c #70110E",
"tX+	c #771612",
"uX+	c #741812",
"vX+	c #7B2622",
"wX+	c #7E2C2C",
"xX+	c #7B2C2C",
"yX+	c #7A3030",
"zX+	c #8C413E",
"AX+	c #8E403E",
"BX+	c #8F3E3B",
"CX+	c #85302D",
"DX+	c #81221F",
"EX+	c #8F3C38",
"FX+	c #93423E",
"GX+	c #8B3330",
"HX+	c #8E3633",
"IX+	c #A15751",
"JX+	c #943E3A",
"KX+	c #953F3B",
"LX+	c #95403E",
"MX+	c #8D2E2D",
"NX+	c #8C2B29",
"OX+	c #994544",
"PX+	c #9C4D4C",
"QX+	c #9A4C4B",
"RX+	c #943D3C",
"SX+	c #984B4B",
"TX+	c #9A4D4D",
"UX+	c #943A3B",
"VX+	c #943D3D",
"WX+	c #993D3C",
"XX+	c #994343",
"YX+	c #9A4746",
"ZX+	c #983F3F",
"`X+	c #973D3E",
" Y+	c #994445",
".Y+	c #974244",
"+Y+	c #953B3E",
"@Y+	c #953F42",
"#Y+	c #954043",
"$Y+	c #913739",
"%Y+	c #963E40",
"&Y+	c #94373A",
"*Y+	c #95383B",
"=Y+	c #93383A",
"-Y+	c #943738",
";Y+	c #95393C",
">Y+	c #943436",
",Y+	c #913132",
"'Y+	c #963638",
")Y+	c #933233",
"!Y+	c #923133",
"~Y+	c #943637",
"{Y+	c #943133",
"]Y+	c #933234",
"^Y+	c #942E30",
"/Y+	c #912E30",
"(Y+	c #953334",
"_Y+	c #962D2E",
":Y+	c #912D2D",
"<Y+	c #942F31",
"[Y+	c #943234",
"}Y+	c #932D2D",
"|Y+	c #953335",
"1Y+	c #913135",
"2Y+	c #923032",
"3Y+	c #923337",
"4Y+	c #912D2F",
"5Y+	c #8F2F31",
"6Y+	c #8F2E2F",
"7Y+	c #8A272A",
"8Y+	c #842020",
"9Y+	c #862627",
"0Y+	c #8A2729",
"aY+	c #8B2121",
"bY+	c #8B2B2C",
"cY+	c #8A2929",
"dY+	c #882828",
"eY+	c #892929",
"fY+	c #852526",
"gY+	c #872526",
"hY+	c #8A2424",
"iY+	c #851F1F",
"jY+	c #862223",
"kY+	c #822223",
"lY+	c #821E1F",
"mY+	c #7E1C1C",
"nY+	c #7F2021",
"oY+	c #811F1F",
"pY+	c #7D1D1D",
"qY+	c #7E1817",
"rY+	c #7E1E1D",
"sY+	c #801B1A",
"tY+	c #7D1E1C",
"uY+	c #7A403E",
"vY+	c #874745",
"wY+	c #934341",
"xY+	c #983937",
"yY+	c #AA3332",
"zY+	c #AA201F",
"AY+	c #761B1A",
"BY+	c #781C1B",
"CY+	c #791D1C",
"DY+	c #7D1D1B",
"EY+	c #7F1E1D",
"FY+	c #841F1E",
"GY+	c #811F1D",
"HY+	c #7F1F1D",
"IY+	c #84201F",
"JY+	c #821F1D",
"KY+	c #852020",
"LY+	c #81201F",
"MY+	c #842121",
"NY+	c #802020",
"OY+	c #812424",
"PY+	c #852525",
"QY+	c #892626",
"RY+	c #8B2A2A",
"SY+	c #892B2B",
"TY+	c #8D2F2E",
"UY+	c #8B2F2E",
"VY+	c #8F2F2F",
"WY+	c #8C2F2E",
"XY+	c #923231",
"YY+	c #8F3130",
"ZY+	c #8B302F",
"`Y+	c #8F3433",
" Z+	c #8B3131",
".Z+	c #923837",
"+Z+	c #9A403E",
"@Z+	c #963F3C",
"#Z+	c #9B413E",
"$Z+	c #9A3F3D",
"%Z+	c #99413F",
"&Z+	c #9D413E",
"*Z+	c #983F3C",
"=Z+	c #9B4340",
"-Z+	c #933F3D",
";Z+	c #8E3938",
">Z+	c #943A39",
",Z+	c #95403F",
"'Z+	c #903B3A",
")Z+	c #923E3C",
"!Z+	c #8E3D3B",
"~Z+	c #8D403F",
"{Z+	c #8F3D3A",
"]Z+	c #933E3D",
"^Z+	c #91403D",
"/Z+	c #95423F",
"(Z+	c #8C3936",
"_Z+	c #8D3F3D",
":Z+	c #8E3E3B",
"<Z+	c #873936",
"[Z+	c #8B3D3B",
"}Z+	c #8D403D",
"|Z+	c #873C38",
"1Z+	c #8A3D3B",
"2Z+	c #873D3B",
"3Z+	c #813131",
"4Z+	c #843C3B",
"5Z+	c #803C3A",
"6Z+	c #844242",
"7Z+	c #823F3E",
"8Z+	c #7C3A39",
"9Z+	c #7E3A3A",
"0Z+	c #7A3939",
"aZ+	c #4C1011",
"bZ+	c #4F1311",
"cZ+	c #572222",
"dZ+	c #592424",
"eZ+	c #612525",
"fZ+	c #6B3738",
"gZ+	c #5C2F2D",
"hZ+	c #633435",
"iZ+	c #643536",
"jZ+	c #643335",
"kZ+	c #673939",
"lZ+	c #673332",
"mZ+	c #662C2B",
"nZ+	c #672221",
"oZ+	c #66201B",
"pZ+	c #671D1C",
"qZ+	c #661A16",
"rZ+	c #691613",
"sZ+	c #691411",
"tZ+	c #681410",
"uZ+	c #691510",
"vZ+	c #6B130F",
"wZ+	c #6B120E",
"xZ+	c #6E1712",
"yZ+	c #6D1812",
"zZ+	c #6E130E",
"AZ+	c #70140F",
"BZ+	c #701612",
"CZ+	c #751210",
"DZ+	c #761411",
"EZ+	c #7D2B28",
"FZ+	c #7E3130",
"GZ+	c #81332F",
"HZ+	c #7E322F",
"IZ+	c #752B2B",
"JZ+	c #863B3B",
"KZ+	c #9D5B56",
"LZ+	c #9B544F",
"MZ+	c #954643",
"NZ+	c #954542",
"OZ+	c #984643",
"PZ+	c #994742",
"QZ+	c #94413D",
"RZ+	c #9E514B",
"SZ+	c #A55D58",
"TZ+	c #9D504C",
"UZ+	c #AC6C66",
"VZ+	c #9D4F4B",
"WZ+	c #A55B57",
"XZ+	c #A15856",
"YZ+	c #9F514E",
"ZZ+	c #943535",
"`Z+	c #9A403F",
" `+	c #9F4E4D",
".`+	c #9B4746",
"+`+	c #9E4F50",
"@`+	c #9D4F4F",
"#`+	c #9C4949",
"$`+	c #9B4B4B",
"%`+	c #9E4949",
"&`+	c #9A4749",
"*`+	c #9B494A",
"=`+	c #9E494B",
"-`+	c #9E4749",
";`+	c #9D4243",
">`+	c #9E4B4E",
",`+	c #9A3F41",
"'`+	c #9B4546",
")`+	c #993C3D",
"!`+	c #973C3D",
"~`+	c #993F42",
"{`+	c #96393A",
"]`+	c #943537",
"^`+	c #973739",
"/`+	c #973A3D",
"(`+	c #963437",
"_`+	c #953639",
":`+	c #97373A",
"<`+	c #963436",
"[`+	c #983436",
"}`+	c #973638",
"|`+	c #963537",
"1`+	c #963031",
"2`+	c #963435",
"3`+	c #932F30",
"4`+	c #953031",
"5`+	c #983233",
"6`+	c #933132",
"7`+	c #932C2C",
"8`+	c #933031",
"9`+	c #973132",
"0`+	c #922C2D",
"a`+	c #963133",
"b`+	c #953234",
"c`+	c #973436",
"d`+	c #922C2E",
"e`+	c #932E2F",
"f`+	c #913134",
"g`+	c #923234",
"h`+	c #8F2A2C",
"i`+	c #923132",
"j`+	c #902F31",
"k`+	c #902A2C",
"l`+	c #902F30",
"m`+	c #902D2F",
"n`+	c #90292A",
"o`+	c #8E2828",
"p`+	c #8A2727",
"q`+	c #8C2626",
"r`+	c #882323",
"s`+	c #872424",
"t`+	c #862628",
"u`+	c #822022",
"v`+	c #862425",
"w`+	c #862626",
"x`+	c #822020",
"y`+	c #7F1E1E",
"z`+	c #801D1D",
"A`+	c #813332",
"B`+	c #7B403D",
"C`+	c #8E4745",
"D`+	c #923C3B",
"E`+	c #A03939",
"F`+	c #A53736",
"G`+	c #841B1C",
"H`+	c #731A19",
"I`+	c #7C1F1E",
"J`+	c #7D1D1C",
"K`+	c #7B1C1B",
"L`+	c #7E1E1C",
"M`+	c #7C1D1B",
"N`+	c #7E1D1B",
"O`+	c #811E1D",
"P`+	c #7F1D1C",
"Q`+	c #831F1F",
"R`+	c #801E1D",
"S`+	c #841E1E",
"T`+	c #811D1D",
"U`+	c #841F1F",
"V`+	c #872020",
"W`+	c #862120",
"X`+	c #882222",
"Y`+	c #852121",
"Z`+	c #852321",
"``+	c #882423",
"  @	c #892424",
". @	c #892827",
"+ @	c #8D2B2A",
"@ @	c #8B2B2A",
"# @	c #902F2D",
"$ @	c #8F2E2D",
"% @	c #943130",
"& @	c #90302F",
"* @	c #8F302F",
"= @	c #913130",
"- @	c #933130",
"; @	c #8E3130",
"> @	c #8D3231",
", @	c #94413F",
"' @	c #9A413F",
") @	c #963E3B",
"! @	c #9C4341",
"~ @	c #99403E",
"{ @	c #98403F",
"] @	c #9D433F",
"^ @	c #96413F",
"/ @	c #913E3B",
"( @	c #933D3B",
"_ @	c #8F3E3C",
": @	c #924341",
"< @	c #94403F",
"[ @	c #8D3C3B",
"} @	c #913D3C",
"| @	c #8B413F",
"1 @	c #8E3F3D",
"2 @	c #8F3C39",
"3 @	c #8B3E3C",
"4 @	c #8F4240",
"5 @	c #873A39",
"6 @	c #8A3E3A",
"7 @	c #873D3A",
"8 @	c #893E3D",
"9 @	c #803331",
"0 @	c #833E3E",
"a @	c #843D3D",
"b @	c #7A3535",
"c @	c #7D393A",
"d @	c #793838",
"e @	c #793737",
"f @	c #743233",
"g @	c #783435",
"h @	c #702C2D",
"i @	c #582626",
"j @	c #682E30",
"k @	c #4B2F2E",
"l @	c #5E2F2F",
"m @	c #623636",
"n @	c #623738",
"o @	c #633536",
"p @	c #623334",
"q @	c #633335",
"r @	c #663536",
"s @	c #632A28",
"t @	c #66302C",
"u @	c #622525",
"v @	c #662322",
"w @	c #651915",
"x @	c #671C18",
"y @	c #681E1B",
"z @	c #661511",
"A @	c #6A1813",
"B @	c #6B1511",
"C @	c #6D1511",
"D @	c #6C1310",
"E @	c #6D1410",
"F @	c #6C1510",
"G @	c #72120F",
"H @	c #761E1B",
"I @	c #7A2926",
"J @	c #7A2524",
"K @	c #7F3433",
"L @	c #7B3635",
"M @	c #9C5D5B",
"N @	c #A66865",
"O @	c #A76761",
"P @	c #9F5855",
"Q @	c #A6645F",
"R @	c #A86560",
"S @	c #AB6963",
"T @	c #A5605A",
"U @	c #AC6B65",
"V @	c #B1736D",
"W @	c #AC6964",
"X @	c #AF6F6A",
"Y @	c #B37671",
"Z @	c #A86561",
"` @	c #AB6866",
" .@	c #A25553",
"..@	c #A35656",
"+.@	c #A14C4B",
"@.@	c #A14E4E",
"#.@	c #9D4141",
"$.@	c #9D4C4D",
"%.@	c #A05253",
"&.@	c #9A4648",
"*.@	c #9F4F50",
"=.@	c #A04A4C",
"-.@	c #9C4547",
";.@	c #9B3B3C",
">.@	c #9B4144",
",.@	c #9C4245",
"'.@	c #97383A",
").@	c #9A3B3D",
"!.@	c #9D3E40",
"~.@	c #9A383A",
"{.@	c #983537",
"].@	c #953537",
"^.@	c #983739",
"/.@	c #973437",
"(.@	c #993739",
"_.@	c #963234",
":.@	c #983133",
"<.@	c #963637",
"[.@	c #993737",
"}.@	c #993435",
"|.@	c #9A3435",
"1.@	c #973031",
"2.@	c #993233",
"3.@	c #952E2E",
"4.@	c #902C2C",
"5.@	c #923031",
"6.@	c #963131",
"7.@	c #962C2C",
"8.@	c #96302F",
"9.@	c #982F30",
"0.@	c #953131",
"a.@	c #952D2D",
"b.@	c #953233",
"c.@	c #962C2D",
"d.@	c #963032",
"e.@	c #932B2B",
"f.@	c #922E30",
"g.@	c #932C2E",
"h.@	c #8F2D2D",
"i.@	c #8F2A2A",
"j.@	c #8C2929",
"k.@	c #892425",
"l.@	c #841F20",
"m.@	c #862323",
"n.@	c #862224",
"o.@	c #821D1D",
"p.@	c #862928",
"q.@	c #802121",
"r.@	c #832929",
"s.@	c #802A28",
"t.@	c #801C1C",
"u.@	c #7C2724",
"v.@	c #7E4643",
"w.@	c #854846",
"x.@	c #86403E",
"y.@	c #9D3D3D",
"z.@	c #A13E3E",
"A.@	c #A33D3D",
"B.@	c #A93130",
"C.@	c #761B19",
"D.@	c #781D1C",
"E.@	c #7A1C1B",
"F.@	c #7C1C1C",
"G.@	c #821E1D",
"H.@	c #861F1F",
"I.@	c #831E1D",
"J.@	c #861E1E",
"K.@	c #831D1D",
"L.@	c #86201E",
"M.@	c #831F1E",
"N.@	c #821F1F",
"O.@	c #852120",
"P.@	c #87201F",
"Q.@	c #862220",
"R.@	c #832120",
"S.@	c #872222",
"T.@	c #872321",
"U.@	c #8A2423",
"V.@	c #8A2625",
"W.@	c #892625",
"X.@	c #8D2928",
"Y.@	c #912E2D",
"Z.@	c #8E2D2C",
"`.@	c #922F2F",
" +@	c #953030",
".+@	c #912F2F",
"++@	c #953333",
"@+@	c #923433",
"#+@	c #963A3A",
"$+@	c #9C423F",
"%+@	c #A04240",
"&+@	c #9C403E",
"*+@	c #9F4341",
"=+@	c #9B413F",
"-+@	c #9F4340",
";+@	c #9A423F",
">+@	c #9E4542",
",+@	c #9B4241",
"'+@	c #9C4040",
")+@	c #96403E",
"!+@	c #963D3B",
"~+@	c #913A39",
"{+@	c #94413E",
"]+@	c #984341",
"^+@	c #944341",
"/+@	c #954340",
"(+@	c #8E3B39",
"_+@	c #903E3C",
":+@	c #883938",
"<+@	c #90403E",
"[+@	c #8B3C39",
"}+@	c #8A3B39",
"|+@	c #8F3F3E",
"1+@	c #893F3E",
"2+@	c #853C3A",
"3+@	c #883C3A",
"4+@	c #8C403F",
"5+@	c #812D2D",
"6+@	c #803636",
"7+@	c #813536",
"8+@	c #7B3435",
"9+@	c #7C3636",
"0+@	c #793333",
"a+@	c #7A3132",
"b+@	c #742E2F",
"c+@	c #783032",
"d+@	c #6B2627",
"e+@	c #4D1011",
"f+@	c #572424",
"g+@	c #521F20",
"h+@	c #692F30",
"i+@	c #4E302E",
"j+@	c #5C3633",
"k+@	c #633938",
"l+@	c #653939",
"m+@	c #613232",
"n+@	c #623637",
"o+@	c #65373A",
"p+@	c #673231",
"q+@	c #64221F",
"r+@	c #63221F",
"s+@	c #6B1E19",
"t+@	c #671E1C",
"u+@	c #6A1814",
"v+@	c #6C1311",
"w+@	c #6D1510",
"x+@	c #6F1710",
"y+@	c #782624",
"z+@	c #7B2925",
"A+@	c #772A28",
"B+@	c #793030",
"C+@	c #853F40",
"D+@	c #9F6562",
"E+@	c #A36662",
"F+@	c #AC706B",
"G+@	c #AC6D68",
"H+@	c #AD726E",
"I+@	c #AA6C67",
"J+@	c #AC716C",
"K+@	c #AB6C68",
"L+@	c #AD716B",
"M+@	c #B1746F",
"N+@	c #B47671",
"O+@	c #B16E6A",
"P+@	c #AA6661",
"Q+@	c #A96564",
"R+@	c #A45958",
"S+@	c #A45151",
"T+@	c #A25555",
"U+@	c #A14C4C",
"V+@	c #9D4343",
"W+@	c #9D4140",
"X+@	c #A04849",
"Y+@	c #9D3C3C",
"Z+@	c #9D3E3E",
"`+@	c #9D4547",
" @@	c #9D4142",
".@@	c #9B4142",
"+@@	c #9B3B3D",
"@@@	c #993D3F",
"#@@	c #993A3C",
"$@@	c #9B393A",
"%@@	c #993738",
"&@@	c #9B3A3C",
"*@@	c #9C3637",
"=@@	c #983637",
"-@@	c #9B383A",
";@@	c #9B3738",
">@@	c #973233",
",@@	c #993637",
"'@@	c #983234",
")@@	c #973637",
"!@@	c #983536",
"~@@	c #9A3434",
"{@@	c #983333",
"]@@	c #992F2F",
"^@@	c #9A3131",
"/@@	c #9A3333",
"(@@	c #962F2F",
"_@@	c #983131",
":@@	c #982E2D",
"<@@	c #973131",
"[@@	c #962F2E",
"}@@	c #993031",
"|@@	c #973030",
"1@@	c #942D2D",
"2@@	c #942F30",
"3@@	c #912E2F",
"4@@	c #8F2B2B",
"5@@	c #912E2E",
"6@@	c #912828",
"7@@	c #8E2423",
"8@@	c #8F2727",
"9@@	c #882525",
"0@@	c #7F2020",
"a@@	c #811F21",
"b@@	c #7C1D1D",
"c@@	c #832928",
"d@@	c #7C1E1F",
"e@@	c #7F1B1A",
"f@@	c #7B3F3C",
"g@@	c #814E4A",
"h@@	c #884B4A",
"i@@	c #893C3B",
"j@@	c #963B3B",
"k@@	c #A44040",
"l@@	c #A13B3B",
"m@@	c #A43838",
"n@@	c #A23232",
"o@@	c #A72323",
"p@@	c #811716",
"q@@	c #761C1C",
"r@@	c #791E1E",
"s@@	c #7B1B1A",
"t@@	c #7C1C1B",
"u@@	c #811D1C",
"v@@	c #851E1E",
"w@@	c #85201F",
"x@@	c #872120",
"y@@	c #852220",
"z@@	c #872221",
"A@@	c #862221",
"B@@	c #872626",
"C@@	c #912C2A",
"D@@	c #8E2B2A",
"E@@	c #922C2C",
"F@@	c #8E2C2C",
"G@@	c #8D2D2D",
"H@@	c #922F2E",
"I@@	c #8E2F2E",
"J@@	c #933232",
"K@@	c #9A3736",
"L@@	c #9B3D3C",
"M@@	c #A04745",
"N@@	c #9C4342",
"O@@	c #A04342",
"P@@	c #9C4240",
"Q@@	c #9F4441",
"R@@	c #9E4240",
"S@@	c #A04442",
"T@@	c #9B4240",
"U@@	c #9E4341",
"V@@	c #9A4443",
"W@@	c #9B403E",
"X@@	c #943939",
"Y@@	c #943635",
"Z@@	c #8E3434",
"`@@	c #913635",
" #@	c #923736",
".#@	c #923D3C",
"+#@	c #974443",
"@#@	c #924140",
"##@	c #953F3E",
"$#@	c #8F3C3B",
"%#@	c #933E3B",
"&#@	c #8B3A38",
"*#@	c #8D3B3A",
"=#@	c #893A39",
"-#@	c #8B3B3A",
";#@	c #883B3A",
">#@	c #893C3A",
",#@	c #8C3F3F",
"'#@	c #7D3131",
")#@	c #7E2F2F",
"!#@	c #803132",
"~#@	c #792E2F",
"{#@	c #7B3132",
"]#@	c #762D2D",
"^#@	c #783031",
"/#@	c #742C2D",
"(#@	c #762F30",
"_#@	c #6B2425",
":#@	c #521315",
"<#@	c #572626",
"[#@	c #652525",
"}#@	c #6B2F2F",
"|#@	c #573231",
"1#@	c #633738",
"2#@	c #643939",
"3#@	c #603131",
"4#@	c #623434",
"5#@	c #633537",
"6#@	c #612D2C",
"7#@	c #632E2E",
"8#@	c #642E2D",
"9#@	c #6A3538",
"0#@	c #652728",
"a#@	c #691A17",
"b#@	c #6B1B18",
"c#@	c #6B1915",
"d#@	c #6A1715",
"e#@	c #782B2B",
"f#@	c #762E2E",
"g#@	c #8F4C4C",
"h#@	c #A56A67",
"i#@	c #A46460",
"j#@	c #A66965",
"k#@	c #A86D6B",
"l#@	c #A96D6A",
"m#@	c #A46664",
"n#@	c #A96765",
"o#@	c #A66462",
"p#@	c #A45C5A",
"q#@	c #A65C5A",
"r#@	c #AC6663",
"s#@	c #A45A58",
"t#@	c #A15655",
"u#@	c #A35554",
"v#@	c #A04C4C",
"w#@	c #9D4A4A",
"x#@	c #9E4444",
"y#@	c #A04748",
"z#@	c #9F4140",
"A#@	c #A04646",
"B#@	c #A13F3F",
"C#@	c #9F3F3F",
"D#@	c #9E3F41",
"E#@	c #9E393A",
"F#@	c #9A393A",
"G#@	c #983839",
"H#@	c #983434",
"I#@	c #963536",
"J#@	c #993636",
"K#@	c #9B3434",
"L#@	c #9D3839",
"M#@	c #9C3939",
"N#@	c #9A3838",
"O#@	c #9A3232",
"P#@	c #933030",
"Q#@	c #9C383A",
"R#@	c #9F3839",
"S#@	c #A03A3A",
"T#@	c #9E3837",
"U#@	c #A03837",
"V#@	c #9F3534",
"W#@	c #9F3434",
"X#@	c #9B2E2E",
"Y#@	c #9B3131",
"Z#@	c #983130",
"`#@	c #9A3130",
" $@	c #9A312F",
".$@	c #9B3736",
"+$@	c #9B3433",
"@$@	c #962F2D",
"#$@	c #972D2D",
"$$@	c #932E2E",
"%$@	c #942C2C",
"&$@	c #932F2F",
"*$@	c #8F2B2A",
"=$@	c #902D2D",
"-$@	c #8F2929",
";$@	c #8C2928",
">$@	c #8D2727",
",$@	c #8A2626",
"'$@	c #862A2A",
")$@	c #842A2B",
"!$@	c #852D2D",
"~$@	c #812524",
"{$@	c #852828",
"]$@	c #7B221F",
"^$@	c #844945",
"/$@	c #81504D",
"($@	c #884F4C",
"_$@	c #8E3939",
":$@	c #9F3D3D",
"<$@	c #A3403F",
"[$@	c #A13838",
"}$@	c #9E3A3A",
"|$@	c #A43535",
"1$@	c #A22D2B",
"2$@	c #AA1C1A",
"3$@	c #731817",
"4$@	c #741A19",
"5$@	c #761B1B",
"6$@	c #791F1E",
"7$@	c #771D1C",
"8$@	c #7A1B1A",
"9$@	c #781B1A",
"0$@	c #7F1C1A",
"a$@	c #7E1D1C",
"b$@	c #862020",
"c$@	c #882120",
"d$@	c #872121",
"e$@	c #882524",
"f$@	c #8D2828",
"g$@	c #8D2929",
"h$@	c #892727",
"i$@	c #912C2B",
"j$@	c #8F2D2C",
"k$@	c #93302E",
"l$@	c #963232",
"m$@	c #953A39",
"n$@	c #9E403E",
"o$@	c #9D4240",
"p$@	c #97403F",
"q$@	c #963B39",
"r$@	c #9A3A38",
"s$@	c #943736",
"t$@	c #963635",
"u$@	c #933534",
"v$@	c #943B3A",
"w$@	c #964241",
"x$@	c #953E3D",
"y$@	c #963E3D",
"z$@	c #933C3C",
"A$@	c #8A3B3A",
"B$@	c #8E3C3B",
"C$@	c #883736",
"D$@	c #853534",
"E$@	c #7C2A2B",
"F$@	c #7E2C2D",
"G$@	c #792A2B",
"H$@	c #752A2B",
"I$@	c #772728",
"J$@	c #73282A",
"K$@	c #712627",
"L$@	c #752A2C",
"M$@	c #541515",
"N$@	c #572020",
"O$@	c #5C3738",
"P$@	c #583331",
"Q$@	c #5B3432",
"R$@	c #633637",
"S$@	c #673533",
"T$@	c #693132",
"U$@	c #692E2F",
"V$@	c #652321",
"W$@	c #682927",
"X$@	c #681A17",
"Y$@	c #6A1714",
"Z$@	c #6C1613",
"`$@	c #6A1614",
" %@	c #6C1714",
".%@	c #6F1918",
"+%@	c #7C322E",
"@%@	c #79302D",
"#%@	c #823A3B",
"$%@	c #995958",
"%%@	c #9B5E5C",
"&%@	c #9A5857",
"*%@	c #9C5B59",
"=%@	c #9F5D5C",
"-%@	c #9B5352",
";%@	c #A05B59",
">%@	c #A35C5C",
",%@	c #A05857",
"'%@	c #9D5150",
")%@	c #9F5250",
"!%@	c #A15252",
"~%@	c #9E504E",
"{%@	c #A25352",
"]%@	c #9F4A4A",
"^%@	c #9E4C4C",
"/%@	c #9D4747",
"(%@	c #984343",
"_%@	c #9A3E3E",
":%@	c #9A3F3F",
"<%@	c #9E4545",
"[%@	c #9F4544",
"}%@	c #A34B49",
"|%@	c #A54C4B",
"1%@	c #A14442",
"2%@	c #A1413F",
"3%@	c #9C3535",
"4%@	c #9A3637",
"5%@	c #983435",
"6%@	c #993333",
"7%@	c #983535",
"8%@	c #963130",
"9%@	c #9E3939",
"0%@	c #9F3939",
"a%@	c #9D3A3A",
"b%@	c #A03A3B",
"c%@	c #9E3536",
"d%@	c #A2393A",
"e%@	c #A33B3C",
"f%@	c #A43738",
"g%@	c #A43D3E",
"h%@	c #A63E3F",
"i%@	c #A23B3B",
"j%@	c #A33F41",
"k%@	c #A4393B",
"l%@	c #9F383B",
"m%@	c #9F3438",
"n%@	c #9B3132",
"o%@	c #9B2F2F",
"p%@	c #972E2E",
"q%@	c #982F2E",
"r%@	c #942A2A",
"s%@	c #97302F",
"t%@	c #99312F",
"u%@	c #9A3836",
"v%@	c #973433",
"w%@	c #902828",
"x%@	c #922D2D",
"y%@	c #8F2C2C",
"z%@	c #902A2A",
"A%@	c #922C2B",
"B%@	c #8F2828",
"C%@	c #8B302E",
"D%@	c #8C2C2A",
"E%@	c #882A2A",
"F%@	c #832525",
"G%@	c #852422",
"H%@	c #812423",
"I%@	c #812929",
"J%@	c #7F2221",
"K%@	c #7A3231",
"L%@	c #8A5953",
"M%@	c #8A4845",
"N%@	c #8F3F3F",
"O%@	c #983C3C",
"P%@	c #A03C3C",
"Q%@	c #A54040",
"R%@	c #A53C3C",
"S%@	c #A1393A",
"T%@	c #A33939",
"U%@	c #A22423",
"V%@	c #811817",
"W%@	c #6E1818",
"X%@	c #741B1B",
"Y%@	c #731919",
"Z%@	c #771B1A",
"`%@	c #771918",
" &@	c #7C2121",
".&@	c #761A19",
"+&@	c #791A1A",
"@&@	c #781A19",
"#&@	c #7E1B1A",
"$&@	c #7F1D1D",
"%&@	c #85201E",
"&&@	c #88201E",
"*&@	c #882221",
"=&@	c #892423",
"-&@	c #8C2726",
";&@	c #8C2827",
">&@	c #892826",
",&@	c #8D2A29",
"'&@	c #8A2A29",
")&@	c #8F2E2C",
"!&@	c #943434",
"~&@	c #974340",
"{&@	c #9A4542",
"]&@	c #953E3C",
"^&@	c #973E3C",
"/&@	c #93413E",
"(&@	c #953C3A",
"_&@	c #9A3C3B",
":&@	c #923534",
"<&@	c #953534",
"[&@	c #913332",
"}&@	c #943534",
"|&@	c #963938",
"1&@	c #944140",
"2&@	c #933D3C",
"3&@	c #963F3E",
"4&@	c #8F3B3A",
"5&@	c #913D3B",
"6&@	c #8E3C3A",
"7&@	c #8B3C3B",
"8&@	c #873836",
"9&@	c #8A3A39",
"0&@	c #833836",
"a&@	c #853332",
"b&@	c #842B2A",
"c&@	c #7F2B2B",
"d&@	c #7A2728",
"e&@	c #782A2B",
"f&@	c #7A2829",
"g&@	c #752627",
"h&@	c #6F2223",
"i&@	c #501011",
"j&@	c #581D1D",
"k&@	c #5E2222",
"l&@	c #622223",
"m&@	c #6A292B",
"n&@	c #5A3534",
"o&@	c #5A3330",
"p&@	c #5B312F",
"q&@	c #613535",
"r&@	c #613434",
"s&@	c #65393B",
"t&@	c #633838",
"u&@	c #653839",
"v&@	c #683635",
"w&@	c #662D2C",
"x&@	c #682F31",
"y&@	c #692E30",
"z&@	c #662C2C",
"A&@	c #671713",
"B&@	c #671C1B",
"C&@	c #6B1C17",
"D&@	c #701F20",
"E&@	c #752727",
"F&@	c #762A2B",
"G&@	c #813839",
"H&@	c #904C4A",
"I&@	c #924D4D",
"J&@	c #944B4B",
"K&@	c #93494A",
"L&@	c #954848",
"M&@	c #954748",
"N&@	c #974A4B",
"O&@	c #954849",
"P&@	c #964545",
"Q&@	c #984747",
"R&@	c #984545",
"S&@	c #9A4545",
"T&@	c #984342",
"U&@	c #9A4242",
"V&@	c #974040",
"W&@	c #953B3B",
"X&@	c #953C3C",
"Y&@	c #9A4342",
"Z&@	c #9E4544",
"`&@	c #9E4543",
" *@	c #A24845",
".*@	c #A24846",
"+*@	c #A24544",
"@*@	c #9C3635",
"#*@	c #973434",
"$*@	c #973333",
"%*@	c #9B3737",
"&*@	c #9A3332",
"**@	c #993434",
"=*@	c #9C3736",
"-*@	c #9E3535",
";*@	c #A53D3D",
">*@	c #A23B3C",
",*@	c #A43B3B",
"'*@	c #A13739",
")*@	c #9E3637",
"!*@	c #A03535",
"~*@	c #A33C3C",
"{*@	c #A53E3E",
"]*@	c #A23A3A",
"^*@	c #A23E3E",
"/*@	c #A13839",
"(*@	c #9B3033",
"_*@	c #962D2D",
":*@	c #942D2C",
"<*@	c #952E2D",
"[*@	c #94302E",
"}*@	c #993432",
"|*@	c #953736",
"1*@	c #953635",
"2*@	c #912727",
"3*@	c #912B2B",
"4*@	c #8E2C2B",
"5*@	c #872524",
"6*@	c #8C2B28",
"7*@	c #8A2F2D",
"8*@	c #842726",
"9*@	c #872C2B",
"0*@	c #801F1F",
"a*@	c #842525",
"b*@	c #802625",
"c*@	c #812222",
"d*@	c #802422",
"e*@	c #802724",
"f*@	c #804A46",
"g*@	c #875551",
"h*@	c #8E4E4B",
"i*@	c #8C4140",
"j*@	c #A03F3F",
"k*@	c #A0393A",
"l*@	c #A43D3C",
"m*@	c #A03B3B",
"n*@	c #A13939",
"o*@	c #9D3637",
"p*@	c #A03536",
"q*@	c #9F2A29",
"r*@	c #AE1F1F",
"s*@	c #751A19",
"t*@	c #6C1A18",
"u*@	c #711918",
"v*@	c #751918",
"w*@	c #771E1F",
"x*@	c #741917",
"y*@	c #761A18",
"z*@	c #791A19",
"A*@	c #7C1B1A",
"B*@	c #7D1B19",
"C*@	c #7A1B19",
"D*@	c #871E1E",
"E*@	c #871F1F",
"F*@	c #87201E",
"G*@	c #892221",
"H*@	c #8A2322",
"I*@	c #852221",
"J*@	c #892523",
"K*@	c #8D2A28",
"L*@	c #8A2928",
"M*@	c #8F2C2B",
"N*@	c #8D2E2C",
"O*@	c #943E3E",
"P*@	c #92413F",
"Q*@	c #933C3B",
"R*@	c #903736",
"S*@	c #933533",
"T*@	c #8F3332",
"U*@	c #933333",
"V*@	c #8E3232",
"W*@	c #923333",
"X*@	c #8C302F",
"Y*@	c #903231",
"Z*@	c #943A3A",
"`*@	c #934241",
" =@	c #923C3C",
".=@	c #913C3A",
"+=@	c #943E3D",
"@=@	c #863735",
"#=@	c #893937",
"$=@	c #8B3A39",
"%=@	c #842D2B",
"&=@	c #832A29",
"*=@	c #7C2727",
"==@	c #7C292B",
"-=@	c #792829",
";=@	c #732426",
">=@	c #742526",
",=@	c #682122",
"'=@	c #521112",
")=@	c #662627",
"!=@	c #663031",
"~=@	c #5F3333",
"{=@	c #613433",
"]=@	c #622D2D",
"^=@	c #673635",
"/=@	c #6B3C3F",
"(=@	c #672F30",
"_=@	c #661E18",
":=@	c #671F1B",
"<=@	c #661D1B",
"[=@	c #6B1A19",
"}=@	c #732A2A",
"|=@	c #722626",
"1=@	c #792E30",
"2=@	c #83383A",
"3=@	c #884040",
"4=@	c #8A3E3F",
"5=@	c #8A3C3D",
"6=@	c #8F4041",
"7=@	c #8B3B3C",
"8=@	c #904142",
"9=@	c #8E3C3D",
"0=@	c #913E3E",
"a=@	c #913A3B",
"b=@	c #923B3C",
"c=@	c #933A3A",
"d=@	c #933B3B",
"e=@	c #923737",
"f=@	c #994342",
"g=@	c #994241",
"h=@	c #9D4242",
"i=@	c #9D4241",
"j=@	c #9F4342",
"k=@	c #9C4140",
"l=@	c #9B3637",
"m=@	c #992F2E",
"n=@	c #9B3130",
"o=@	c #99302F",
"p=@	c #983231",
"q=@	c #9B3535",
"r=@	c #9D3433",
"s=@	c #A03838",
"t=@	c #A03938",
"u=@	c #A23737",
"v=@	c #9E3636",
"w=@	c #9F3536",
"x=@	c #9C3334",
"y=@	c #9E3233",
"z=@	c #A03737",
"A=@	c #A23D3C",
"B=@	c #A5403F",
"C=@	c #A24141",
"D=@	c #A23F3F",
"E=@	c #A03537",
"F=@	c #992D30",
"G=@	c #9A2E2E",
"H=@	c #952828",
"I=@	c #922B2B",
"J=@	c #942B2B",
"K=@	c #973636",
"L=@	c #973B39",
"M=@	c #902929",
"N=@	c #8E2A29",
"O=@	c #882B2B",
"P=@	c #8A2826",
"Q=@	c #842625",
"R=@	c #842825",
"S=@	c #852B26",
"T=@	c #862A28",
"U=@	c #832727",
"V=@	c #802726",
"W=@	c #812828",
"X=@	c #7A1B1C",
"Y=@	c #7F2322",
"Z=@	c #832827",
"`=@	c #802525",
" -@	c #802523",
".-@	c #8C544F",
"+-@	c #875753",
"@-@	c #925754",
"#-@	c #974B4A",
"$-@	c #9E3E3E",
"%-@	c #9F3E3E",
"&-@	c #A13A3A",
"*-@	c #9F3C3C",
"=-@	c #A03436",
"--@	c #983132",
";-@	c #841B19",
">-@	c #731C1C",
",-@	c #762020",
"'-@	c #761918",
")-@	c #741817",
"!-@	c #7A1918",
"~-@	c #821D1C",
"{-@	c #861E1D",
"]-@	c #851E1D",
"^-@	c #881E1E",
"/-@	c #851F1E",
"(-@	c #882020",
"_-@	c #862121",
":-@	c #8A2725",
"<-@	c #892A2A",
"[-@	c #892E2D",
"}-@	c #943837",
"|-@	c #913331",
"1-@	c #8F3131",
"2-@	c #923332",
"3-@	c #8A2F2E",
"4-@	c #8D2F2F",
"5-@	c #964240",
"6-@	c #923E3E",
"7-@	c #8F3B39",
"8-@	c #923B39",
"9-@	c #8D3A39",
"0-@	c #8D3A3A",
"a-@	c #883837",
"b-@	c #843332",
"c-@	c #7E2929",
"d-@	c #782626",
"e-@	c #7B2729",
"f-@	c #7D2829",
"g-@	c #7B2829",
"h-@	c #722425",
"i-@	c #702526",
"j-@	c #4B1011",
"k-@	c #5B2525",
"l-@	c #5B2020",
"m-@	c #642627",
"n-@	c #47312F",
"o-@	c #5A3130",
"p-@	c #653838",
"q-@	c #622727",
"r-@	c #673537",
"s-@	c #673637",
"t-@	c #682423",
"u-@	c #64201D",
"v-@	c #651C18",
"w-@	c #762F2C",
"x-@	c #823536",
"y-@	c #833637",
"z-@	c #833536",
"A-@	c #833333",
"B-@	c #843334",
"C-@	c #843232",
"D-@	c #863233",
"E-@	c #883334",
"F-@	c #8A3334",
"G-@	c #8C3534",
"H-@	c #8E3636",
"I-@	c #8C3434",
"J-@	c #8E3535",
"K-@	c #963B3A",
"L-@	c #984140",
"M-@	c #9B4442",
"N-@	c #9B4140",
"O-@	c #9C3F3E",
"P-@	c #972C2C",
"Q-@	c #992E2E",
"R-@	c #982D2D",
"S-@	c #9A2F2E",
"T-@	c #983030",
"U-@	c #993131",
"V-@	c #973232",
"W-@	c #9B3333",
"X-@	c #9E3534",
"Y-@	c #9D3434",
"Z-@	c #9D3333",
"`-@	c #9D3232",
" ;@	c #9C3534",
".;@	c #9F3737",
"+;@	c #9E3433",
"@;@	c #A33F3E",
"#;@	c #A44241",
"$;@	c #993032",
"%;@	c #972A2C",
"&;@	c #912A2A",
"*;@	c #932A2A",
"=;@	c #922828",
"-;@	c #952B2B",
";;@	c #953130",
">;@	c #933634",
",;@	c #8E2929",
"';@	c #8C2828",
");@	c #8C2424",
"!;@	c #8E2E2D",
"~;@	c #892A29",
"{;@	c #842323",
"];@	c #852322",
"^;@	c #802626",
"/;@	c #842F2B",
"(;@	c #802A25",
"_;@	c #812726",
":;@	c #7F2324",
"<;@	c #7C2020",
"[;@	c #7B201F",
"};@	c #7C201F",
"|;@	c #80423E",
"1;@	c #8F5D57",
"2;@	c #8B534F",
"3;@	c #98504E",
"4;@	c #964544",
"5;@	c #9A3D3D",
"6;@	c #9C3D3D",
"7;@	c #9C3A3A",
"8;@	c #9E3738",
"9;@	c #9B3436",
"0;@	c #9E3436",
"a;@	c #9D3031",
"b;@	c #9E2829",
"c;@	c #AF1F1E",
"d;@	c #711917",
"e;@	c #772123",
"f;@	c #741918",
"g;@	c #7B1A19",
"h;@	c #791B1B",
"i;@	c #7E1D1D",
"j;@	c #7F1C1C",
"k;@	c #861E1C",
"l;@	c #882322",
"m;@	c #842222",
"n;@	c #862827",
"o;@	c #8F2F2D",
"p;@	c #8E3230",
"q;@	c #8F3230",
"r;@	c #8B3130",
"s;@	c #903131",
"t;@	c #8B2E2E",
"u;@	c #8C2E2E",
"v;@	c #872D2C",
"w;@	c #862C2C",
"x;@	c #8A2E2E",
"y;@	c #8C3131",
"z;@	c #903434",
"A;@	c #92403F",
"B;@	c #903B3B",
"C;@	c #8F3A39",
"D;@	c #903C3B",
"E;@	c #8A3938",
"F;@	c #8A3837",
"G;@	c #843534",
"H;@	c #852E2D",
"I;@	c #802828",
"J;@	c #792626",
"K;@	c #752526",
"L;@	c #762424",
"M;@	c #702223",
"N;@	c #712021",
"O;@	c #6B1E1F",
"P;@	c #510F10",
"Q;@	c #541213",
"R;@	c #603434",
"S;@	c #622F2F",
"T;@	c #663736",
"U;@	c #653130",
"V;@	c #653537",
"W;@	c #652522",
"X;@	c #662523",
"Y;@	c #681D17",
"Z;@	c #732728",
"`;@	c #782D2D",
" >@	c #87393A",
".>@	c #833435",
"+>@	c #823334",
"@>@	c #843132",
"#>@	c #852F2F",
"$>@	c #862F30",
"%>@	c #892F2F",
"&>@	c #8A3030",
"*>@	c #8D3333",
"=>@	c #913434",
"->@	c #933434",
";>@	c #973837",
">>@	c #994141",
",>@	c #9C3E3D",
"'>@	c #9B3C3B",
")>@	c #993736",
"!>@	c #932929",
"~>@	c #952C2C",
"{>@	c #982C2C",
"]>@	c #982F2F",
"^>@	c #972F2F",
"/>@	c #993232",
"(>@	c #9C3333",
"_>@	c #9B3232",
":>@	c #9B3332",
"<>@	c #9E3635",
"[>@	c #A33E3D",
"}>@	c #A13F3E",
"|>@	c #9F3A3A",
"1>@	c #962B2C",
"2>@	c #922929",
"3>@	c #92292A",
"4>@	c #922A2A",
"5>@	c #922A29",
"6>@	c #8F2A29",
"7>@	c #902B2A",
"8>@	c #8E2727",
"9>@	c #8B2727",
"0>@	c #8C2525",
"a>@	c #882425",
"b>@	c #8B2828",
"c>@	c #882727",
"d>@	c #862322",
"e>@	c #8A2B2A",
"f>@	c #882D2C",
"g>@	c #812B28",
"h>@	c #791B1C",
"i>@	c #7D2B29",
"j>@	c #7E2724",
"k>@	c #84403D",
"l>@	c #8A5A55",
"m>@	c #905E5A",
"n>@	c #904D4B",
"o>@	c #944745",
"p>@	c #9D3838",
"q>@	c #A03B3C",
"r>@	c #9B3838",
"s>@	c #9E3435",
"t>@	c #9B3536",
"u>@	c #9D3334",
"v>@	c #9C3233",
"w>@	c #A42828",
"x>@	c #6F1A19",
"y>@	c #721716",
"z>@	c #731716",
"A>@	c #751817",
"B>@	c #791918",
"C>@	c #7E1C1B",
"D>@	c #831D1C",
"E>@	c #841D1C",
"F>@	c #811C1B",
"G>@	c #831C1C",
"H>@	c #801B1B",
"I>@	c #861D1D",
"J>@	c #841E1C",
"K>@	c #811C1C",
"L>@	c #892525",
"M>@	c #892A28",
"N>@	c #892D2C",
"O>@	c #892F2E",
"P>@	c #903130",
"Q>@	c #882D2D",
"R>@	c #8D2E2E",
"S>@	c #8E3031",
"T>@	c #892F30",
"U>@	c #903837",
"V>@	c #954241",
"W>@	c #8F3A38",
"X>@	c #8C3A38",
"Y>@	c #893837",
"Z>@	c #8B3937",
"`>@	c #863736",
" ,@	c #883737",
".,@	c #853433",
"+,@	c #772424",
"@,@	c #7A2627",
"#,@	c #792526",
"$,@	c #752324",
"%,@	c #702122",
"&,@	c #4B0C0D",
"*,@	c #4A1011",
"=,@	c #511112",
"-,@	c #592223",
";,@	c #5C1E1F",
">,@	c #4A2E2D",
",,@	c #5E3432",
"',@	c #633332",
"),@	c #643130",
"!,@	c #663639",
"~,@	c #68383A",
"{,@	c #67201C",
"],@	c #722B2A",
"^,@	c #782D2E",
"/,@	c #873536",
"(,@	c #883333",
"_,@	c #872F30",
":,@	c #872F2F",
"<,@	c #862D2D",
"[,@	c #872E2F",
"},@	c #8B2F2F",
"|,@	c #8B3030",
"1,@	c #923434",
"2,@	c #993A39",
"3,@	c #9C4343",
"4,@	c #9A413E",
"5,@	c #993F3D",
"6,@	c #993E3D",
"7,@	c #993838",
"8,@	c #973133",
"9,@	c #932728",
"0,@	c #942929",
"a,@	c #932828",
"b,@	c #952727",
"c,@	c #972B2C",
"d,@	c #962B2B",
"e,@	c #962E2E",
"f,@	c #992F30",
"g,@	c #972F30",
"h,@	c #962E2D",
"i,@	c #972E2D",
"j,@	c #9A3231",
"k,@	c #9A3433",
"l,@	c #9D3534",
"m,@	c #9E3C3B",
"n,@	c #A03F3D",
"o,@	c #9B3A39",
"p,@	c #952A2A",
"q,@	c #902728",
"r,@	c #912929",
"s,@	c #8F2728",
"t,@	c #8D2525",
"u,@	c #912A29",
"v,@	c #932C2B",
"w,@	c #902A29",
"x,@	c #8F2928",
"y,@	c #8B2625",
"z,@	c #8B2626",
"A,@	c #8B2A2B",
"B,@	c #852726",
"C,@	c #842B29",
"D,@	c #7F201C",
"E,@	c #7A1B1B",
"F,@	c #7E2121",
"G,@	c #802120",
"H,@	c #7A1D1D",
"I,@	c #79181A",
"J,@	c #7A2323",
"K,@	c #7E3D3A",
"L,@	c #895753",
"M,@	c #8C5C58",
"N,@	c #925451",
"O,@	c #9B4D4B",
"P,@	c #994140",
"Q,@	c #9D3C3B",
"R,@	c #9F3B3B",
"S,@	c #9E3335",
"T,@	c #9B3334",
"U,@	c #A03538",
"V,@	c #9C3132",
"W,@	c #9F2B2B",
"X,@	c #B61F1C",
"Y,@	c #6D1615",
"Z,@	c #711616",
"`,@	c #751717",
" '@	c #791817",
".'@	c #7A1A19",
"+'@	c #7E1B1B",
"@'@	c #821C1B",
"#'@	c #821C1C",
"$'@	c #841C1C",
"%'@	c #811B1B",
"&'@	c #88201F",
"*'@	c #882220",
"='@	c #8B2726",
"-'@	c #882827",
";'@	c #892C2A",
">'@	c #8C2E2D",
",'@	c #8F312F",
"''@	c #923130",
")'@	c #872B2B",
"!'@	c #892C2B",
"~'@	c #8A2D2D",
"{'@	c #8F3132",
"]'@	c #903435",
"^'@	c #913B39",
"/'@	c #8C3938",
"('@	c #873533",
"_'@	c #893635",
":'@	c #833534",
"<'@	c #7C2424",
"['@	c #7E2626",
"}'@	c #792323",
"|'@	c #7B2525",
"1'@	c #762323",
"2'@	c #782224",
"3'@	c #6C2324",
"4'@	c #4D100E",
"5'@	c #4C0F10",
"6'@	c #551213",
"7'@	c #642223",
"8'@	c #693434",
"9'@	c #4D2E2C",
"0'@	c #603636",
"a'@	c #663635",
"b'@	c #622928",
"c'@	c #692522",
"d'@	c #691E1B",
"e'@	c #6F2A2A",
"f'@	c #732C28",
"g'@	c #702826",
"h'@	c #883637",
"i'@	c #863335",
"j'@	c #883536",
"k'@	c #873233",
"l'@	c #873132",
"m'@	c #883030",
"n'@	c #8A2F30",
"o'@	c #8C2F2F",
"p'@	c #943333",
"q'@	c #953434",
"r'@	c #993C3B",
"s'@	c #9B4443",
"t'@	c #973F3F",
"u'@	c #922727",
"v'@	c #972A2A",
"w'@	c #962929",
"x'@	c #952C2D",
"y'@	c #962E2C",
"z'@	c #952F2D",
"A'@	c #973231",
"B'@	c #9E3C3A",
"C'@	c #9F3F3D",
"D'@	c #9A3938",
"E'@	c #8F2827",
"F'@	c #8C2627",
"G'@	c #8D2626",
"H'@	c #8E2627",
"I'@	c #8C2727",
"J'@	c #8B2724",
"K'@	c #872827",
"L'@	c #892828",
"M'@	c #872821",
"N'@	c #821F20",
"O'@	c #7F2122",
"P'@	c #7E2322",
"Q'@	c #802727",
"R'@	c #822120",
"S'@	c #7C1B1C",
"T'@	c #7B2725",
"U'@	c #8A5651",
"V'@	c #8E5F5A",
"W'@	c #8C524F",
"X'@	c #974D4C",
"Y'@	c #974746",
"Z'@	c #9E3838",
"`'@	c #9C3435",
" )@	c #9B3435",
".)@	c #9D3537",
"+)@	c #A03334",
"@)@	c #AA2929",
"#)@	c #8B1E1E",
"$)@	c #651614",
"%)@	c #6B1715",
"&)@	c #6D1715",
"*)@	c #6F1817",
"=)@	c #821C1A",
"-)@	c #892121",
";)@	c #8B2222",
">)@	c #852624",
",)@	c #8B2D2C",
"')@	c #8E302E",
"))@	c #8E302F",
"!)@	c #8B2E2D",
"~)@	c #882C2C",
"{)@	c #842929",
"])@	c #882C2B",
"^)@	c #8A2C2C",
"/)@	c #893130",
"()@	c #8A3836",
"_)@	c #8A3736",
":)@	c #853635",
"<)@	c #873534",
"[)@	c #823433",
"})@	c #7B2323",
"|)@	c #7E2323",
"1)@	c #792121",
"2)@	c #762223",
"3)@	c #772324",
"4)@	c #712122",
"5)@	c #6C1E1F",
"6)@	c #5D1515",
"7)@	c #6A2A2A",
"8)@	c #672829",
"9)@	c #6A2B2B",
"0)@	c #552F2E",
"a)@	c #623030",
"b)@	c #612827",
"c)@	c #672726",
"d)@	c #6A2B27",
"e)@	c #681A15",
"f)@	c #6F2A28",
"g)@	c #702A29",
"h)@	c #732D2B",
"i)@	c #772B2B",
"j)@	c #863737",
"k)@	c #863435",
"l)@	c #883435",
"m)@	c #873334",
"n)@	c #883233",
"o)@	c #873031",
"p)@	c #882D2E",
"q)@	c #8A2F2F",
"r)@	c #913231",
"s)@	c #913030",
"t)@	c #923131",
"u)@	c #943232",
"v)@	c #983736",
"w)@	c #963736",
"x)@	c #902B2B",
"y)@	c #912827",
"z)@	c #902627",
"A)@	c #932627",
"B)@	c #922626",
"C)@	c #942828",
"D)@	c #962A2A",
"E)@	c #95312F",
"F)@	c #9B3937",
"G)@	c #993C3A",
"H)@	c #973634",
"I)@	c #902827",
"J)@	c #8B2424",
"K)@	c #8E2424",
"L)@	c #8F2926",
"M)@	c #8C2526",
"N)@	c #8E2526",
"O)@	c #8B2524",
"P)@	c #8B2525",
"Q)@	c #852A28",
"R)@	c #872D29",
"S)@	c #7D1E1E",
"T)@	c #7C1B1B",
"U)@	c #822929",
"V)@	c #81201E",
"W)@	c #792825",
"X)@	c #783A35",
"Y)@	c #8A5551",
"Z)@	c #8F5855",
"`)@	c #964F4C",
" !@	c #974A48",
".!@	c #9C4444",
"+!@	c #9D413F",
"@!@	c #A44342",
"#!@	c #A44141",
"$!@	c #A03B3A",
"%!@	c #A13A3B",
"&!@	c #9C3737",
"*!@	c #A03435",
"=!@	c #A23436",
"-!@	c #9F3638",
";!@	c #9D3636",
">!@	c #A32B2C",
",!@	c #681515",
"'!@	c #711818",
")!@	c #701515",
"!!@	c #711615",
"~!@	c #771816",
"{!@	c #7B1A1A",
"]!@	c #7E1A19",
"^!@	c #7B1918",
"/!@	c #831C1B",
"(!@	c #831B1B",
"_!@	c #801C1B",
":!@	c #83201E",
"<!@	c #892220",
"[!@	c #892322",
"}!@	c #862826",
"|!@	c #882B29",
"1!@	c #8A302F",
"2!@	c #862E2D",
"3!@	c #8A2D2C",
"4!@	c #8C2C2B",
"5!@	c #8D2B2B",
"6!@	c #8C3937",
"7!@	c #8E3937",
"8!@	c #8A3635",
"9!@	c #843333",
"0!@	c #863433",
"a!@	c #843432",
"b!@	c #7F2F2F",
"c!@	c #82302E",
"d!@	c #7D2324",
"e!@	c #782122",
"f!@	c #7A2121",
"g!@	c #762121",
"h!@	c #752121",
"i!@	c #712223",
"j!@	c #500D0E",
"k!@	c #5A1B1C",
"l!@	c #642324",
"m!@	c #683335",
"n!@	c #5C3532",
"o!@	c #5F2A28",
"p!@	c #602928",
"q!@	c #662928",
"r!@	c #672421",
"s!@	c #6B3230",
"t!@	c #672522",
"u!@	c #6C1F1B",
"v!@	c #6F2728",
"w!@	c #702828",
"x!@	c #702727",
"y!@	c #853132",
"z!@	c #853233",
"A!@	c #883232",
"B!@	c #882F30",
"C!@	c #872D2E",
"D!@	c #8A2E2F",
"E!@	c #8D2E2F",
"F!@	c #8E2F30",
"G!@	c #922E2E",
"H!@	c #912829",
"I!@	c #902625",
"J!@	c #912626",
"K!@	c #902525",
"L!@	c #902626",
"M!@	c #942728",
"N!@	c #942C2B",
"O!@	c #952D2C",
"P!@	c #912D2C",
"Q!@	c #923330",
"R!@	c #8F2927",
"S!@	c #8A2324",
"T!@	c #8F2A26",
"U!@	c #8A2323",
"V!@	c #852625",
"W!@	c #811E1E",
"X!@	c #832724",
"Y!@	c #852A27",
"Z!@	c #7F2724",
"`!@	c #7D2322",
" ~@	c #792020",
".~@	c #7B2624",
"+~@	c #7C3B37",
"@~@	c #85554F",
"#~@	c #8F5C57",
"$~@	c #95514E",
"%~@	c #984A48",
"&~@	c #9C4443",
"*~@	c #A14443",
"=~@	c #A44443",
"-~@	c #A74341",
";~@	c #A44140",
">~@	c #9C3636",
",~@	c #A13738",
"'~@	c #9F3637",
")~@	c #A03335",
"!~@	c #9B3234",
"~~@	c #8D1D1C",
"{~@	c #631614",
"]~@	c #711515",
"^~@	c #791917",
"/~@	c #7A1A1A",
"(~@	c #811A1A",
"_~@	c #7D1A19",
":~@	c #801E1C",
"<~@	c #872726",
"[~@	c #852827",
"}~@	c #892F2D",
"|~@	c #8C2B2B",
"1~@	c #8C2C2C",
"2~@	c #872929",
"3~@	c #892B2A",
"4~@	c #883534",
"5~@	c #873433",
"6~@	c #823131",
"7~@	c #7F2F2D",
"8~@	c #802E2C",
"9~@	c #7B1F1F",
"0~@	c #761F1F",
"a~@	c #771F1F",
"b~@	c #721D1D",
"c~@	c #621819",
"d~@	c #531011",
"e~@	c #4F0E0F",
"f~@	c #611F1F",
"g~@	c #632A2C",
"h~@	c #57393B",
"i~@	c #5F3432",
"j~@	c #622827",
"k~@	c #682D2C",
"l~@	c #6C3434",
"m~@	c #6F2926",
"n~@	c #733030",
"o~@	c #74322F",
"p~@	c #6E2A28",
"q~@	c #873636",
"r~@	c #852F30",
"s~@	c #842E30",
"t~@	c #882E2F",
"u~@	c #882E2E",
"v~@	c #8B2D2E",
"w~@	c #8E2E2E",
"x~@	c #8E2D2E",
"y~@	c #8D2C2C",
"z~@	c #8F2B2C",
"A~@	c #902E2E",
"B~@	c #8F2525",
"C~@	c #902526",
"D~@	c #912627",
"E~@	c #962C2B",
"F~@	c #8E2829",
"G~@	c #902B29",
"H~@	c #902C2A",
"I~@	c #8E2928",
"J~@	c #8D2C28",
"K~@	c #882321",
"L~@	c #8A2422",
"M~@	c #892323",
"N~@	c #87221E",
"O~@	c #872C27",
"P~@	c #7F1F1E",
"Q~@	c #81231E",
"R~@	c #872B2A",
"S~@	c #862B29",
"T~@	c #862422",
"U~@	c #822827",
"V~@	c #7F2623",
"W~@	c #752927",
"X~@	c #8C5A57",
"Y~@	c #955653",
"Z~@	c #9F4D4B",
"`~@	c #9E4645",
" {@	c #A14342",
".{@	c #A44745",
"+{@	c #A94846",
"@{@	c #A44240",
"#{@	c #A74241",
"${@	c #A9403F",
"%{@	c #A33B3B",
"&{@	c #A03637",
"*{@	c #A03738",
"={@	c #A13536",
"-{@	c #9D3435",
";{@	c #A22A2B",
">{@	c #721616",
",{@	c #6F1515",
"'{@	c #781817",
"){@	c #761717",
"!{@	c #7C1919",
"~{@	c #7E1919",
"{{@	c #7F1B1B",
"]{@	c #7C1A1A",
"^{@	c #882A29",
"/{@	c #812221",
"({@	c #862927",
"_{@	c #842928",
":{@	c #8E2F2F",
"<{@	c #872C2A",
"[{@	c #8A2B2B",
"}{@	c #862A29",
"|{@	c #8A2D2B",
"1{@	c #862B2A",
"2{@	c #8D2A2A",
"3{@	c #8B2C2C",
"4{@	c #882928",
"5{@	c #8A2A2A",
"6{@	c #8D3737",
"7{@	c #883635",
"8{@	c #883433",
"9{@	c #863332",
"0{@	c #7E2F2D",
"a{@	c #812E2D",
"b{@	c #7F2D2B",
"c{@	c #761D1D",
"d{@	c #781D1E",
"e{@	c #731D1D",
"f{@	c #751D1D",
"g{@	c #701C1D",
"h{@	c #6B1A1B",
"i{@	c #782526",
"j{@	c #432D2B",
"k{@	c #5C3330",
"l{@	c #5D3433",
"m{@	c #652827",
"n{@	c #6B3836",
"o{@	c #6B3634",
"p{@	c #652928",
"q{@	c #6C231F",
"r{@	c #6F2D29",
"s{@	c #743131",
"t{@	c #712D2B",
"u{@	c #712E2D",
"v{@	c #732D2A",
"w{@	c #6D2B2A",
"x{@	c #843435",
"y{@	c #8B3635",
"z{@	c #842C2E",
"A{@	c #842D2E",
"B{@	c #862D2E",
"C{@	c #892D2E",
"D{@	c #8B2C2D",
"E{@	c #8E2B2C",
"F{@	c #8D2A2C",
"G{@	c #8E2A2A",
"H{@	c #913534",
"I{@	c #902F2E",
"J{@	c #8D2625",
"K{@	c #8E2626",
"L{@	c #902424",
"M{@	c #8F2524",
"N{@	c #912424",
"O{@	c #962D2C",
"P{@	c #8C2724",
"Q{@	c #832020",
"R{@	c #812220",
"S{@	c #842B28",
"T{@	c #882A28",
"U{@	c #852825",
"V{@	c #801F1E",
"W{@	c #7A1819",
"X{@	c #7D4944",
"Y{@	c #915653",
"Z{@	c #984B48",
"`{@	c #9E4947",
" ]@	c #A14444",
".]@	c #AB4A47",
"+]@	c #AB4846",
"@]@	c #A64241",
"#]@	c #A94342",
"$]@	c #A23839",
"%]@	c #A13637",
"&]@	c #A33839",
"*]@	c #A23637",
"=]@	c #9F3334",
"-]@	c #9B3235",
";]@	c #982D2E",
">]@	c #A42626",
",]@	c #8D211F",
"']@	c #661514",
")]@	c #671412",
"!]@	c #6C1716",
"~]@	c #6D1717",
"{]@	c #6D1514",
"]]@	c #761818",
"^]@	c #731717",
"/]@	c #771818",
"(]@	c #741717",
"_]@	c #781818",
":]@	c #791818",
"<]@	c #7B1919",
"[]@	c #7C1E1E",
"}]@	c #812727",
"|]@	c #852929",
"1]@	c #822A29",
"2]@	c #862C2B",
"3]@	c #822B2A",
"4]@	c #872E2D",
"5]@	c #882E2D",
"6]@	c #852A2A",
"7]@	c #872A2A",
"8]@	c #872727",
"9]@	c #863231",
"0]@	c #822F2E",
"a]@	c #85312F",
"b]@	c #7F2E2C",
"c]@	c #822E2D",
"d]@	c #7C2323",
"e]@	c #771D1D",
"f]@	c #721C1C",
"g]@	c #741C1D",
"h]@	c #6F1C1C",
"i]@	c #6B1A1A",
"j]@	c #661A1A",
"k]@	c #462D2C",
"l]@	c #5C3431",
"m]@	c #5B3330",
"n]@	c #5F3130",
"o]@	c #652927",
"p]@	c #6B3838",
"q]@	c #6E2F2C",
"r]@	c #6B2520",
"s]@	c #6D1A18",
"t]@	c #773132",
"u]@	c #712A2A",
"v]@	c #722A29",
"w]@	c #712929",
"x]@	c #813031",
"y]@	c #903839",
"z]@	c #822B2C",
"A]@	c #882C2D",
"B]@	c #8E2B2B",
"C]@	c #8C292A",
"D]@	c #8D282A",
"E]@	c #8F3532",
"F]@	c #913835",
"G]@	c #903633",
"H]@	c #8F2424",
"I]@	c #8E2323",
"J]@	c #8E2525",
"K]@	c #922826",
"L]@	c #952C2B",
"M]@	c #8C2A26",
"N]@	c #8B2826",
"O]@	c #84221F",
"P]@	c #832221",
"Q]@	c #862624",
"R]@	c #862726",
"S]@	c #812624",
"T]@	c #8A2E2B",
"U]@	c #842321",
"V]@	c #832925",
"W]@	c #781716",
"X]@	c #7D2624",
"Y]@	c #751E1F",
"Z]@	c #79403C",
"`]@	c #885753",
" ^@	c #905955",
".^@	c #984E4C",
"+^@	c #A04544",
"@^@	c #A24242",
"#^@	c #A94745",
"$^@	c #A74442",
"%^@	c #A84141",
"&^@	c #A43E3E",
"*^@	c #A63D3D",
"=^@	c #A53839",
"-^@	c #A23838",
";^@	c #A33737",
">^@	c #9B2F31",
",^@	c #9A2929",
"'^@	c #A8211E",
")^@	c #771917",
"!^@	c #651514",
"~^@	c #6A1514",
"{^@	c #6A1414",
"]^@	c #761716",
"^^@	c #7A1919",
"/^@	c #7D1B1B",
"(^@	c #7A1C1C",
"_^@	c #822525",
":^@	c #842827",
"<^@	c #812927",
"[^@	c #872A29",
"}^@	c #842826",
"|^@	c #872828",
"1^@	c #893332",
"2^@	c #7E2E2D",
"3^@	c #7B2B2A",
"4^@	c #7C2929",
"5^@	c #5D1516",
"6^@	c #550E0F",
"7^@	c #561012",
"8^@	c #602525",
"9^@	c #5E3133",
"0^@	c #4B2D2B",
"a^@	c #5B3431",
"b^@	c #5F3131",
"c^@	c #5E2C2A",
"d^@	c #672D2D",
"e^@	c #6A3331",
"f^@	c #6D3231",
"g^@	c #742B2B",
"h^@	c #783838",
"i^@	c #7C2D2C",
"j^@	c #903535",
"k^@	c #852A2C",
"l^@	c #852B2C",
"m^@	c #862B2C",
"n^@	c #8C2628",
"o^@	c #913532",
"p^@	c #8F3331",
"q^@	c #8F302E",
"r^@	c #8D2424",
"s^@	c #8C2323",
"t^@	c #8D2323",
"u^@	c #942A28",
"v^@	c #872323",
"w^@	c #882424",
"x^@	c #8D2B26",
"y^@	c #8A2523",
"z^@	c #84221D",
"A^@	c #832A28",
"B^@	c #812A23",
"C^@	c #832726",
"D^@	c #7C2120",
"E^@	c #7D2523",
"F^@	c #762C29",
"G^@	c #905552",
"H^@	c #944E4C",
"I^@	c #9D4A48",
"J^@	c #A04343",
"K^@	c #A14141",
"L^@	c #A74141",
"M^@	c #A54240",
"N^@	c #A6403F",
"O^@	c #A3393A",
"P^@	c #A53738",
"Q^@	c #A33838",
"R^@	c #A43638",
"S^@	c #9E3234",
"T^@	c #9D3133",
"U^@	c #A02424",
"V^@	c #651412",
"W^@	c #681514",
"X^@	c #6E1515",
"Y^@	c #721515",
"Z^@	c #711514",
"`^@	c #731715",
" /@	c #701614",
"./@	c #771717",
"+/@	c #791819",
"@/@	c #7C1A1B",
"#/@	c #781A1A",
"$/@	c #822726",
"%/@	c #842A28",
"&/@	c #822A2A",
"*/@	c #842C2B",
"=/@	c #842A29",
"-/@	c #812626",
";/@	c #812625",
">/@	c #832626",
",/@	c #7F2727",
"'/@	c #893433",
")/@	c #863230",
"!/@	c #802F2F",
"~/@	c #7C2C2A",
"{/@	c #741D1D",
"]/@	c #771E1D",
"^/@	c #701D1E",
"//@	c #69191B",
"(/@	c #571214",
"_/@	c #591012",
":/@	c #591614",
"</@	c #642D2E",
"[/@	c #4E2F2D",
"}/@	c #5E3835",
"|/@	c #613635",
"1/@	c #623635",
"2/@	c #622929",
"3/@	c #672D2C",
"4/@	c #642B2B",
"5/@	c #632929",
"6/@	c #762D2C",
"7/@	c #6E2A2A",
"8/@	c #89292A",
"9/@	c #8A292A",
"0/@	c #8B2929",
"a/@	c #8C2829",
"b/@	c #8B2527",
"c/@	c #8F3432",
"d/@	c #8D3230",
"e/@	c #8B2D2D",
"f/@	c #8C2324",
"g/@	c #902727",
"h/@	c #932727",
"i/@	c #922726",
"j/@	c #8C2222",
"k/@	c #8B2223",
"l/@	c #872525",
"m/@	c #872625",
"n/@	c #892825",
"o/@	c #832F2B",
"p/@	c #832A26",
"q/@	c #7B1C1C",
"r/@	c #7D2421",
"s/@	c #814C49",
"t/@	c #8B5753",
"u/@	c #91514F",
"v/@	c #994947",
"w/@	c #9D4645",
"x/@	c #9C3D3C",
"y/@	c #A13E3D",
"z/@	c #A03F3E",
"A/@	c #A23939",
"B/@	c #9F3738",
"C/@	c #9D3536",
"D/@	c #A13537",
"E/@	c #A43637",
"F/@	c #A33637",
"G/@	c #A6393A",
"H/@	c #A4393A",
"I/@	c #A53939",
"J/@	c #A03133",
"K/@	c #9C3133",
"L/@	c #982B2D",
"M/@	c #9A2525",
"N/@	c #B6201F",
"O/@	c #761715",
"P/@	c #651413",
"Q/@	c #681414",
"R/@	c #6C1414",
"S/@	c #6E1414",
"T/@	c #6F1414",
"U/@	c #701514",
"V/@	c #741615",
"W/@	c #771819",
"X/@	c #79191A",
"Y/@	c #751819",
"Z/@	c #7F2624",
"`/@	c #7F2827",
" (@	c #832B2A",
".(@	c #832C2B",
"+(@	c #7D2424",
"@(@	c #832927",
"#(@	c #822828",
"$(@	c #802B2B",
"%(@	c #86312F",
"&(@	c #7D2C2A",
"*(@	c #7A2A28",
"=(@	c #792424",
"-(@	c #781E1E",
";(@	c #741D1E",
">(@	c #6D191A",
",(@	c #782425",
"'(@	c #5A1416",
")(@	c #613736",
"!(@	c #662725",
"~(@	c #682220",
"{(@	c #702C2B",
"](@	c #722928",
"^(@	c #822627",
"/(@	c #842A2A",
"((@	c #85292A",
"_(@	c #86292A",
":(@	c #872728",
"<(@	c #8B2627",
"[(@	c #8D3432",
"}(@	c #8C2223",
"|(@	c #8D2222",
"1(@	c #8F2323",
"2(@	c #8E2324",
"3(@	c #8B2323",
"4(@	c #912426",
"5(@	c #902423",
"6(@	c #871F20",
"7(@	c #882926",
"8(@	c #882626",
"9(@	c #7C1A18",
"0(@	c #7E1818",
"a(@	c #7D1C1C",
"b(@	c #802323",
"c(@	c #812725",
"d(@	c #7B2121",
"e(@	c #761515",
"f(@	c #7B2220",
"g(@	c #7D211E",
"h(@	c #814F4B",
"i(@	c #8D5B57",
"j(@	c #925654",
"k(@	c #974B4B",
"l(@	c #994644",
"m(@	c #A0403F",
"n(@	c #A23C3C",
"o(@	c #A13737",
"p(@	c #9D3233",
"q(@	c #9F3233",
"r(@	c #9D3234",
"s(@	c #9F3435",
"t(@	c #A73A3A",
"u(@	c #A33537",
"v(@	c #9E3032",
"w(@	c #9F3133",
"x(@	c #982F32",
"y(@	c #A02425",
"z(@	c #871D1C",
"A(@	c #461D1B",
"B(@	c #53211E",
"C(@	c #651715",
"D(@	c #641311",
"E(@	c #6C1514",
"F(@	c #6D1414",
"G(@	c #731816",
"H(@	c #7A191A",
"I(@	c #77191A",
"J(@	c #781A1B",
"K(@	c #751A1B",
"L(@	c #771B1B",
"M(@	c #781C1C",
"N(@	c #751C1D",
"O(@	c #7F2625",
"P(@	c #7D2725",
"Q(@	c #802928",
"R(@	c #842C2A",
"S(@	c #832C2C",
"T(@	c #7E2525",
"U(@	c #7D2323",
"V(@	c #802325",
"W(@	c #7D2525",
"X(@	c #7E2627",
"Y(@	c #832E2E",
"Z(@	c #873130",
"`(@	c #84302F",
" _@	c #7E2C2A",
"._@	c #7B2B29",
"+_@	c #782323",
"@_@	c #731B1B",
"#_@	c #701C1C",
"$_@	c #6F1B1C",
"%_@	c #6E1A1A",
"&_@	c #701D1D",
"*_@	c #7B2A2B",
"=_@	c #5A191A",
"-_@	c #5F1A1B",
";_@	c #682623",
">_@	c #5F2727",
",_@	c #543231",
"'_@	c #5E3331",
")_@	c #5F2927",
"!_@	c #602929",
"~_@	c #632625",
"{_@	c #622625",
"]_@	c #712C2B",
"^_@	c #802425",
"/_@	c #832628",
"(_@	c #842627",
"__@	c #882426",
":_@	c #8A2526",
"<_@	c #8B2928",
"[_@	c #882121",
"}_@	c #8E2222",
"|_@	c #8C2121",
"1_@	c #8A2121",
"2_@	c #892122",
"3_@	c #89201F",
"4_@	c #862424",
"5_@	c #80221D",
"6_@	c #7D2120",
"7_@	c #7E2523",
"8_@	c #791816",
"9_@	c #7B2222",
"0_@	c #7B2422",
"a_@	c #731F1D",
"b_@	c #753834",
"c_@	c #8B5A56",
"d_@	c #8F5552",
"e_@	c #964D4B",
"f_@	c #9D4443",
"g_@	c #A14140",
"h_@	c #9D3B3A",
"i_@	c #9D3535",
"j_@	c #9F3535",
"k_@	c #9B3031",
"l_@	c #9D3131",
"m_@	c #9C3232",
"n_@	c #A03333",
"o_@	c #A13435",
"p_@	c #A93A3A",
"q_@	c #A63938",
"r_@	c #A63839",
"s_@	c #A13436",
"t_@	c #9C2F31",
"u_@	c #9E3131",
"v_@	c #B92525",
"w_@	c #641413",
"x_@	c #681312",
"y_@	c #6A1413",
"z_@	c #6C1413",
"A_@	c #6E1413",
"B_@	c #6C1412",
"C_@	c #6D1413",
"D_@	c #741818",
"E_@	c #78191A",
"F_@	c #771919",
"G_@	c #741819",
"H_@	c #761A1B",
"I_@	c #7A1E1F",
"J_@	c #781F1F",
"K_@	c #7D2726",
"L_@	c #812A29",
"M_@	c #7F2828",
"N_@	c #822B29",
"O_@	c #802A2A",
"P_@	c #842B2B",
"Q_@	c #792021",
"R_@	c #7C2222",
"S_@	c #7A2122",
"T_@	c #7D2325",
"U_@	c #7D2627",
"V_@	c #7A2526",
"W_@	c #7D2727",
"X_@	c #813434",
"Y_@	c #83302F",
"Z_@	c #802D2C",
"`_@	c #761C1D",
" :@	c #711C1D",
".:@	c #7A2626",
"+:@	c #5C1012",
"@:@	c #5C1213",
"#:@	c #5E1718",
"$:@	c #5C0F10",
"%:@	c #603233",
"&:@	c #623938",
"*:@	c #5E312F",
"=:@	c #642727",
"-:@	c #672423",
";:@	c #702C2C",
">:@	c #8B3535",
",:@	c #822324",
"':@	c #882122",
"):@	c #8D2121",
"!:@	c #8A2122",
"~:@	c #892022",
"{:@	c #882021",
"]:@	c #892021",
"^:@	c #8A2020",
"/:@	c #8B201F",
"(:@	c #7B1817",
"_:@	c #7C1818",
"::@	c #7C1E1A",
"<:@	c #7B1716",
"[:@	c #832D2C",
"}:@	c #802A29",
"|:@	c #791C1D",
"1:@	c #7B2020",
"2:@	c #791F1F",
"3:@	c #7A2321",
"4:@	c #855752",
"5:@	c #925B58",
"6:@	c #934D4A",
"7:@	c #9B4B49",
"8:@	c #9D4745",
"9:@	c #A04241",
"0:@	c #9F3636",
"a:@	c #A03636",
"b:@	c #9A3031",
"c:@	c #9C3131",
"d:@	c #9E2F30",
"e:@	c #A23333",
"f:@	c #A23434",
"g:@	c #A73737",
"h:@	c #A53838",
"i:@	c #A63A3A",
"j:@	c #A53535",
"k:@	c #9E3132",
"l:@	c #A03233",
"m:@	c #A13132",
"n:@	c #992C2E",
"o:@	c #A62B2B",
"p:@	c #8B1F1F",
"q:@	c #492422",
"r:@	c #571917",
"s:@	c #601311",
"t:@	c #6B1513",
"u:@	c #6F1513",
"v:@	c #6B1313",
"w:@	c #711717",
"x:@	c #751818",
"y:@	c #761819",
"z:@	c #781B1C",
"A:@	c #741A1B",
"B:@	c #7B2021",
"C:@	c #7D2423",
"D:@	c #7A2424",
"E:@	c #7B2626",
"F:@	c #7F2728",
"G:@	c #7B2324",
"H:@	c #782021",
"I:@	c #7A2021",
"J:@	c #7D2223",
"K:@	c #7C2223",
"L:@	c #7C2625",
"M:@	c #7B2526",
"N:@	c #7E2728",
"O:@	c #7C2829",
"P:@	c #7E2C2B",
"Q:@	c #812D2B",
"R:@	c #772121",
"S:@	c #741B1C",
"T:@	c #701A1B",
"U:@	c #701B1C",
"V:@	c #6F1C1D",
"W:@	c #6F1A1A",
"X:@	c #6B1B1B",
"Y:@	c #772525",
"Z:@	c #5D0C0B",
"`:@	c #590B0A",
" <@	c #5E1516",
".<@	c #611B1C",
"+<@	c #5B1314",
"@<@	c #782C2A",
"#<@	c #60292A",
"$<@	c #583332",
"%<@	c #5D2B29",
"&<@	c #662A2A",
"*<@	c #662A29",
"=<@	c #6A2523",
"-<@	c #6E3030",
";<@	c #873131",
"><@	c #7D2122",
",<@	c #872122",
"'<@	c #862021",
")<@	c #881F1F",
"!<@	c #8B2020",
"~<@	c #8C2020",
"{<@	c #882022",
"]<@	c #851E1F",
"^<@	c #841D1D",
"/<@	c #861D1C",
"(<@	c #87211F",
"_<@	c #882726",
":<@	c #781616",
"<<@	c #7C2320",
"[<@	c #7C2221",
"}<@	c #741718",
"|<@	c #85524D",
"1<@	c #8D5A57",
"2<@	c #924E4B",
"3<@	c #9C4C4B",
"4<@	c #9D4847",
"5<@	c #A04443",
"6<@	c #A03D3D",
"7<@	c #A43C3C",
"8<@	c #A13938",
"9<@	c #9E3030",
"0<@	c #A63737",
"a<@	c #A13335",
"b<@	c #A23132",
"c<@	c #9C2D2E",
"d<@	c #9C3032",
"e<@	c #B72928",
"f<@	c #7D2724",
"g<@	c #6B1312",
"h<@	c #6E1616",
"i<@	c #731719",
"j<@	c #79191B",
"k<@	c #751A1A",
"l<@	c #771A1B",
"m<@	c #751B1C",
"n<@	c #782424",
"o<@	c #7B2727",
"p<@	c #7D2828",
"q<@	c #7E2927",
"r<@	c #7B2123",
"s<@	c #781F21",
"t<@	c #7B2022",
"u<@	c #7D2222",
"v<@	c #782525",
"w<@	c #7B2627",
"x<@	c #7C2E2F",
"y<@	c #7C2F2E",
"z<@	c #822D2B",
"A<@	c #7E2A2A",
"B<@	c #6F1A1B",
"C<@	c #5D0C0C",
"D<@	c #621A1B",
"E<@	c #5F1D1F",
"F<@	c #5F1315",
"G<@	c #621213",
"H<@	c #7D2F2E",
"I<@	c #5E3132",
"J<@	c #5C3734",
"K<@	c #5E2B2B",
"L<@	c #5F2C2A",
"M<@	c #652A2A",
"N<@	c #692829",
"O<@	c #6F2E2D",
"P<@	c #933433",
"Q<@	c #7C2021",
"R<@	c #7E2022",
"S<@	c #7F2222",
"T<@	c #872021",
"U<@	c #851F20",
"V<@	c #811E1F",
"W<@	c #852725",
"X<@	c #7A1818",
"Y<@	c #771615",
"Z<@	c #791D1D",
"`<@	c #751616",
" [@	c #7E4B49",
".[@	c #885856",
"+[@	c #8D4D4B",
"@[@	c #994948",
"#[@	c #9C4947",
"$[@	c #A04543",
"%[@	c #A14341",
"&[@	c #A43F3F",
"*[@	c #A23C3B",
"=[@	c #A33B3A",
"-[@	c #9F3838",
";[@	c #9D3132",
">[@	c #9A2F2F",
",[@	c #A33333",
"'[@	c #A13535",
")[@	c #A43837",
"![@	c #A13837",
"~[@	c #A43938",
"{[@	c #9F3030",
"][@	c #992B2C",
"^[@	c #9A2D2D",
"/[@	c #A62C2C",
"([@	c #902B28",
"_[@	c #451C1B",
":[@	c #541614",
"<[@	c #5E1110",
"[[@	c #631312",
"}[@	c #6A1312",
"|[@	c #671311",
"1[@	c #721818",
"2[@	c #74191A",
"3[@	c #761B1C",
"4[@	c #721D1E",
"5[@	c #762021",
"6[@	c #762122",
"7[@	c #7C2626",
"8[@	c #7B2726",
"9[@	c #772323",
"0[@	c #7A2223",
"a[@	c #781F20",
"b[@	c #761E1F",
"c[@	c #7E2324",
"d[@	c #7D2425",
"e[@	c #772625",
"f[@	c #7A2929",
"g[@	c #7C2A2A",
"h[@	c #7D2929",
"i[@	c #7C2826",
"j[@	c #7E2726",
"k[@	c #792321",
"l[@	c #721A1A",
"m[@	c #6F191A",
"n[@	c #711A1B",
"o[@	c #731D1E",
"p[@	c #6C1B1C",
"q[@	c #5D0D0B",
"r[@	c #5F1718",
"s[@	c #631C1E",
"t[@	c #5D1113",
"u[@	c #631516",
"v[@	c #7B2E2C",
"w[@	c #7C302C",
"x[@	c #5C3735",
"y[@	c #632A2A",
"z[@	c #622626",
"A[@	c #682524",
"B[@	c #7A2D2D",
"C[@	c #7D2022",
"D[@	c #802122",
"E[@	c #832122",
"F[@	c #852021",
"G[@	c #861F20",
"H[@	c #82201C",
"I[@	c #822523",
"J[@	c #81201D",
"K[@	c #781615",
"L[@	c #7A1C15",
"M[@	c #761615",
"N[@	c #7D2827",
"O[@	c #791D1E",
"P[@	c #7A2220",
"Q[@	c #782423",
"R[@	c #753735",
"S[@	c #804C4B",
"T[@	c #8B4C4A",
"U[@	c #934947",
"V[@	c #9E4A48",
"W[@	c #A24140",
"X[@	c #9D3F3E",
"Y[@	c #A53B3B",
"Z[@	c #A23A39",
"`[@	c #A43A3A",
" }@	c #A03434",
".}@	c #9F3232",
"+}@	c #9F3332",
"@}@	c #A23535",
"#}@	c #9F3635",
"$}@	c #A23736",
"%}@	c #A33434",
"&}@	c #A03132",
"*}@	c #A33133",
"=}@	c #9F3032",
"-}@	c #9D2C2D",
";}@	c #972E30",
">}@	c #982E2F",
",}@	c #5B1B18",
"'}@	c #661311",
")}@	c #6A1311",
"!}@	c #761A1A",
"~}@	c #731A1B",
"{}@	c #721A1B",
"]}@	c #761E1E",
"^}@	c #772021",
"/}@	c #772223",
"(}@	c #792425",
"_}@	c #782223",
":}@	c #781E20",
"<}@	c #7B2122",
"[}@	c #792223",
"}}@	c #742020",
"|}@	c #6F1719",
"1}@	c #721B1C",
"2}@	c #6F1A1C",
"3}@	c #681818",
"4}@	c #6F2021",
"5}@	c #651516",
"6}@	c #601213",
"7}@	c #5D1415",
"8}@	c #600B0B",
"9}@	c #5D0E0D",
"0}@	c #631C1D",
"a}@	c #662023",
"b}@	c #601113",
"c}@	c #631314",
"d}@	c #722F2D",
"e}@	c #82302D",
"f}@	c #5D3132",
"g}@	c #5E3633",
"h}@	c #5F3735",
"i}@	c #5F302E",
"j}@	c #67201E",
"k}@	c #662828",
"l}@	c #8F3333",
"m}@	c #7A1F20",
"n}@	c #7E2122",
"o}@	c #822122",
"p}@	c #822021",
"q}@	c #801E1E",
"r}@	c #7D1A1A",
"s}@	c #7F2523",
"t}@	c #751414",
"u}@	c #791A18",
"v}@	c #7B2423",
"w}@	c #7B2926",
"x}@	c #7C2725",
"y}@	c #792523",
"z}@	c #782421",
"A}@	c #751E1C",
"B}@	c #874B47",
"C}@	c #8F4745",
"D}@	c #994846",
"E}@	c #9B4544",
"F}@	c #9E403F",
"G}@	c #A53C3B",
"H}@	c #A33A3A",
"I}@	c #9E3737",
"J}@	c #9E3333",
"K}@	c #9F3333",
"L}@	c #9E3232",
"M}@	c #A03635",
"N}@	c #A33736",
"O}@	c #A03232",
"P}@	c #A02E2F",
"Q}@	c #9B2C2D",
"R}@	c #9C3335",
"S}@	c #992B2E",
"T}@	c #8F2B28",
"U}@	c #551E1D",
"V}@	c #621211",
"W}@	c #691111",
"X}@	c #701818",
"Y}@	c #721919",
"Z}@	c #762324",
"`}@	c #792525",
" |@	c #771E20",
".|@	c #761E20",
"+|@	c #7A2123",
"@|@	c #7F2826",
"#|@	c #7C2B2B",
"$|@	c #792928",
"%|@	c #7A2E2E",
"&|@	c #7C2F2F",
"*|@	c #792E2C",
"=|@	c #691819",
"-|@	c #721E20",
";|@	c #611415",
">|@	c #5E0B0B",
",|@	c #5F0D0C",
"'|@	c #66191B",
")|@	c #611416",
"!|@	c #621214",
"~|@	c #661619",
"{|@	c #631517",
"]|@	c #671213",
"^|@	c #671819",
"/|@	c #81312E",
"(|@	c #82322F",
"_|@	c #5D3734",
":|@	c #60302E",
"<|@	c #6D2B2B",
"[|@	c #742A28",
"}|@	c #75292A",
"||@	c #8A3535",
"1|@	c #872A2B",
"2|@	c #7C2022",
"3|@	c #812122",
"4|@	c #802021",
"5|@	c #811F20",
"6|@	c #831E20",
"7|@	c #801F20",
"8|@	c #7D1F1F",
"9|@	c #7A1917",
"0|@	c #741414",
"a|@	c #761413",
"b|@	c #791E20",
"c|@	c #743F3E",
"d|@	c #814745",
"e|@	c #8C4645",
"f|@	c #974745",
"g|@	c #9A4544",
"h|@	c #9F4443",
"i|@	c #A34140",
"j|@	c #9F3E3C",
"k|@	c #A43C3B",
"l|@	c #A23938",
"m|@	c #A23534",
"n|@	c #A13434",
"o|@	c #9C2F30",
"p|@	c #9D2F30",
"q|@	c #A03032",
"r|@	c #9D2E30",
"s|@	c #9D2A2B",
"t|@	c #993335",
"u|@	c #B02C2A",
"v|@	c #782927",
"w|@	c #641513",
"x|@	c #701919",
"y|@	c #731E1E",
"z|@	c #751C1E",
"A|@	c #721C1D",
"B|@	c #761D1F",
"C|@	c #751F20",
"D|@	c #6C1819",
"E|@	c #6E191B",
"F|@	c #6A181A",
"G|@	c #6D1B1C",
"H|@	c #610C0B",
"I|@	c #61191A",
"J|@	c #63191B",
"K|@	c #651617",
"L|@	c #631618",
"M|@	c #661617",
"N|@	c #813633",
"O|@	c #7A2D2A",
"P|@	c #8B3633",
"Q|@	c #432F2D",
"R|@	c #613C3A",
"S|@	c #5D2D2C",
"T|@	c #6D3433",
"U|@	c #8B3333",
"V|@	c #8F3232",
"W|@	c #7D1F20",
"X|@	c #7F1F20",
"Y|@	c #811E20",
"Z|@	c #801E1F",
"`|@	c #7F1E1F",
" 1@	c #7E2522",
".1@	c #7E2421",
"+1@	c #7C191A",
"@1@	c #7A1F1D",
"#1@	c #781D1B",
"$1@	c #741F1E",
"%1@	c #6E1516",
"&1@	c #691010",
"*1@	c #6D3333",
"=1@	c #7B4140",
"-1@	c #934544",
";1@	c #9D4444",
">1@	c #9D403F",
",1@	c #A24240",
"'1@	c #A03E3D",
")1@	c #A43736",
"!1@	c #A23636",
"~1@	c #9F3131",
"{1@	c #9C2E2E",
"]1@	c #9D2D2E",
"^1@	c #992C2C",
"/1@	c #A32A2A",
"(1@	c #8F2826",
"_1@	c #492220",
":1@	c #511E1B",
"<1@	c #631010",
"[1@	c #671513",
"}1@	c #6C1A1A",
"|1@	c #752525",
"11@	c #741E1F",
"21@	c #782222",
"31@	c #731E1F",
"41@	c #6F1D1E",
"51@	c #741F20",
"61@	c #6F1819",
"71@	c #641618",
"81@	c #5F1517",
"91@	c #5E110F",
"01@	c #5E100F",
"a1@	c #641617",
"b1@	c #641415",
"c1@	c #621415",
"d1@	c #651719",
"e1@	c #631315",
"f1@	c #661415",
"g1@	c #6B1718",
"h1@	c #71201F",
"i1@	c #80312E",
"j1@	c #86322F",
"k1@	c #682626",
"l1@	c #432D2C",
"m1@	c #623C3A",
"n1@	c #5B2F2D",
"o1@	c #672927",
"p1@	c #6B3130",
"q1@	c #863030",
"r1@	c #7A2022",
"s1@	c #7E2021",
"t1@	c #7C1F20",
"u1@	c #7D1E20",
"v1@	c #7C1E20",
"w1@	c #7E1E20",
"x1@	c #7E1D1E",
"y1@	c #7F1F21",
"z1@	c #812021",
"A1@	c #802022",
"B1@	c #7B1B1B",
"C1@	c #771F1E",
"D1@	c #782020",
"E1@	c #7C2220",
"F1@	c #741413",
"G1@	c #721313",
"H1@	c #78221F",
"I1@	c #711C1C",
"J1@	c #752122",
"K1@	c #6F3333",
"L1@	c #823C3C",
"M1@	c #903F3F",
"N1@	c #973E3E",
"O1@	c #9B3C3C",
"P1@	c #A03C3A",
"Q1@	c #A63E3D",
"R1@	c #A54241",
"S1@	c #A53E3D",
"T1@	c #9C3434",
"U1@	c #9C3030",
"V1@	c #9A2D2E",
"W1@	c #9C2C2C",
"X1@	c #9A2B2D",
"Y1@	c #992C2D",
"Z1@	c #AF2D2D",
"`1@	c #54110F",
" 2@	c #611412",
".2@	c #631311",
"+2@	c #711E1F",
"@2@	c #741E1E",
"#2@	c #70191A",
"$2@	c #6D1819",
"%2@	c #6C1A1B",
"&2@	c #69191A",
"*2@	c #681617",
"=2@	c #6A191A",
"-2@	c #5F0F10",
";2@	c #641B1D",
">2@	c #641416",
",2@	c #641517",
"'2@	c #681618",
")2@	c #6E1E1E",
"!2@	c #7A2A27",
"~2@	c #913734",
"{2@	c #592F2F",
"]2@	c #472F2D",
"^2@	c #613A39",
"/2@	c #5B3130",
"(2@	c #5E3636",
"_2@	c #5B302F",
":2@	c #5C312E",
"<2@	c #5E2726",
"[2@	c #682F2F",
"}2@	c #682A27",
"|2@	c #7D2021",
"12@	c #7B1E20",
"22@	c #7B1E1F",
"32@	c #7B1D1E",
"42@	c #7D1D1E",
"52@	c #7D1E1F",
"62@	c #7D1C1D",
"72@	c #761E1D",
"82@	c #771F20",
"92@	c #741516",
"02@	c #7A201F",
"a2@	c #721414",
"b2@	c #711414",
"c2@	c #711A1A",
"d2@	c #6C1818",
"e2@	c #6E3434",
"f2@	c #7C3839",
"g2@	c #973B3B",
"h2@	c #9C3C3C",
"i2@	c #A13D3D",
"j2@	c #9F3B3A",
"k2@	c #A23E3D",
"l2@	c #A44441",
"m2@	c #A74342",
"n2@	c #A34341",
"o2@	c #9F3433",
"p2@	c #9E3434",
"q2@	c #A23837",
"r2@	c #A13636",
"s2@	c #A33636",
"t2@	c #9B3030",
"u2@	c #9E3231",
"v2@	c #9F2F2F",
"w2@	c #9C2E2D",
"x2@	c #9A2B2A",
"y2@	c #922F30",
"z2@	c #A02A28",
"A2@	c #621514",
"B2@	c #5F1110",
"C2@	c #732121",
"D2@	c #772524",
"E2@	c #721B1D",
"F2@	c #751E1E",
"G2@	c #6D1A1B",
"H2@	c #772022",
"I2@	c #621516",
"J2@	c #671618",
"K2@	c #661517",
"L2@	c #772422",
"M2@	c #7D2826",
"N2@	c #82322E",
"O2@	c #903A37",
"P2@	c #85302E",
"Q2@	c #5C2626",
"R2@	c #643F3D",
"S2@	c #623534",
"T2@	c #5C2928",
"U2@	c #943836",
"V2@	c #791F20",
"W2@	c #7A1D1F",
"X2@	c #7A1D1E",
"Y2@	c #7E1F20",
"Z2@	c #7C1C1D",
"`2@	c #771A1A",
" 3@	c #76201F",
".3@	c #741616",
"+3@	c #721614",
"@3@	c #731313",
"#3@	c #693031",
"$3@	c #773637",
"%3@	c #843839",
"&3@	c #913A3A",
"*3@	c #993939",
"=3@	c #9B3B3B",
"-3@	c #9F3C3B",
";3@	c #9C3938",
">3@	c #A03A39",
",3@	c #A0403E",
"'3@	c #A44644",
")3@	c #A3413F",
"!3@	c #9E3332",
"~3@	c #9C3130",
"{3@	c #9A3030",
"]3@	c #9D3130",
"^3@	c #A03432",
"/3@	c #A13736",
"(3@	c #A03534",
"_3@	c #9E2D2D",
":3@	c #952A29",
"<3@	c #962928",
"[3@	c #962B2E",
"}3@	c #962425",
"|3@	c #B12B2A",
"13@	c #752926",
"23@	c #641818",
"33@	c #661414",
"43@	c #6D1C1C",
"53@	c #6D1C1D",
"63@	c #6A1718",
"73@	c #6A1819",
"83@	c #671719",
"93@	c #651416",
"03@	c #641516",
"a3@	c #661718",
"b3@	c #631717",
"c3@	c #661618",
"d3@	c #721F1F",
"e3@	c #762421",
"f3@	c #893330",
"g3@	c #883432",
"h3@	c #5A3030",
"i3@	c #47302E",
"j3@	c #563936",
"k3@	c #643E3C",
"l3@	c #5E3837",
"m3@	c #603736",
"n3@	c #603737",
"o3@	c #5F3232",
"p3@	c #5D2828",
"q3@	c #5D2A28",
"r3@	c #612826",
"s3@	c #642929",
"t3@	c #632C2D",
"u3@	c #8E3736",
"v3@	c #771F21",
"w3@	c #7B1F20",
"x3@	c #7A1E1E",
"y3@	c #7B1E1E",
"z3@	c #7A1C1D",
"A3@	c #751919",
"B3@	c #731C1D",
"C3@	c #701212",
"D3@	c #721212",
"E3@	c #77221F",
"F3@	c #731C1B",
"G3@	c #743435",
"H3@	c #813838",
"I3@	c #953535",
"J3@	c #963636",
"K3@	c #9C3838",
"L3@	c #9D3736",
"M3@	c #A23F3E",
"N3@	c #A4413F",
"O3@	c #9D3030",
"P3@	c #9D2F2F",
"Q3@	c #9A2E2C",
"R3@	c #9B2D2B",
"S3@	c #972D2B",
"T3@	c #982D2C",
"U3@	c #922628",
"V3@	c #A02727",
"W3@	c #651B1A",
"X3@	c #6C1F20",
"Y3@	c #631213",
"Z3@	c #631416",
"`3@	c #661719",
" 4@	c #651214",
".4@	c #69181A",
"+4@	c #6B1617",
"@4@	c #953633",
"#4@	c #8B3433",
"$4@	c #5D2829",
"%4@	c #503736",
"&4@	c #5E3838",
"*4@	c #5B2F2F",
"=4@	c #5C2927",
"-4@	c #5E2B29",
";4@	c #791D1F",
">4@	c #781C1D",
",4@	c #7A1C1E",
"'4@	c #7B1D1F",
")4@	c #6D1111",
"!4@	c #6F1010",
"~4@	c #711313",
"{4@	c #732523",
"]4@	c #6F3132",
"^4@	c #7D3334",
"/4@	c #943233",
"(4@	c #9B3635",
"_4@	c #9F3736",
":4@	c #A2403F",
"<4@	c #9F3D3C",
"[4@	c #9F3837",
"}4@	c #9C2F2F",
"|4@	c #9B2E2F",
"14@	c #9B2F2E",
"24@	c #A03332",
"34@	c #9F3634",
"44@	c #9C3433",
"54@	c #9E3130",
"64@	c #9C2F2E",
"74@	c #982D2B",
"84@	c #99302E",
"94@	c #952D2B",
"04@	c #972B2B",
"a4@	c #962E2F",
"b4@	c #932222",
"c4@	c #B12424",
"d4@	c #7E1918",
"e4@	c #702C2A",
"f4@	c #732E2D",
"g4@	c #722523",
"h4@	c #6A191B",
"i4@	c #691719",
"j4@	c #651717",
"k4@	c #661416",
"l4@	c #6F1919",
"m4@	c #651718",
"n4@	c #651819",
"o4@	c #681315",
"p4@	c #641213",
"q4@	c #661315",
"r4@	c #661819",
"s4@	c #7D2626",
"t4@	c #913836",
"u4@	c #5B3031",
"v4@	c #523B3A",
"w4@	c #5F3839",
"x4@	c #5B312E",
"y4@	c #5D3335",
"z4@	c #781D1F",
"A4@	c #791E1F",
"B4@	c #7E2220",
"C4@	c #721516",
"D4@	c #741919",
"E4@	c #6A1010",
"F4@	c #6B1010",
"G4@	c #711715",
"H4@	c #721413",
"I4@	c #6E1919",
"J4@	c #6B2E2F",
"K4@	c #793233",
"L4@	c #8C3231",
"M4@	c #993534",
"N4@	c #A34241",
"O4@	c #A24342",
"P4@	c #A34543",
"Q4@	c #9B2D2E",
"R4@	c #9C2C2D",
"S4@	c #9A2E2D",
"T4@	c #992D2D",
"U4@	c #9E3533",
"V4@	c #992E2D",
"W4@	c #9B2D2D",
"X4@	c #982E2C",
"Y4@	c #9B302F",
"Z4@	c #9C302D",
"`4@	c #992D2C",
" 5@	c #942E2E",
".5@	c #902322",
"+5@	c #9F2627",
"@5@	c #851817",
"#5@	c #601011",
"$5@	c #681A1A",
"%5@	c #6E2523",
"&5@	c #691B1C",
"*5@	c #6A1719",
"=5@	c #67191B",
"-5@	c #651415",
";5@	c #661213",
">5@	c #671417",
",5@	c #8C2F2D",
"'5@	c #6B2828",
")5@	c #4D2F2E",
"!5@	c #5F3939",
"~5@	c #5D1F1F",
"{5@	c #87302F",
"]5@	c #772122",
"^5@	c #731C1E",
"/5@	c #751D1E",
"(5@	c #761D1E",
"_5@	c #771D1E",
":5@	c #791C1E",
"<5@	c #721514",
"[5@	c #731514",
"}5@	c #731D1C",
"|5@	c #670E0E",
"15@	c #690E0E",
"25@	c #690D0C",
"35@	c #6C1110",
"45@	c #6E1111",
"55@	c #66292B",
"65@	c #743132",
"75@	c #813233",
"85@	c #893131",
"95@	c #913333",
"05@	c #973332",
"a5@	c #993332",
"b5@	c #A23E3C",
"c5@	c #9E2E2E",
"d5@	c #9C2E2F",
"e5@	c #9D2D2D",
"f5@	c #9A2C2C",
"g5@	c #982B2B",
"h5@	c #972D2E",
"i5@	c #9B3230",
"j5@	c #9D3332",
"k5@	c #992B2B",
"l5@	c #9D2C2C",
"m5@	c #9A2F2D",
"n5@	c #9C3230",
"o5@	c #992F2C",
"p5@	c #972B2D",
"q5@	c #942F32",
"r5@	c #932424",
"s5@	c #A92121",
"t5@	c #661918",
"u5@	c #6B1E1E",
"v5@	c #6A1B1C",
"w5@	c #6B1B1C",
"x5@	c #66191A",
"y5@	c #68191A",
"z5@	c #641718",
"A5@	c #6A1619",
"B5@	c #681819",
"C5@	c #651314",
"D5@	c #671516",
"E5@	c #681516",
"F5@	c #671416",
"G5@	c #7F2726",
"H5@	c #8B2B29",
"I5@	c #923532",
"J5@	c #692727",
"K5@	c #642526",
"L5@	c #5C3132",
"M5@	c #513332",
"N5@	c #5E3230",
"O5@	c #5C2E2F",
"P5@	c #5F2726",
"Q5@	c #792B2B",
"R5@	c #812F2D",
"S5@	c #9D3837",
"T5@	c #771B1C",
"U5@	c #741715",
"V5@	c #711D1B",
"W5@	c #680E0E",
"X5@	c #6A0F0F",
"Y5@	c #671415",
"Z5@	c #7F3233",
"`5@	c #853232",
" 6@	c #8D3232",
".6@	c #923435",
"+6@	c #963233",
"@6@	c #993231",
"#6@	c #9D3231",
"$6@	c #9C3332",
"%6@	c #9C2D2D",
"&6@	c #962A29",
"*6@	c #982E2E",
"=6@	c #972F2E",
"-6@	c #992929",
";6@	c #9B2B2B",
">6@	c #9A2D2C",
",6@	c #9C2F2D",
"'6@	c #922D2E",
")6@	c #641A1A",
"!6@	c #671B1B",
"~6@	c #743331",
"{6@	c #6F2A29",
"]6@	c #712423",
"^6@	c #671A1A",
"/6@	c #5F1314",
"(6@	c #681719",
"_6@	c #641314",
":6@	c #812826",
"<6@	c #89312F",
"[6@	c #5D2A2B",
"}6@	c #503230",
"|6@	c #5F3335",
"16@	c #5A2826",
"26@	c #5B2A29",
"36@	c #5C2625",
"46@	c #761F20",
"56@	c #731412",
"66@	c #701313",
"76@	c #670D0D",
"86@	c #660D0C",
"96@	c #670D0C",
"06@	c #680D0D",
"a6@	c #69100E",
"b6@	c #6B100F",
"c6@	c #611012",
"d6@	c #611F20",
"e6@	c #6E2F30",
"f6@	c #7C3132",
"g6@	c #993535",
"h6@	c #993130",
"i6@	c #9B3231",
"j6@	c #9B2C2B",
"k6@	c #982A2A",
"l6@	c #9A2B2B",
"m6@	c #972929",
"n6@	c #982A29",
"o6@	c #962B2A",
"p6@	c #993331",
"q6@	c #9A302F",
"r6@	c #992A2A",
"s6@	c #9C2D2C",
"t6@	c #9B2E2D",
"u6@	c #9D302F",
"v6@	c #95292B",
"w6@	c #8E2A2B",
"x6@	c #922B2D",
"y6@	c #922425",
"z6@	c #AB1B18",
"A6@	c #621716",
"B6@	c #641D1B",
"C6@	c #641B1A",
"D6@	c #671C1D",
"E6@	c #6D1B1D",
"F6@	c #69181B",
"G6@	c #6A1517",
"H6@	c #6B191B",
"I6@	c #681416",
"J6@	c #6A1415",
"K6@	c #711A1C",
"L6@	c #7A2A29",
"M6@	c #852E2B",
"N6@	c #883330",
"O6@	c #682728",
"P6@	c #543130",
"Q6@	c #5F3331",
"R6@	c #5E2727",
"S6@	c #72191A",
"T6@	c #721E1F",
"U6@	c #731F1F",
"V6@	c #701513",
"W6@	c #6F1313",
"X6@	c #6E1716",
"Y6@	c #6B1110",
"Z6@	c #670E0C",
"`6@	c #680E0C",
" 7@	c #660D0D",
".7@	c #670E0F",
"+7@	c #681110",
"@7@	c #783132",
"#7@	c #833233",
"$7@	c #8B3536",
"%7@	c #923738",
"&7@	c #973737",
"*7@	c #992F2D",
"=7@	c #992A2B",
"-7@	c #962828",
";7@	c #982929",
">7@	c #962727",
",7@	c #98292A",
"'7@	c #9A292B",
")7@	c #982C2A",
"!7@	c #9B2F2D",
"~7@	c #902829",
"{7@	c #93292B",
"]7@	c #9D1D1D",
"^7@	c #861817",
"/7@	c #631C1A",
"(7@	c #6D2827",
"_7@	c #691618",
":7@	c #711819",
"<7@	c #822E2B",
"[7@	c #842D2A",
"}7@	c #563230",
"|7@	c #603132",
"17@	c #953231",
"27@	c #6E1819",
"37@	c #701F1F",
"47@	c #721F20",
"57@	c #6F1413",
"67@	c #6E1312",
"77@	c #701414",
"87@	c #6F1616",
"97@	c #690D0D",
"07@	c #670E0D",
"a7@	c #680D0C",
"b7@	c #650D0C",
"c7@	c #650C0C",
"d7@	c #651517",
"e7@	c #732F30",
"f7@	c #893434",
"g7@	c #923839",
"h7@	c #963839",
"i7@	c #983737",
"j7@	c #9D3938",
"k7@	c #983433",
"l7@	c #952F2E",
"m7@	c #972727",
"n7@	c #952526",
"o7@	c #962626",
"p7@	c #952827",
"q7@	c #942727",
"r7@	c #972C2B",
"s7@	c #99302D",
"t7@	c #9A2C2B",
"u7@	c #99292A",
"v7@	c #972829",
"w7@	c #992829",
"x7@	c #982C2B",
"y7@	c #952726",
"z7@	c #8F2D2F",
"A7@	c #8F2224",
"B7@	c #AD1C1B",
"C7@	c #771614",
"D7@	c #651B1B",
"E7@	c #661B1B",
"F7@	c #671B1A",
"G7@	c #6C2626",
"H7@	c #5E1314",
"I7@	c #601214",
"J7@	c #7B2223",
"K7@	c #6D1617",
"L7@	c #6C181A",
"M7@	c #6D1618",
"N7@	c #903430",
"O7@	c #632727",
"P7@	c #572F30",
"Q7@	c #5A322F",
"R7@	c #5D2F2D",
"S7@	c #79302F",
"T7@	c #6C1718",
"U7@	c #6F2122",
"V7@	c #712022",
"W7@	c #6D1312",
"X7@	c #6D1311",
"Y7@	c #670D0B",
"Z7@	c #6F2D2D",
"`7@	c #7D3030",
" 8@	c #923636",
".8@	c #9A3939",
"+8@	c #9B3B3A",
"@8@	c #9A3635",
"#8@	c #9A3331",
"$8@	c #973230",
"%8@	c #983230",
"&8@	c #932625",
"*8@	c #952525",
"=8@	c #912525",
"-8@	c #942627",
";8@	c #942626",
">8@	c #962728",
",8@	c #982728",
"'8@	c #972B2A",
")8@	c #902A2B",
"!8@	c #922527",
"~8@	c #90292C",
"{8@	c #9D1E1F",
"]8@	c #891817",
"^8@	c #5B1F1F",
"/8@	c #661C1D",
"(8@	c #6B2B2A",
"_8@	c #631D1B",
":8@	c #6B1719",
"<8@	c #6C1719",
"[8@	c #70191B",
"}8@	c #6C1A1D",
"|8@	c #6F1B1D",
"18@	c #6C1618",
"28@	c #6E1A1C",
"38@	c #6A1618",
"48@	c #6D191B",
"58@	c #6B181A",
"68@	c #6F1617",
"78@	c #7E2E2C",
"88@	c #953634",
"98@	c #612A2B",
"08@	c #852E2E",
"a8@	c #6B1716",
"b8@	c #6B1817",
"c8@	c #6E2829",
"d8@	c #6C2021",
"e8@	c #650C0B",
"f8@	c #620C0C",
"g8@	c #630E0E",
"h8@	c #5F1617",
"i8@	c #7B2D2E",
"j8@	c #822E2F",
"k8@	c #913334",
"l8@	c #953435",
"m8@	c #9A3534",
"n8@	c #993330",
"o8@	c #952626",
"p8@	c #932525",
"q8@	c #982F2D",
"r8@	c #972E2C",
"s8@	c #992E2B",
"t8@	c #962C2A",
"u8@	c #982A2B",
"v8@	c #972828",
"w8@	c #992727",
"x8@	c #992A29",
"y8@	c #912728",
"z8@	c #8E1C1E",
"A8@	c #771514",
"B8@	c #612120",
"C8@	c #711C1E",
"D8@	c #6E1B1D",
"E8@	c #6D1719",
"F8@	c #8B312F",
"G8@	c #983935",
"H8@	c #583031",
"I8@	c #5B2222",
"J8@	c #6C2727",
"K8@	c #691E1F",
"L8@	c #691211",
"M8@	c #6A1310",
"N8@	c #701A19",
"O8@	c #670F0E",
"P8@	c #650B0A",
"Q8@	c #5F0E0E",
"R8@	c #601617",
"S8@	c #812C2C",
"T8@	c #882F2F",
"U8@	c #963434",
"V8@	c #963535",
"W8@	c #983331",
"X8@	c #993431",
"Y8@	c #942E2C",
"Z8@	c #952B2A",
"`8@	c #952728",
" 9@	c #932D2C",
".9@	c #982627",
"+9@	c #982928",
"@9@	c #9A2D2B",
"#9@	c #942A2B",
"$9@	c #902D2E",
"%9@	c #912324",
"&9@	c #90272A",
"*9@	c #9D1B1C",
"=9@	c #8B1917",
"-9@	c #380F0E",
";9@	c #6E1719",
">9@	c #6D1A1C",
",9@	c #711B1D",
"'9@	c #72191B",
")9@	c #902D2B",
"!9@	c #823332",
"~9@	c #662826",
"{9@	c #5E2E2C",
"]9@	c #5D2928",
"^9@	c #862828",
"/9@	c #691D1E",
"(9@	c #6A1516",
"_9@	c #68110F",
":9@	c #660C0C",
"<9@	c #712829",
"[9@	c #963030",
"}9@	c #9A3230",
"|9@	c #98312F",
"19@	c #932425",
"29@	c #902425",
"39@	c #922525",
"49@	c #932626",
"59@	c #962829",
"69@	c #932829",
"79@	c #962A2B",
"89@	c #932B2A",
"99@	c #992C2B",
"09@	c #8C1F1F",
"a9@	c #AE1D1C",
"b9@	c #741515",
"c9@	c #5F1E1C",
"d9@	c #5C1112",
"e9@	c #71191B",
"f9@	c #6C191B",
"g9@	c #6F1718",
"h9@	c #711718",
"i9@	c #742122",
"j9@	c #762123",
"k9@	c #722B2B",
"l9@	c #5A3132",
"m9@	c #6C2828",
"n9@	c #661010",
"o9@	c #6B1311",
"p9@	c #640D0D",
"q9@	c #630C0A",
"r9@	c #620B0A",
"s9@	c #6D2B2C",
"t9@	c #8F2C2D",
"u9@	c #942F2D",
"v9@	c #98302E",
"w9@	c #932526",
"x9@	c #922729",
"y9@	c #95292A",
"z9@	c #952E2F",
"A9@	c #942F2F",
"B9@	c #972728",
"C9@	c #992B2A",
"D9@	c #952B2C",
"E9@	c #8C2425",
"F9@	c #8B1D1D",
"G9@	c #9A1C1C",
"H9@	c #891918",
"I9@	c #5E1515",
"J9@	c #6B1618",
"K9@	c #6F1C1E",
"L9@	c #721A1D",
"M9@	c #731D1F",
"N9@	c #7F2526",
"O9@	c #5E2829",
"P9@	c #422A29",
"Q9@	c #582C2A",
"R9@	c #5D312E",
"S9@	c #A73433",
"T9@	c #651918",
"U9@	c #6D2828",
"V9@	c #641010",
"W9@	c #630F0D",
"X9@	c #6C292A",
"Y9@	c #792D2E",
"Z9@	c #922B29",
"`9@	c #97302E",
" 0@	c #932827",
".0@	c #942827",
"+0@	c #8F2425",
"@0@	c #912325",
"#0@	c #92282A",
"$0@	c #962A2C",
"%0@	c #962F30",
"&0@	c #8D2526",
"*0@	c #942525",
"=0@	c #922928",
"-0@	c #942C2D",
";0@	c #8D2629",
">0@	c #891D1F",
",0@	c #AC1C1B",
"'0@	c #5A2323",
")0@	c #5C1010",
"!0@	c #6A1416",
"~0@	c #6D181A",
"{0@	c #711A1D",
"]0@	c #6E181A",
"^0@	c #741A1C",
"/0@	c #7E2325",
"(0@	c #5A3334",
"_0@	c #422828",
":0@	c #893432",
"<0@	c #AD3432",
"[0@	c #630C0B",
"}0@	c #630B0A",
"|0@	c #5F0D0E",
"10@	c #742B2C",
"20@	c #7F3031",
"30@	c #8A2828",
"40@	c #942A29",
"50@	c #902725",
"60@	c #8F2527",
"70@	c #912A2B",
"80@	c #952D2E",
"90@	c #94302F",
"00@	c #932D2E",
"a0@	c #891D1E",
"b0@	c #9B1817",
"c0@	c #8D1B1B",
"d0@	c #591C1B",
"e0@	c #72181A",
"f0@	c #6F1C1F",
"g0@	c #701A1C",
"h0@	c #6F191B",
"i0@	c #711D1E",
"j0@	c #721819",
"k0@	c #781D20",
"l0@	c #742022",
"m0@	c #7E2423",
"n0@	c #8C2A29",
"o0@	c #6B2C2C",
"p0@	c #5F292A",
"q0@	c #442828",
"r0@	c #592E2B",
"s0@	c #802E2E",
"t0@	c #852527",
"u0@	c #5F1210",
"v0@	c #5E1210",
"w0@	c #641816",
"x0@	c #5D1213",
"y0@	c #722E2F",
"z0@	c #7E2526",
"A0@	c #8E2827",
"B0@	c #8D2726",
"C0@	c #8D2826",
"D0@	c #942E2D",
"E0@	c #902527",
"F0@	c #8F2729",
"G0@	c #932B2C",
"H0@	c #943030",
"I0@	c #8F2626",
"J0@	c #992828",
"K0@	c #943131",
"L0@	c #8F2625",
"M0@	c #8C2426",
"N0@	c #881D1B",
"O0@	c #711D1F",
"P0@	c #701C1E",
"Q0@	c #701718",
"R0@	c #92302E",
"S0@	c #5C3434",
"T0@	c #472A28",
"U0@	c #5A2F2C",
"V0@	c #592222",
"W0@	c #7A2C2C",
"X0@	c #630F0E",
"Y0@	c #600C0B",
"Z0@	c #610F0E",
"`0@	c #5E1011",
" a@	c #692223",
".a@	c #6F2C2C",
"+a@	c #8B2827",
"@a@	c #912B2A",
"#a@	c #912726",
"$a@	c #8D2425",
"%a@	c #90282A",
"&a@	c #923030",
"*a@	c #8F2829",
"=a@	c #982827",
"-a@	c #8A1D1C",
";a@	c #941614",
">a@	c #8C1B19",
",a@	c #531311",
"'a@	c #54100E",
")a@	c #751D1F",
"!a@	c #701819",
"~a@	c #741C1E",
"{a@	c #721D1F",
"]a@	c #642F2F",
"^a@	c #472C2A",
"/a@	c #592928",
"(a@	c #9C2728",
"_a@	c #4E0B0B",
":a@	c #74292A",
"<a@	c #892927",
"[a@	c #8B2927",
"}a@	c #902C2B",
"|a@	c #922D2C",
"1a@	c #8E2625",
"2a@	c #963333",
"3a@	c #952F2F",
"4a@	c #922524",
"5a@	c #983C3A",
"6a@	c #903232",
"7a@	c #8B1F20",
"8a@	c #AC1715",
"9a@	c #561816",
"0a@	c #531614",
"aa@	c #721B1E",
"ba@	c #731A1C",
"ca@	c #731B1D",
"da@	c #7C2726",
"ea@	c #7E292A",
"fa@	c #662324",
"ga@	c #672A2B",
"ha@	c #4B2E2C",
"ia@	c #582827",
"ja@	c #5A2726",
"ka@	c #5A2424",
"la@	c #5C2525",
"ma@	c #7D1816",
"na@	c #5C1210",
"oa@	c #5D1210",
"pa@	c #5E0F0E",
"qa@	c #5E0D0E",
"ra@	c #5D0D0E",
"sa@	c #722D2D",
"ta@	c #8E2A28",
"ua@	c #8C2927",
"va@	c #912D2B",
"wa@	c #922E2D",
"xa@	c #8E2527",
"ya@	c #932C2D",
"za@	c #8D2423",
"Aa@	c #902524",
"Ba@	c #922625",
"Ca@	c #962726",
"Da@	c #942B2A",
"Ea@	c #9A3A39",
"Fa@	c #891E1F",
"Ga@	c #871A1A",
"Ha@	c #96191A",
"Ia@	c #8C1A18",
"Ja@	c #511311",
"Ka@	c #7A1E20",
"La@	c #741A1D",
"Ma@	c #761B1D",
"Na@	c #741D1F",
"Oa@	c #751E20",
"Pa@	c #6B2324",
"Qa@	c #613030",
"Ra@	c #5A2828",
"Sa@	c #5A2525",
"Ta@	c #842223",
"Ua@	c #580B0B",
"Va@	c #520B0B",
"Wa@	c #792627",
"Xa@	c #8E2B28",
"Ya@	c #902D2C",
"Za@	c #8D2C2B",
"`a@	c #8D2523",
" b@	c #912625",
".b@	c #993938",
"+b@	c #8F2F2E",
"@b@	c #8D2827",
"#b@	c #871717",
"$b@	c #7B1213",
"%b@	c #AC1717",
"&b@	c #571D1C",
"*b@	c #551816",
"=b@	c #501412",
"-b@	c #721A1C",
";b@	c #771C1D",
">b@	c #792022",
",b@	c #751C1F",
"'b@	c #933231",
")b@	c #662526",
"!b@	c #593536",
"~b@	c #5A2B28",
"{b@	c #592727",
"]b@	c #782C2C",
"^b@	c #861E1F",
"/b@	c #5B1210",
"(b@	c #5C0E0D",
"_b@	c #5E0F10",
":b@	c #5A0E0F",
"<b@	c #570E10",
"[b@	c #520D0E",
"}b@	c #8A2827",
"|b@	c #8E2B29",
"1b@	c #902D2A",
"2b@	c #932E2D",
"3b@	c #922F2D",
"4b@	c #932F2E",
"5b@	c #912C2C",
"6b@	c #8E2425",
"7b@	c #983232",
"8b@	c #93292A",
"9b@	c #942829",
"0b@	c #983636",
"ab@	c #9A3837",
"bb@	c #871C1C",
"cb@	c #931512",
"db@	c #8E1B19",
"eb@	c #3C1B1C",
"fb@	c #781E21",
"gb@	c #781C1F",
"hb@	c #7C1F21",
"ib@	c #7C1F22",
"jb@	c #822C2C",
"kb@	c #692828",
"lb@	c #613031",
"mb@	c #4E312E",
"nb@	c #582727",
"ob@	c #592324",
"pb@	c #7F2E2E",
"qb@	c #5E0E0D",
"rb@	c #5F0F0D",
"sb@	c #5C0E0F",
"tb@	c #560A0A",
"ub@	c #8D2B29",
"vb@	c #922E2C",
"wb@	c #942F2E",
"xb@	c #8D2627",
"yb@	c #95302F",
"zb@	c #932E2C",
"Ab@	c #94292A",
"Bb@	c #922829",
"Cb@	c #912927",
"Db@	c #983838",
"Eb@	c #8A1E1D",
"Fb@	c #7F1413",
"Gb@	c #7A0F0F",
"Hb@	c #9F1615",
"Ib@	c #771A18",
"Jb@	c #551513",
"Kb@	c #4B100E",
"Lb@	c #781C1E",
"Mb@	c #78191B",
"Nb@	c #791E21",
"Ob@	c #7C2123",
"Pb@	c #7D1F21",
"Qb@	c #7A1F21",
"Rb@	c #7D2023",
"Sb@	c #822224",
"Tb@	c #7E2123",
"Ub@	c #802427",
"Vb@	c #7F2A2A",
"Wb@	c #8D2F2D",
"Xb@	c #682C2D",
"Yb@	c #593335",
"Zb@	c #4E2F2E",
"`b@	c #582828",
" c@	c #9E393B",
".c@	c #5D110F",
"+c@	c #5E100E",
"@c@	c #590E0F",
"#c@	c #6D1010",
"$c@	c #6D2425",
"%c@	c #832625",
"&c@	c #912524",
"*c@	c #8E2726",
"=c@	c #831819",
"-c@	c #821313",
";c@	c #921413",
">c@	c #8D1C1A",
",c@	c #3C1517",
"'c@	c #501E1E",
")c@	c #4F2020",
"!c@	c #571E1C",
"~c@	c #561311",
"{c@	c #6E1718",
"]c@	c #791B1D",
"^c@	c #751B1D",
"/c@	c #771D1F",
"(c@	c #781F22",
"_c@	c #7C1D1F",
":c@	c #802223",
"<c@	c #812125",
"[c@	c #7F2022",
"}c@	c #812325",
"|c@	c #802426",
"1c@	c #812728",
"2c@	c #882D2A",
"3c@	c #923230",
"4c@	c #852C2B",
"5c@	c #55312F",
"6c@	c #582927",
"7c@	c #582424",
"8c@	c #9B3636",
"9c@	c #8A2C30",
"0c@	c #5B100E",
"ac@	c #5C100E",
"bc@	c #5C0D0C",
"cc@	c #590D0C",
"dc@	c #4F0A0B",
"ec@	c #782728",
"fc@	c #8D2725",
"gc@	c #8D2527",
"hc@	c #933737",
"ic@	c #973839",
"jc@	c #841918",
"kc@	c #7D100F",
"lc@	c #7A0F0E",
"mc@	c #9D1917",
"nc@	c #761D1A",
"oc@	c #3A1415",
"pc@	c #3E1315",
"qc@	c #4E1210",
"rc@	c #751A1C",
"sc@	c #7B1C1E",
"tc@	c #791F21",
"uc@	c #7F2223",
"vc@	c #802123",
"wc@	c #882627",
"xc@	c #842927",
"yc@	c #682B2B",
"zc@	c #532F2E",
"Ac@	c #AD3939",
"Bc@	c #922A2C",
"Cc@	c #8A2223",
"Dc@	c #7D1717",
"Ec@	c #560F10",
"Fc@	c #560B0C",
"Gc@	c #500A0B",
"Hc@	c #672223",
"Ic@	c #6E2627",
"Jc@	c #8F2B29",
"Kc@	c #902726",
"Lc@	c #8F2627",
"Mc@	c #8D2728",
"Nc@	c #8E2C2D",
"Oc@	c #8E2D2D",
"Pc@	c #902C2D",
"Qc@	c #91292A",
"Rc@	c #943435",
"Sc@	c #881D1D",
"Tc@	c #81191B",
"Uc@	c #7E1110",
"Vc@	c #901513",
"Wc@	c #97221E",
"Xc@	c #381D1B",
"Yc@	c #3A1516",
"Zc@	c #3E1718",
"`c@	c #54201F",
" d@	c #531513",
".d@	c #4C100E",
"+d@	c #6F1517",
"@d@	c #781B1D",
"#d@	c #812123",
"$d@	c #802225",
"%d@	c #832325",
"&d@	c #852628",
"*d@	c #842829",
"=d@	c #5B2D2E",
"-d@	c #53302E",
";d@	c #5A302D",
">d@	c #582D2B",
",d@	c #562A28",
"'d@	c #562625",
")d@	c #5A2626",
"!d@	c #842F2E",
"~d@	c #8B292B",
"{d@	c #8A2222",
"]d@	c #8B2224",
"^d@	c #611816",
"/d@	c #590F0D",
"(d@	c #560F11",
"_d@	c #551012",
":d@	c #531214",
"<d@	c #530A0A",
"[d@	c #500C0D",
"}d@	c #47090A",
"|d@	c #791515",
"1d@	c #882725",
"2d@	c #8D2C2A",
"3d@	c #8E292A",
"4d@	c #8D2B2C",
"5d@	c #913131",
"6d@	c #831A19",
"7d@	c #7B1313",
"8d@	c #791212",
"9d@	c #961816",
"0d@	c #711719",
"ad@	c #7C1C1E",
"bd@	c #822325",
"cd@	c #852627",
"dd@	c #862929",
"ed@	c #943332",
"fd@	c #6B2929",
"gd@	c #5B3334",
"hd@	c #53312F",
"id@	c #572A28",
"jd@	c #572625",
"kd@	c #8C3230",
"ld@	c #A93937",
"md@	c #8B2A2D",
"nd@	c #540C0B",
"od@	c #530C0B",
"pd@	c #520E0F",
"qd@	c #541314",
"rd@	c #530F10",
"sd@	c #47080A",
"td@	c #652123",
"ud@	c #6C2425",
"vd@	c #792625",
"wd@	c #8A2927",
"xd@	c #8F2526",
"yd@	c #912C2D",
"zd@	c #953937",
"Ad@	c #7F1E20",
"Bd@	c #7E1413",
"Cd@	c #7D1312",
"Dd@	c #8D1513",
"Ed@	c #351918",
"Fd@	c #381718",
"Gd@	c #6D1211",
"Hd@	c #7C1B1D",
"Id@	c #781A1C",
"Jd@	c #771C1E",
"Kd@	c #7E2224",
"Ld@	c #6C2827",
"Md@	c #572A29",
"Nd@	c #562826",
"Od@	c #592625",
"Pd@	c #8C2123",
"Qd@	c #520D0C",
"Rd@	c #500C0B",
"Sd@	c #530B0A",
"Td@	c #4D0F10",
"Ud@	c #621F21",
"Vd@	c #6A2223",
"Wd@	c #762627",
"Xd@	c #8E2C2A",
"Yd@	c #8A2A2B",
"Zd@	c #8D2829",
"`d@	c #8F292A",
" e@	c #8B2425",
".e@	c #8F3534",
"+e@	c #842425",
"@e@	c #811D1E",
"#e@	c #821B1D",
"$e@	c #7A1211",
"%e@	c #961616",
"&e@	c #481D1D",
"*e@	c #4C1718",
"=e@	c #4A1614",
"-e@	c #7F1D1F",
";e@	c #7D1E21",
">e@	c #6D2928",
",e@	c #54302F",
"'e@	c #582E2C",
")e@	c #562324",
"!e@	c #9C393A",
"~e@	c #8B2629",
"{e@	c #8D2123",
"]e@	c #8D2223",
"^e@	c #510D0C",
"/e@	c #4F0C0B",
"(e@	c #4E0C0C",
"_e@	c #4E0D0B",
":e@	c #500B0B",
"<e@	c #500A0A",
"[e@	c #500C0A",
"}e@	c #4E0C0D",
"|e@	c #871819",
"1e@	c #6B1F21",
"2e@	c #7B2322",
"3e@	c #832322",
"4e@	c #842422",
"5e@	c #862321",
"6e@	c #892223",
"7e@	c #892123",
"8e@	c #8C2A2B",
"9e@	c #8B2A2C",
"0e@	c #892A2B",
"ae@	c #88292B",
"be@	c #8B282A",
"ce@	c #892728",
"de@	c #8B2728",
"ee@	c #801819",
"fe@	c #7E191B",
"ge@	c #790F0F",
"he@	c #8C1313",
"ie@	c #981C1C",
"je@	c #461E1E",
"ke@	c #7B1B1C",
"le@	c #7B1C1D",
"me@	c #832224",
"ne@	c #821F21",
"oe@	c #7F2023",
"pe@	c #812224",
"qe@	c #7E2223",
"re@	c #6C2B2A",
"se@	c #553230",
"te@	c #562424",
"ue@	c #973938",
"ve@	c #912729",
"we@	c #8F2B2E",
"xe@	c #8E2729",
"ye@	c #8B2526",
"ze@	c #791717",
"Ae@	c #4E0C0A",
"Be@	c #4E0B0A",
"Ce@	c #4F0D0C",
"De@	c #8C1919",
"Ee@	c #631F21",
"Fe@	c #6B2122",
"Ge@	c #8B2729",
"He@	c #892627",
"Ie@	c #8B2829",
"Je@	c #8D2D2B",
"Ke@	c #821B1C",
"Le@	c #81191A",
"Me@	c #761111",
"Ne@	c #700E0D",
"Oe@	c #321513",
"Pe@	c #451D1D",
"Qe@	c #711415",
"Re@	c #802224",
"Se@	c #832021",
"Te@	c #832425",
"Ue@	c #801E20",
"Ve@	c #832223",
"We@	c #7F2123",
"Xe@	c #672928",
"Ye@	c #5D3535",
"Ze@	c #553231",
"`e@	c #562827",
" f@	c #572828",
".f@	c #572A2A",
"+f@	c #8B3232",
"@f@	c #A83839",
"#f@	c #9A2C2F",
"$f@	c #912425",
"%f@	c #8F2326",
"&f@	c #701617",
"*f@	c #4D0C0B",
"=f@	c #4F0A0A",
"-f@	c #4F0A09",
";f@	c #4F0B0A",
">f@	c #4C0C0B",
",f@	c #4C0C0C",
"'f@	c #4D0D0C",
")f@	c #4E0C0E",
"!f@	c #660F0E",
"~f@	c #681F21",
"{f@	c #7A2322",
"]f@	c #7F211F",
"^f@	c #872324",
"/f@	c #881F20",
"(f@	c #892526",
"_f@	c #882829",
":f@	c #872627",
"<f@	c #882526",
"[f@	c #8A2728",
"}f@	c #8D3031",
"|f@	c #801D1F",
"1f@	c #7B1212",
"2f@	c #710E0D",
"3f@	c #831310",
"4f@	c #911B1A",
"5f@	c #451D1E",
"6f@	c #801D1E",
"7f@	c #822527",
"8f@	c #842325",
"9f@	c #822426",
"0f@	c #812223",
"af@	c #7E1D1F",
"bf@	c #822D2C",
"cf@	c #622B2C",
"df@	c #563231",
"ef@	c #572928",
"ff@	c #562626",
"gf@	c #853331",
"hf@	c #A83E3F",
"if@	c #982C2F",
"jf@	c #952627",
"kf@	c #92272A",
"lf@	c #902224",
"mf@	c #8D2628",
"nf@	c #4B0C0C",
"of@	c #8A1A1A",
"pf@	c #641F21",
"qf@	c #6C2022",
"rf@	c #7F2220",
"sf@	c #802220",
"tf@	c #872223",
"uf@	c #882224",
"vf@	c #892324",
"wf@	c #882324",
"xf@	c #882427",
"yf@	c #862325",
"zf@	c #872426",
"Af@	c #8C2B2C",
"Bf@	c #8B2B2B",
"Cf@	c #8D3030",
"Df@	c #7C1514",
"Ef@	c #710C0C",
"Ff@	c #941716",
"Gf@	c #321716",
"Hf@	c #7F1D1E",
"If@	c #7F1C1D",
"Jf@	c #7F1A1A",
"Kf@	c #802023",
"Lf@	c #822123",
"Mf@	c #822023",
"Nf@	c #852223",
"Of@	c #872224",
"Pf@	c #832023",
"Qf@	c #812527",
"Rf@	c #852728",
"Sf@	c #593132",
"Tf@	c #563332",
"Uf@	c #562B2A",
"Vf@	c #592B2B",
"Wf@	c #582829",
"Xf@	c #582525",
"Yf@	c #582121",
"Zf@	c #9D3E3D",
"`f@	c #9D3D41",
" g@	c #993437",
".g@	c #942A2D",
"+g@	c #922A2D",
"@g@	c #91282B",
"#g@	c #8C1B1B",
"$g@	c #821D1E",
"%g@	c #501113",
"&g@	c #4B0D0E",
"*g@	c #430808",
"=g@	c #8F1717",
"-g@	c #611E1F",
";g@	c #7F2120",
">g@	c #862324",
",g@	c #872425",
"'g@	c #862728",
")g@	c #852325",
"!g@	c #882628",
"~g@	c #872B29",
"{g@	c #801A1A",
"]g@	c #7A1515",
"^g@	c #740E0E",
"/g@	c #6C0D0B",
"(g@	c #7B100E",
"_g@	c #341614",
":g@	c #83272B",
"<g@	c #7F2125",
"[g@	c #812225",
"}g@	c #7D1B1D",
"|g@	c #7F1A1B",
"1g@	c #842022",
"2g@	c #852224",
"3g@	c #811D1F",
"4g@	c #89282A",
"5g@	c #882728",
"6g@	c #8B2C2B",
"7g@	c #563432",
"8g@	c #582A2A",
"9g@	c #582222",
"0g@	c #AD4343",
"ag@	c #982E32",
"bg@	c #942C2E",
"cg@	c #92262A",
"dg@	c #922C2F",
"eg@	c #8F282A",
"fg@	c #8D1F20",
"gg@	c #7E1819",
"hg@	c #450808",
"ig@	c #8A1A19",
"jg@	c #861D1E",
"kg@	c #80211E",
"lg@	c #82201E",
"mg@	c #852C2A",
"ng@	c #832324",
"og@	c #842324",
"pg@	c #903635",
"qg@	c #751110",
"rg@	c #6F0D0C",
"sg@	c #951714",
"tg@	c #802429",
"ug@	c #7E262A",
"vg@	c #81262A",
"wg@	c #832328",
"xg@	c #802327",
"yg@	c #7E1C1D",
"zg@	c #801F21",
"Ag@	c #882123",
"Bg@	c #862124",
"Cg@	c #822728",
"Dg@	c #5D2F30",
"Eg@	c #582C2B",
"Fg@	c #5A2C2C",
"Gg@	c #582B2C",
"Hg@	c #853431",
"Ig@	c #9F3E3B",
"Jg@	c #AF3F40",
"Kg@	c #9A2A29",
"Lg@	c #922627",
"Mg@	c #93282A",
"Ng@	c #901C1D",
"Og@	c #8F2528",
"Pg@	c #4C0B0A",
"Qg@	c #4D0B0A",
"Rg@	c #6E1211",
"Sg@	c #5E1A1B",
"Tg@	c #631D1E",
"Ug@	c #732324",
"Vg@	c #832526",
"Wg@	c #872E2C",
"Xg@	c #852425",
"Yg@	c #842526",
"Zg@	c #88292A",
"`g@	c #872829",
" h@	c #8A2829",
".h@	c #710F0F",
"+h@	c #6B0D0B",
"@h@	c #6E0E0C",
"#h@	c #8E1818",
"$h@	c #761617",
"%h@	c #831F21",
"&h@	c #80272B",
"*h@	c #832428",
"=h@	c #81252A",
"-h@	c #84272E",
";h@	c #802126",
">h@	c #82252A",
",h@	c #842021",
"'h@	c #7D1B1C",
")h@	c #832123",
"!h@	c #852729",
"~h@	c #573334",
"{h@	c #563433",
"]h@	c #582D2C",
"^h@	c #582B2B",
"/h@	c #552627",
"(h@	c #A64040",
"_h@	c #AD3E3C",
":h@	c #942A2C",
"<h@	c #942427",
"[h@	c #921C1F",
"}h@	c #8E2020",
"|h@	c #781717",
"1h@	c #4A0C0B",
"2h@	c #4C0C0D",
"3h@	c #4B0B0C",
"4h@	c #941B1B",
"5h@	c #601B1D",
"6h@	c #6B2021",
"7h@	c #7A2624",
"8h@	c #7C2524",
"9h@	c #7D2524",
"0h@	c #7F2425",
"ah@	c #883535",
"bh@	c #862829",
"ch@	c #842728",
"dh@	c #89292B",
"eh@	c #88282A",
"fh@	c #6B0C0B",
"gh@	c #951514",
"hh@	c #321918",
"ih@	c #7A1A1B",
"jh@	c #7E1B1E",
"kh@	c #82262C",
"lh@	c #802024",
"mh@	c #83252A",
"nh@	c #81272D",
"oh@	c #822429",
"ph@	c #862527",
"qh@	c #852122",
"rh@	c #811C1D",
"sh@	c #841F21",
"th@	c #811B1C",
"uh@	c #8A2425",
"vh@	c #5C2828",
"wh@	c #543838",
"xh@	c #523432",
"yh@	c #562C2A",
"zh@	c #542626",
"Ah@	c #542423",
"Bh@	c #5D2424",
"Ch@	c #873231",
"Dh@	c #9B3C3A",
"Eh@	c #AA3939",
"Fh@	c #983439",
"Gh@	c #963033",
"Hh@	c #973135",
"Ih@	c #942B2D",
"Jh@	c #922021",
"Kh@	c #4A0F10",
"Lh@	c #490C0D",
"Mh@	c #480A0B",
"Nh@	c #410708",
"Oh@	c #901A1A",
"Ph@	c #5D1A1B",
"Qh@	c #641D1E",
"Rh@	c #772624",
"Sh@	c #7B2523",
"Th@	c #802623",
"Uh@	c #8A3A38",
"Vh@	c #883634",
"Wh@	c #832627",
"Xh@	c #862729",
"Yh@	c #86282A",
"Zh@	c #7E1B1C",
"`h@	c #731111",
" i@	c #700E0E",
".i@	c #670C0B",
"+i@	c #710D0C",
"@i@	c #8E1A1A",
"#i@	c #2E1413",
"$i@	c #7D1919",
"%i@	c #7C1516",
"&i@	c #801415",
"*i@	c #7D191A",
"=i@	c #81181A",
"-i@	c #852124",
";i@	c #822225",
">i@	c #862122",
",i@	c #831D1E",
"'i@	c #861F21",
")i@	c #851D1C",
"!i@	c #801C1E",
"~i@	c #852022",
"{i@	c #533533",
"]i@	c #5F3835",
"^i@	c #562828",
"/i@	c #722A2A",
"(i@	c #833433",
"_i@	c #AB3F41",
":i@	c #97292D",
"<i@	c #97292B",
"[i@	c #972626",
"}i@	c #952223",
"|i@	c #943135",
"1i@	c #490B0A",
"2i@	c #841819",
"3i@	c #5B1719",
"4i@	c #7E2624",
"5i@	c #7E1E1E",
"6i@	c #7C1D1E",
"7i@	c #802526",
"8i@	c #761414",
"9i@	c #680A0A",
"0i@	c #2F1413",
"ai@	c #311412",
"bi@	c #5E1917",
"ci@	c #7F1919",
"di@	c #812023",
"ei@	c #842327",
"fi@	c #811B1D",
"gi@	c #831C1D",
"hi@	c #90302E",
"ii@	c #7C2E2E",
"ji@	c #583233",
"ki@	c #533534",
"li@	c #572D2C",
"mi@	c #542726",
"ni@	c #542424",
"oi@	c #9C3C3B",
"pi@	c #B03E3F",
"qi@	c #9B2A2C",
"ri@	c #97282B",
"si@	c #962124",
"ti@	c #95262A",
"ui@	c #7C1B1E",
"vi@	c #440C0D",
"wi@	c #470C0D",
"xi@	c #470707",
"yi@	c #440708",
"zi@	c #410707",
"Ai@	c #5A1618",
"Bi@	c #5D1A1C",
"Ci@	c #631B1C",
"Di@	c #671D1E",
"Ei@	c #7E1F21",
"Fi@	c #822928",
"Gi@	c #862C2D",
"Hi@	c #7E2625",
"Ii@	c #640C0A",
"Ji@	c #311917",
"Ki@	c #2F1513",
"Li@	c #311715",
"Mi@	c #511D1A",
"Ni@	c #7F1A19",
"Oi@	c #841B1A",
"Pi@	c #831E1F",
"Qi@	c #851D1D",
"Ri@	c #881F1E",
"Si@	c #851D1E",
"Ti@	c #902E2B",
"Ui@	c #90312E",
"Vi@	c #8F3330",
"Wi@	c #5B2728",
"Xi@	c #543637",
"Yi@	c #543534",
"Zi@	c #613937",
"`i@	c #592F2D",
" j@	c #562928",
".j@	c #A33D3C",
"+j@	c #AF403F",
"@j@	c #982B2F",
"#j@	c #962729",
"$j@	c #932426",
"%j@	c #751313",
"&j@	c #470A09",
"*j@	c #460808",
"=j@	c #9C1817",
"-j@	c #5B1A1C",
";j@	c #601B1C",
">j@	c #641B1C",
",j@	c #762422",
"'j@	c #762624",
")j@	c #7F2224",
"!j@	c #7F2426",
"~j@	c #802627",
"{j@	c #873333",
"]j@	c #6D0F0F",
"^j@	c #650A0A",
"/j@	c #921515",
"(j@	c #2D1412",
"_j@	c #301413",
":j@	c #301615",
"<j@	c #3D1819",
"[j@	c #47100E",
"}j@	c #821B1A",
"|j@	c #821B1B",
"1j@	c #831A1A",
"2j@	c #891F1F",
"3j@	c #871D1E",
"4j@	c #933230",
"5j@	c #943533",
"6j@	c #923431",
"7j@	c #963737",
"8j@	c #5B292A",
"9j@	c #513A3B",
"0j@	c #553634",
"aj@	c #5D3532",
"bj@	c #552826",
"cj@	c #552625",
"dj@	c #A13639",
"ej@	c #9B2E31",
"fj@	c #952224",
"gj@	c #932A2E",
"hj@	c #8D2225",
"ij@	c #6C1213",
"jj@	c #450B0C",
"kj@	c #430A0B",
"lj@	c #8A1717",
"mj@	c #58191C",
"nj@	c #5C1A1C",
"oj@	c #732422",
"pj@	c #772523",
"qj@	c #7D1D1F",
"rj@	c #7C2122",
"sj@	c #792122",
"tj@	c #7F1C1B",
"uj@	c #822826",
"vj@	c #680C0C",
"wj@	c #630B0B",
"xj@	c #2E1412",
"yj@	c #301715",
"zj@	c #31110F",
"Aj@	c #821A19",
"Bj@	c #851C1C",
"Cj@	c #821817",
"Dj@	c #851D1B",
"Ej@	c #851B1B",
"Fj@	c #851C1D",
"Gj@	c #872023",
"Hj@	c #852327",
"Ij@	c #871F21",
"Jj@	c #8E2224",
"Kj@	c #94302D",
"Lj@	c #943634",
"Mj@	c #993634",
"Nj@	c #9E3D3B",
"Oj@	c #873332",
"Pj@	c #552F31",
"Qj@	c #553735",
"Rj@	c #833332",
"Sj@	c #9C3E3E",
"Tj@	c #AF4141",
"Uj@	c #9E2E31",
"Vj@	c #992122",
"Wj@	c #972423",
"Xj@	c #942526",
"Yj@	c #891F21",
"Zj@	c #641112",
"`j@	c #440908",
" k@	c #440F10",
".k@	c #450D0E",
"+k@	c #420505",
"@k@	c #400908",
"#k@	c #891717",
"$k@	c #591819",
"%k@	c #661E1F",
"&k@	c #752422",
"*k@	c #7A201E",
"=k@	c #7D1C1E",
"-k@	c #802725",
";k@	c #812627",
">k@	c #7E201E",
",k@	c #812928",
"'k@	c #640A0A",
")k@	c #741111",
"!k@	c #2C1211",
"~k@	c #301714",
"{k@	c #36110F",
"]k@	c #3C1210",
"^k@	c #831616",
"/k@	c #841A19",
"(k@	c #811A19",
"_k@	c #831818",
":k@	c #871E1D",
"<k@	c #881D1E",
"[k@	c #871D1D",
"}k@	c #882124",
"|k@	c #8A2021",
"1k@	c #8F2121",
"2k@	c #8B1D1C",
"3k@	c #8C2423",
"4k@	c #8E2826",
"5k@	c #93312E",
"6k@	c #923533",
"7k@	c #983B38",
"8k@	c #9A3C3C",
"9k@	c #672728",
"0k@	c #5E292A",
"ak@	c #563835",
"bk@	c #582E2D",
"ck@	c #A43F3E",
"dk@	c #B23F3F",
"ek@	c #A02B2E",
"fk@	c #9C2726",
"gk@	c #942426",
"hk@	c #952629",
"ik@	c #440D0E",
"jk@	c #450C0D",
"kk@	c #440B0A",
"lk@	c #430404",
"mk@	c #400504",
"nk@	c #801919",
"ok@	c #59181A",
"pk@	c #591A1D",
"qk@	c #5F1B1D",
"rk@	c #772220",
"sk@	c #7B1B1D",
"tk@	c #842E2F",
"uk@	c #7B2A2A",
"vk@	c #6D100F",
"wk@	c #690C0C",
"xk@	c #630A0A",
"yk@	c #2D1312",
"zk@	c #2E1816",
"Ak@	c #39100E",
"Bk@	c #841515",
"Ck@	c #821918",
"Dk@	c #831919",
"Ek@	c #851919",
"Fk@	c #861C1C",
"Gk@	c #881E1D",
"Hk@	c #891E20",
"Ik@	c #8A2123",
"Jk@	c #8F2222",
"Kk@	c #8E1E20",
"Lk@	c #8B1D1E",
"Mk@	c #8B2423",
"Nk@	c #8E2926",
"Ok@	c #943431",
"Pk@	c #973836",
"Qk@	c #963836",
"Rk@	c #9B3836",
"Sk@	c #993937",
"Tk@	c #633B38",
"Uk@	c #A34040",
"Vk@	c #B04140",
"Wk@	c #A02F30",
"Xk@	c #9D282A",
"Yk@	c #962527",
"Zk@	c #962D30",
"`k@	c #95272A",
" l@	c #841616",
".l@	c #420404",
"+l@	c #400404",
"@l@	c #400405",
"#l@	c #3A0606",
"$l@	c #881616",
"%l@	c #5A191B",
"&l@	c #5F1A1C",
"*l@	c #611B1D",
"=l@	c #682021",
"-l@	c #853030",
";l@	c #812D2C",
">l@	c #803231",
",l@	c #5B0909",
"'l@	c #2E1716",
")l@	c #2F1715",
"!l@	c #2E110F",
"~l@	c #3A110F",
"{l@	c #871918",
"]l@	c #841A18",
"^l@	c #851B1A",
"/l@	c #821716",
"(l@	c #871B1B",
"_l@	c #8A1F1F",
":l@	c #871E1F",
"<l@	c #8A1D1D",
"[l@	c #8C2120",
"}l@	c #8C2021",
"|l@	c #932C29",
"1l@	c #943330",
"2l@	c #953837",
"3l@	c #563131",
"4l@	c #573937",
"5l@	c #633B39",
"6l@	c #542624",
"7l@	c #843030",
"8l@	c #A33F40",
"9l@	c #B44243",
"0l@	c #A32C2E",
"al@	c #9B292B",
"bl@	c #972729",
"cl@	c #931E1E",
"dl@	c #7D1615",
"el@	c #3F0404",
"fl@	c #3D0506",
"gl@	c #59181B",
"hl@	c #5E1A1C",
"il@	c #7B1818",
"jl@	c #7D2625",
"kl@	c #2D1514",
"ll@	c #2E1715",
"ml@	c #2E1210",
"nl@	c #2F1311",
"ol@	c #311513",
"pl@	c #2F0F0E",
"ql@	c #37100E",
"rl@	c #3C110F",
"sl@	c #7D1918",
"tl@	c #851917",
"ul@	c #871C1B",
"vl@	c #841816",
"wl@	c #821919",
"xl@	c #851A19",
"yl@	c #881C1C",
"zl@	c #881A1B",
"Al@	c #8A1E1E",
"Bl@	c #891F20",
"Cl@	c #8C1D1D",
"Dl@	c #891D1D",
"El@	c #8E2120",
"Fl@	c #911F1E",
"Gl@	c #8F2725",
"Hl@	c #953735",
"Il@	c #7B2E2E",
"Jl@	c #533333",
"Kl@	c #563836",
"Ll@	c #653D3A",
"Ml@	c #5D2422",
"Nl@	c #9E3F40",
"Ol@	c #B3403F",
"Pl@	c #9D2A2D",
"Ql@	c #9C2D30",
"Rl@	c #99282D",
"Sl@	c #931919",
"Tl@	c #430505",
"Ul@	c #400505",
"Vl@	c #3E0404",
"Wl@	c #3D0505",
"Xl@	c #360606",
"Yl@	c #701415",
"Zl@	c #5A1A1B",
"`l@	c #842D2C",
" m@	c #843331",
".m@	c #7C2525",
"+m@	c #792322",
"@m@	c #670C0C",
"#m@	c #630D0B",
"$m@	c #2F1412",
"%m@	c #311313",
"&m@	c #330F0D",
"*m@	c #801615",
"=m@	c #841514",
"-m@	c #881A18",
";m@	c #861616",
">m@	c #8A1B1A",
",m@	c #881A1A",
"'m@	c #881E1F",
")m@	c #851A1A",
"!m@	c #891E1D",
"~m@	c #881A19",
"{m@	c #902323",
"]m@	c #8D1E1D",
"^m@	c #912B28",
"/m@	c #923331",
"(m@	c #9A3432",
"_m@	c #8B3332",
":m@	c #5D2B2C",
"<m@	c #513A3A",
"[m@	c #563937",
"}m@	c #653C3A",
"|m@	c #603634",
"1m@	c #832E2F",
"2m@	c #A73E3E",
"3m@	c #B13D3E",
"4m@	c #A22C2E",
"5m@	c #9C2424",
"6m@	c #9B272B",
"7m@	c #982729",
"8m@	c #911E1F",
"9m@	c #3F0405",
"0m@	c #3C0505",
"am@	c #621B1C",
"bm@	c #56181A",
"cm@	c #5D1B1D",
"dm@	c #671F21",
"em@	c #721D1C",
"fm@	c #711C1A",
"gm@	c #7A2324",
"hm@	c #7E2827",
"im@	c #7B2A29",
"jm@	c #6D1A19",
"km@	c #620B0B",
"lm@	c #5D0909",
"mm@	c #2E1817",
"nm@	c #2E1615",
"om@	c #2E100F",
"pm@	c #38100E",
"qm@	c #841313",
"rm@	c #871616",
"sm@	c #871A19",
"tm@	c #891A19",
"um@	c #871919",
"vm@	c #8A1C1C",
"wm@	c #8C1E1E",
"xm@	c #881B1B",
"ym@	c #8A1F1E",
"zm@	c #8B1C1B",
"Am@	c #902020",
"Bm@	c #8D1E1E",
"Cm@	c #8E2725",
"Dm@	c #973331",
"Em@	c #582E2E",
"Fm@	c #563938",
"Gm@	c #663D3B",
"Hm@	c #812E2E",
"Im@	c #9C3B3B",
"Jm@	c #B13B3B",
"Km@	c #A32D2E",
"Lm@	c #A02728",
"Mm@	c #9C272D",
"Nm@	c #97282A",
"Om@	c #8D1B1C",
"Pm@	c #420908",
"Qm@	c #3D0404",
"Rm@	c #3B0607",
"Sm@	c #541D1F",
"Tm@	c #55181A",
"Um@	c #5E1B1C",
"Vm@	c #621D1E",
"Wm@	c #641E20",
"Xm@	c #7B2221",
"Ym@	c #752223",
"Zm@	c #6D1516",
"`m@	c #5F0A09",
" n@	c #550909",
".n@	c #2F1716",
"+n@	c #2D1211",
"@n@	c #7A1413",
"#n@	c #891816",
"$n@	c #891917",
"%n@	c #881615",
"&n@	c #8A1C1B",
"*n@	c #881918",
"=n@	c #8A1B1B",
"-n@	c #861919",
";n@	c #881D1C",
">n@	c #881B1A",
",n@	c #891B1B",
"'n@	c #8B1E1D",
")n@	c #8E1F1F",
"!n@	c #8C1B1A",
"~n@	c #8E1B1A",
"{n@	c #902221",
"]n@	c #932221",
"^n@	c #962826",
"/n@	c #942F2C",
"(n@	c #93312F",
"_n@	c #983432",
":n@	c #543333",
"<n@	c #543A37",
"[n@	c #852F2E",
"}n@	c #AF3535",
"|n@	c #A53435",
"1n@	c #A33438",
"2n@	c #9B262A",
"3n@	c #971F1F",
"4n@	c #851516",
"5n@	c #3C0605",
"6n@	c #3B0606",
"7n@	c #380607",
"8n@	c #511719",
"9n@	c #53181A",
"0n@	c #581C1D",
"an@	c #5B1D1F",
"bn@	c #672326",
"cn@	c #6A282A",
"dn@	c #762B2B",
"en@	c #600909",
"fn@	c #2F1816",
"gn@	c #811616",
"hn@	c #871614",
"in@	c #8B1C1C",
"jn@	c #8D1C1B",
"kn@	c #8C1D1C",
"ln@	c #8F1C1A",
"mn@	c #8D201F",
"nn@	c #901F1F",
"on@	c #931C1B",
"pn@	c #901C1B",
"qn@	c #932724",
"rn@	c #96302E",
"sn@	c #96312F",
"tn@	c #9B3633",
"un@	c #4D3737",
"vn@	c #543A38",
"wn@	c #673D3B",
"xn@	c #613836",
"yn@	c #9A3737",
"zn@	c #B33C3C",
"An@	c #A53132",
"Bn@	c #A22A2D",
"Cn@	c #9B2526",
"Dn@	c #932325",
"En@	c #3A0505",
"Fn@	c #661F20",
"Gn@	c #55191C",
"Hn@	c #581618",
"In@	c #69282A",
"Jn@	c #742121",
"Kn@	c #650E0D",
"Ln@	c #630909",
"Mn@	c #600A0A",
"Nn@	c #2F1817",
"On@	c #311716",
"Pn@	c #2F1312",
"Qn@	c #39110F",
"Rn@	c #841513",
"Sn@	c #881716",
"Tn@	c #861815",
"Un@	c #891716",
"Vn@	c #8C1917",
"Wn@	c #8B1B1A",
"Xn@	c #8E1D1C",
"Yn@	c #8F1D1D",
"Zn@	c #901F1E",
"`n@	c #952321",
" o@	c #942928",
".o@	c #982F2C",
"+o@	c #9E3634",
"@o@	c #9A3734",
"#o@	c #582D2E",
"$o@	c #563A39",
"%o@	c #673E3D",
"&o@	c #5A2423",
"*o@	c #6F2826",
"=o@	c #A83636",
"-o@	c #AC3639",
";o@	c #A73134",
">o@	c #9D2224",
",o@	c #96262A",
"'o@	c #781719",
")o@	c #510A0B",
"!o@	c #52191B",
"~o@	c #53191B",
"{o@	c #581C1F",
"]o@	c #762729",
"^o@	c #751E1D",
"/o@	c #610909",
"(o@	c #5A0A09",
"_o@	c #301514",
":o@	c #771413",
"<o@	c #871513",
"[o@	c #881513",
"}o@	c #8A1817",
"|o@	c #8C1615",
"1o@	c #8A1816",
"2o@	c #8F1B1A",
"3o@	c #911D1C",
"4o@	c #8E1E1C",
"5o@	c #8E1E1E",
"6o@	c #901E1D",
"7o@	c #921D1B",
"8o@	c #912220",
"9o@	c #94201F",
"0o@	c #911E1E",
"ao@	c #962323",
"bo@	c #9C3330",
"co@	c #9C3936",
"do@	c #A33A37",
"eo@	c #652425",
"fo@	c #543131",
"go@	c #593B3A",
"ho@	c #683F3D",
"io@	c #623937",
"jo@	c #592A2A",
"ko@	c #A73738",
"lo@	c #B23739",
"mo@	c #A7373A",
"no@	c #A22728",
"oo@	c #9B2426",
"po@	c #922222",
"qo@	c #4A1618",
"ro@	c #561A1C",
"so@	c #752728",
"to@	c #640B0A",
"uo@	c #630A09",
"vo@	c #530A09",
"wo@	c #401F1F",
"xo@	c #7F1715",
"yo@	c #8A1311",
"zo@	c #8D1614",
"Ao@	c #8C1717",
"Bo@	c #8D1817",
"Co@	c #8A1614",
"Do@	c #8A1919",
"Eo@	c #8E1918",
"Fo@	c #901B19",
"Go@	c #921C1B",
"Ho@	c #8F1C1B",
"Io@	c #921E1D",
"Jo@	c #921B1A",
"Ko@	c #931F1F",
"Lo@	c #941D1C",
"Mo@	c #911918",
"No@	c #92201F",
"Oo@	c #952222",
"Po@	c #922322",
"Qo@	c #9E3633",
"Ro@	c #9C3432",
"So@	c #A33D3A",
"To@	c #913533",
"Uo@	c #692523",
"Vo@	c #5F2929",
"Wo@	c #4E3737",
"Xo@	c #593B3B",
"Yo@	c #842E2E",
"Zo@	c #AD3638",
"`o@	c #B3393B",
" p@	c #A93535",
".p@	c #A22628",
"+p@	c #9B2020",
"@p@	c #922226",
"#p@	c #701010",
"$p@	c #451B1C",
"%p@	c #501D1E",
"&p@	c #541B1C",
"*p@	c #62201D",
"=p@	c #731F20",
"-p@	c #782B2C",
";p@	c #6D1D1F",
">p@	c #6C1516",
",p@	c #5E0A09",
"'p@	c #682527",
")p@	c #6A0F0D",
"!p@	c #6D0F0D",
"~p@	c #731310",
"{p@	c #7A1514",
"]p@	c #7C1513",
"^p@	c #801312",
"/p@	c #811311",
"(p@	c #8B1413",
"_p@	c #8C1514",
":p@	c #8E1513",
"<p@	c #8C1614",
"[p@	c #8D1818",
"}p@	c #8A1514",
"|p@	c #8B1716",
"1p@	c #8D1918",
"2p@	c #901919",
"3p@	c #8D1A19",
"4p@	c #921D1C",
"5p@	c #8F1816",
"6p@	c #921C1A",
"7p@	c #921816",
"8p@	c #97211F",
"9p@	c #931F1E",
"0p@	c #951D1B",
"ap@	c #911917",
"bp@	c #932120",
"cp@	c #962322",
"dp@	c #9D3735",
"ep@	c #A13836",
"fp@	c #A13C39",
"gp@	c #A43D3A",
"hp@	c #923634",
"ip@	c #5A2D2E",
"jp@	c #683F3E",
"kp@	c #562423",
"lp@	c #A83435",
"mp@	c #B43639",
"np@	c #A83034",
"op@	c #A32C2F",
"pp@	c #9C2626",
"qp@	c #93272A",
"rp@	c #532224",
"sp@	c #551F20",
"tp@	c #5F1F1D",
"up@	c #661B19",
"vp@	c #6C1816",
"wp@	c #712728",
"xp@	c #6C1C1D",
"yp@	c #6F1E1F",
"zp@	c #740F0D",
"Ap@	c #7B100D",
"Bp@	c #7C110F",
"Cp@	c #831210",
"Dp@	c #891613",
"Ep@	c #8C1513",
"Fp@	c #8E1716",
"Gp@	c #8F1C19",
"Hp@	c #911615",
"Ip@	c #911C1A",
"Jp@	c #931B19",
"Kp@	c #96211F",
"Lp@	c #981B1A",
"Mp@	c #9E2B2A",
"Np@	c #9B302E",
"Op@	c #A13A38",
"Pp@	c #A13D3B",
"Qp@	c #A73D3A",
"Rp@	c #573131",
"Sp@	c #5A3A39",
"Tp@	c #6A403F",
"Up@	c #633A38",
"Vp@	c #832426",
"Wp@	c #A92E2F",
"Xp@	c #B43638",
"Yp@	c #A72829",
"Zp@	c #A52C2F",
"`p@	c #9E3134",
" q@	c #99292C",
".q@	c #862A2B",
"+q@	c #7A2E2F",
"@q@	c #652B2B",
"#q@	c #5A1D1E",
"$q@	c #5E1E1F",
"%q@	c #712A2B",
"&q@	c #681213",
"*q@	c #7C1212",
"=q@	c #740D0B",
"-q@	c #780F0D",
";q@	c #7B110F",
">q@	c #800F0D",
",q@	c #851210",
"'q@	c #861512",
")q@	c #891412",
"!q@	c #891210",
"~q@	c #8D1512",
"{q@	c #8A1310",
"]q@	c #8B1412",
"^q@	c #8C1411",
"/q@	c #8F1916",
"(q@	c #901715",
"_q@	c #911A1A",
":q@	c #8E1816",
"<q@	c #901815",
"[q@	c #941A19",
"}q@	c #911513",
"|q@	c #95201E",
"1q@	c #921B19",
"2q@	c #981F1E",
"3q@	c #961B1A",
"4q@	c #991A17",
"5q@	c #971D1D",
"6q@	c #9B2220",
"7q@	c #9F2D2C",
"8q@	c #A2403E",
"9q@	c #A63E3C",
"0q@	c #943A38",
"aq@	c #7E312F",
"bq@	c #6A2828",
"cq@	c #593D3B",
"dq@	c #6B423F",
"eq@	c #643B39",
"fq@	c #A53131",
"gq@	c #B32E2F",
"hq@	c #AA3134",
"iq@	c #A22829",
"jq@	c #9D2628",
"kq@	c #9B2F33",
"lq@	c #942222",
"mq@	c #7C2425",
"nq@	c #6A1A1C",
"oq@	c #6D2122",
"pq@	c #6C1416",
"qq@	c #891C1A",
"rq@	c #80100D",
"sq@	c #841210",
"tq@	c #861310",
"uq@	c #89120F",
"vq@	c #88120F",
"wq@	c #8E1411",
"xq@	c #8C110F",
"yq@	c #8F1210",
"zq@	c #8C1311",
"Aq@	c #8F1614",
"Bq@	c #8E1815",
"Cq@	c #911817",
"Dq@	c #951C1A",
"Eq@	c #961C1B",
"Fq@	c #931E1D",
"Gq@	c #941E1C",
"Hq@	c #921A18",
"Iq@	c #95211F",
"Jq@	c #931C1A",
"Kq@	c #961915",
"Lq@	c #941C1A",
"Mq@	c #971F1E",
"Nq@	c #971B19",
"Oq@	c #991D1C",
"Pq@	c #9D2926",
"Qq@	c #9C2B29",
"Rq@	c #A13230",
"Sq@	c #A53835",
"Tq@	c #A54341",
"Uq@	c #A5413F",
"Vq@	c #A33F3C",
"Wq@	c #5C3D3B",
"Xq@	c #6C423F",
"Yq@	c #653B39",
"Zq@	c #B53434",
"`q@	c #AA3031",
" r@	c #A42728",
".r@	c #A02A2D",
"+r@	c #9A1F20",
"@r@	c #982324",
"#r@	c #901E1E",
"$r@	c #8C1817",
"%r@	c #691817",
"&r@	c #6F2325",
"*r@	c #6C1C1E",
"=r@	c #871311",
"-r@	c #891310",
";r@	c #8A110F",
">r@	c #8E1311",
",r@	c #8C110E",
"'r@	c #901311",
")r@	c #8E1413",
"!r@	c #8F110F",
"~r@	c #911614",
"{r@	c #8E1614",
"]r@	c #8D1411",
"^r@	c #8D1413",
"/r@	c #901615",
"(r@	c #8F1513",
"_r@	c #931A18",
":r@	c #951917",
"<r@	c #911815",
"[r@	c #941A17",
"}r@	c #971A19",
"|r@	c #941E1D",
"1r@	c #99201F",
"2r@	c #971D1C",
"3r@	c #9E2625",
"4r@	c #A4302D",
"5r@	c #A33330",
"6r@	c #A83936",
"7r@	c #A5403D",
"8r@	c #A74542",
"9r@	c #A84441",
"0r@	c #A5403E",
"ar@	c #553232",
"br@	c #5C3A39",
"cr@	c #6D4240",
"dr@	c #673C3A",
"er@	c #B73333",
"fr@	c #A92A2A",
"gr@	c #A3282A",
"hr@	c #A02B2F",
"ir@	c #9B1F1F",
"jr@	c #9C2326",
"kr@	c #9A2729",
"lr@	c #992021",
"mr@	c #951E1E",
"nr@	c #631917",
"or@	c #641917",
"pr@	c #6F2526",
"qr@	c #912423",
"rr@	c #8E1512",
"sr@	c #8C1110",
"tr@	c #911210",
"ur@	c #911310",
"vr@	c #951816",
"wr@	c #921614",
"xr@	c #911312",
"yr@	c #8F1412",
"zr@	c #8E1412",
"Ar@	c #8D1615",
"Br@	c #921815",
"Cr@	c #901816",
"Dr@	c #931816",
"Er@	c #941917",
"Fr@	c #931615",
"Gr@	c #961B19",
"Hr@	c #951916",
"Ir@	c #971816",
"Jr@	c #961917",
"Kr@	c #9E1E1C",
"Lr@	c #9B1C1B",
"Mr@	c #9F2322",
"Nr@	c #A02C29",
"Or@	c #A5322F",
"Pr@	c #A43633",
"Qr@	c #A83E3B",
"Rr@	c #A6413D",
"Sr@	c #AB4440",
"Tr@	c #B04441",
"Ur@	c #5C2929",
"Vr@	c #523536",
"Wr@	c #673D3A",
"Xr@	c #592725",
"Yr@	c #B73638",
"Zr@	c #AA2C2D",
"`r@	c #A62C30",
" s@	c #9F292A",
".s@	c #9E2525",
"+s@	c #9E282A",
"@s@	c #9E2527",
"#s@	c #9A2021",
"$s@	c #992220",
"%s@	c #6F2624",
"&s@	c #941816",
"*s@	c #921512",
"=s@	c #921210",
"-s@	c #951412",
";s@	c #941312",
">s@	c #931310",
",s@	c #941513",
"'s@	c #911311",
")s@	c #941715",
"!s@	c #901614",
"~s@	c #921715",
"{s@	c #961715",
"]s@	c #951815",
"^s@	c #971815",
"/s@	c #961918",
"(s@	c #981B18",
"_s@	c #9A1B19",
":s@	c #9F1F1E",
"<s@	c #9C1D1B",
"[s@	c #9C1E1C",
"}s@	c #A02928",
"|s@	c #A33532",
"1s@	c #A83D3A",
"2s@	c #AB4340",
"3s@	c #AE4642",
"4s@	c #AE423F",
"5s@	c #513939",
"6s@	c #5D3F3D",
"7s@	c #6F4442",
"8s@	c #673E3B",
"9s@	c #B23838",
"0s@	c #B83434",
"as@	c #AC3135",
"bs@	c #A12224",
"cs@	c #A12223",
"ds@	c #9F2021",
"es@	c #9D1C1D",
"fs@	c #9F2020",
"gs@	c #9E1B1C",
"hs@	c #9C1B1B",
"is@	c #9B2222",
"js@	c #9A2626",
"ks@	c #6A1615",
"ls@	c #812A2B",
"ms@	c #981411",
"ns@	c #971613",
"os@	c #951513",
"ps@	c #971513",
"qs@	c #941311",
"rs@	c #921211",
"ss@	c #971614",
"ts@	c #931412",
"us@	c #961412",
"vs@	c #931715",
"ws@	c #931513",
"xs@	c #961815",
"ys@	c #931613",
"zs@	c #971715",
"As@	c #971D1B",
"Bs@	c #9B1A17",
"Cs@	c #9E1B19",
"Ds@	c #9E201E",
"Es@	c #A12C2A",
"Fs@	c #A53330",
"Gs@	c #A73B37",
"Hs@	c #AA4340",
"Is@	c #AF4844",
"Js@	c #AC4441",
"Ks@	c #8E3836",
"Ls@	c #573232",
"Ms@	c #5F3D3C",
"Ns@	c #6F4341",
"Os@	c #683D3B",
"Ps@	c #A93939",
"Qs@	c #BB3C3D",
"Rs@	c #AC3436",
"Ss@	c #A02021",
"Ts@	c #9E1E20",
"Us@	c #9E1F20",
"Vs@	c #9D1514",
"Ws@	c #9E1614",
"Xs@	c #9E1B1A",
"Ys@	c #9B1C1C",
"Zs@	c #982222",
"`s@	c #932322",
" t@	c #9D2826",
".t@	c #9E2523",
"+t@	c #9D1513",
"@t@	c #9D1614",
"#t@	c #981614",
"$t@	c #991413",
"%t@	c #961311",
"&t@	c #961512",
"*t@	c #9A1714",
"=t@	c #961714",
"-t@	c #991612",
";t@	c #951614",
">t@	c #951311",
",t@	c #931311",
"'t@	c #961615",
")t@	c #931614",
"!t@	c #9A1D1C",
"~t@	c #9E1C1B",
"{t@	c #9B1917",
"]t@	c #9D1E1D",
"^t@	c #A72F2D",
"/t@	c #A63332",
"(t@	c #A63D3B",
"_t@	c #AB403D",
":t@	c #AC423F",
"<t@	c #A74240",
"[t@	c #6D2929",
"}t@	c #523636",
"|t@	c #643D3B",
"1t@	c #6A3F3C",
"2t@	c #5A2120",
"3t@	c #9D3738",
"4t@	c #BB3434",
"5t@	c #A92929",
"6t@	c #A42526",
"7t@	c #A02221",
"8t@	c #A01F20",
"9t@	c #A01E20",
"0t@	c #9E1714",
"at@	c #9F1B1B",
"bt@	c #9F1B1A",
"ct@	c #9F2122",
"dt@	c #9F1616",
"et@	c #A11714",
"ft@	c #A21C1B",
"gt@	c #A72928",
"ht@	c #992B29",
"it@	c #661412",
"jt@	c #8E201F",
"kt@	c #9D2020",
"lt@	c #9D1F1E",
"mt@	c #9C1413",
"nt@	c #9C1917",
"ot@	c #991411",
"pt@	c #9A1512",
"qt@	c #971512",
"rt@	c #9A1513",
"st@	c #971311",
"tt@	c #971411",
"ut@	c #991412",
"vt@	c #9B1714",
"wt@	c #9A1613",
"xt@	c #981512",
"yt@	c #961411",
"zt@	c #981714",
"At@	c #951613",
"Bt@	c #991814",
"Ct@	c #951312",
"Dt@	c #971312",
"Et@	c #961814",
"Ft@	c #931714",
"Gt@	c #961916",
"Ht@	c #991816",
"It@	c #9A1916",
"Jt@	c #991C1A",
"Kt@	c #9D1A19",
"Lt@	c #9B1815",
"Mt@	c #9D1E1C",
"Nt@	c #9E1F1E",
"Ot@	c #A02322",
"Pt@	c #A52D2C",
"Qt@	c #A33130",
"Rt@	c #A63534",
"St@	c #AD413F",
"Tt@	c #A83F3B",
"Ut@	c #7E302E",
"Vt@	c #5B2C2C",
"Wt@	c #5E3B38",
"Xt@	c #704442",
"Yt@	c #6A3E3C",
"Zt@	c #633533",
"`t@	c #B73B3B",
" u@	c #BC3333",
".u@	c #AC2526",
"+u@	c #A32223",
"@u@	c #A22427",
"#u@	c #A11F20",
"$u@	c #A22020",
"%u@	c #9F1614",
"&u@	c #A21B1B",
"*u@	c #A22123",
"=u@	c #A32322",
"-u@	c #A32120",
";u@	c #A32121",
">u@	c #A11A18",
",u@	c #9C2423",
"'u@	c #AA2B2A",
")u@	c #9F2422",
"!u@	c #9C2928",
"~u@	c #852D2A",
"{u@	c #9C1614",
"]u@	c #9D1411",
"^u@	c #9B1614",
"/u@	c #9B1513",
"(u@	c #991613",
"_u@	c #9A1412",
":u@	c #981513",
"<u@	c #9A1411",
"[u@	c #971511",
"}u@	c #9C1613",
"|u@	c #991614",
"1u@	c #9A1614",
"2u@	c #991714",
"3u@	c #991511",
"4u@	c #971916",
"5u@	c #991815",
"6u@	c #981715",
"7u@	c #981917",
"8u@	c #9B1816",
"9u@	c #9A1A17",
"0u@	c #9B1A18",
"au@	c #A2221D",
"bu@	c #A21E1C",
"cu@	c #A42A2A",
"du@	c #A23130",
"eu@	c #A53533",
"fu@	c #AA3D3B",
"gu@	c #AC3F3D",
"hu@	c #903737",
"iu@	c #583434",
"ju@	c #5D3E3D",
"ku@	c #6B3F3C",
"lu@	c #663534",
"mu@	c #AE3636",
"nu@	c #B83738",
"ou@	c #AB292A",
"pu@	c #A52020",
"qu@	c #A01816",
"ru@	c #A11817",
"su@	c #A21615",
"tu@	c #A41D1D",
"uu@	c #A31C1A",
"vu@	c #A32221",
"wu@	c #A31C1C",
"xu@	c #A42122",
"yu@	c #A62121",
"zu@	c #A52120",
"Au@	c #A11614",
"Bu@	c #A01714",
"Cu@	c #A21916",
"Du@	c #A11A17",
"Eu@	c #A21614",
"Fu@	c #A11B19",
"Gu@	c #A51A19",
"Hu@	c #AC2827",
"Iu@	c #A42523",
"Ju@	c #9A2320",
"Ku@	c #922321",
"Lu@	c #7C2322",
"Mu@	c #932121",
"Nu@	c #981A18",
"Ou@	c #A21C19",
"Pu@	c #A01512",
"Qu@	c #A21613",
"Ru@	c #9C1714",
"Su@	c #9B1511",
"Tu@	c #9D1613",
"Uu@	c #9B1512",
"Vu@	c #9E1815",
"Wu@	c #9B1412",
"Xu@	c #9B1413",
"Yu@	c #9D1715",
"Zu@	c #9C1513",
"`u@	c #991512",
" v@	c #9A1511",
".v@	c #9D1814",
"+v@	c #9B1613",
"@v@	c #9D1A17",
"#v@	c #9B1713",
"$v@	c #9C1915",
"%v@	c #991917",
"&v@	c #9B1916",
"*v@	c #9D1B1A",
"=v@	c #9C1A17",
"-v@	c #9D1B17",
";v@	c #A32320",
">v@	c #A63130",
",v@	c #AB3937",
"'v@	c #A73939",
")v@	c #AA3B39",
"!v@	c #AD3C3A",
"~v@	c #A23D3B",
"{v@	c #513434",
"]v@	c #4F3736",
"^v@	c #683F3C",
"/v@	c #6C3F3D",
"(v@	c #643433",
"_v@	c #622E2C",
":v@	c #AC3637",
"<v@	c #B63637",
"[v@	c #AC2E2E",
"}v@	c #A72322",
"|v@	c #A82627",
"1v@	c #A51C1C",
"2v@	c #A31615",
"3v@	c #A41716",
"4v@	c #A31815",
"5v@	c #A31715",
"6v@	c #A3191A",
"7v@	c #A62120",
"8v@	c #A62021",
"9v@	c #A82221",
"0v@	c #A21716",
"av@	c #A72223",
"bv@	c #A62223",
"cv@	c #A72423",
"dv@	c #A61C1B",
"ev@	c #A21816",
"fv@	c #A21715",
"gv@	c #A51615",
"hv@	c #A61815",
"iv@	c #A52423",
"jv@	c #9F2421",
"kv@	c #932421",
"lv@	c #8C1A1B",
"mv@	c #98201F",
"nv@	c #A0201F",
"ov@	c #A31613",
"pv@	c #A31916",
"qv@	c #9C1512",
"rv@	c #9F1714",
"sv@	c #9E1513",
"tv@	c #A01614",
"uv@	c #9D1512",
"vv@	c #9D1714",
"wv@	c #9E1613",
"xv@	c #9F1613",
"yv@	c #9D1412",
"zv@	c #9F1612",
"Av@	c #9F1815",
"Bv@	c #9C1815",
"Cv@	c #9E1715",
"Dv@	c #9B1915",
"Ev@	c #9E1A17",
"Fv@	c #9C1B18",
"Gv@	c #A32523",
"Hv@	c #A82B28",
"Iv@	c #AA3634",
"Jv@	c #AC3D3B",
"Kv@	c #AA3F3C",
"Lv@	c #AD3F3D",
"Mv@	c #AE4140",
"Nv@	c #4D302F",
"Ov@	c #5A3D3C",
"Pv@	c #6C403D",
"Qv@	c #622C2C",
"Rv@	c #AB3535",
"Sv@	c #BB3535",
"Tv@	c #AB292B",
"Uv@	c #A92727",
"Vv@	c #A71918",
"Wv@	c #A71919",
"Xv@	c #A51715",
"Yv@	c #A61816",
"Zv@	c #A41816",
"`v@	c #A51714",
" w@	c #A41817",
".w@	c #A51816",
"+w@	c #A61E1E",
"@w@	c #A61D1D",
"#w@	c #A82322",
"$w@	c #A81D1C",
"%w@	c #A72020",
"&w@	c #A21714",
"*w@	c #A51815",
"=w@	c #A51A17",
"-w@	c #A61817",
";w@	c #A41916",
">w@	c #A81815",
",w@	c #AA2120",
"'w@	c #A82827",
")w@	c #A32625",
"!w@	c #9A2322",
"~w@	c #A22221",
"{w@	c #A72524",
"]w@	c #A31513",
"^w@	c #A41715",
"/w@	c #A01513",
"(w@	c #9E1514",
"_w@	c #A01815",
":w@	c #A11715",
"<w@	c #9E1512",
"[w@	c #A01715",
"}w@	c #A01514",
"|w@	c #A11916",
"1w@	c #9F1513",
"2w@	c #A11716",
"3w@	c #A11915",
"4w@	c #9F1715",
"5w@	c #A01817",
"6w@	c #9E1A16",
"7w@	c #A42622",
"8w@	c #AB3734",
"9w@	c #AF423F",
"0w@	c #B04542",
"aw@	c #AD4845",
"bw@	c #B24542",
"cw@	c #983B39",
"dw@	c #6D413F",
"ew@	c #B93736",
"fw@	c #BA2E2D",
"gw@	c #AD2525",
"hw@	c #AB2223",
"iw@	c #A92425",
"jw@	c #A91D1C",
"kw@	c #AB2222",
"lw@	c #A8201F",
"mw@	c #AA2223",
"nw@	c #AA2122",
"ow@	c #A71816",
"pw@	c #AA2224",
"qw@	c #AC2321",
"rw@	c #AA1D1D",
"sw@	c #A81D1B",
"tw@	c #A71815",
"uw@	c #A71916",
"vw@	c #A71C1A",
"ww@	c #AA2322",
"xw@	c #A92422",
"yw@	c #A71E1D",
"zw@	c #A61715",
"Aw@	c #AA1E1D",
"Bw@	c #A91C1C",
"Cw@	c #A51817",
"Dw@	c #A51D1C",
"Ew@	c #A61A18",
"Fw@	c #A71A19",
"Gw@	c #AA2524",
"Hw@	c #A92625",
"Iw@	c #A02724",
"Jw@	c #872927",
"Kw@	c #8D1B18",
"Lw@	c #9A1E1E",
"Mw@	c #A71714",
"Nw@	c #A21513",
"Ow@	c #A41714",
"Pw@	c #A11513",
"Qw@	c #A31714",
"Rw@	c #A61916",
"Sw@	c #A31614",
"Tw@	c #A31816",
"Uw@	c #A11613",
"Vw@	c #9F1514",
"Ww@	c #A01613",
"Xw@	c #A21815",
"Yw@	c #9F1713",
"Zw@	c #9F1814",
"`w@	c #9E1916",
" x@	c #9F1A17",
".x@	c #A11C19",
"+x@	c #A6302D",
"@x@	c #B04C48",
"#x@	c #B5524E",
"$x@	c #B1504D",
"%x@	c #B54B48",
"&x@	c #AE4442",
"*x@	c #593E3D",
"=x@	c #6C413F",
"-x@	c #683634",
";x@	c #A73333",
">x@	c #B63332",
",x@	c #AD2828",
"'x@	c #AA2424",
")x@	c #A91816",
"!x@	c #AA1E1C",
"~x@	c #A91B18",
"{x@	c #AA1816",
"]x@	c #A91916",
"^x@	c #A91817",
"/x@	c #A81A18",
"(x@	c #AC2523",
"_x@	c #AE2322",
":x@	c #AC2423",
"<x@	c #AC2323",
"[x@	c #AC2322",
"}x@	c #AA2323",
"|x@	c #A71615",
"1x@	c #AA2222",
"2x@	c #A81817",
"3x@	c #A71917",
"4x@	c #AB2322",
"5x@	c #A71D1C",
"6x@	c #A81916",
"7x@	c #A61614",
"8x@	c #A81715",
"9x@	c #A81A17",
"0x@	c #A71716",
"ax@	c #A81714",
"bx@	c #A82A27",
"cx@	c #A42A28",
"dx@	c #A12727",
"ex@	c #A4201F",
"fx@	c #A82120",
"gx@	c #AB1815",
"hx@	c #AA1916",
"ix@	c #A91714",
"jx@	c #A51916",
"kx@	c #A51614",
"lx@	c #A21713",
"mx@	c #A41815",
"nx@	c #A41613",
"ox@	c #A61917",
"px@	c #A01713",
"qx@	c #A41A18",
"rx@	c #A31B17",
"sx@	c #A31F1B",
"tx@	c #A62D28",
"ux@	c #AF4644",
"vx@	c #B6524D",
"wx@	c #B4534F",
"xx@	c #B75451",
"yx@	c #B64E4A",
"zx@	c #A84340",
"Ax@	c #5E2B2C",
"Bx@	c #503939",
"Cx@	c #503937",
"Dx@	c #6C4240",
"Ex@	c #683534",
"Fx@	c #AF3435",
"Gx@	c #B93131",
"Hx@	c #AF3132",
"Ix@	c #AD2322",
"Jx@	c #AC1E1D",
"Kx@	c #AE2524",
"Lx@	c #AC1A18",
"Mx@	c #AA1A17",
"Nx@	c #AA1A18",
"Ox@	c #AA1A19",
"Px@	c #AD2220",
"Qx@	c #AB1D1B",
"Rx@	c #AE2221",
"Sx@	c #AD2523",
"Tx@	c #AF2322",
"Ux@	c #AF2423",
"Vx@	c #AB1D1D",
"Wx@	c #A71A17",
"Xx@	c #A81816",
"Yx@	c #A91716",
"Zx@	c #A71817",
"`x@	c #AB2120",
" y@	c #AC2222",
".y@	c #A91A17",
"+y@	c #A71715",
"@y@	c #A91A18",
"#y@	c #A91715",
"$y@	c #A71A18",
"%y@	c #AA1917",
"&y@	c #A42322",
"*y@	c #A92321",
"=y@	c #A91B19",
"-y@	c #AA1814",
";y@	c #AC1916",
">y@	c #A61714",
",y@	c #A41814",
"'y@	c #A51A16",
")y@	c #A31915",
"!y@	c #A41713",
"~y@	c #A61814",
"{y@	c #A71814",
"]y@	c #A51A18",
"^y@	c #A71B19",
"/y@	c #A32A26",
"(y@	c #A93936",
"_y@	c #AE3A35",
":y@	c #B6524E",
"<y@	c #B3534F",
"[y@	c #BB5550",
"}y@	c #B44D4A",
"|y@	c #9F403D",
"1y@	c #542F2F",
"2y@	c #4B3A3A",
"3y@	c #493433",
"4y@	c #673B39",
"5y@	c #A33334",
"6y@	c #BE3A3B",
"7y@	c #B23638",
"8y@	c #B02F2F",
"9y@	c #AE2929",
"0y@	c #B12C2B",
"ay@	c #B12627",
"by@	c #AE1B1B",
"cy@	c #AE1E1E",
"dy@	c #AC1B1A",
"ey@	c #AD1918",
"fy@	c #AD1B19",
"gy@	c #AD1917",
"hy@	c #AE1F1E",
"iy@	c #AC1B19",
"jy@	c #AF2625",
"ky@	c #AE2623",
"ly@	c #AC1D1C",
"my@	c #AA1D1B",
"ny@	c #AA1715",
"oy@	c #A81615",
"py@	c #A91815",
"qy@	c #A91814",
"ry@	c #A92827",
"sy@	c #AA2320",
"ty@	c #AB1715",
"uy@	c #A61613",
"vy@	c #A51613",
"wy@	c #A71A16",
"xy@	c #A51814",
"yy@	c #A31713",
"zy@	c #A41614",
"Ay@	c #A61D1C",
"By@	c #AA2221",
"Cy@	c #B03230",
"Dy@	c #AB3230",
"Ey@	c #AF3B38",
"Fy@	c #B33F3B",
"Gy@	c #B14743",
"Hy@	c #B44A47",
"Iy@	c #B1504B",
"Jy@	c #B6534F",
"Ky@	c #B2524D",
"Ly@	c #B85450",
"My@	c #B04A47",
"Ny@	c #933A37",
"Oy@	c #4D3132",
"Py@	c #5E3B39",
"Qy@	c #693837",
"Ry@	c #65302E",
"Sy@	c #B93738",
"Ty@	c #B73A3C",
"Uy@	c #B43533",
"Vy@	c #B22B2B",
"Wy@	c #B23131",
"Xy@	c #B22C2C",
"Yy@	c #B22723",
"Zy@	c #B12324",
"`y@	c #B12221",
" z@	c #AF1C1B",
".z@	c #AF1D1C",
"+z@	c #B22524",
"@z@	c #B01B1A",
"#z@	c #AF1C19",
"$z@	c #AE2423",
"%z@	c #AB1917",
"&z@	c #AD1E1C",
"*z@	c #AB1916",
"=z@	c #AB1816",
"-z@	c #AB1716",
";z@	c #AA1815",
">z@	c #A91917",
",z@	c #AB1814",
"'z@	c #AF1916",
")z@	c #AB1A17",
"!z@	c #A81917",
"~z@	c #A51917",
"{z@	c #A91A19",
"]z@	c #AD1D1C",
"^z@	c #AB1E1D",
"/z@	c #AE2422",
"(z@	c #AF302F",
"_z@	c #B03736",
":z@	c #B23B39",
"<z@	c #B74542",
"[z@	c #B54A48",
"}z@	c #BC534E",
"|z@	c #B8534F",
"1z@	c #B85651",
"2z@	c #B45450",
"3z@	c #B75550",
"4z@	c #B8534E",
"5z@	c #B6504A",
"6z@	c #AF4843",
"7z@	c #4D3838",
"8z@	c #523635",
"9z@	c #B73737",
"0z@	c #C54140",
"az@	c #BA3E3E",
"bz@	c #B73938",
"cz@	c #B83535",
"dz@	c #BA3B39",
"ez@	c #BC3634",
"fz@	c #B83430",
"gz@	c #B73332",
"hz@	c #B42E2E",
"iz@	c #B53634",
"jz@	c #B32523",
"kz@	c #B11D1B",
"lz@	c #AF1A18",
"mz@	c #AD1916",
"nz@	c #AE1916",
"oz@	c #AC1816",
"pz@	c #AB1817",
"qz@	c #AC1917",
"rz@	c #A91915",
"sz@	c #AC1A17",
"tz@	c #AD1816",
"uz@	c #AB1B17",
"vz@	c #AD1A18",
"wz@	c #AE2020",
"xz@	c #AD2120",
"yz@	c #B02221",
"zz@	c #B0322F",
"Az@	c #B53D3A",
"Bz@	c #B33C3A",
"Cz@	c #BA4D49",
"Dz@	c #BD5450",
"Ez@	c #BC5551",
"Fz@	c #BF5753",
"Gz@	c #BA5854",
"Hz@	c #BD5B55",
"Iz@	c #C35753",
"Jz@	c #BA524E",
"Kz@	c #BF534F",
"Lz@	c #BF504C",
"Mz@	c #A3423E",
"Nz@	c #7E332E",
"Oz@	c #602627",
"Pz@	c #553030",
"Qz@	c #4C3A3A",
"Rz@	c #4D3333",
"Sz@	c #6A3A38",
"Tz@	c #5A2523",
"Uz@	c #AA3333",
"Vz@	c #B83737",
"Wz@	c #B63A3A",
"Xz@	c #C4403E",
"Yz@	c #C54141",
"Zz@	c #C24442",
"`z@	c #BF4240",
" A@	c #BE3C3B",
".A@	c #BC3D3B",
"+A@	c #BD4342",
"@A@	c #BA3937",
"#A@	c #BB3734",
"$A@	c #B93432",
"%A@	c #B92F2D",
"&A@	c #B82A29",
"*A@	c #B62221",
"=A@	c #B32423",
"-A@	c #B52526",
";A@	c #B52624",
">A@	c #B01C1A",
",A@	c #B01B18",
"'A@	c #AF1918",
")A@	c #AE1918",
"!A@	c #AE1919",
"~A@	c #AE1816",
"{A@	c #AE1A18",
"]A@	c #AC1815",
"^A@	c #AD1A17",
"/A@	c #AE1917",
"(A@	c #AE1B18",
"_A@	c #AD1A16",
":A@	c #AA1716",
"<A@	c #AE1B19",
"[A@	c #AB1714",
"}A@	c #AE1A17",
"|A@	c #AB1A18",
"1A@	c #AA1915",
"2A@	c #A81915",
"3A@	c #AB1B19",
"4A@	c #B33634",
"5A@	c #B63938",
"6A@	c #B63F3C",
"7A@	c #BA504C",
"8A@	c #BF5955",
"9A@	c #C15955",
"0A@	c #C05A56",
"aA@	c #BD5A56",
"bA@	c #C55C57",
"cA@	c #C55753",
"dA@	c #C55854",
"eA@	c #C55652",
"fA@	c #BF514E",
"gA@	c #BA4B47",
"hA@	c #6A2B29",
"iA@	c #432F2E",
"jA@	c #AA3635",
"kA@	c #B73D3C",
"lA@	c #C23D3C",
"mA@	c #BF4441",
"nA@	c #CB4B49",
"oA@	c #CA4A48",
"pA@	c #C44948",
"qA@	c #C34C4B",
"rA@	c #BF4442",
"sA@	c #C14240",
"tA@	c #C24240",
"uA@	c #C24040",
"vA@	c #BF3B39",
"wA@	c #BB3332",
"xA@	c #BA2E2A",
"yA@	c #B9302F",
"zA@	c #B62322",
"AA@	c #B3201E",
"BA@	c #B52524",
"CA@	c #B21F1F",
"DA@	c #B11A18",
"EA@	c #AF1A19",
"FA@	c #B21B1B",
"GA@	c #AF1917",
"HA@	c #AF1816",
"IA@	c #B01916",
"JA@	c #AC1817",
"KA@	c #AF1B18",
"LA@	c #B01A17",
"MA@	c #AF1A17",
"NA@	c #AF1B1A",
"OA@	c #B1211F",
"PA@	c #B32A29",
"QA@	c #B5312F",
"RA@	c #BB413E",
"SA@	c #BC4E49",
"TA@	c #BE4E4A",
"UA@	c #C35A56",
"VA@	c #C05754",
"WA@	c #C35C57",
"XA@	c #BF5C56",
"YA@	c #C45D59",
"ZA@	c #C75D59",
"`A@	c #CC5C58",
" B@	c #C85957",
".B@	c #BF5552",
"+B@	c #C75451",
"@B@	c #B54C4A",
"#B@	c #A54342",
"$B@	c #923A38",
"%B@	c #4C3636",
"&B@	c #663231",
"*B@	c #592423",
"=B@	c #802827",
"-B@	c #AB4040",
";B@	c #BC4948",
">B@	c #C34D4C",
",B@	c #D05957",
"'B@	c #D45C5A",
")B@	c #D16360",
"!B@	c #CE5E5C",
"~B@	c #C95754",
"{B@	c #CB5854",
"]B@	c #C6504C",
"^B@	c #C64D4C",
"/B@	c #C13F3D",
"(B@	c #BB312F",
"_B@	c #B92F2E",
":B@	c #B42322",
"<B@	c #B52020",
"[B@	c #B11C1B",
"}B@	c #B21B1A",
"|B@	c #B11A1A",
"1B@	c #AF1A1A",
"2B@	c #B01B19",
"3B@	c #AF1A16",
"4B@	c #AC1716",
"5B@	c #AD1815",
"6B@	c #AE1B17",
"7B@	c #B01A16",
"8B@	c #B11C19",
"9B@	c #B53230",
"0B@	c #B83A37",
"aB@	c #B73F3D",
"bB@	c #BA4440",
"cB@	c #BD504D",
"dB@	c #C04F4C",
"eB@	c #C65B56",
"fB@	c #C35E58",
"gB@	c #C45F5A",
"hB@	c #C9605A",
"iB@	c #CD5C58",
"jB@	c #C95A55",
"kB@	c #CC5954",
"lB@	c #C85755",
"mB@	c #C55551",
"nB@	c #B84D4B",
"oB@	c #792E2D",
"pB@	c #592929",
"qB@	c #582F2D",
"rB@	c #483838",
"sB@	c #4A2E2E",
"tB@	c #592624",
"uB@	c #AD4342",
"vB@	c #C0504E",
"wB@	c #CE5B58",
"xB@	c #D3615F",
"yB@	c #DB6563",
"zB@	c #D66360",
"AB@	c #D16460",
"BB@	c #CF6360",
"CB@	c #CD5F5B",
"DB@	c #D0605D",
"EB@	c #C74B4A",
"FB@	c #C64744",
"GB@	c #C03F3D",
"HB@	c #BE3A3A",
"IB@	c #B62120",
"JB@	c #B5201F",
"KB@	c #B41D1C",
"LB@	c #B21C19",
"MB@	c #B21A19",
"NB@	c #B01A19",
"OB@	c #B21A17",
"PB@	c #B01A18",
"QB@	c #B11A17",
"RB@	c #B11916",
"SB@	c #B11A16",
"TB@	c #B11B18",
"UB@	c #B21E1C",
"VB@	c #AE1A19",
"WB@	c #B11C1A",
"XB@	c #B11B19",
"YB@	c #B31D1A",
"ZB@	c #B01E1B",
"`B@	c #B42321",
" C@	c #B01F1D",
".C@	c #B8322F",
"+C@	c #B83734",
"@C@	c #BA3D39",
"#C@	c #BB403D",
"$C@	c #BA4642",
"%C@	c #BD4A47",
"&C@	c #BC4B48",
"*C@	c #BF524D",
"=C@	c #C15550",
"-C@	c #C15753",
";C@	c #CB5956",
">C@	c #CE5B56",
",C@	c #CF5D58",
"'C@	c #BB524E",
")C@	c #C15450",
"!C@	c #B34A47",
"~C@	c #A34240",
"{C@	c #7E302F",
"]C@	c #4D3030",
"^C@	c #493333",
"/C@	c #4C3838",
"(C@	c #482C2C",
"_C@	c #462A2A",
":C@	c #572D2B",
"<C@	c #AC4644",
"[C@	c #BD4E4C",
"}C@	c #CB5553",
"|C@	c #D15E5C",
"1C@	c #D05B59",
"2C@	c #D5605D",
"3C@	c #D05E5B",
"4C@	c #CE605C",
"5C@	c #CD5D5C",
"6C@	c #C7514F",
"7C@	c #C4423F",
"8C@	c #C03A38",
"9C@	c #B82624",
"0C@	c #B51F1E",
"aC@	c #B21D1C",
"bC@	c #B41D1A",
"cC@	c #B21C1A",
"dC@	c #B21A18",
"eC@	c #B01B17",
"fC@	c #B01917",
"gC@	c #B21916",
"hC@	c #B01918",
"iC@	c #B21917",
"jC@	c #B11A19",
"kC@	c #B21B18",
"lC@	c #AF1B17",
"mC@	c #B52322",
"nC@	c #B82C2A",
"oC@	c #B62B28",
"pC@	c #B9332F",
"qC@	c #BC3532",
"rC@	c #BC3A37",
"sC@	c #BE3E3B",
"tC@	c #BC413E",
"uC@	c #C14D49",
"vC@	c #BD4A46",
"wC@	c #C4534F",
"xC@	c #BE504C",
"yC@	c #C0524E",
"zC@	c #C4534E",
"AC@	c #C95651",
"BC@	c #CF524F",
"CC@	c #CD5551",
"DC@	c #CB504D",
"EC@	c #C14F4C",
"FC@	c #AE4543",
"GC@	c #A1413D",
"HC@	c #903B39",
"IC@	c #7B2E2D",
"JC@	c #6E2728",
"KC@	c #672526",
"LC@	c #612B2B",
"MC@	c #562E2D",
"NC@	c #4D2E2E",
"OC@	c #4C3333",
"PC@	c #4F3332",
"QC@	c #492F2D",
"RC@	c #943938",
"SC@	c #B74543",
"TC@	c #C84B49",
"UC@	c #CC5351",
"VC@	c #CE5654",
"WC@	c #D25957",
"XC@	c #D15653",
"YC@	c #CA524E",
"ZC@	c #CA4F4C",
"`C@	c #C3423F",
" D@	c #C13937",
".D@	c #BF3432",
"+D@	c #BC2927",
"@D@	c #B72424",
"#D@	c #B72220",
"$D@	c #B41E1D",
"%D@	c #B41C1C",
"&D@	c #B31C19",
"*D@	c #B31A17",
"=D@	c #B41A19",
"-D@	c #B31A18",
";D@	c #B41B19",
">D@	c #B31B18",
",D@	c #B31E1B",
"'D@	c #B51E1C",
")D@	c #B82423",
"!D@	c #B62625",
"~D@	c #B62724",
"{D@	c #B42826",
"]D@	c #BC3533",
"^D@	c #BB3835",
"/D@	c #C34744",
"(D@	c #C74B48",
"_D@	c #C9524E",
":D@	c #CA5652",
"<D@	c #C95A54",
"[D@	c #C6524D",
"}D@	c #C3514C",
"|D@	c #CC5753",
"1D@	c #CC4D4A",
"2D@	c #CE4C48",
"3D@	c #C5524E",
"4D@	c #C9524F",
"5D@	c #C9534E",
"6D@	c #AE4846",
"7D@	c #9C4141",
"8D@	c #5A2929",
"9D@	c #62292A",
"0D@	c #512D2D",
"aD@	c #4D3232",
"bD@	c #513433",
"cD@	c #4A3939",
"dD@	c #492F2E",
"eD@	c #A53F3E",
"fD@	c #B64645",
"gD@	c #C74A4A",
"hD@	c #CE4D4C",
"iD@	c #D24D4C",
"jD@	c #D24F4E",
"kD@	c #D24B4A",
"lD@	c #CA4947",
"mD@	c #C74746",
"nD@	c #C54443",
"oD@	c #C33F3D",
"pD@	c #C13936",
"qD@	c #BF312F",
"rD@	c #BC2B2A",
"sD@	c #BA2624",
"tD@	c #B92322",
"uD@	c #B51D1B",
"vD@	c #B41C1A",
"wD@	c #B51D1A",
"xD@	c #B41A18",
"yD@	c #B31C1A",
"zD@	c #B41B18",
"AD@	c #B31B19",
"BD@	c #B21B19",
"CD@	c #B21D1B",
"DD@	c #B71E1C",
"ED@	c #B51F1D",
"FD@	c #B92624",
"GD@	c #BA2927",
"HD@	c #BD3836",
"ID@	c #C03D39",
"JD@	c #C14541",
"KD@	c #C44B47",
"LD@	c #CA5550",
"MD@	c #CC5E59",
"ND@	c #CD5E59",
"OD@	c #CB5B56",
"PD@	c #D0645F",
"QD@	c #CA605B",
"RD@	c #CB625D",
"SD@	c #D35C58",
"TD@	c #D15552",
"UD@	c #D0534F",
"VD@	c #C35451",
"WD@	c #D2514E",
"XD@	c #C24D4B",
"YD@	c #B94A47",
"ZD@	c #AA4745",
"`D@	c #983C3B",
" E@	c #863131",
".E@	c #702B2A",
"+E@	c #662B2B",
"@E@	c #522E2E",
"#E@	c #483232",
"$E@	c #533434",
"%E@	c #443838",
"&E@	c #482D2C",
"*E@	c #583130",
"=E@	c #9A3636",
"-E@	c #BF4543",
";E@	c #B74948",
">E@	c #D34947",
",E@	c #D44C4A",
"'E@	c #CA4C4A",
")E@	c #CA4D4A",
"!E@	c #CA4B48",
"~E@	c #C74644",
"{E@	c #C7433F",
"]E@	c #BF3431",
"^E@	c #BE302F",
"/E@	c #BC2E2C",
"(E@	c #B82221",
"_E@	c #B81F1D",
":E@	c #B51C1A",
"<E@	c #B51B19",
"[E@	c #B51C19",
"}E@	c #B41B1A",
"|E@	c #B61E1D",
"1E@	c #B41E1C",
"2E@	c #B92524",
"3E@	c #B82120",
"4E@	c #BC2C2A",
"5E@	c #BC2D2B",
"6E@	c #BE3B38",
"7E@	c #BF3A36",
"8E@	c #C34541",
"9E@	c #C7534E",
"0E@	c #CC605A",
"aE@	c #D16963",
"bE@	c #CF6862",
"cE@	c #D16C67",
"dE@	c #CF6661",
"eE@	c #D3625D",
"fE@	c #D65E59",
"gE@	c #D45957",
"hE@	c #D1514D",
"iE@	c #CA4D4B",
"jE@	c #BE4746",
"kE@	c #AF4845",
"lE@	c #A24341",
"mE@	c #9D3A39",
"nE@	c #572E2D",
"oE@	c #46302F",
"pE@	c #4B3333",
"qE@	c #4A3636",
"rE@	c #4A302F",
"sE@	c #54302E",
"tE@	c #6F2524",
"uE@	c #87302E",
"vE@	c #AB4444",
"wE@	c #C94F4D",
"xE@	c #C14F4E",
"yE@	c #CD5351",
"zE@	c #D74D4B",
"AE@	c #CE4F4C",
"BE@	c #CB4C49",
"CE@	c #C64340",
"DE@	c #C44341",
"EE@	c #C53F3C",
"FE@	c #C23432",
"GE@	c #BF2A28",
"HE@	c #BB2424",
"IE@	c #B92626",
"JE@	c #B61C1A",
"KE@	c #B71E1D",
"LE@	c #B71D1B",
"ME@	c #B91F1E",
"NE@	c #B8201F",
"OE@	c #BC2725",
"PE@	c #BD3330",
"QE@	c #BB2C2A",
"RE@	c #BF3B38",
"SE@	c #C1403C",
"TE@	c #C24540",
"UE@	c #C7504C",
"VE@	c #C74D48",
"WE@	c #C8534E",
"XE@	c #CC615B",
"YE@	c #CC5F5A",
"ZE@	c #CF6761",
"`E@	c #CD6861",
" F@	c #D36962",
".F@	c #D26661",
"+F@	c #D6625D",
"@F@	c #CB5955",
"#F@	c #D15250",
"$F@	c #CA504E",
"%F@	c #B84643",
"&F@	c #AD4745",
"*F@	c #A13C3B",
"=F@	c #6C2424",
"-F@	c #662D2B",
";F@	c #512D2C",
">F@	c #4B3030",
",F@	c #50312F",
"'F@	c #4D3736",
")F@	c #4A2D2B",
"!F@	c #7B2929",
"~F@	c #933838",
"{F@	c #B4413F",
"]F@	c #C34947",
"^F@	c #D0504D",
"/F@	c #BC514E",
"(F@	c #CD514F",
"_F@	c #CF4B48",
":F@	c #C84E4A",
"<F@	c #CB4E4C",
"[F@	c #C43E3D",
"}F@	c #C03432",
"|F@	c #C03634",
"1F@	c #BD3230",
"2F@	c #BD302E",
"3F@	c #BF302E",
"4F@	c #BC2B29",
"5F@	c #C03633",
"6F@	c #C03733",
"7F@	c #C23A36",
"8F@	c #C23F3A",
"9F@	c #C64B45",
"0F@	c #C5504A",
"aF@	c #CA5752",
"bF@	c #CC5B56",
"cF@	c #CF645E",
"dF@	c #D0675F",
"eF@	c #CD645E",
"fF@	c #CE655D",
"gF@	c #C95D59",
"hF@	c #D05E5A",
"iF@	c #BE554F",
"jF@	c #BE4D4B",
"kF@	c #A04340",
"lF@	c #512C2C",
"mF@	c #473130",
"nF@	c #4B3736",
"oF@	c #423535",
"pF@	c #4C2D2C",
"qF@	c #802C2B",
"rF@	c #9F423F",
"sF@	c #AD4140",
"tF@	c #BC4746",
"uF@	c #C84745",
"vF@	c #C34946",
"wF@	c #D14B4A",
"xF@	c #D04D4C",
"yF@	c #CB4846",
"zF@	c #C64745",
"AF@	c #C54442",
"BF@	c #C44340",
"CF@	c #C5403E",
"DF@	c #C34341",
"EF@	c #C4403D",
"FF@	c #C84441",
"GF@	c #C5433F",
"HF@	c #C64743",
"IF@	c #C84E4B",
"JF@	c #CC5751",
"KF@	c #C85550",
"LF@	c #CD635C",
"MF@	c #D0625B",
"NF@	c #D06862",
"OF@	c #D26B65",
"PF@	c #D26C66",
"QF@	c #D86A64",
"RF@	c #D16661",
"SF@	c #D7635D",
"TF@	c #CF5D59",
"UF@	c #CB5653",
"VF@	c #BB4E4A",
"WF@	c #A84240",
"XF@	c #84312F",
"YF@	c #552C2C",
"ZF@	c #4E2D2C",
"`F@	c #482F2F",
" G@	c #4A3737",
".G@	c #422D2C",
"+G@	c #4A2D2C",
"@G@	c #603331",
"#G@	c #642C2C",
"$G@	c #BC4543",
"%G@	c #C64644",
"&G@	c #C04745",
"*G@	c #CD4847",
"=G@	c #D54F4D",
"-G@	c #CF5250",
";G@	c #CD5250",
">G@	c #CF5854",
",G@	c #CF5956",
"'G@	c #CB5B57",
")G@	c #CF5F5A",
"!G@	c #CB5E59",
"~G@	c #D06660",
"{G@	c #D56762",
"]G@	c #CE5F5A",
"^G@	c #D96762",
"/G@	c #D1635F",
"(G@	c #D4615C",
"_G@	c #C75752",
":G@	c #BA4D4A",
"<G@	c #B24946",
"[G@	c #512B2B",
"}G@	c #492E2E",
"|G@	c #4B3232",
"1G@	c #453332",
"2G@	c #4C2F2D",
"3G@	c #612B29",
"4G@	c #632725",
"5G@	c #792524",
"6G@	c #A9403E",
"7G@	c #BC4947",
"8G@	c #C54E4C",
"9G@	c #C44E4C",
"0G@	c #D45451",
"aG@	c #D85553",
"bG@	c #D35C59",
"cG@	c #D15956",
"dG@	c #D6605B",
"eG@	c #D15D59",
"fG@	c #D35B59",
"gG@	c #CB5351",
"hG@	c #C14D4B",
"iG@	c #B34744",
"jG@	c #832E2D",
"kG@	c #4E2B2B",
"lG@	c #442E2E",
"mG@	c #473434",
"nG@	c #43302E",
"oG@	c #4F3131",
"pG@	c #4E3030",
"qG@	c #603230",
"rG@	c #67302F",
"sG@	c #B74643",
"tG@	c #B14542",
"uG@	c #CC5551",
"vG@	c #C44745",
"wG@	c #B94B49",
"xG@	c #983938",
"yG@	c #873030",
"zG@	c #552A29",
"AG@	c #4B2B2A",
"BG@	c #442F2E",
"CG@	c #473332",
"DG@	c #432E2D",
"EG@	c #503332",
"FG@	c #4D3433",
"GG@	c #633433",
"HG@	c #673634",
"IG@	c #653635",
"JG@	c #732C2C",
"KG@	c #8E3635",
"LG@	c #903331",
"MG@	c #622523",
"NG@	c #4E2626",
"OG@	c #432524",
"PG@	c #472E2E",
"QG@	c #442F2F",
"RG@	c #473433",
"SG@	c #4E3635",
"TG@	c #633736",
"UG@	c #663331",
"VG@	c #4D2524",
"WG@	c #462827",
"XG@	c #422B2A",
"YG@	c #493434",
"ZG@	c #4F3636",
"`G@	c #663533",
" H@	c #6A3735",
".H@	c #6B3735",
"+H@	c #492424",
"@H@	c #442C2B",
"#H@	c #423130",
"$H@	c #433232",
"%H@	c #483534",
"&H@	c #4C3433",
"*H@	c #693532",
"=H@	c #4F2928",
"-H@	c #442827",
";H@	c #462C2B",
">H@	c #463534",
",H@	c #432D2D",
"                                                                                                                                                                                                                                                   .  +  @  #  $  %  &  *  =  -  ;  >  ,  '  )  !  ~  {  ]           ^  /                                                                                                                                                                                                                                                                                                                                                                                                                                                                                                                                                                                                                                                                                                                                                                                                                                                                                         ",
"                                                                                                                                                                                                                                                (  _  :  <  [  }  |  1  2  3  4  5  6  7  8  9  0  a  b  c  d  e  f  g  h  i  j  k  l  m  n  o  p  q  r  s  t  u  v  w                                                                                                                                                                                                                                                                                                                                                                                                                                                                                                                                                                                                                                                                                                                                                                                                                                            ",
"                                                                                                                                                                                                                                    x  y  z  A  B  C  D  E  F  G  H  I  J  K  L  M  N  O  P  Q  R  S  T  U  V  W  X  Y  Z  `   . .. +. @. #. $. %. &. *. =. -. ;. >. ,. '.                                                                                                                                                                                                                                                                                                                                                                                                                                                                                                                                                                                                                                                                                                                                                                                                                                        ",
"                                                                                                                                                                                                                           ). !. -  ~. {. ]. ^. /. (. _. :. <. [. }. |. 1. 2. 3. 4. 5. 6. 7. 8. 9. 0. a. b. c. d. e. f. g. h. i. j. k. l. m. n. o. p. q. r. s. t. u. v. w. x. y.                                                                                                                                                                                                                                                                                                                                                                                                                                                                                                                                                                                                                                                                                                                                                                                                                                  ",
"                                                                                                                                                                                                                     z. A. B. C. D. E. F. G. H. I. J. K. L. M. N. O. P. Q. R. S. T. U. V. W. X. Y. Z. `.  + .+ ++ @+ #+ $+ %+ &+ *+ =+ -+ ;+ >+ ,+ '+ )+ !+ ~+ {+ ]+ ^+ /+ (+ _+ :+ <+                                                                                                                                                                                                                                                                                                                                                                                                                                                                                                                                                                                                                                                                                                                                                                                                                            ",
"                                                                                                                                                                                                            [+ }+ |+ 1+ 2+ 3+ 4+ 5+ 6+ 7+ 8+ 9+ 0+ a+ b+ c+ d+ e+ f+ g+ h+ i+ j+ k+ l+ m+ n+ o+ p+ q+ r+ s+ t+ u+ v+ w+ x+ y+ z+ A+ B+ C+ D+ E+ F+ G+ H+ I+ J+ K+ L+ M+ N+ O+ P+ Q+ R+ S+ T+ U+                                                                                                                                                                                                                                                                                                                                                                                                                                                                                                                                                                                                                                                                                                                                                                                                                   ",
"                                                                                                                                                                                                   V+ W+ X+ v. Y+ Z+ `+  @ .@ +@ @@ #@ $@ e+ %@ &@ *@ =@ -@ ;@ >@ ,@ '@ )@ !@ ~@ {@ ]@ ^@ /@ (@ _@ :@ <@ [@ }@ |@ 1@ 2@ 3@ 4@ 5@ 6@ 7@ 8@ 9@ 0@ a@ b@ c@ d@ e@ f@ g@ h@ i@ j@ k@ l@ m@ n@ o@ p@ q@ r@                                                                                                                                                                                                                                                                                                                                                                                                                                                                                                                                                                                                                                                                                                                                                                                                             ",
"                                                                                                                                                                                          s@ t@ u@ v@ w@ x@ y@ z@ A@ B@ C@ D@ E@ F@ G@ k+ H@ I@ J@ K@ L@ M@ N@ O@ P@ Q@ R@ S@ T@ U@ V@ W@ X@ Y@ Z@ `@  # .# +# @# ## $# %# &# *# =# -# ;# ># ,# '# )# !# ~# {# ]# ^# /# (# _# :# <# t+ [# }# |# 1# 2# 3#                                                                                                                                                                                                                                                                                                                                                                                                                                                                                                                                                                                                                                                                                                                                                                                                          ",
"                                                                                                                                                                                    4# 5# 6# 7# 8# 9# 0# a# b# c# d# e# f# g# h# i# j# k# l# m# n# o# p# q# r# s# t# u# v# w# x# y# z# A# B# C# D# E# F# G# H# I# J# K# L# M# N# O# P# Q# R# S# T# U# V# W# X# Y# Z# `#  $ .$ +$ @$ #$ $$ %$ &$ *$ =$ -$ ;$ >$                                                                                                                                                                                                                                                                                                                                                                                                                                                                                                                                                                                                                                                                                                                                                                                                    ",
"                                                                                                                                                                           ,$ '$ )$ !$ ~$ {$ ]$ ^$ /$ ($ _$ :$ <$ [$ }$ |$ 1$ 2$ 3$ 4$ 5$ 6$ 7$ 8$ 9$ 0$ a$ b$ c$ d$ e$ f$ g$ h$ i$ j$ k$ l$ m$ n$ o$ p$ q$ z# r$ s$ t$ u$ v$ w$ x$ y$ z$ A$ B$ C$ D$ E$ F$ G$ H$ I$ J$ K$ L$ M$ N$ O$ P$ Q$ R$ S$ T$ U$ V$ W$ X$ Y$                                                                                                                                                                                                                                                                                                                                                                                                                                                                                                                                                                                                                                                                                                                                                                                              ",
"                                                                                                                                                                     Z$ `$  % .% +% @% #% $% %% &% *% =% -% ;% >% ,% '% )% !% ~% {% ]% ^% /% (% _% :% <% [% }% |% 1% 2% 3% 4% 5% 6% 7% 8% 9% 2. 0% a% b% c% d% e% f% g% h% i% j% k% l% m% n% o% p% q% r% s% t% u% v% w% x% y% z% A% B% C% D% E% F% G% H% I% J% K% L% M% N%                                                                                                                                                                                                                                                                                                                                                                                                                                                                                                                                                                                                                                                                                                                                                                                        ",
"                                                                                                                                                            O% P% Q% R% S% T% U% V% W% X% Y% >% Z% `%  & .& +& @& #& $& %& && *& =& -& ;& >& ,& '& )& B# !& ~& {& ]& ^& /& (& _& e% :& <& [& }& |& 1& 2& 3& 4& 5& 6& 7& 8& 9& 0& a& b& c& d& e& f& g& h& i& j& k& l& m& n& o& p& q& r& s& t& u& v& w& x& y& z& A& B& C& D& E& F&                                                                                                                                                                                                                                                                                                                                                                                                                                                                                                                                                                                                                                                                                                                                                                                  ",
"                                                                                                                                                      G& H& I& J& K& L& M& N& O& P& Q& R& S& T& U& V& W& X& Y& Z& `&  * .* +* n% @* #* $* %* &* ** =* -* ;* >* ,* '* )* !* ~* {* ]* ^* /* (* _* :* <* [* }* |* 1* 2* 3* 4* 5* 6* 7* 8* 9* 0* a* b* c* d* e* f* g* h* S+ i* j* k* l* m* n* o* p* q* r* s* t* u* v* V$ w* x* y* z* A* B*                                                                                                                                                                                                                                                                                                                                                                                                                                                                                                                                                                                                                                                                                                                                                                            ",
"                                                                                                                                                   C* D* E* F* G* H* I* J* K* L* M* N* O* P* Q* R* S* T* U* W# V* W* X* Y* Z* `*  = .= += @= #= $= %= &= *= == -= ;= >= ,= '= )= != ~= {= ]= ^= /= (= _= := <= [= }= |= 1= 2= 3= 4= 5= 6= 7= 8= 9= 0= a= b= c= d= e= f= g= h= i= j= k= l= m= n= o= p= q= r= s= t= u= v= w= x= y= I% z= A= B=                                                                                                                                                                                                                                                                                                                                                                                                                                                                                                                                                                                                                                                                                                                                                                      ",
"                                                                                                                                                C= D= E= F= G= H= I= J= K= L= J= M= N= O= P= Q= R= S= T= U= V= W= X= Y= Z= `=  - .- m% +- @- #- $- %- &- *- d& =- -- ;- >- o* ,- '- )- !- ~- {- ]- ^- /- (- i= _- :- <- [- }- |- 1- 2- 3- 4- 5- 6- 7- 8- 9- 0- a- b- c- d- e- f- g- h- i- j- k- l- m- n- o- j- p- q- r- s- t- u- v- w- x- y- z- A- B-                                                                                                                                                                                                                                                                                                                                                                                                                                                                                                                                                                                                                                                                                                                                                             ",
"                                                                                                                                          C- D- E- F- G- H- I- J- K- L- M- N- O- P- Q- R- S- T- U- V- W- X- Y- Z- `-  ; .; x$ +; @; #; $; %; &; *; =; -; ;; >; ,; '; ); !; ~; {; ]; ^; /; (; _; :; <; [; }; |; 1; 2; 3; 4; 5; 6; 7; 8; 9; 0; a; b; c; d; e; f; g; h; i; j; k; l; m; n; o; p; q; r; s; t; u; v; w; 4; x; y; z; A; B; C; D; E; F; G; H; I; J;                                                                                                                                                                                                                                                                                                                                                                                                                                                                                                                                                                                                                                                                                                                                                       ",
"                                                                                                                                       K; L; M; N; O; P; Q; R; S; U& T; U; V; W; X; Y; Z; `;  > .> +> @> #> $> %> &> *> => -> ;> >> ,> #; '> )> !> ~> {> ]> ^> /> (> _> :> <> [> }> |> 1> 2> 3> 4> 5> 6> 7> 8> 9> 0> a> b> c> d> e> f> g> h> i> j> k> l> m> n> o> p> q> r> s> t> u> v> w> x> y> z> A> B> C> D> E> F> G> H> I> J> K> L> M> N> O> P> Q> R> S> T>                                                                                                                                                                                                                                                                                                                                                                                                                                                                                                                                                                                                                                                                                                                                                    ",
"                                                                                                                                    U> V> W> X> Y> Z> `>  , ., +, @, #, $, %, &, *, =, -, ;, >, ,, ', ), !, ~, {, ], ^, /, (, _, :, <, [, n& }, |, 1, 2, 3, 4, 5, 6, 7, 8, 9, 0, a, b, c, d, e, f, 9> g, h, i, j, k, l, m, n, o, p, q, r, s, t, u, v, w, x, y, z, A, B, C, D, E, F, G, H, I, J, K, L, M, N, N, O, P, Q, R, S, T, U, V, W, X, Y, |- Z, `,  ' y= .'                                                                                                                                                                                                                                                                                                                                                                                                                                                                                                                                                                                                                                                                                                                                                 ",
"                                                                                                                                 +' @' #' $' %' &' *' =' -' ;' >' ,' '' )' !' ~' {' ]' ^' /' (' _' :' <' [' }' |' 1' 2' 3' 4' 5' g* 6' 7' 8' 9' 0' $; a' b' c' d' e' f' g' h' i' j' k' l' m' a- n' o' p' q' r' s' t' u' v' w' x' y' z' A' B' C' D' E' F' G' H' I' J' K' L' M' N' O' P' Q' R' S' T' U' V' W' X' Y' Z' `'  )  ) .) +) @) @) #) @) w; w; $) %) &) *) =)                                                                                                                                                                                                                                                                                                                                                                                                                                                                                                                                                                                                                                                                                                                                              ",
"                                                                                                                              -) ;) >) ,) ') )) !) ~) {) ]) ^) /) () _) :) <) [) }) >, |) 1) 2) 3) 4) 5) 6) 7) 8) 9) 0) a) b) c) d) e) f) g) 9' h) i) j) k) l) m) n) o) p) q) r) s) t) t) u) v) w) x) y) z) A) B) C) D) E) F) G) H) I) J) K) L) M) N) O) P) Q) R) S) T) U) V) W) X) Y) Z) `)  ! .! +! @! #! $! %! &! *! =! -! ;! >! ,! '! )! !! ~! {! ]! ^! /! (! _! :!                                                                                                                                                                                                                                                                                                                                                                                                                                                                                                                                                                                                                                                                                                                                           ",
"                                                                                                                        <! [! }! |! 1! 2! 3! 4! 5! 6! 7! 8! 9! 0! a! b! c! d! e! f! D; g! !> h! i! j! v@ k! l! m! n! o! p! q! r! s! t! u! v! w! x! y! z! A! 4> B! C! D! E! F! G! H! I! J! K! L! M! N! O! P! Q! R! S! k> T! U! V! W! X! Y! Z! `!  ~ .~ +~ @~ #~ $~ %~ &~ *~ =~ -~ ;~ >~ ,~ '~ )~ !~ ~~ {~ ]~ ^~ /~ (~ _~ :~ <~ [~ }~ |~ 1~ 2~ 3~ 4~ 5~ 6~ 7~ r; 8~ 9~ 0~ a~ b~                                                                                                                                                                                                                                                                                                                                                                                                                                                                                                                                                                                                                                                                                                                                     ",
"                                                                                                                     c~ d~ l* e~ f~ g~ h~ i~ j~ k~ l~ m~ n~ o~ p~ q~ r~ s~ t~ u~ >, v~ w~ x~ y~ z~ A~ B~ 1, C~ D~ E~ ', F~ G~ H~ I~ J~ K~ L~ M~ N~ O~ P~ Q~ R~ S~ T~ U~ V~ W~ X~ Y~ Z~ `~  { .{ +{ @{ #{ ${ %{ &{ *{ ={ -{ ;{ >{ ,{ '{ ){ !{ ~{ {{ ]{ ^{ /{ ({ _{ :{ <{ ;~ [{ N' &~ }{ |{ 1{ 2{ 3{ 4{ 5{ 6{ 7{ 8{ 9{ 0{ a{ b{ c{ d{ e{ f{ g{ h{ i{ j{ k{ l{ m{ n{ o{ p{ q{ r{ s{ t{                                                                                                                                                                                                                                                                                                                                                                                                                                                                                                                                                                                                                                                                                                                               ",
"                                                                                                                  u{ v{ w{ x{ y{ z{ A{ B{ C{ D{ E{ F{ G{ H{ I{ J{ K{ L{ M{ -, N{ O{ P{ Q{ R{ S{ T{ U{ V{ W{ X{ Y{ Z{ `{  ] .] +] @] #] $] %] &] *] =] o) -] ;] >] ,] '] )] !] ~] {] ]] ^] /] (] _] :] <] [] }] |] 1] 2] 3] 4] 5] 6] 7] 8] 9] 0] a] b] c] =~ d] e] f] g] h] i] j] k] l] m] n] o] p] q] r] s] t] u] v] w] x] y] z] A] B] C] D] E] F] G] H] I] J] K] L] M] N] O] P] Q] R] S] T]                                                                                                                                                                                                                                                                                                                                                                                                                                                                                                                                                                                                                                                                                                                      ",
"                                                                                                               U] V] W] X] Y] Z] `]  ^ .^ +^ @^ #^ $^ %^ &^ *^ =^ -^ ;^ >^ ,^ (' '^ )^ !^ ~^ {^ ]^ ^^ /^ (^ _^ :^ <^ ]# [^ }^ |^ 1^ 2^ 3^ 4^ 5^ 6^ 7^ 8^ 9^ 0^ a^ b^ c^ d^ e^ f^ g^ h^ i^ j^ k^ l^ m^ -{ n^ o^ p^ q^ r^ s^ t^ u^ v^ w^ x^ '~ y^ z^ A^ B^ C^ D^ E^ F^ |{ G^ H^ Z) I^ J^ K^ q] L^ M^ N^ I^ O^ P^ Q^ R^ S^ T^ U^ V^ W^ X^ 6{ Y^ Z^ `^  / ./ +/ @/ #/ $/ %/ &/ */ =/ -/ ;/ >/ ,/ '/ )/                                                                                                                                                                                                                                                                                                                                                                                                                                                                                                                                                                                                                                                                                                                ",
"                                                                                                            !/ ~/ {/ ]/ ^/ // (/ _/ :/ </ [/ P{ }/ |/ 1/ 2/ 3/ 4/ 5/ 6/ 7/ 8/ 9/ 0/ a/ b/ c/ d/ e/ f/ g/ X{ h/ }) i/ j/ k/ l/ m/ n/ o/ p/ 9- q/ r/ s/ t/ u/ v/ w/ x/ y/ z/ A/ B/ C/ D/ E/ F/ ]] G/ H/ I/ J/ K/ L/ M/ N/ O/ P/ Q/ 3] R/ S/ T/ U/ V/ W/ X/ Y/ Z/ `/  ( .( +( @( #( $( %( &( *( =( -( ;( >( ,( S/ '( )( !( ~( {( i] ]( ^( /( (( _( :( <( x] y] [( }( |( 1( 2( 3( 4( 5( 6( 7( 8( 9( 0( a( b(                                                                                                                                                                                                                                                                                                                                                                                                                                                                                                                                                                                                                                                                                                          ",
"                                                                                                         c( d( e( f( g( h( i( j( k( l( m( n( o( p( q( 1/ r( s( t( u( v( w( (^ x( y( z( A( (^ B( C( D( E( F( G( H( I( J( K( L( E! M( N( O( P( Q( R( S( T( U( V( W( X( Y( i> Z( `(  _ ._ +_ @_ #_ $_ %_ .! &_ *_ =_ -_ n] E^ ;_ j] >_ ,_ '_ )_ !_ #( ~_ {_ ]_ ^_ /_ [{ (_ __ :_ u, <_ [_ }_ |_ 1_ 2_ 3_ 4_ J' 5_ 6_ 7_ 8_ 9_ 0_ a_ b_ c_ d_ e_ f_ g_ h_ i_ j_ !( y, k_ i] 3_ l_ m_ -( n_ o_ p_ q_ r_ s_ t_ u_ v_                                                                                                                                                                                                                                                                                                                                                                                                                                                                                                                                                                                                                                                                                                    ",
"                                                                                                   <! w_ x_ y_ z_ A_ B_ C_ D_ E_ F_ G_ H_ I_ J_ K_ L_ M_ N_ O_ P_ Q_ R_ S_ T_ U_ V_ W_ X_ Y_ Z_ `_  : .: +: @: #: $: %: &: *: =: -: ;: >: ,: ': ): !: ~: {: ]: ^: /: (: _: :: <: [: }: |: >( 1: 2: 3: 4: 5: 6: 7: 8: 7{ 9: :{ 0: a: b: c: ]( I' ){ d: e: C^ (_ f: R^ g: h: i: {{ j: k: '{ l: m: n: o: p: q: r: s: t: S/ ~~ u: v: w: x: y: z] z: A: B: C: D: E: F: G: H: I: 6_ J: K: L: M: N: O: P: Q: R: S: T: U: V:                                                                                                                                                                                                                                                                                                                                                                                                                                                                                                                                                                                                                                                                                              ",
"                                                                                                W: X: Y: Z: `:  < .< `% +< @< #< $< %< &< *< =< -< ;< >< ,< '< )< !< ~< {< ]< ^< /< 1, (< _< |) :< << [< }< |< 1< 2< 3< 4< 5< 6< 7< 8< 9< 0< a< b< c< d< e< f< g< h< i< j< k< l< m< n< o< p< q< r< s< t< j> u< v< w< x< y< z< A< B< C< D< E< F< G< Q/ 3] H< Y^ I< J< K< L< M< N< O< P< Q< R< p: S< T< B< U< V< l_ W< X< Y< Z< Y/ K/ k] `<  [ .[ +[ @[ #[ $[ %[ &[ *[ P) ;( =[ -[ ;[ T^ >[ ,[ ${ '[ )[ ![ ~[ N: {[ ][ ^[ /[ ([ _[                                                                                                                                                                                                                                                                                                                                                                                                                                                                                                                                                                                                                                                                                  ",
"                                                                                             :@ C& :[ <[ [[ }[ |[ 1[ 2[ 3[ 4[ 5[ 6[ 7[ 8[ 9[ 0[ a[ b[ c[ d[ e[ f[ g[ ]< h[ i[ j[ :^ k[ l[ m[ n[ o[ p[ q[ e- r[ s[ t[ u[ v[ w[ x[ y[ z[ A[ B[ C[ D[ E[ F[ G[ H[ I[ J[ K[ L[ M[ N[ O[ P[ Q[ R[ S[ T[ U[ V[ W[ X[ Y[ Z[ `[ m<  } .} +} @} #} $} %} &} *} =} -} ;} >} ,} '} )} !} V< ~} {} ]} Q/ ^} R/ /} (} _} :} <} [} }} |} L/ 1} 2} ;~ 3} 4} 5} G: 6} 7} ~{ 8} 9} x] 0} a} T^ )( !( b} c} d} e} f} g} h} i} j} k} l} m} n} o} p} q} r} s}                                                                                                                                                                                                                                                                                                                                                                                                                                                                                                                                                                                                                                                                         ",
"                                                                                       t} u} v} w} x} y} S; z} A} B} C} D} E} F} P. G} H} I} J} K} L} M} N} s( O} P} g[ Q} R} S} T} d/ U} V} W} X} Y} Z} `}  | .| +| @| #| $| %| &| *| =| -| _: ;| >| ,| '| )| !| ~| {| ]| ^| /| (| _| :| <| [| }| || 1| 2| i} 3| 4| 5| 6| 7| 8| 9| 0| a| b| c| d| e| f| g| h| i| -[ j| k| l| m| n| o| p| Y^ Z^ H^ q| r| s| t| u| v| w| x| y| z| A| B| C| D| E| F| G| 9} %} H| 3_ I| J| K| .[ L| 4} M| N| O| P| Q| R| S| T| U| V| Z^ 2{ W| X| Y| Z| `|  1 .1 +1 @1 #1                                                                                                                                                                                                                                                                                                                                                                                                                                                                                                                                                                                                                                                             ",
"                                                                                    $1 %1 &1 *1 =1 -1 ;1 >1 ,1 '1 )1 !1 ~1 {1 ]1 ^1 /1 (1 b[ _1 :1 <1 [1 }1 |1 N_ 11 21 31 41 51 61 X{ 71 81 91 =] T~ 01 a1 b1 c1 ;| !: d1 e1 f1 g1 h1 i1 j1 k1 l1 m1 n1 o1 p1 q1 r1 s1 t1 u1 n| B< v1 w1 x1 y1 z1 A1 B1 C1 D1 E1 F1 G1 H1 I1 J1 K1 L1 M1 N1 O1 P1 Q1 $~ 0} R1 S1 T1 m| U1 V1 W1 X1 Y1 Z1 `1  2 .2 +2 @2 #2 S/ $2 %2 &2 *2 =2 %~ -2 T^ )( ;2 >2 ,2 W1 '2 }{ )2 !2 j_ ~2 {2 ]2 ^2 /2 (2 _2 :2 <2 [2 }2 |2 12 -} 22 ;~ 3} 4} 32 y] J' 42 52 62 72 82 92 02 a2 b2 c2                                                                                                                                                                                                                                                                                                                                                                                                                                                                                                                                                                                                                                                 ",
"                                                                                 d2 e2 f2 g2 h2 i2 j2 k2 l2 m2 n2 o2 p2 7[ q2 r2 K_ s2 2@ 11 t2 u2 v2 w2 x2 y2 z2 z2 A2 B2 C2 D2 E2 F2 G2 H2 I2 J2 K2 L2 M2 N2 O2 P2 Q2 R2 S2 T2 U2 V2 W2 X2 Y2 Z2 `2 o1  3 .3 +3 #{ @3 #3 $3 %3 &3 *3 i< =3 -3 ;3 >3 ,3 '3 )3 !3 ~3 {3 ]3 ^3 /3 p< (3 _3 :3 <3 }2 *} [3 }3 |3 13 _| 23 b] 33 43 53 63 73 x' 83 93 h_ k] e] 03 a3 b3 c3 9_ d3 e3 W| I^ f3 g3 h3 L/ i3 A] L' ~2 j3 k3 U< l3 m3 n3 o3 p3 q3 r3 s3 G: )(  [ t3 u3 v3 w3 =} x3 y3 z3 A3 B3 C3 D3 E3 F3 v^ G3 H3 I3 J3 K3 L3 M3 N3                                                                                                                                                                                                                                                                                                                                                                                                                                                                                                                                                                                                                                     ",
"                                                                              O3 P3 Q3 R3 S3 T3 U3 V3 W3 X3 Y3 Z3 `3  4 .4 +4 @4 #4 $4 r( $4 %4 &4 *4 b[ =4 -4 ;4 B2 >4 ,4 '4 )4 !4 ~4 {4 ]4 ^4 /4 (4 _4 :4 <4 [4 }4 |4 14 24 34 44 54 64 74 84 94 04 a4 b4 c4 d4 e4 f4 || g4 h4 i4 j4 k4 l4 m4 n4 o4 p4 q4 r4 s4 t4 u4 v4 w4 x4 y4 z4 A4 B4 C4 w4 D4 E4 [{ F4 G4 H4 I4 J4 K4 L4 M4 N4 O4 [( P4 Q4 R4 ~( S4 K: T4 !} U4 V4 W4 X4 Y4 Z4 `4  5 A] 2{ .5 +5 h] @5 #5 D3 $5 5_ %5 &5 T[ M| *5 :{ !2 .[ =5 -5 ;5 >5 x3 D3 >[ ,5 '5 )5 !5 -2 ~5 {5 ]5 t: ^5 ${ /5 (5 h| _5 1{ :5 <5 [5 }5 |5 15                                                                                                                                                                                                                                                                                                                                                                                                                                                                                                                                                                                                                         ",
"                                                                           25 35 45 55 65 75 85 95 05 a5 b5 c5 d5 e5 f5 g5 h5 i5 j5 k5 l5 m5 n5 o5 p5 I} q5 r5 s5 t5 u5 v5 w5 x5 y5 z5 A5 B5 C5 D5 E5 F5 G5 H5 I5 J5 K5 L5 M5 N5 O5 P5 Q5 R5 S5 h^ T5 U5 e4 V5 W5 X5 Y5 Z5 `5  6 {3 .6 +6 @6 g4 b4 T< #6 $6 %6 &6 $5 *6 =6 -6 ;6 >6 ,6 '6 )6 _2 !6 ~6 B< {6 ]6 ^6 /6 (6 _6 :6 ,~ '2 <6 !~ K< [6 t< 23 >6 _{ }6 K' {~ g| |6 16 )[ a} 26 36 46 56 66 76 <| 86 w4 <{ 96 06 x^ a6 b6 /} c6 F< d6 e6 f6 g6 l3 h6 i6 5_ j6 k6 l6 m6 n6 o6 !( p6 q6 r6 w3 s6 t6 u6 n3 d6 Q1 v6 y: w6 x6 ;_ y6 z6 A6 B6 C6 D6                                                                                                                                                                                                                                                                                                                                                                                                                                                                                                                                                                                                             ",
"                                                                     E6 F6 G6 H6 I6 J6 K6 L6 M6 N6 O6 P6 Q6 R6 S6 f5 T6 U6 2@ V6 W6 ;4 0[ X6 Y6 =4 Z6 `6 p5  7 :1 -4 .7 j[ +7 2> @7 #7 $7 %7 &7 *7 =7 -7 ;7 >7 ,7 '7 )7 !7 ~7 {7 ]7 ^7 /7 (7 _7 :7 <7 W5 [7 }7 |7 17 o1 27 37 47 57 67 17 77 87 97 07 &3 a7 b7 c7 d7 e7 f7 g7 h7 i7 j7 k7 {5 l7 m7  5 n7 o7 p7 L< q7 8_ r7 86 U4 D4 s7 t7 A4 #6 u7 v7 w7 x7 y7 z7 A7 2_ B7 C7 D7 E7 u] -6 F7 G7 )~ H7 I7 36 J7 K7 L7 M7 N7 u6 O7 ,5 W^ P7 Q7 R7 S7 T7 U7 ~( V7 W7 X7 Y7 Z7 c6 `7  8 {5 .8 +8 @8 #8 $8 8} %8 &8 &} *8 =8 n: -8 ;8 >8 c3 ,8 '8 )8 !8 :5 ~8 {8                                                                                                                                                                                                                                                                                                                                                                                                                                                                                                                                                                                                       ",
"                                                                  ]8 ^8 /8 (8 _8 :8 <8 [8 }8 |8 18 28 38 48 58 68 I} 65 78 V6 88 98  7  7 08 $4 a8 b8 c8 08 d8 e8 S_ f8 }^ g8 h8 i8 j8 k8 l8 m8 n8 o8 p8 q8 r8 s8 t8 u8 v8 w8 x8 y8 z8 A8 74 _: o< g< B8 C8 D8 E8 F8 G8 H8 I8 J8 K8 L8 M8 N8 O8 P8 Q8 R8 _3 S8 T8 U8 V8 W8 j7 x4 X8 Y8 Z8 `8  9 .9 +9 @{ :6 @9 s3 #9 $9 %9 R) g| &9 L) U< /3 *9 U^ =9 -9 ;9 >9 '2 %( Q< ;} ,9 '9 )9 !9 ~9 {9 c6 >[ ]9 D^ ^9 /9 (9 _9 H7 :9 <9 [9 }9 |9 19 $5 29 j6 u3 39 i| y] 49 59 j_ Q) 69 79 U< 89 T^ j_ 99 09 c} a9 b9 =} c9 &[ d9 e9 f9 w3 y] g9 d] *[ ,[ y, h9 i9 j9 k9 l9 ~8 m9 n9 o9                                                                                                                                                                                                                                                                                                                                                                                                                                                                                                                                                                                     ",
"                                                                  p9 q9 ;& o~ `% r9 s9 t9 u9 v9 w9 x9 y9 z9 1/ A9 B9 *4 V6 m5 :1 C9 X6 r( `6 d8 D9 Z6 E9 n5 F9 G9 K{ H9 I9 J9 K9 L9 M9 N9 O9 P9 Q9 R9 .| S9 T9 U9 V9 W9 X9 Y9 Z9 `9  0 x/ .0 +0 d< @0 #0 $0 %0 &0 e} *0 =0 -0 ;0 >0 ,0 T1 1] y1 '0 )0 !0 ~0 N8 {0 P8 ]0 ^0 /0 (0 _0 ^3 e3 b7 s7 :0 <0 j^ [0 2: }0 ~{ |0 10 20 30 v7 40 s] 50 ^0 #{ 60 70 T! :{ G/ O1 u1 80 90 00 a0 ^_ b0 J7 6: c0 A, l: <6  ( d0 ]{ e0 f0 g0 s6 h0 i0 $8 j0 k0 5} l0 g9 <6 m0 n0 o0 &8 p0 q0 r0 s0 t0 %5 u0 a9 v0 w0 x0 y0 z0 A0 j3 B0 C0 W) D0 E0 F0 P^ G0 l6 H0 <6 =~ Z) I0 J0 6{ K0 L0 M0 +1 @1 N0                                                                                                                                                                                                                                                                                                                                                                                                                                                                                                                                                                            ",
"                                                               O0 P0 Q0 R0 S0 U3 T0 U0 V0 W0 X0 Y0 Z0 `0  a .a v2 .4 %4 r( +a [1 p5 >< @a #a $a Y6 %a &a *a =a -a ;a >a ,a 'a )a !a L2 ~a {a 7< ]a ^a /a (a _a :a <a [a }a |a 1a 2a 3a 4a 5a 6a 7a 8a 9a V2 0a aa ba ca da R5 ea fa ga ha ia ja O8 ka la ma Q[ na oa pa >6 qa x/ ra S5 sa ta ua va wa ^6 xa ya ,9 e0 Y! |2 L1 za Aa o0 7_ p0 Ba 86 Ca Da Ea Fa k} Z! Ga Ha Ia >[ Ja ~( :6 Ka La M: !~ 42 ~( Ma E: 3] Na 6} u6 R) Oa T) Pa Qa D| Ra W4 Sa Q1 Ta Ua Va Wa )2 99 Xa Ya Za `a 19  b .b (3 +b ;( @b 6{ [] #b j_ $b L< %b &b *b =b !~ -b ;b >b ,b '[ 0_ 'b )b 2{ !b ~b {b ]b ^b /b (b _b :b                                                                                                                                                                                                                                                                                                                                                                                                                                                                                                                                                             ",
"                                                            <b [b }b |b 1b 2b 3b 4b 5b 6b 7b 8b 9b 0b ab bb cb db eb 1@ fb gb hb ib jb kb 08 Z6 `6 `6 lb mb nb ob pb qb rb sb tb ub vb wb xb y[ yb zb Ab Bb Cb O5 Db Eb Fb Gb Hb Ib Jb Kb Lb Mb Nb Ob Pb Qb Rb Sb Tb 94 Ub Vb e1 '0 h< Wb [7 Xb Yb Zb `b  c .c !0 +c @c #c +3 q, $c %c &c *c =c O! fa -c ;c >c ,c 'c )c !c =6 #} ~c {c ]c )c ^c /c (c _c :c &} <c [c -} }c ;~ {( c3 |c 1c :{ 2c j_ 3c {2 4c R^ 5c 6c 7c 8c 9c 0c ac bc cc H7 dc ec fc ,( `[ gc ^0 hc ic +b Q/ jc %~ -2 4_ n3 kc K7 lc /9 mc h: nc oc ;b J: pc qc rc sc tc {~ uc vc wc xc yc zc u: Q) Ac Bc A, Cc Dc Ec Fc Gc Hc Ic Jc Kc Lc Mc                                                                                                                                                                                                                                                                                                                                                                                                                                                                                                                                                    ",
"                                                            Nc Oc Pc Qc Rc Sc Tc Uc Vc Wc 28 Xc Yc Zc `c  d .d +d 1@ @d #d Y3 $d 1) %d p5 &d *d =d -d ;d >d ,d 'd )d !d ~d {d ]d ^d /d (d _d :d k< <d [d }d |d 1d 2d 3d 4d 5d 6d 7d 8d 9d 0d ad bd cd dd ed fd gd hd id jd kd ha ld md nd p6 od pd qd rd 7a sd td ): ud vd wd xd yd zd Ad d: Bd Cd Dd 5| Ed %3 Fd Gd Hd Id Ba Jd Kd Ld Md Nd Od Pd Qd Rd Sd Td .3 @{ '9 f9 A7 Ud {9 Vd >[ Wd a3 Xd l0 S^ k] `^ Yd Zd `d  e u| I| `< .e +e @e '} Pa #e $e %e &e $e D^ *e )[ %[ m3 =e -e ;e V7 Y4 >e ,e 'e ^_ )e !e ~e {e c] ]e ^e /e (e _e :e <e [e r] }e !( |e 1e /9 2e (} A: 3e 4e D: ${ 5e M: 6e 7e 8e 9e 0e Jc ae be ce                                                                                                                                                                                                                                                                                                                                                                                                                                                                                                                                        ",
"                                                         de ee fe ge he ie je ke le me ne v! oe pe qe re 1@ X{ se te [b ue ve we xe ye ze Ae Be Ce De Ee Fe Ge He Ie Je Ke Le Me Ne Oe Pe Qe Re Se Te Ue Ve We Xe Ye Ze `e  f .f +f @f {: #f $f %f &f *f .8 =f -f ;f $0 l^ 44 >f ,f 'f )f !f ~f {f ]f td ^f 4a +0 /f (f _f e< :f K5 ): Jb <f [f m4 R1 }f |f s1 69 <3 97 l4 1f 2f 3f 4f 5f 6f 7f 8f 9f 0f af S< i} bf cf df ef ff G< '5 f6 Ud v0 n6 gf hf v^ if jf ({ s^ R1 d] kf f] w: i| g_ t6 lf mf E3 l0 nf of pf G: qf rf sf tf uf vf Y1 N7 wf xf yf zf Af Bf Cf (} Df Ef Ff Gf Hf Va l_ If Jf Kf V7 ${ Lf Mf J| i0 -9 P) A| Nf Qa Of Pf Qf ]~ Rf Sf F^ Tf Uf Vf Wf Xf Yf Zf `f D6                                                                                                                                                                                                                                                                                                                                                                                                                                                                                                                            ",
"                                                          g .g +g W& 5! @g #g $g %g &g *g =g -g ;g >g ,g 'g )g !g ~g {g we ]g ^g +a /g (g _g :g <g [g }g |g 1g 2g 3g 4g 5g 6g 7g 8g ~3 9g 0g ag bg cg Oe dg eg xb fg gg hg ig 34 jg kg lg mg ng og pg p4 qg rg sg tg ug vg wg xg <7 yg zg Ag Bg Cg 4a Dg (] Eg Fg Gg J5 4a R[ Hg Ig N[ Jg Kg Lg Mg h^ Ng Og Pg Qg Rg Sg Tg Ug Vg Wg Xg Yg Sb Zg 1| x4 %8 `g  h .h +h @h #h $h %h }9 H' &h @h *h =h ,2 -h jc Na o< ;h y1 >h A< )} 93 ,h T/ nc 'h )h %} f0 %6 !h n: d] ~h {h ]h ^h c] /} /h %2 (h Rf _h Bf :h C7 <h [h C: }h of |h 1h gf .e [6 2h 3h 4h =b 5h 6h R) 7h k} h9 y: 8h <6 E0 ;2 L< 9h 0h ah d3 bh ch )_ dh eh fh gh hh ih jh kh lh mh                                                                                                                                                                                                                                                                                                                                                                                                                                                                                                                   ",
"                                                      nh oh ph qh rh sh th uh vh wh xh yh zh Ah )^ Bh Ch Dh Eh Fh Gh m~ Hh Ih W6 M_ b[ Jh Kh Lh Mh Nh Oh Ph Qh Rh Sh Th Uh Vh wb Wh Xh Yh Zh `h  i .i +i @i #i $i %i &i *i =i -i ;i tg >i ,i 'i )i q4 H5 !i a< ~i F/ {i ]i ^i /i (i _i :i <i [i }i Kb |i 1i 2i 3i 4i 5i P5 6i Ub 7i Q[ 8i 9i (| 0i ai Qg bi ci di ei fi g} Db gi N8 {0 R8 hi ii s: ji |9 ki T7 li mi [9 ni >6 oi ^f pi _2 qi g] 4c ri si ti ui 2| Kf z, ,~ K/ *~ A: }c d9 if 8_ *} vi O| wi u: xi 6: yi zi Ai l> Bi Ci g] ,2 R^ Di n6 Ei 'h Fi Gi 39 Hi d3 Ii Ji [_ (e W/ Ki Li Mi Ni Oi !( Pi Qi %~ Ri k] Si Ti Ui Vi '} Wi %( Xi )b W4 M' D^ Yi )~ Zi <_ `i  j {_ fh .j +j @j #j $j (b n9                                                                                                                                                                                                                                                                                                                                                                                                                                                                                                       ",
"                                                      %j &j *j =j -j ;j >j ,j 'j )j !j ~j {j ]j ^j /j (j $d _j :j Z0 <j [j }j |j /g 1j 2j 3j 4j 5j Nh 6j 7j 8j 9j 0j aj bj cj dj ej fj gj hj ij jj kj lj mj nj oj pj qj rj sj tj uj vj Db wj xj yj zj Aj Bj Cj 54 Dj Ej Fj Gj Hj Ij Jj Kj Lj Mj Nj Oj Pj Qj Rj Sj Tj &0 Uj Vj Wj Xj Yj Zj `j  k .k +k .0 @k #k  ~ |a Z2 $k %k P8 &k mi 87 ;3 `8 *k =k 0f ^0 z4 -k ;k >k ,k 'k )k G< 77 !k !5 a} ~k :{ {k ;8 {( G' r7 _{ :{ 2c ]k ^k X| ;5 /k (k (2 $8 _k D^ 1_ O4 '2 :k Q< rf <k [k }k X7 !} /( |k v^ 1k |_ 2k :_ N7 3k 4k (h 5k 6k 7k 8k 9k !~ 0k ak bk ck Nf dk ek 'h fk gk 39 Wi }{ ![ .e m0 hk D^ Qi i] ik Z^ jk kk h| J0 lk mk l_ nk ok pk qk rk sk tk uk vk wk n9                                                                                                                                                                                                                                                                                                                                                                                                                                                                                           ",
"                                                   xk yk zk Ak sh Bk Ck Dk )j Ek Fk Gk Hk Ik Jk /j Kk Lk Mk Nk Ok Pk Qk Rk Sk Tk Uk Vk Wk Xk Yk Zk `k  l .l +l @l #l $l %l &l *l =l -l ;l >l ,l 'l )l 8g !l ~l {l ]l ^l /l (l _l <d :l <l x[ [l }l |l 1l 2l 3l 4l 5l {i 6l 7l 8l 9l Mj 0l al Pj bl cl dl el fl gl hl il 74 jl kl ll ml nl ol pl X5 ql rl !0 ;0  k g< sl di il tl ul vl m4 wl &k @} s1 &9 xl ^3 yl zl Al Bl Cl &5 Ga N[ Dl El p7 ~h z, jf b| G: 6} N1 *[ Fa Fl #6 Gl Kg Hl (3 Il Jl Kl K: &~ =b gf $b t3 Ll 39 Di 0_ S^ 6h Y) Ml Nl Ol Pl Ql Dc 4k Rl Sl Tl Ul Vl h: Wl Xl L< Yl 4} Lf 0_ S/ Zl `l  m .m +m @m S^ `/ #m uc Jl )5 @m $m 4_ sc %m c_ &m *m =m rc -m <_ fk (h Rf Yi :_ ;m >m ,m 'm )m !m @j ~m {m ]m                                                                                                                                                                                                                                                                                                                                                                                                                                                                                  ",
"                                                ^m /m (m _m :m R& rh -% <m [m }m |m 1m 2m 3m 4m 5m 6m 7m 8m 9m 0m Y6 am bm Y6 cm dm em fm gm hm im jm km lm mm ub nm om pm qm rm 'l sm tm um vm wm xm ym zm Am Bm Cm Q9 Dm Em Fm Gm Hm Im b< Jm Km Lm Mm Nm Om Pm -c Qm 60 Rm Sm Tm y[ Um Vm Wm Xm Ym Zm `m  n .n 0l z[ +n @n #n $n %n &n z8 *n =n -n ;n >n ,n 'n )n !n ~n {n ]n Kg ^n g4 /n (n _n :n l4 }f <n ia [n Y2 T[ }n |n P8 1n 2n 3n f9 4n i] %[ 5n 6n Oa 7n `g &e 8n 9n 0n Q[ 13 66 ${ ]( s6 `< .e >[ an (_ !k bn 49 u6 Qf &2 a{ cn dn X7 Dc en fn gn hn in jn {_ `^ kn ln mn }k __ 1c S/ 59 nn on pn qn F^ rn P4 sn kk L< tf tn un 52 Z7 vn wn xn yn zn An Bn x| Df Cn Dn En Y/ Fn (} Gn Ci )_ tf A, 8e Hn In Jn Kn Ln Mn Nn On    _b                                                                                                                                                                                                                                                                                                                                                                                                                                                                   ",
"                                                Pn Qn ~# Rn Sn b+ Tn Un Vn Wn Xn Yn Zn 2m `n /)  o .o +o @o #o $o %o &o j5 <g *o =o -o ;o >o ,o 'o )o !o ~o {o ]o tm ^o /o (o _o :o <o [o }o |o 1o 2o 3o 4o 5o 6o 7o 8o 9o 0o ao bo ig 54 co do eo fo go ho io jo ko Y2 @| lo mo no oo po qo ro so M2 to uo vo wo xo yo zo Ao Bo Co Do =3 Eo `b Fo Go Ho Io Jo Ko Lo Sm Mo No Vb #_ Oo d4 g7 {9 1f Po 3f Qo Ro f0 So ,0 To Uo Vo Wo :3 Xo Yo 94 S1 Zo /n ak [9 e7 #5 $[ `o  p 09 [{ X| '~ }{ .p Da +p @p W^ ^} 0} M1 #8 gf #p M4 $p %p pf l> s] rf u] `d -h &p *p V| c6 O7 =p P^ cn -p -2 :k ;p Ti K7 >p ,p 'p )p Z1 X< c_ !p ~p {p ]p nc ^p /p (p W/ _p Qa :p Z^ <p 3{ *2 En ac [p }p |p .( wn 1p a] 2p P< 3p 4p 5p 6p 7p 2p 8p 9p 1{ 0p ap bp cp dp                                                                                                                                                                                                                                                                                                                                                                                                                                                             ",
"                                             ep fp gp hp ip jp kp lp mp Vc 1j np op Y3 pp  ] qp rp sp tp up vp wp xp Be  + yp zp Mh Ap Bp Cp M> Dp Ep Fp Gp Hp Ip Jp Kp %l Lp dg eg Mp Np Op Pp Qp Rp ^o Sp Tp Qp Up Vp Wp Xp Yp Zp `p  q .q +q @q #q $q %q s8 &q a1 Im *q =q -q ;q >q ,q 'q *q )q !q ~q @| F[ {q ]q ^q /q (q _q :q <q [q }q |q 1q 2q 3q 4q 5q 6q pl 7q 8q 9q 0q wo aq K5 Ng bq cq 8f dq eq fq gq hq B8 i< iq So jq U[ kq lq mq nq oq Y! pq qq J' rq U^ sq (_ ^} tq t6 uq vq Fa k} 1_ p| |c I< A: p7 W! {( wq K/ xq If b_ yq >~ p3 zq C0 si Z^ vq Aq Bq Z4 M7 Cq )p Dq Ti Eq Fq K: Gq T! D7 Hq a: d_ Iq Jq %( Kq Lq Mq v: Nq Oq V) un F3 -} [h ;8 Pq dn Qq `/ |p Rq Sq Tq Uq Vq ]p Wq Xq Yq Zq a{ k_ O4 :p Dc 9p t] _e `q  r .r +r @r #r $r %r @1 &r                                                                                                                                                                                                                                                                                                                                                                                                                                              ",
"                                             *r =r -r ;r >r ,r K- 'r )r 1@ qe !r ,, ~r {r ]r f! ^r /r g! (r A( _r :r <r [r }r |r 1r 2r 3r 4r 5r 6r 7r 8r 9r 0r $i ar br cr Ip aj dr er _o fr gr dg hr Me ir jr kr lr mr nr or pr 0< qr rr Aj sr tr ur vr uj wr *q Ab xr yr zr Ar Br Cr Dr Er Cm 5d -n Fr Gr Hr Ir Jr Kr Lr Mr Nr Or Pr Qr Rr Sr Tr pj Ur Vr a< Wr Xr Yr Zr `r  s .s +s @s #s $s iq +c x/ %s &s *s [n Jb =s -s .k a< ;s {c >s E: B4 ,s 's Da R) )s >{ !s ~s {s ]s 6n Fa ^s %} @[ /s $[ A: p7 09 66 /{ A7 T! V< (s |( _s :s B| l0 <s D3 [s }s |s 1s 2s fc Z^ El d0 3s 4s 5s vf Y1 &( 6s 7s 8s ^~ 9s 0s as l_ m0 bs cs >p Ga Va Pf gf ds es fs K^ =m gs hs N^ is js _e qc Y/ ks ls 7c ms 6: qk 93 ns l_ os :9 3s ps qs rs ss ts us vs Vq Qq ws 8{ xs ys zs As Bs Cs                                                                                                                                                                                                                                                                                                                                                                                                                                  ",
"                                             Ds Es Fs Gs Hs Is Js Ks Ls Ms Ms Ns Os Ps C~ Qs Rs Ss Ts Us Vs Ws Xs Ys Zs `s  t 5j .t +t @t #t $t %t &t lj *t =t cr -t ;t kj >t ,t 't ar )t !t ~t {t ]t ^t /t (t _t :t <t [t }t |t zr 1t 2t 3t 4t 5t 6t 7t ig -q R9 zr 8t Fr 9t 0t Zp at =i bt ct dt et K5 ft gt ht it jt kt lt mt nt ot =i pt 'q el qt rt (7 st tt ut vt wt xt ~s yt zt At Bt Ct Dt Et Ft Gt Ht It Jt }7 Kt ;s Lt S[ xj Mt Nt Ot Pt Qt ya Rt St Tt 8n Ut lq Vt $h %} ,~ 3_ }{ Wt N1 af ya Q1 Xt Yt Zt Ra sn &2 y, )} !5 `t =8 `< !( t3 nf  u '~ .u /( .e 6_ if +u @u {_ #u $u 4k ]~ Ac %u &u Vl X) <h :9 Ui }h *u |h d3 /( >m ;~ >8 <( =u -u &_ ;u b0 >u ,u 'u )u !u ~u {u ]u ^u /u c3 (u _u nk :u =h /u <u [u 52 }u |u 1u 2u 3u 4u 5u ks 6u Yq Zq 7u 8u 9u 0u au bu cu du eu                                                                                                                                                                                                                                                                                                                                                                                                                      ",
"                                          fu gu hu iu ju ku lu mu Ks Xn nu ou pu Gk qu ru su tu X{ uu vu wu 08 Y6 xu yu zu gm 'd 1g Y, Au Bu Cu Du Eu Fu Gu ;t @l rm Hu Iu Ju Ku Lu Mu Nu kj N2 Ou Pu Qu Ru Su Tu Uu Vu Wu Xu Yu Zu `u  v Ar .v +v @v Cm [4 @i #v $v %v Hb &v {: *v =v ~7 -v ;v Dr po >v O5 ,v 'v )v !v ~v {v ]v ^v /v 2a (v .| _v :v <v Yr [v E/ }v |v 1v 2v 3v 4v 5v 6v 7v 8v 9v 0v av &s 6q bv cv dv ev 10 Mt fv gv 3: hv iv jv U5 60 kv lv mv nv [6 %} E: 9_ !h R1 ov F| (6 E' =2 pv D| #b qv (6 y< rv Yt sv ~[ tv uv ;8 I/ vv '~ y] /} c6 Y) wv +5 xv yv zv Av C' Bv ^~ Cv ]h Vl '( w< :9 Ui Dv N' Hi 1c Ev Fv #m Gv Hv Iv Jv Kv Lv Mv Hn Nv Ov Pv .r Qv Rv dc Sv Tv K^ Uv Vv 3p Wv Xv Yv Zv `v rc  w |u .w F0 (_ 9s +w @w }p `i dc #w $w M7 @w %w &w Jq *w 9s =w -w ;w >w ,w                                                                                                                                                                                                                                                                                                                                                                                                                ",
"                                       'w )w !w 8[ ~w {w ]w ^w /w (w s~ up _w ]r :w 'g *, <w [w Eh }w |w 1w 2w 3w 4w 5w 6w im 7w 8w 9w 0w aw bw cw dw ew (o fw O9 gw hw Uh iw jw kw d^ lw hw mw nw Se ow pw qw n8 rw sw tw yr uw vw ww xw yw ;l zw Aw Bw sj Cw qr Ab !l Ym S( Dw Ew Fw vj _a Wm Gw Hw Iw 7t Jw }a Kw Lw Mw Nw @| Iw *q Ow Pw Qw Rw 5q Lb Sw 24 Tw )7  3 Uw Vw Ww Xw Yw Zw `w  x .x +x @x #x $x Jt %x &x *x +s =x -x ;x >x S[ ,x ,c bi 'x Q8 {} _s T) Xt ,( D< Ub a4 )x r, So !x ~x {x ]x 8] ^x /x (x u< _x :x <x ,9 [x Rt o| }x $9 F3 y| |x h| 1x {6 2x 3x 4x 5x ]k >~  e 6x y^ hs N^ u] 7x 8x 9x ,p z^ b_ Y) >u 5k 0x ax bx cx dx ex fx gx hx [u r] Z1 ix a: jx 7p kx lx mx tc nx ox px qx rx ks 6u sx [h g] >p 5u 2e %w tx ux wn vx  e wx L/ xx yx zx Ax 7p 2p Bx Cx Dx Ex Fx Gx Hx Ix A6 Jx Kx                                                                                                                                                                                                                                                                                                                                                                                                 ",
"                                       Lx Mx Nx Ox Px B{ Qx Rx /< Sx Tx ou Ux Vx Wx Xx Yx Zx `x >g  y m5 Ys .y +y @y }r #y @7 $y %y &y *y =y -y ;y >y ,y 'y )y Qe /o !y Op er ~y {y ]y ^y ': /y 't (y _y :y <y [y jw Zm jr }y |y 1y 2y 3y ~3 4y T( %v hg 5y k< 6y 7y 8y 9y 0y ay by Gb =i cy dy so ey Bb fy _4 gy hy iy jy ky Ab ly my 4q q4 ny vt k1 oy py el w[ gl qy ry sy ty uy vy wy $| xy yy T| Cg zy Ay rg By lv ea Cy il Dy Ey g1 Fy ){ }0 Gy Hy Iy #3 Jy Ky Ly 7| My c< 66 J/ Ny Oy Py Qy Ry {h Sy Ty Uy Vy 3: y| '_ Wy Xy '{ [] #b Qt Yy Zy rv `y  z &{ .z +z @z #z F4 u| dk $z <_ %z &z T) *z =z S^ (} [_ Ax 5k -z ;z >z ,z 'z )z !z ~z {z ]z ^z /z /h a: (z Jl kx _z Ai :z nx <z [z }z zi |z ~u 1z 2z 3z 2h K^ 4z 5z 6z 7z +( 8z <( Vq ]p 9z us 0z 8s az 4u bz Fn cz dz t] ez 8z Li !u Qv fz gz hz iz jz kz lz                                                                                                                                                                                                                                                                                                                                                                                        ",
"                                    mz nz oz pz qz rz sz tz uz vz wz xz Z0 yz zz -g .> Az Bz Cz z2 Dz Ez 1w y2 Fz Gz Hz Iz Jz Kz Lz Mz Nz Oz Pz Qz Rz Sz Tz aj /y ,y Uz Vz Wz Gu Sz 2o ag vm Xz Yz Zz &7 `z Pu }y  A .A +A {a @A #A $A %A &A *A )q =A -A [4 8y ;A Ue >A ,A *i Bb Cb 'A pt )A xw !A ~A {A Gm gt ]A ^A /A ly &v `9 (A _A :A <A [A Ib }A |A vo y/ 1A n1 o1 2A 3A 4A 04 5A 6A 7A 8A 1v xt 9A 0A aA l^ pi a4 ql bA 20 cA dA eA fA gA hA iA jA kA hq 7] lA il 3l Oo mA Oy nA di B) oA pA qA rA sA hq Gy Hy Q1 F' C| sv v, tA <x H/ E) uA vA wA xA yA zA AA x' BA CA z] }( DA on K7 EA p| FA GA H7 HA `) IA JA KA LA MA NA OA PA QA RA SA &_ ^_ Bi TA W/ Sf UA VA 8p nx ok WA XA YA ZA `A  ( .( c_ >8  B .B +B 9z N^ @B #B $B En Hf %B &B *B ]u _e :e )u =B -B ;B Ci Z| >B N' L: Y1 ,B tc 'B )B !B ~B {B ]B 72 ^B /B (B _B :B                                                                                                                                                                                                                                                                                                                                                                            ",
"                                    <B [B }B |B 1B 2B 3B 4B 5B (^ 6B 7B 8B 9B +] ;. 0B d/ aB M_  y bB cB dB ye eB fB gB hB iB jB kB lB mB nB oB pB kB iw Se nm 't qB rB Uh sB Se tB uB vB wB xB pw yB zB AB BB CB DB :o G5 (l EB FB GB HB IB oj JB @i KB ag %v LB MB k< -i <a 8t yb NB Dr OB PB W9 G5 QB *A RB Y9 Cb SB TB UB VB WB XB YB pj qo ZB 0l Rm F[ <4 :A !: `B  C .C >0 +C @C #C $C %C ;f bi &C &0 S5 *C =C !0 ;0 0A -C ;C >C ,C el 'C x[ )C !C ~C 7v {C 60 j^ ]C ^C /C (C w' r, _C :C <C [C mv |0 @{ }C tn 9_ m: :x d: |C {h 1C 2C 3C 4C 5C 4: 6C 7C 8C 9C 0C F3 >[ aC bC cC N' X1 *p dC eC fC gC eh KA {_ 'z NA C' hC iC jC kC lC cz l] 0{ 5k Pq mC nC r] Z1 eC oC pC qC rC sC tC tc uC !e P^ vC wC xC yC {u zC _e AC Li BC 9k CC Z) DC 8z EC FC &B GC  / HC IC jf =u lx JC Dx KC >u LC }z MC NC OC PC ms QC RC cz fh SC TC UC VC WC                                                                                                                                                                                                                                                                                                                                                                   ",
"                                 XC YC ZC `C  D .D +D @D #D $D %D &D *D -r E2 X_ =D Ts -D ;D ^< d8 >D *d ,D 'D )D !D ~D {D ]D !y ^D /D (D Hp _D ;y :D <D [D }D |D 1D 2D 3D d^ ar Pe 4D 5D 6D 7D 8D mg 9D 0D aD ub bD cD dD eD fD gD hw ~3 hD 3D T( iD jD kD lD .A mD }d ;A nD oD pD qD rD @i sD {] tD no uD  i vD Fr wD (l zb o8 xD yD zD Sm AD BD CD Mb ~q ot DD ED FD GD HD ID JD KD LD [f MD td ND OD PD Jb D[ %0 pl hd ~C @_ QD RD `( aA l^ SD 44 TD >{ 20 UD gq /C VD WD |C So XD YD ZD :x ov c< `D |:  E .E sA +E xa @E #E $E pv [] %E w, &E Iy Xy Yt Y^ *~ tv X[ ;8 z, ,~ '2 1c 4x +z pk *E =E -E ;E >E ,E Bi 'E )E @u !E Ql Lv MA fn Zd ~E 3h {E SA ]E /h /_ ^E +2 /E ^z lC (E _E >u :E 9s l6 <E 8p %2 t] px [E +w Fn 6c }E m] |E 1E  B 2E 3E 4E tc 5E d_  u 6E d3 7E <{ 8E Ax 9E En wC C] :k 0E aE bE cE dE eE ^z fE .( gE ps hE iE jE kE lE mE nE                                                                                                                                                                                                                                                                                                                                                       ",
"                                 oE pE qE rE sE tE uE vE wE xE yE zE AE BE CE DE EE FE GE HE -D IE JE cB KE LE ME NE OE PE QE RE SE TE UE VE WE Uz XE 4o YE ZE `E  F *t .F +F iw @F Uh aD #F $F %F &F *F =F -F 'l ;F >F ,F 'F ~a hw )F Nu !F ~F {F Pu ]F Mu ^F 3D $v p8 &i /F st (F _F sj >A +A :F -q Dm rj <F p8 &i =q [F }F Xp 8y |F 1F Ow 2F 3F =i -n gt 4F 5F 6F 7F 8F tg 9F 0F aF  3 bF !6 cF dF eF (: fF ^7 _v gF Dy @0 hF iF jF y/ kF lF @0 1v cA 94 F/ ]] wg mF nF oF pF lv ;C qF rF sF tF uF vF wF ZD xF yF zF AF Ud BF CF ~{ g| @{ i> 23 r7 m: DF x< EF FF ${ U) }{ GF (s K4 AA HF 83 IF JF Lv KF Z) ]k ,} W1 X1 ,z LF MF !z ~z hx NF OF #u :z 4k PF )E Ov D] lC QF _E RF SF TF ax UF l_ i: ex VF WF 7p BC XF nc Xq YF 1p ZF 4z `F  G .G %2 +G *2 qk A, @G `/ CC #G _e $G %G &G *G =G -G ;G >G dE ,G .! 'G x| )G d_ LC  r Y/ NC tc !G ~G {G ]G ^G /G (G _G                                                                                                                                                                                                                                                                                                                                              ",
"                              :G <G [G }[ }G |G 1G x2 2G 3G 4G !# 5G 6G 7G 8G 9G 0G aG bG cG Rx dG eG fG gG hG iG jG kG lG @l mG mB nG oG pG qG rG sG tG uG vG wG xG yG pm zG 3o AG BG CG DG EG FG GG HG IG JG )t KG LG MG NG ~A OG PG QG LB RG SG TG KB 1F Qp IB Cm  i -i QB VB vw N2 (l -q *v Lo 8y UG VG oj lD yD WG Vr XG (A %v [A YG =A cy ZG uj _4 `G  H .H +H @H c^ #H $H %H a< (7 Y2 h1 go 6t &H qF *H  s PD hF RD `r qr =H *| 64 &x -H ;H O[ 7i Q[ >H ,H c4 70 M8 MD 9i [: 'H )H !H ~H {H ]H ^H gA /H (H t, u< _H W[ :H W! <H >c [H }H DF :H e: '_ E' y' R/ Zt ~[ /6 |H 1H 2H ;E 3H 4H o7 W| 5H 6H F4 X1 7H 8H 9H Sl 0H aH bH OF cH dH eH fH Nv gH hH zv iH C' )z jH ~z JA kH LA lH mH nH pC in FC ]p nc N^ {u ox az oH mC NC }p pH X< W/ qH 5u H0 l> ;B .( Sq 1p }} rH sH tH uH vH wH xH yH zH AH BH 0z 'E CH 0x Ul C] Dc DH Bv EH ps FH GH Fv HH IH JH KH LH MH NH                                                                                                                                                                                                                                                                                                                                     ",
"                           OH PH QH RH SH TH UH VH WH XH YH ZH `H  I .I +I @I #I $I %I &I *I dG =I -I ;I >I ,I 'I )I !I ~I {I ]I ^I /I (I _I :I Nz <I [I }I |I 1I 2I mG 3I 4I 5I Vz 6I 7I 8I 9I 0I aI bI cI dI eI fI gI tw hI pm ;F iI ^y jI ;A T( (a kI u[ !l vD lI m8 ^l ww mI nI Cm oI }d pI Ue =q qI }d rI }d sI tI uI 7t vI Rr wI xI 8t yI by Gb zI AI BI CI DI EI Qr FI GI HI vD II JI KI >7 LI ~i MI 74 P5 8n Ub ^f NI OI !n PI N[ QI )c 1n RI Ro SI TI UI sd pl VI WI  ~ XI S2 YI g< ZI `I  J .J +J [H @J 7] Xb #J &x $J Mt }H %J J4 w, &J :s So pv *J =J ]x &E -J ;J uA >J ,J 'J )J !J ~J wq {J xq 0C wi ]J ^J /J 83 (J _J :J <J [J }J |J 1J 2J 3J 4J 5J yq IA 5s %{ .! 6J $u 4k v: 7J qx 8J bx 9J 7c 8s :E 0J UA aJ OC dC dc bJ cJ Y4 `q dJ 6z eJ +( &m fJ `v gJ hJ iJ jJ kJ lJ mJ nJ oJ pJ qJ rJ sJ tJ uJ vJ wJ xJ yJ zJ AJ BJ `v Y1 CJ I7 DJ 6p EJ Jq xq ]B FJ GJ HJ IJ    JJ                                                                                                                                                                                                                                                                                                                         ",
"                           KJ LJ MJ NJ OJ PJ QJ RJ SJ TJ UJ 2j VJ WJ XJ s! YJ ZJ `J  K }w Tk .K +K @K #K $K %K &K *K =K (D -K ;K >K ,K 'K )K !K mB YE ~K VE {K `E ]K ^K /K |D (K _K :K <K [K }K |K 1K 2K zG tm 3K *F 4K 5K 6K 7K >F 8K @F 9K PG =q 0K ~l aK }d Bw bK )q nI cK dK eK fK gK hK @v wI iK $v jK +i kK lK to Q9 6y ~3 8t Bw <F ig xr mK Fr nK oK pK qK rK sK tK uK vK WB wK NB xK yK zK .| 'C x[ pl :: AK @f Cj BK CK DK wl Q8 Zo b4 EK E8 FK To ^n l| 'H Yb Hg -H Lb |q bl +{ GK HK IK JK KK ){ <x |] S< LK 1v MK MD NK e: @E OK PK QK RK SK TK UK VK WK Z( XK YK ZK `K v'  L .L +L @L Zt Ra Qt #L 4{ $L ;E %L &L *L =L -L ;L >L ,L OF 'L I7 )L (z ~e !L ~L as {L O/ ]~ n] ]L ^L Kv /L (L _L  2 :L hx <L H) dx [L VF pC +2 }L P< |L dH 1L <z 2L oH 3L 4L 5L 6L 7L 8L 9L 0L aL bL cL dL eL fL gL hL iL jL kL lL mL nL oL pL qL rL sL tL uL }z &u vL l> 9p wL ~G xL yL zL AL BL CL VC DL                                                                                                                                                                                                                                                                                                                ",
"                        EL FL GL HL IL JL L6 KL LL G% ML NL OL PL QL  o ,< =a RL SL TL UL VL WL XL YL 1g ZL `L  M Vz |D .M +M @M |D #M $M %M &M *M =M <I -M |D ;M Wz >M ,M 'M )M !M N9 bI ~M sm 1K (y {M ]M sm ^M /M (M _M :M (y )F <M vm [M }M |M 1M 2M $v =q ;l *i 3M 4M KB T( (a zb =q [4 }d _o 5M *i 6M 7M 8M <o [d +| KB <F 9M ;l E5 oI m8 Iw 0M E1 aM bM cM dM eM fM _4 Fw gM 34 hM iM h1 |F Nj !C *n jM #k Ey kM lM mM nM d1 i< ul m< ;0  k R5 7i Xb oM Ro pM qM rM Sg sM >x R! tM uM >n vM wM 4i 8v 2] 74 xM V5 yM 7] '_ zM `D AM mA vF sl di mF BM CM DM EM FM GM HM IM JM N4 KM LM MM B^ NM OM PM QM RM SM TM UM VM WM XM YM OF &_ +r u: (p W/ ZM Ul bx l> nx `M  N .N Y/ jn +N @N _L #N $N QA }L %N i: x| &N ^E +2 }L %N *N *( =N fH -N ;N >N ,N 'N )N !N ~N {N ]N ^N /N (N _N :N <N [N }N |N 1N 2N 3N 4N 5N 6N 7N 8N 9N 0N aN bN cN dN eN fN gN hN iN jN kN eE ]p ts lN mN IC nN oN pN qN rN sN                                                                                                                                                                                                                                                                                                       ",
"                     tN uN vN wN rE xN yN zN AN BN CN DN EN FN GN HN IN @] JN KN LN MN NN ON PN QN RN SN TN 3o UN VN WN XN YN ZN `N  O .O uG +O >K |D @O #O tG $O tG ,M %O &O qB *O =O -O !y ;O WE >O [M ,O wB 'O @F 6K Op )O gr Tz cI /o (y !O ~O !F {O ]O ^O /O 2M :y (O _O :O qI <O #v ~O [O }O |O 1O 2O 3O 4O fK wD 5O {O 6O qI wI |d $v 7O _l 8O 9O 0O aO bO cO dO eO by fO v[ Eg gO hO iO ~C jO sa kO II  q lO mO nO oO pO ,H ai %0 Ub bF W2 qO Zb rl rO sO `r 4a tO `I uO vO wO xO yO zO 54 AO BO eF rO CO DO 9i EO d< Oo 5] FO GO HO IO JO KO LO MO {H NO (C iv OO PO QO RO SO TO UO VO WO XO RM &{ 'J YO ZO 6C J/ `O  P V< A^ 2{ .P w: jC Pv lC +P @P #P $P %P &P *P =P M/ eC fx pC t| -P ;P z^ ;u >P TA 5k .N ax ,P 'P )P !P SF ~P yv {P H) ]P ^P /P (P _P :P <P [P }P |P 1P 2P 3P |N 4P 5P 6P 7P 8P 9P 0P aP bP cP dP eP fP gP hP iP jP kP lP mP nP oP pP =G qP rP )B sP kx tP uP ch vP wP xP yP zP AP                                                                                                                                                                                                                                                                                                 ",
"                     BP CP DP EP FP GP HP IP JP KP LP MP NP OP PP QP RP SP TP UP VP WP XP YP ZP `P  Q .Q +Q @Q #Q $Q %Q >K &Q *Q =Q -Q +O =M ;Q >Q ,Q 'Q )Q uG !Q ~Q {Q ]Q ^Q /Q (Q 2I (o 5D )y QG 1K aj _Q :Q [y <Q P9 [Q hj }Q 2K |Q 1Q 2Q ej }M 3Q G5 4Q 6K &A 5Q :O +A dD 4Q ir &A br +F rj 6Q 7Q 8Q 9Q wD 0Q aQ 6O ~A bQ cQ dQ UG IB wI Re vb eQ 4l fQ gQ hQ iQ <4 jQ kQ 5t lQ mQ nQ oQ OD pQ -| Zr qQ wM rQ sQ tQ uQ vQ `w wQ +k hl zy QD xQ eq O8 sd Ub @k OD yQ zQ AQ BQ g< CQ Zp DQ Km EQ FQ GQ HQ NI IQ Vj JQ `9 KQ LQ MQ NQ `I OQ PQ QQ wy RQ SQ w' TQ UQ VQ WQ XQ YQ ZQ `Q  R .R +R @R LM #R B^ $R D) %R &R Ot *R /6 (6 =R -R ;R >R ,R 'R )R !R ~R {R ]R ^R /R B, 9] v: W/ (R _R :R T/ <R TA  N ~P 8: [R }R dx !P |R pC 1R 2R ^z ]P (E 3R XA 4R rC 5R 6R 7R 8R 9R 0R aR bR cR dR eR fR gR hR iR jR kR lR mR nR fP oR pR qR rR sR 3N tR uR vR wR xR yR zR AR BR CR DR ER +N FR GR HR (P IR JR KR LR MR NR OR PR QR                                                                                                                                                                                                                                                                                     ",
"                  RR SR TR UR VR WR Ox C; XR YR ZR `R  S .S +S @S #S $S %S &S *S =S -S ;S >S Lh ,S 'S )S !S ~S {S ]S %Q ^S /S (S _S +M :S <S [S }S |S lB 1S 2S 3S 4S 5S 6S 7S 8S 'M &O Fp 9S Uh 0S aS ,t )M bS cS dS eS !t fw Pz fS gS P9 hS 4D Op wD {M gS iS jS OG kS hD lS ~O mS Pu xm Vp nS oS 3d pS qS rS Pu dS ~t sS tS wD uS ~A Nu Zm rj vS wS xS yS zS AS vD Lo Sm mQ BS CS DS Wm ES FS GS HS IS cl JS KS LS MS NS OS PS QS .n PD 74 5q ;| yM RS id zy {f oF SS JI TS US +C Dy VS WS XS YS ZS `S  T .T `u +T @T NB #T |l B/ PO $T %T &T ZI *T >x =T tF -s -T ;T >T ,T 'T OO %c )T !T ~T {T ]T 7C CK @L ^T MM /T |H Q! -R aH (T _T :T <T [T }T |T 1T 2T 3T 4T 5T 6T 7T 8T 8: u, 9T Bi 0T jH ~E aT KA bT 6J fn nH cT uf dT ~L eT fT 7s ms 2L gT hT 6R iT jT kT lT mT nT oT pT qT mR rT sT tT uT vT wT xT yT zT AT BT CT DT ET FT GT HT IT JT oT KT LT aN MT NT OT PT fN QT hN RT ST TT :P UT VT WT XT YT ZT `T  U .U +U @U #U $U %U                                                                                                                                                                                                                                                                         ",
"                  &U *U =U -U ;U >U ,U 'U )U !U ~U g+ {U ]U ^U /U (U _U :U Q, <U _- [U }U |U 1U 2U 3U 4U 5U ^S 6U [S %Q 7U 8U 9U 0U aU bU cU dU eU fU 8S gU hU iU VE 'K jU kU lU mU Mz nU oU dr pU !Q *O qU 5S oU }Q aS )F Zh rU sU cI 1K ag )F {y ar tU uU vU hr wU :y dj /l Oe xU 8o Nu yU zU %A :O AU -A ^y BU ;O ag _o jS <O BB cD UG CU DU EU FU GU 0O q1 m8 HU qr IU JU oo Xm KU 'q  v LU MU Ib q8 NU OU PU QU RU SU TU UU 5d <l {7 j1 VU WU XU qy YU 8n ZU 7q _v `U  V .V 0v KQ +V @V #V w' $V %V AQ WQ &V *V =V 1q -V AQ ;V >V ;C ,V 'V ;c 76 bf )V O| SK !V ;{ OO ~V {V ]V ^V /V (V _V :V <V [V }V |V `K v'  L 1V ^T 2V 3V 4V 5V 6V 7V 8V 9V 0V aV bV cV dV eV fV gV hV MA fn @z iV jV kV lV mV NA nV oV uf ~B Vv VA qP pV qV rV sV tV ,N KT uV vV wV xV yV zV AV BV CV DV EV FV vR GV HV IV JV KV LV MV NV OV PV QV RV SV TV UV VV WV XV YV ZV `V  W .W +W @W mR #W $W nP %W &W *W =W -W ;W >W ,W 'W )W !W QV ~W {W ]W ^W /W (W _W :W                                                                                                                                                                                                                                                                   ",
"               <W [W }W |W 1W 2W 3W 4W 5W 6W 7W 8W 9W 0W aW bW cW dW eW fW gW hW iW jW kW lW mW nW oW pW qW rW ^S dU sW tW uW vW wW xW yW 'Q zW AW [S BW CW :S )Q ;M oB DW EW FW GW VE lB HW IW qB JW -K FW KW `E LW qU 9S _Q MW NW OW uB xG PW QW 0Q RW )F >t {M <M xG SW <O 2o TW UW VW LB WW -A Mu .A XW Xh 'l gj ar )t Nu YW PG ZW `W  X .X +X @X #X $X lo gM pD %X &X PB *X so =X -X ;X >X qo `u ,X tr 'X IS ~i )X el !X qg #| ~X F[ <4 {X ]X ba yj Mo ra ^X /X Eg (X _X :X <X [X }X LS R! |X WQ 1X O! HO 2X 3X Q2 vO GQ ]V 4X Mg !6 2] !H wo gq 5X B) iv 6X ,f 7X WQ RQ 8X >T 9X 0X aX RO bX cX dX eX fX gX hX iX jX kX lX mX nX oX pX qX rX :T sX tX uX vX wX xX *L J) @z iV yX >R zX AX BX CX DX EX FX z' #u Av GX [J HX IX JX KX LX MX NX OX PX QX RX SX TX UX VX GT WX XX YX ZX `X  Y .Y +Y @Y #Y $Y %Y &Y mR *Y =Y -Y ;Y >Y ,Y 'Y )Y !Y ~Y {Y ]Y ^Y /Y (Y _Y :Y <Y [Y }Y |Y 1Y 2Y 3Y 4Y 5Y 6Y 7Y 8Y 9Y 0Y aY bY cY dY eY J) fY gY hY iY jY kY lY                                                                                                                                                                                                                                                       ",
"               mY nY oY pY qY rY sY tY uY vY wY xY 7@ }; yY zY AY BY CY DY EY FY GY HY IY JY KY LY MY NY OY PY QY RY SY TY UY  O VY WY gU XY YY ZY -M `Y  Z 'Q .Z +Z @Z #Z ~K VE $Z %Z &Z *Z $O }Q ,M =Z -Z ;Z IW >Z /Q ,Z 8K  F 'Z )Z =y !Z 1Q dS ^M ~Z {Z ]Z ^Z !y Op cD _o ~A /Z (Z _Z -O 2K Me :Z <Z aQ vm [Z .A PW /a _o }Z Xe |Z 1Z 2Z <a 3Z 4Z cg 5Z }M pj 6Z 7Z {] ey 8Z 9Z /X 0Z ZG +| Bw aZ xK bZ cZ (] 5q (: vy Im A[ :F 54 dZ :A eZ fZ o8 gZ Mb |A Vr >v hZ iZ jZ Aj kZ lZ mZ nZ lQ oZ pZ +C 3l qZ /v fF rZ sZ tZ .n {q uZ RD +k SK GO vZ wZ Km xZ yZ XS O! zZ  J -V 7X AZ BZ CZ DZ EZ FZ GZ HZ IZ JZ KZ LZ MZ NZ OZ PZ ^T QZ RZ SZ TZ UZ VZ WZ XZ YZ kX ZZ `Z 4{ x] IF I4  ` .` +` @` #` $` %` &` *` =` -` ;` >` ,` '` )` !` !R PX ~` {` ]` ^` /` (` _` :` IT <` [` >Y }` |` 8P hR 1` 2` 3` 4` 5` 6` 7` 8` 9` 0` a` b` c` d` e` f` g` h` i` j` d` k` l` m` n` o` p` 'Y q` r` bY hL s` t` u` v` zT w` x` y` z` A` B` C` D` E` F` G` H` I` J` K` L` M` N` O`                                                                                                                                                                                                                                           ",
"            P` Q` R` S` T` U` V` W` X` Y` CY Z` b+ `` 0-   .. .+ .@ .# .$ .% .& .* .= .- .; .G+ > ., .' .) .! .~ .{ .] .^ ./S / .( ._ .,M XY : .< .gU < .[S [ .} .qG | .~K 1 .2 .1 .0U 3 .$M 4 .~Q 5 ./K 6 .7 .8 .@l @F 3I IW qG 9 .dw ,t uB qw 0 .MG ag 4D a .b .fS uB HB c .HB d .QW PW rm iD )O P9 [Z 8g sB e .dI }y [O +i Qu VW f .XG g .h .i .nj <o bt SG dQ j .bK |y pD k .7< l .QB VB =q m .n .o .p .`u wo q .BS CD ly r .L[ s .Pw tg t .Bb uD u .-n v .#| 4t w .:F }i x .y .NS z .A .B .C ..V D .Pg E .+} 8i 1] nq QD S9 F .NB aq NI G .H .xZ yZ I .OS J .K .L .M .N .O .P .Q .R .S .T .U .V .nZ W .X .Y .Z .` . ..+R ...tA +..@..#.. ..$..%..jX &..ZO NM *..5{ 9C rn 4H K4 =..-..;..>..,..xX *` =` '..)..{R !..~..{..]..^../..(.._..:..<..[..}..|..1..2..<` 3..4..5..'Y 6..7..8..9..0..a..b..c..d..e..f..g..h..i..j..k..l..m..n..o..p..q..r..s..t..u..v..w..x..y..z..A..B..C..D..E../Y F..4N G..H..I..J..K..L..M..N..O..P..*W Q..R..ok S..Tl FH @w T..U..V..W..X..Y..Z..                                                                                                                                                                                                                                 ",
"            `.. +..+.++.@+.#+.Y} $+.%+.&+.*+.=+.-+.;+.>+.,+.x+ '+.)+.!+.~+.{+.]+.^+./+.(+._+.:+.<+.[+.}+.|+.1+.2+.3+.4+.5+.6+.7+.8+.9+.~I 0+.>K /S a+.b+.uG ]o c+.Oz Nz d+.9+.e+.f+.+M g+..O h+.i+.7 .j+.2I 8S Du wG >O 7K 6 ._D WE k+.tm pU |Z l+.m+.n+.o+.IG 6 .p+.q+.UW r+.^Z DB ;O fr xG om vB ~t ow !O s+.ar wm t+.3D :y nj u+.v+.w+.x+.y+.We z+.8< #v PG 5y 2F oj &X A+.sD v8 ey ,A R9 /X *v B+.JI C+.qr D+.E+.r .=i Ko @| Gr t .34 F+.G+.H+.@| [l I+.cl 1t }A |A 5t lv P .J+.K+.}: =| vO VS `( F/ I+.Bg 7v U5 S2 L+.Rg M+.N+.O+.,f P+.Q+.R+.S+.yO K .|l T+.U+.V+.W+.X+.Y+.}X Z+.`+. @..@.+@.@@.#@.$@.uQ %@.DM -T &@.*T !V  V *@.=@.-@.;@.>@.Gy (6 Rt [x ,@.b] ~[ 'J UM '@.)@.!@.~@.{@.]@.^@./@.(@._@.:@.[Y <@.[@.}@.|@.1@.2@.3@.4@.5@.6@.7@.8@.9@.0@.a@.b@.c@.d@.e@.f@.g@.h@.]Y i@.j@.k@.l@.m@.n@.o@.v..p@.q@.d` r@.s@.t@.u@.v@.w@.x@.y@.z@.A@.B@.C@.D@.E@.F@.G@.H@.I@.H@.J@.K@.L@.M@.N@.O@.P@.Q@.R@.S@.T@.uR U@.V@.W@.AV X@.Y@.Z@.`@. #..#.+#.ts @#.5p ##.$#.VT %#.&#.*#.=#.-#.;#.>#.                                                                                                                                                                                                                     ",
"            ,#.'#.)#.!#.~#.{#.]#.^#./#.(#._#.:#.<#.[#.Y` }#.|#.1#.* .2#.3#.4#.5#.6#.7#.8#.9#.0#.a#.b#.c#.d#.e#.f#.g#.h#.i#.j#.k#.l#.@M _S vW m#.n#.,Q >K o#.gU $M 0U i+.|S Nz [D p#.q#.#O +O r#.Oz s#.&t t#.u#.*O 6S v#.2D >y )y w#.x#.y#.z#.A#.B#.C#.D#.E#. A F#.G#.E#.H#.kj 6K I#.J#.K#.L#.M#.zG er Yh ej jr ~t :Z _o {y Em N#.O#.7D P#.Q#.zw R#.ag rS LB +F S#.wI Bw <F yb T#.U#.V#.~l W#.KU X#.V( gM Y#.Z#.&X `#.Fr (A mo _a /F s8 N5 II  $..$.Fw Ab Y#.+$.@$.:7 Yw uj #$.'n $$.'T %$.qQ &$.*$.MU jO Vj UU !H =$.Oj +f #V -$.;$.>$.Lm vM MQ d1 -$.,$.'$.)$.!$.~$.{$.]$.^$./$.($..@._$.:$.<$.[$.}$.*@.|$.$T 1$.]H fA 2$.6X (X 3$.;T 4$.5$.UK Ry }C <0 u< _x 6$.7$.VO WO 8$.9$.0$.YZ kX a$.b$.c$.d$.e$.f$.g$.h$.i$.j$.k$.l$.m$.b@.n$.o$.p$.q$.r$.s$.t$.u$.v$.w$.x$.y$.z$.A$.B$.C$.D$.E$.F$.G$.H$.I$.J$.K$.y..L$.M$.N$.O$.P$.Q$.R$.S$.T$.U$.V$.W$.X$.Y$.Z$.`$. %..%.+%.@%.#%.$%.%%.&%.*%.WV =%.-%.;%.>%.,%.'%.)%.!%.~%.{%.]%.^%./%.(%._%.:%.<%.[%.}%.|%.1%.2%.3%.4%.5%.6%.7%.8%.9%.0%.a%.b%.c%.d%.                                                                                                                                                                                                               ",
"            e%.f%.g%.h%.i%.j%.k%.l%.m%.n%.o%.p%.q%.r%.s%.t%.u%.ON v%.w%. ) x%.j- y%.z%.!#.A%.B%.C%.D%.E%.F%.G%.H%.I%.J%.K%.F%.g#.~ .L%.M%.N%.O%.P%.Q%. Z R%.S%.T%.U%.V%.lB ^Q 'Q =M W%.X%.,Q WY Y%.|D Z%.>Z nU sG `%.-Z {Q  &.6 .!Z Yz [o .&.+&.@&.#&.$&.%&.&&.*&.n+.=&.-&.;&.Uh 7K M#.>&.,&.,t uB qU '&.(y Op O9 ]y )&.!&.~&.{&.]&.^&./&.(&._&.jS -A :&.aj !O ~O UG *A =q V#.~l zw ]l Bw ww )q @v <&.oI m8 Tu v8 Cw IB YG [&.}&.W#.0l |&.1&.vj Bb 2&.ZG  f 3&.V( t .4&.;X 5&.6&.dy 7&.8&.,V 9&.*s qj 0&._: +k &0 a&.iv b&.(X oF c&.yO ._ +{ 2X d&.VS hZ e&.f&.g&.h&.lZ i&.j&.k&.l&.m&.EZ FZ n&.o&.V .p&.eA *$.w' ,T 'T q&.r&.s&.t&.;x u&.v&.w&.kA YK x&.y&.z&.A&.B&.C&.D&.E&.KZ F&.G&.H&.I&.J&.K&.L&.M&.N&.O&.P&.{R Q&.R&.S&.T&.w$.U&.V&.W&.X&.B$.Y&.Z&.`&. *..*.+*.@*.#*.$*.%*.&*.n@.**.I$.=*.-*.y..;*.r..>*.,*.'*.)*.!*.C$.~*.{*.]*.^*./*.(*._*.:*.<*.[*.}*.|*.1*.2*.3*.(*.4*.5*.6*.7*.8*._..9*.0*.a*.b*.c*.d*.e*.f*.g*.h*.i*.j*.4P k*.l*._` m*.n*.o*.p*.q*.r*.s*.S..6k t*.!u u*.v*.w*.x*.y*.z*.A*.B*.                                                                                                                                                                                                         ",
"            C*.D*.E*.F*.G*.H*.I*.J*.K*.L*.M*.N*.O*.P*.Q*.R*.S*.DN T*.U*.V*.W*.X*.Y*.Z*.`*. =..=.+=.b#.@=.#=.$=.%=.&=.*=.==.-=.;=.>=.,=.'=.)=.~ .!=.S%.~=.SY {=.]=.^=./=.2 .(=.8+._=.:=. Z <=.[=.>K ~I 2 .}=.&O Y%.|=.1=.(D kB dr 't )O 2=.3=.4=.5=.6=.7=.8=.9=.0=.0S k+.a=.b=.>&.c=.,t d=.e=.a=.Uh v#.1Q )F Pe hj (&.yB f=.g=.h=.i=.j=.+i [O )t !t 3Q Qu _&./l =q {O k=.[d 1M lS ~O l=.kI m=.~3 yr n=.c1 yI 8O vj k< -i Zm `#.tD 0y gM ly &v W9 1M o=.yj t .A[ p=.u .qo ZB 6t q=.BS r=.}: s=.t=.:7 Pw |q &s wj py Xm u=.hZ e&.!C ,V v=.5&.mZ w=.GQ x=.y=.z=.A=.B=.C=.D=.E=.F=.G=.H=.I=.LO J=.K=.=c L=.HO M=.BM N=.RO O=.P=.UK |C Q=.<0 R=.S=.wa T=.U=. V V=.o&.W=.X=.Y=.Z=.`=. -..-.VZ ~@.+-.@-.#-.tX $-.%-.]R &-.*-.=-.--.;-.>-.,-.'-.)-.!-.}@.~-.{-.]-.^-./-.(-._-.:-.<-.[-.}-.|-.1-.2-.3-.4-.{Y 5-.6-.7-.8-.9-.0-.a-.b-.c-.d-.e-.f-.g-.h-.i-.j-.k-.l-.m-.n-.o-.p-.q-.[*.r-.s-.t-.u-.v-.w-.x-.y-.C@.z-.@Y G..A-.B-.C-.D-.E-.-%.F-.G-.H-.hR I-.J-.K-.L-.M-.N-.O-.P-.Q-.R-.S-.yA T-.U-.V-.kx tP W-.X-.0%.Y-.%U                                                                                                                                                                                                    ",
"            Z-.`-. ;.i%..;.+;.@;.#;.$;.%;.&;.*;.=;.-;..K ;;.>;.,;.';.);.!;.~;.{;.];.^;./;.RN (;._;.I%.:;.<;.[;.};.|;.1;.2;.3;.4;.5;.6;.7;.8;.9;.,=.0;.a;.b;.c;.=M d;.e;.f;.g;.h;.R%.i;.j;.k;.l;.zW m;.n;.o;.$Z }=.)Q `E p;.fS q;.r;.s;.t;.u;.v;.w;.x;.y;.z;.Xz [M wb iw _M A;.d=.B;.C;.AG >&.M#.dI gS pm wU (y gr D;.E;.'3 F;.G;.H;.0Q Sz iw _Z kw aQ I;.jS OG J;.Nu K;.wD &A L;.]O qI 6Z M;.Ue N;.U9 ig FU Dm ~3 8t O;.7t %i [F <&.W9 8t Tm ~O 9M a1 wr :4 P;.`9 y[ .f V( oD OB zK @A Q;.dy R;.S;.4&.@f G+.<l Lb T;.5A U;.`U ~i V;.W;.1i (v NB a&.X;.Y;.Z;.`;. >..>.+>.@>.#>.$>.%>.&>.*>.=>.->. J /f q&.PO FO x&.;>.xa >>.,>.y' &R '>.)>.!>.~>.{>.]>.W=._f ^>./>.sQ (>._>.:>.<>.[>.}>.|>.1>.2>.3>.4>.5>.6>.7>.8>.9>.0>.a>.b>.c>.d>.e>.f>.g>.b-.h>.i>.j>.k>.l>.m>.U&.n>.o>.p>.q>.r>.s>.t>.u>.v>.w>.x>.y>.z>.A>.B>.C>.D>.E>.F>.G>.H>.I>.J>.K>.L>.M>.N>.O>.P>.Q>.R>.S>.T>.U>.V>.W>.X>.Y>.Z>.`>. ,..,.+,.@,.#,.$,.%,.&,.B>.*,.s$.=,.-,.;,.b*.>,.,,.',.),.!,.~,.3P {,.],.sR ^,./,.(,._,.tP :,.<,.dz [,.},.|,.1,.2,.3,.4,.                                                                                                                                                                                             ",
"            5,.6,.7,.8,.9,.0,.a,.b,.c,.d,.e,.f,.g,.h,.i,.j,.k,.5; l,.m,.n,.o,.p,.q,.r,.s,.t,.u,.v,.w,.x,.y,.z,.A,.B,.2;.C,.D,.E,.F,.G,.H,.I,.J,.H%.K,.)=.L,.M,.N,.O,.{=.P,.Q,.R,.S,.T,.Eu U,.V,.Mz Iu TE ,M W,.X,.ZE 5S ]I (D =y rU Y,.Z,.`,. '..'.+'.@'.uB #'.eK 2o $'.%'.&'.AG L#.b=.dr *'.,t JW ='.|Q -F HB -'.;'.>'.,'.''.)'.!'.jw 2o s+.mj ^t vB vU hr ~'.r+.{'.PG Ou }O bQ SG 1o lS aQ ig }O ]'.~3 Ze ^'./'.Cw [F <&.oI -i =v Ue yI U9 p8 Rr fy `9 ('._'.V( %i :'.k .zr A+.<'.(A ['.}'.Ib |'.1'.Mj 2'.M2 3'.zO 4'.5'.6'.av 7'.8'.d1 X( Kb Xm 9'.#q 0'.a'.b'.c'.d'.e'.f'.g'.h'.b'.i'.j'.k'.l'.DK x=.m'.n'.o'.:s p'.q'.E&.r'.s'.t'.u'.v'.w'.x'.y'.z'.A'.B'.C'.D'.E'.F'.G'.H'.I'.J'.K'.C&.L'.M'.N'.O'.P'.Q'.R'.S'.T'.U'.V'.W'.X'.Y'.Z'.`'.X&. )..).+).@).#).$).%).4@.&).*).=).-).;).@).>).,).').)).!).~).{).]).^)./).()._).p-.:).<).[).}).|).1).2).3).4).5).6).7).8).9).0).Q>.a).Q>.b).c).d).e).f).g).h).i).j).k).l).m).n).o).p).$%.r` q).r).&%.s).t).u).v).eR w).x).y).z).jR A).B).C).D).E).F).G).H).I).J).K).L).M).N).O).                                                                                                                                                                                    ",
"         P).Q).R).S).T).U).V).W).X).Y).Z).`). !.f+ .!.+!.@!.#!.$!.%!.&!.*!.=!.-!.;!.>!.,!.'!.)!.!!.~!.{!.]!.^!./!.[;.(!.3;._!.:!.<!.[!.G,.}!.|!.%=.1!.2!.3!.4!.5!.6!.7!.R%.@=.8!.9!.VY 0!.xW iU a!.'K b!.c!.d!.k;.]I e!.f!.2 .c!.sU g!.Yz h!.AB i!.dw j!.k!.l!.{M m!.cI *Z n!.v#._M ,t C;.bw FW M#.,t Xz ,O o!.%F p!.q!.r!.s!.cI o+.Yh )O JG [M t!.Op ag 3I u!.]y :&.OG kS Nu K;.cD :O {O ]O v!.m8 w!.c1 -v L;.x!._l yr ym TG y!.U9 p8 _l yr `e m8 z!.7t gM ,A Z#.rD 8y A!./'.B!.Er :F Y#.-i ct 2'.C!.U9 D+.Y#.Eg >q ID go 8d :f }'.D!.W9 <l E!.9t h'.F!.G!.H!.x .W;.lQ KI I!.J!.K!.L!.M!.N!.O!.RU ,n K!.P!.Q!.VQ R!.zd S!.T!.U!._>.w'.V!.W!.X!.DZ Y!.Z!.`!.E'. ~.G'..~.+~.J'.@~.#~.&R $~.%~.&~.*~.=~..-.-~.;~.+-.>~.,~.'~.)~.!~.~~.{~.]~.^~./~.(~.&*._~.-Y :~.<~.[~.}~.|~.1~.2~.3~.4~.5~.6~.7~.8~.9~.0~.a~.b~.c~.d~.K>.e~.f~.g~.h~.i~.j~.k~.l~.m~.n~.o~.p~.q~.r~.s~.t~.u~.v~.w~.x~.y~.z~.A~.B~.C~.D~.E~.F~.G~.H~.I~.J~.K~.L~.M~.N~.O~.P~.Q~.R~.S~.T~.U~.V~.W~.X~.Y~.y>.Z~.`~. {..{.+{.@{.#{.${.%{.&{.*{.={.-{.;{.>{.4L ,{.'{.){.!{.                                                                                                                                                                              ",
"         ~{.{{.]{.^{./{.({._{.:{.<{.[{.}{.|{.1{.2{.3{.4{.5{.6{.7{.8{.9{.0{.a{.b{.c{.d{.e{.f{.g{.h{.i{.j{.k{.l{.m{.n{.o{.p{.q{.r{.s{.t{.u{.v{.w{.x{.y{.z{.A{.B{.C{.D{.( .E{.F{.G{.sW H{.8U >K 2S I{.J{.UE #M 8S K{..M L{.VE Nz 5 .M{.=Z N{.O{.P{.Q{.R{.S{.T{.P9 eS ;t U{.V{.W{.&'.!'.7 .bS OW X{.rU Y{.Z{.`{. ]..].+].@].#].$].uB xG %].,Z ~t (y )F ej gw ;F _Q 3Q Np fK :y {'.jS OG }O /O ~'.~O UG &].*].~A =].|M 1M (a T#.=q ;l -].v!.TG ;A ;].>].5Z }M oI Ym *X uw %v *A :O  T PB Lo l .,].*q '].ly my =i )].!].~].{].zZ JS '$.Ar T9 6t ]].F[ ^]./].(]._].)$.7'.:].<].[].}].|].)$.1].2].3].4].5].(] 6].SS Lm f&.J .7].8]. @.9].0].a].mO b].Z!.c].d].e].f].g].:$.h]._V i].XO j].&{ k].l].m].2>.n].o].p].q].r].s].t].u].v].w].x].y].+).@).z]._~.A].B].C].D].E].F].G].H].I].J].K].L].M].N].O].P].Q].R].S].j-.p-.T].l-.U].V].W].X].Y].Z].`]. ^..^.+^.@^.#^.$^.%^.&^.*^.=^.-^.u~.;^.>^.,^.'^.)^.!^.~^.{^.]^.^^./^.(^._^.:^.M>.<^.a).[^.}^.|^.1^.2^.3^./*.4^.5^.6^.7^.8^.9^.@{.r).0^.f..a^.b^.c^.d^.e^.f^.g^.h^.i^.j^.k^.l^.m^.n^.o^.p^.q^.r^.                                                                                                                                                                        ",
"         s^.t^.u^.pY v^.w^.x^.y^.z^.A^.B^.C^.D^.E^.F^.G^.H^.I^.J^.K^.L^.M^.b{.N^.O^.P^.Q^.R^.S^.T^.U^.V^.W^.X^.Y^.Z^.2;.]!.`^. /../.+/.@/.:;.#/.z{.$/.%/.&/.*/.=/.-/.;/.>/.,/.'/.)/.!/.~/.2 .P%.l;.%Q mB 8S ~I {/.yW mB ]/.^/.X,.e+.//.=Z (/.{Q ;M w#.9S 2K _/.$].%O :/.</.[/.$O }/.|/.Q{.g!.k+.1/.2/.Y,.3/.4/.5/.6/.7/.N{.7K bS @l mG zG 6K ~y 8/.hj 1D b=.bD 9/._o LB I;.hS .A 0/.Qu a/.PG b/.c/.d/.e/.1o K;.5Q b/.f/.*i zw yD M;.T( &A +A ]'.lD g/.xb T( l=.zb !A pj bQ JB @i AD R;.%i [F YG oI Sm o=.9t ['.h/.k .i/.j/.k/.{] l/.3'.zO {: N5 *X m/.n/.BD o/.p/.q/..| <l GS so CQ U;.vd r/.s/.do hO Mm t/.<].u/.v/.w/.x/.P .y/.R .z/.A/.C'.B/.C/.D/.z'.#@.E/.F/.G/.H/.I/.J/.K/.-..L/.M/.4>.N/.O/.P/.Q/.R/.S/.T/.U/.V/.>Y W/.&).X/.Y/.Z/.`/. (..(.+(.@(.#(.$(.%(.&(.N&.*(.=(.-(.;(.>(.,(.'(.)(.!(.p-.~(.{(.](.^(./(.((._(.:(.<(.[(.}(.|(.1(.2(.3(.4(.5(.6(.7(.8(.9(.0(.a(.b(.o~.c(.v~.d(.e(.f(.g(.h(.t~.i(.j(.{^.k(.l(.m(.n(.o(.p(.q(.V>.r(.s(.s(.t(.u(.v(.w(.x(.y(.z(.A(.B(.C(.O-.D(.XX E(.F(.G(.H(.I(.J(.K(.eP L(.M(.W@.N(.O(.o^.P(.Q(.R(.S(.                                                                                                                                                                  ",
"         T(.U(.V(.W(.X(.Y(.Z(.`(. _.._.+_.@_.#_.$_.%_.&_.*_.=_.-_.;_.>_.,_.,_.'_.)_.KY !_.~_.{_.]_.^_./_.(_.__.:_.]!.<_.[_.;=.}_.|_.1_.E,.5;.2_.f#.3_.7;.6;.>=.4_.wW 4!.5_.8+.SY 6_.7_.-M 8_.cU 9_.0_.,K ~K [/.a_.b_.c_.1 .d_.i+.e_.,K f_.$Z JW 5I }/.g_.OW ~Q h_.i_.j_.%Z c_.VE k_.HW &'.qG l_.y#.2/.m_.6/.n_.o_.p_.N{.}/.g_.q_.@F 3I r_.hj Tz QW dr 9/.mj {y vm yG hr 3Q eK kj {y I;.jS s_.kS t_.K;.KG {'.LB OG ~A u_.~'.ag &A 5Q b/.}O bt v_.Nu &A 5Q vI VG w_.7< }d AD gK 9M kI E5 oI -i ;i y[ _'.2a x_.OB qo S( Hw .f 2a Xp ly }&.5d y_.o=.NB ['.MU z_.dF co Br _: gl Dt zO X;..V Q+.~].A_.B_.i'.C_.L!.W;.D_.E_.RU :f F_.G_.H_.($..@.I_.J_.DZ K_.L_.M_.N_.O_.P_.Q_.R_.S_.T_.U_.V_.6>.W_.X_.Y_.Z_.`_. :..:.+:.{..@:.8@.#:.$:.%:.&:.&*.]-.|~.a..z>.*:.=:.-:.;:.>:.,:.':.):.!:.~:.{:.]:.^:./:.(:._:.::.<:.n~.[:.}:.|:.1:.2:.3:.`].r~.4:.5:.6:.7:.8:.7:.9:.0:.a:.b:.c:.d:.e:.e:.f:.g:.h:.i:.j:.k:.l:.m:.n:.o:.p:.q:.r:.d(.4).s:.t:.Q>.u:.Q>.v:.w:.x:.q(.y:.z:.A:.B:.C:.D:.E:.F:.G:.H:.I:.J:.K:.L:.{*.G..%%.M:.N:.O:.P:.Q:.R:.S:.f^.T:.U:.V:.W:.X:.                                                                                                                                                               ",
"         Y:.Z:.`:.2W  <..<.+<.@<.#<.$<.%<.&<.*<.=<.-<.;<.><.,<.'<.)<.!<.,_.~<.{<.]<.^<./<.(<._<.:<.<<.[<.}<.|<.1<.2<.3<.]!.4<.5<.]!.6<.7<.`^.8<.9<.0<.0<.a<.#=.b<.c<.d<.e<.5_.9_.f<.g<.h<.5_.9!.i<.j<.k<./D l<._D NW W{.m<.1I :I 1I Z%./I &t n<.W{.~Q Y%.o<.$O p<.(Q FW q<.W,.mU r<.s<.t<.u<.v<.%'.w<.x<.y<.z<.d=.$].A;.p;.%'.C;.k+.7K M#.0S qw 'Z A<.Lp 8/.hj PW ow Op 6K Lp hw hj ^Z hr B<.:y C<.jS iI dg hr 3Q Np 0Q PG Ou !l u[ [d 1M D<.aQ Ou AU {a F5 Np <'.$v 9M f/.7O qI g/.`e Ue E<.nD Ab xr 0Z ZB Ko @| 0y x_.Zp F<.5d ~7 `2 yj G<.H<.Ib .| r .I<.J<.K<..0 kF .n UU ZB L<.:X M<.N<.A=.O<.P<.Q<.R<.PU ,n S<.T<.U<.V<.W<.X<.Y<.Z<.`<. [..[.+[.@[.#[.$[.%[.&[.*[.=[.5>.T'.-[.V'.;[.>[.,[.'[.)[.![.~[.{[.][.^[./[.([.%*.z]._[.:[.<[.[[.}[.|[.1[.2[.3[.4[.5[.6[.7[.8[.9[.0[.a[.b[._:.c[.d[.e[.f[.g[.h[.g(.i[.j[.k[.l[.m[.n[.o[.p[.q[.r[.s[.t[.u[.v[.w[.x[.y[.z[.A[.B[.C[.D[.E[.F[.G[.H[.I[.J[.K[.L[.`].M[.N[.O[.P[.Q[.R[.S[.Q[.T[.U[.V[.W[.X[.Y[.Z[.`[. }..}.+}.@}.#}.$}.%}.&}.*}.=}.-}.;}.>}.,}.'}.)}.!}.~}.:Y {}.]}.^}./}.(}._}.:}.<}.[}.}}.|}.1}.                                                                                                                                                         ",
"         2}.3}.4}.5}..;.6}.7}.8}.9}.0}.a}.b}.c}.d}.e}.f}.g}.h}.i}.j}.(+.k}.l}.m}.n}.o}.p}.q}.r}.s}.t}.u}.v}.w}.x}.y}.z}.A}.B}.C}.D}.E}.{!.F}.G}.H}.I}.J}.K}.L}.M}.N}.O}.P}.5+.8<.Q}.)/.R}.S}.T}.U}.V}.>Q IW W}.q<.vG [/.T%.X}.~K TE e+.[=.Y}.e+.*Z c!.)Z 8 .Z}.`}.VE ]Q a_.7 .$O }/.zW W{. |.fS s<..|.DB +|.!'.X{.@|.|=.k+.a=.M#.>&._M fw Z{.u#.9 .pm 0S qw #|.1Q Yh br Qe Tz $|.|Q TW a/.{y vm )t >F iw ow kj {y [O )l iI %|.Nu lS ~O &|.L;.u[ *|.jI fK /a mj 5M uS =|.hD -|.G5 9M U9 p8 k< uD :l Sm o=.(A CD Zp <&._7 r .O5 2'.gt 34 ft ;|.P;.L[ 0l E/ |q kF .n @f 5i Pg {7 14 f&.>|.,|.'|.)|.Fg !|.N<.g&.~|.{|.]|._].^|./|.(|.G=._|.:|.<|.@[.#[.[|.}|.||.1|.2|.3|.4|.5|.6|.7|.c..8|.9|.0|.t$.a|.b|.Z&.c|.d|./~.e|.f|.+(.g|./~.h|.i|.j|.k|.l|.m|.n|.o|.!:.p|.q|.r|.s|.Z>.t|.u|.v|.w|.x|.y|.z|.k~.s[.A|.B|.C|.D|.E|.F|.G|.H|.I|.J|.K|.G|.L|.M|.z[.N|.O|.P|.Q|.R|.S|.T|.U|.V|.W|.X|.Y|.J|.Z|.Y|.`|. 1..1.+1.c:.@1.#1.$1.%1.l[.&1.*1.=1.-1.;1.>1.,1.'1.)1.!1.~1.^^.{1.]1.E~.^1./1.(1._1.:1.<1.[1.}1.|1.11.21.31.41.51.61.71.81.91.9^.01.{}.a1.H(.b1.c1.d1.e1.f1.                                                                                                                                                   ",
"      g1.h1.i1.j1.k1.G*.l1.m1.n1.o1.p1.q1.r1.s1.t1.u1.v1.w1.x1.y1.z1.A1.B1.C1.HP D1.E1.F1.G1.H1.I1.J1.K1.L1.M1.N1.O1.P1.Q1.R1.S1.<!.:_.T1.U1.V1.9<.W1.X1.Y1.Z1.K,.2_.`1.i#.b;. 2..2.+2.@2.#2. 2.$2.UY 5I 'y %2.&2.m;.-Q oB *2.jU *M =2.f;.-2.;2.iU m;.>2.,2.'2.&2.)2.=y v#.!2.W{.~2.{2.]2.w#./Q j+.v#._M Uz ^2.qU a=.K#.1D Se dr pU tB /2.cI (2.j+.zG 1Q I#.om xG _2.aj 0S /d 2Q fr gr ;F s_.sB _Z Op <M ]y gj Lu 3M hr tS r+.&A jD Oe !l 6o YW Xh <Z N2 Ou [Z Aw F5 dQ YW jD :2.<2.cK ~3 m8 Tm y[ [2.Zp my /X kQ `9 6t 1a tg t .:4 N5 S( Dw ;n tg }2.A[ |2.Y2 s .;n [l 12.34 22.32.42.52.62.Mm 2].72.82.92.02.a2.b2.c2.d2.e2.f2.g2.h2.i2.j2.k2.l2.m2.n2.o2.p2.q2.r2.s2.t2.u2.>-.v2.'-.B$.w2.Z&.x2.y2.c@.z2.A2.B2.C2.D2.E2.F2.G2.H2.I2.J2.K2.L2.M2.h-.N2.O2.P2.9[.Q2.R2.S2.T2. ^.U2.e(.U2.y[.V2.W2.X2.Y2.Z2.`2. 3..3.+3.@3.#3.+3.$3.%3.&3.*3.=3.-3.;3.>3.,3.'3.)3.&3.!3.~3.{3.P|.]3.^3./3.(3.S[._3.1(.:3.<3.[3.}3.D[.|3.13.23.33.43.53.f(.63.73.83.93.y[.03.a3.R[.b3.c3.^^.d3. }.e3.f3.g3.h3.i3.j3.k3.l3.m3.n3.o3.p3.q3.r3.s3.t3.u3.v3.w3.x3.y3.z3.N:.A3.B3.C3.D3.                                                                                                                                                ",
"      E3.F3.G3.H3.I3.J3.K3.L3.M3.N3.O3.P3.Q3.R3.r- S3.T3.U3.V3.W3.X3.Y3.Z3.`3. 4..4.+4.@4.#4.$4.%4.&4.*4.=4.-4.;4.>4.,4.'4.)4.C,.!4.3<.~4.{4.]4.w,.1!.__.^4./4.(4._4.:4.9;.P}.<4.[4.9_.5+.}4.|4.14.T,.!I 24.M{.K{.TE zW 5S oB :I 34.] .44.,/.54.yW (2.jU g+.$O 7 .EW W{.m<.%'.*O ^=.5S L{.}/.M{.#|.64.[D a=.$O v#._M OW 3o Qz C;.bS 7K M#.tG 1Q I#.r_.74.84.$|.0S 94.zG fr xG _2._Q l_.(y Op ub ~y hw Lu yG >F ~'.ag _o 04.5y a4.u_.Mu ': Qp $i rS b4.+F *|.(y #v /a c4.L;.dD zw 6Z `e /'.yI qr oD /X d4.ZG e4.M2 0< gZ f4.g4.h4.Dw i4.NB G<.a1 F+.5i fy T9 6t _'.a1 j4.pj qo k4.l4.m4.t/.n4.o4.p4.q4.r4.s4.t4.u4.v4.w4.x4.y4.z4.A4.B4.C4.D4.E4.F4.G4.H4.I4.J4.K4.L4.M4.N4.O4.P4.Q4.R4.S4./[.u$.:-.e..s$.Y&.T4.U4.V4.W4.X4.Y4.Z4.`4. 5..5.+5.@5.e~.O2.^:.#5.$5.%5.&5.*5.=5.-5.;5.>5.,5.<3.'5.)5.!5.`2.~5..3.$3.{5.]5.^5./5.(5._5.:5.<5.[5.}5.|5.15.}5.25.35.45.55.65.75.85.95.)3.05.a5.b5.[5.c5.d5.e5.f5.g5.h5.i5.j5.k5.l5.m5.n5.o5.^3.p5.q5.d5..1.r5.n[.1(.s5.F[.t5.u5.v5.w5.x5.y5.z5.A5.B5.g3.C5.D5.E5.F5.o(.k-.G5.H5.I5.J5.K5.L5.M5.N5.O5.P5.Q5.R5.S5.T5.U5.V5.W5.                                                                                                                                             ",
"      X5.Y5.Z5.`5. 6..6.+6.@6.#6.$6.%6.&6.*6.=6.-6.;6.>6.,6.'6.)6.!6.~6.{6.]6.^6./6.(6._6.:6.<6.[6.}6.|6.16.26.J1.36.46.56.66.S1.1_.76.86.96.06.a6.<_.b6.c6.d6.e6.,=.f6.g6.h6.] .i6.j6.k6.l6.m6.QY n6.o6.=y p6.q6.<=.r6.-Q s6.t6.u6.v6.7!.u6.WN V%.a+.(2.+M m;.w6.W,.*O }I (2.&Z FW >2.W}.~2.{Q IW t<.x6.oU y6.R{.{Q z6.k+.a=.b=.>&._M h_.[/.k+._2.6 .0S 94.zG Yz 74.r_.pm 0S A6.!Z o+.Yh B6.hj %].QW ^Z cj )F {y ar :&.OG kS Np kw 9/.vm b4.jr C6.Se ;O 1Q Qp }Z {a D6.Aw xb 1o (a PG E6.k< Dm Lo Sm sg 7t x_._a wr |'.Dw v .pt &H m .&v F6.P;.G6. $.M2 1&.x_.!q P;.S( zm H6.'X oZ I6.J6.K6.L6.M6.N6.O6.P6.Q6.R6.S6.T6.U6.V6.W6.X6.Y6.Z6.`6. 7..7.J4.+7.@7.#7.$7.%7.&7.*7.=7.-7.;7.>7.,7.'7.)7.!7.~7.{7.]7.^7./7.(7._7._).:7.<7.k-.@5.:).~(.[7.}7.::.|7.17.27.37.n:.O[.47.57.67.'5.77.E|.C|.87.Z2.97.07.(5.a7.b7.c7.d7.e7.f7.g7.e7.h7.i7.j7.25.[5.k7.25.l7.m7.n7.o7.p7.q7.r7.s7.t7.u7.v7.w7.x7.y7.z7.A7.z7.B7.C7.D7.E7.F7.G7.H7.]3.I7.J7.K7.L7.M7.r5.N7.O7.P7.U|.z[.;1.Q7.X|.R7.x[.S7.u5.T7.;5.m[.U7.V7.l(.W7.X7.Y7.Z7.`7. 8..8.+8.@8.#8.$8.%8.&8.*8.=8.-8.;8.>8.,8.'8.                                                                                                                                          ",
"      )8.!8.~8.{8.]8.^8./8.(8._8.:8.<8.[8.}8.|8.18.28.38.+) 48.58.68.78.88.98.s,.08.a8.b8.c8.c8.d8.e8.f8.g8.h8.i8.j8.k8.l8./!.m8.n8.o8.p8.q8.r8.s8.t8.2<.u8.v8.6;.w8.3+.K}.x8.y8.z8.14.+2.@=.A8.6+.5U B8.C8.AW D8.@M ~I &Z s6.`Y E8.F8.u6.G8.H8.m;.e+.I8.;Z J8.c!./Q K8.b_.L8.=Z M8.s6.mU =y sU n!.}/.LW fS &'.N8.s<.O8.>&.P8.#|.Q8.1=.mU t<.x6.uU K;.R8.S8.J#.K#.T8.A6.zG 1Q Yh U8.xG 9S $|.0S ow |Q )O JG V8.Uh 3Q Np ~'.>t ~y hw ZW [Z !t Me W8.I#.eI vm :&.jI X8.Qu &A /l *].IB *i ~3 8t QB lo Ab Er uD Y8.Cb Z8.yj `8.*q %i /X TB Vr {A wK  9.ig ly &v =n -n o=.0y .9.Wr +9.o .@9.#9.$9.%9.P6.&9.*9.=9.T6.-9.;9.>9.,9.'9.)9.!9.~9.{9.]9.^9./9.(9._9.Z'.!..:9.<9.&7.'-.[9.K(.}9.|9.19.29.39.49.59.69.f-.79.89.99.09.a9.j-.b9.c9.d9.e9.%5.n~.5).N[.[:.p:.f9.>5.g9.h(.C|.)5.C|.h9.67.i9.j9.!5..3.@3.k9._5.d7.f7.l9.m9.f7.n9.o9.p9.q9.r9.s9.t9.u9.v9.w9.x9.m7.y9.z9.A9.B9.C9.D9.E9.F9.G9.H9.05.I9.J9.K9.H9.05.L9.05.M9.N9.O9.P9.Q9.R9.N9.z7.,3.R9.S9.T9.U9.V9.W9.X9.Y9.Z9.`9. 0..0.+0.:3.z[.@0.#0.u5.B|.$0.R[.%0.`[.&0.*0.A~.=0.-0./^.;0.>0.B~.B5.,0.'0.)0.!0.~0.{0.]0.^0.                                                                                                                                       ",
"      /0.(0._0.:0.v^.<0.z; [0.}0.|0.10.20.30.40.50.60.70.80.90.00.a0.b0.c0.d0.e0.f0.a8.g0.h0.i0.j0.k0.l0.m0.=4.n0.o0.p0.q0.r0.s0.t0.u0.v0.w0.n8.x0.y0.z0.A0.B0.C0.<4.D0.k6.E0.F0.G0.H0.^ .z8.I0.J0.K0.L0.RY 5!.M0.eU [S KW N0.]/.O0.P0.Q0.R0.i+.6!.~=.S0.T0.c_.}=.q<.vG m<.s6.g+.a_./Q ~K U0.V0.W{.| .qG 7 .$O W0.g_.q_.X0.fS Y0.(K :I kB a .j!.I#.{I Z0.`0.b=.>&.c=.2Q  a.xG _2.='..a.DB zG 1Q xG om dS +a.QW Op 6K ~y <M JG IG QW iw @a.mj }y QG [Z #a.^Z eK 3D PG 5y L;.}M 2y wI M;.Ue yI Er E5 _l -i =v t8 $a.bo %i Rr Cb zD y_.%a.`m &a.*a.=a.~3 ('.%a.yj -a.[A :F 1y ;a.|].$9.>a.,a.'a.)a.!a.~a.{a.V6.]a.^a./a.(a.L_._a.:a.<a.[a.}a.|a.1a.2a.3a.4a.5a.T/.6a.7a.8a.9a.0a.aa.ba.ca.da.ea.fa.M~.ga.ha.ha.{:.]:.O2.J>.ia.ja.ka.la.ma.na.5(.d:.i5.oa.pa.w5.qa.>5.ra.C|.sa.E|.X2.87.ta.X2. 3.ua.va.{5.]5./5.m9.l9.d7.wa.n9.xa.ya.q9.za.Aa.Ba.Ca.45.Da.E9.Ea.Fa.Ga.Ha.G9.Ia.Ja.Ka.La.Fa.u7.Ma.u7.Na.Oa.Pa.Qa.Ra.J9.Sa.H9.Ta.J9.y7.Ua.y7.Va.Wa.Xa.Ua.Ya.Za.`a. b.T9..b.+b.@b.#b.$b.%b.&b.#0.*b.=b.}3.X9.J|.-b.;b. 1.>b.,b.,b.'b.)b.;0./^.!b.~b.{b.]b.^b./b.(b._b.:b.<b.[b.}b.|b.                                                                                                                                    ",
"      1b.2b.3b.4b.5b.6b.7b.8b.9b.0b.ab.bb.cb.db.eb.fb.gb.hb.ib.jb.kb.78.lb.mb.nb.ob.pb.qb.rb.sb.tb.ub.vb.wb.xb.yb.zb.Ab.Bb.Cb.Db.Eb.Fb.1_.t8.Gb.Hb.x}.Ib.Jb.t{.Kb.K,.Lb.Mb.e#.Nb.Ob.Pb.`1.A8.Qb.J0.Rb.Sb.Pb.Tb.AW Ub./S Vb.W%.Wb.34.ZN : .Eu a!.6!.34.;K Xb.{2.[I .O *Z l<.Z}.-K }=.~Q Yb.]2.(K ]2.Zb.nU n<.W}.~2.`b.Y0.t<.7 .{K  c.n<.jU cS e+.pB .c.iw 94.Q{.d=.rU _2.s_.+a.qw zG 1Q I#.r_.pm a=.$|.mm 6K ~y <M Lp 8/.QW PW ow Op +c.JG @c.RG iw @a.kw 9/.{M LB OG Pu hr K;.cD &|./l uS qI g/.@A 8y y!.U9 #c.Rr <d $c.+v Fr y[ %c.4&.fO _7 mK |F &c._'.Zp 3F -q cy 'A *c.2i I!.=c.-c.;c.>c.,c.'c.)c.u4.!c.~c.g2.{c.]c.^c.@-./c.(c._c.:c.<c.[c.}c.|c.5|.1c.2c.3c.4c.5c.6c.7c.8c.9c.0c.ac.bc.cc.dc.ec.fc.q-.gc.hc.ic.jc.kc.lc.mc.73.g[.i5.x[.J|.i5.i(.pa.s[.F|.nc.T7.sa.'3.C|.h9.E|.oc. 3.Z2.pc.@3.<5.qc.{5.f7.rc.sc.tc.za.uc.vc.za.sc.55.wc.Ea.t9.l7.xc.yc.zc.45.Ac.Bc.Cc.Ka.Dc.Ac.u7.Ec.B9.Ja.Ha.L9.Ma.L9.J9.B7.Fc.Gc.z7.Hc.O9.Ic.Jc.Kc.Lc.O9.Kc.Mc.Nc.Oc.Sa.Pc.Qc.Rc.Sc.Tc.Uc.Vc.Wc.Xc.Yc.Zc.`c. d..d.+d.@d. 1.#d.B|.~3.$d.%d.B|.&d.i9.{5.*d.=d.-d.;d.>d.,d.'d.O2.)d.!d.~d.{d.                                                                                                                                 ",
"   ]d.^d./d.(d._d.:d.<d.[d.}d.x1.|d.1d.WP 2d.'<.3d.4d.5d.6d.7d.8d.9d.0d.ad.bd.cd.dd.ed.i0.fd.gd.hd.id.jd.kd.ld.md.nd.od.pd.qd.rd.sd.td.ud.V^.vd.wd.xd.s0.yd.zd.Ad.Bd.6;.3_.Cd.Dd.I}.Ed.Fd.j#.Gd.Hd.Id.Jd.Kd.Ld.Md.Nd.a;..2.Od.] .6!.Pd.Qd.a;.Rd.Sd.0U Td.Zb.(D i+.Ud.yW W{.Vd.f!.Wd.Xd.T0.Yd.:I KW vG Rz c!.g+.^=.*Z !2.FW M8.f!.Y0.qB a=.>Z Zd.`d. e..e.xG +e.bS x6.@e.|Q >t 5D #e.gr _2.$|.x#.DB Du fr xG %].dS PW ow Op 6K $e.Pe Qe ~t t!.Me ub {M )l iI )t hr 3Q %e.C<.PG &e.:&.m=.Re 8< #v bK p8 &i fO ~3 m8 Tu <F ey DD wr *e.-i =v v8 Iw qr '].Rr cy W#.@i sg ww =e.-e.;e.>e.,e.'e.)e.!e.-e.~e.{e.]e.^e./e.(e._e.:e.<e.[e.@-.}a.}e.WZ |e.1e.2e.3e.4e.]7.5e.6e.7e.8e.9e.0e.ae.be.0[.ce.de.O2.J>.ee.fe.jc.ge.he.ie.je.ke.le.oa.J|.i5.o[.me.ne.oe.s[.pe.A|.'3.47.qe.ta.C|.87.ta.re.se.te.ue.~5.ve.qc.o9.c7.xa.we.za.uc.xe.ye.ze.Ae.Be.p7.75.Fa.Ce.75.Bc.De.Ee.z9.Fe.Ge.u9.Ac.He.Ie.t7.Je.Ge.Ke.Le.Ma.Me.Dc.Ua.Ic.Q9.Ua.Ne.`a.Oe.Kc.Pe.Qe.Ic.Re.Xa.Se.Pc.Te.Jc.Ue.>1.Ve.We.Xe.Ye.Ze.Zc.`e. d. f..f.+f.@f.#f.$f.%f.&f.&b.*f.=f.-f.;f.>f.,f.'f.)f.ta.87.!f.~f.{f.]f.^f./f.(f._f.:f.                                                                                                                              ",
"   <f.[f.}f.|f.1f.2f.3f.4f.5f.6f.7f.8f.9f.0f.af.bf.cf.df.ef.ff.gf.2f.hf.if.jf.kf.lf.mf.nf.of.pf.qf.rf.jd.sf.tf.uf.vf.wf.xf.yf.zf.Af.y}.Bf.Cf.Df.Ef.Ff.Gf.Hf.If.Jf.Kf.Lf.I%.Mf.Nf.Of.6;.Pf.:;.Qf.Rf.Sf.Tf.1!.Uf.Vf.}4.Z1.Wf.)=.Rd.h<.O,.Xf.Rd.Yf.-2.;2.ZN Ud.L8.#M Zf.`f.T0. g.Ud..g.+g.@g..O #g.+M #M +M `N KW $g.Zf.vG q<.Wz &'.5I FW EW %g. |.%'.C;.AG a=.oU q_.pU ;Z &g.*g.=g.-g.0S qw zG uB xG _2.pm 0S b .Op ub ~y Pe dS _2.eg Op ub 0Q ;g.vm )t ^o 3M eK !O eI ar jS OG BB ': fK Xh 5y {O MB ~3 yr Zm $v UG *A E6.Bb Jw ct e4.yI *A (l k< -].&X >g.A!.,g.|y AU jr 'g.)g.!g.~g.{g.]g.^g./g.(g.q4._g.:g.<g.[g.Y_.}g.|g.1g.Q'.WZ 2g.3g.4g.5g.6g.7g.8g.9g.0g.ag.bg.cg.dg.eg.fg.P2.t|.gg.L>.hg.ig.jg.kg.-^.lg.mg.ng.og.t5.J|.le.>1.J|.i5.me.C[.:3.S[.G|.pg.g9.47.sa.67.W2.qg.W2.i9.rg.ta.j9.sg.ve.Q|.#3.f7.^5.tg.n9.ug.tg.vg.wg.Ae.xg.ze.yg.55.65.75.zc.zg.Ag.Bc.Ea.Ka.E9.Cc.Fa.Bg.A9.Cg.Ja.G9.Dg.t7.u7.Eg.Sa.Fg.Gg.Kc.Lc.Xa.Ic.Xa.Hg.Ya.Sa.Ig.Jg.Q9. b.Kg.Lg.Mg.Ng.Og.Pg.Qg.Rg.Sg.Tg.Ug.Vg.Wg.#f.Xg.Yg.Zg.`g.`c. h.#f..h.+h.@b.@h.#h.$h.%h.&h.*h.>3.O7.=h.-h.{1.W[.;h.>h.,h.'h.)h.!h.                                                                                                                           ",
"   ~h.{h.]h.^h./h.(h._h.:h.<h.af.[h.}h.|h.1h.2h.3h.4h.5h.6h.7h.8h.hf.9h.0h.ah.bh.ch.dh.eh.fh.gh.hh.ih.eh.jh.j0.H1.kh.lh.mh.nh.oh.ph.qh.>4.rh.sh.th.uh.vh.wh.xh.U^.yh.zh.|!.Ah.&=.v{.Bh.$/.Ch.Dh.Eh.Fh.Gh.Hh.Ih.Jh.) .Kh.d<.Lh.v6.Mh.Nh.Oh.b+.Ph.Qh.T%.&Z YE i+.(I  O Rh.Sh.Th.Uh.`N Vh.1 .Wh.p#.0!.O,.]/.+g.Xh.T0.^=.5S kB Yh.!2.W}.R{.Zh.|=.`h.a=.b=.>&.y#.fS wG qG  i..i.+i.@i.#i.Yz $i.r_.t<.x6.M#.%i.1Q I#.-F P9 Tz aj ~t (y 0Q )O &i.hw hr 3Q %e.~'.aQ P9 gj Lu +i xm tS d^ _o *i.rS ~A hD 2M ;].&A qS b/.lD wI v!.m8 ^'.BD (l 2F dD zw }d AD =i.hK :'.k .JB ]F 7d -i.;i.>i.,i.'i.)i.!i.~i.{i.t4.d2.]i.^i./i.[e.(i._i.:i.<i.[i.}i.|i.1i.2i.3i.4i.5i.6i.7i.8i.9i.r|.:b.0i.ai.bi.ci.di.ei.fi.fi.r~.,1.oa.gi.R7.|3.;1.x[.me.hi.me.C[.ii.C[.u5.oe.y[.ji./3.G|.>5.N|.47.>5.'3.C|.re.~5.pc. 3.<5.97.07.+3.a7.sc.c7.xa.xe.vc.ki.li.mi.za.75.ni.oi.75.pi.qi.ri.si.ti.ui.vi.wi.Ag.xi.yi.E9.Le.zi.Ai.Bi.Ci.v7.Di.L9.Qa.Va.C7.Xa.Qc.Mg.Qe.Ei.Fi.Kc. b.Sa.Gi.Hi.Ii.Ji.O9.Ki.Li.Mi.Ni.Oi.Pi.Qi.Ri.Si.Ti.Ui.Vi.Wi.Xi.`e.Yi.Zi.`i. j..j.+j.Zc.@j.#j.$j.%j.&j.*j.=j.-j.;j.>j.,j.'j.V7.)j.!j.~j.{j.]j.                                                                                                                        ",
"   ^j./j.(j.(h.k1._j.:j.<j.[j.}j.|j.1j.2j.3j.4j.5j.6j.7j.8j.9j.0j.aj.W3 bj.cj.dj.ej.fj.gj.hj.ij.jj.kj.lj.mj.nj.oj.pj.qj.rj.u0.sj.tj.uj.vj.uj.wj.xj.yj.zj.kh.Aj.Bj.Cj.Dj.t{.`^.Ej.Fj.Gj.Hj.Ij.5;.D%.Jj.v{.Kj.Lj.Mj.Bh.Nj.G,.d#.Oj.Pj.Q,.P%.Qj.8U Rj.: .WY 34.Q0.=2.Sj.Tj.Uj.Vj.Wj.nG K{.Xj.ZN a+.Yj.8+.Yj.Zj.`j.J{.TE WY +M {2.~=.IW ]I  k.6 ..k.+k.Q{.Q8.u#.T8.1I @k.#k.>y @F Qz $k.AG a=.@e.l_.Yz $i.%k.74.Tz 4D 1K qw |Q <M gr Tz vB PW eK ~'.KG {'.jS iI yG #a.kw ag )F {y ar )t hr 3Q %e._o qS 5y ~A OG BB 1M lS ;].&|.{O m=.&k.<O *k.T( l=.kI oj Q9 Ym =k.-k.;k.>k.,k.'k.)k.!k.~k.{k.]k.%9.^k./k.(k._k.:k.<k.[k.}k.|k.1k.I4.2k.3k.4k.5k.6k.7k.8k.9k.0k.r|.0[.ak.T>.bk.ck.|).dk.ek.v~.>1.fk.53.oe.53.ke.gi.x[.J|.gk.hk.me.ii.oe.53.ik.53.jk.A|.jk./3.G|.pe.nc.<3.'5.kk.ta.re.E|.lk. 3.ua.va.sg.mk.rc.xa.ya.nk.ok.pk.ki.ok.qk.rk.sk.tk.Bc.Ce.xg.qi.uk.vk.zg.wk.xk.yk.zk.wk.Ak.Bk.Ck.yi.Dk.Ek.Fk.Gk.Dg.Hk.N9.Q9.Ua.Q9.Hg.Ik.Gg.Hg.Jk.Hg.Kk.Ei.Lk.Mk.Nk.Ok.Pk.Qk.Rk.Sk.Tk.Uk.Vk.Wk.Xk.Yk./5.Zk.`k. l..l.+l.@l.#l.$l.%l.Ze.S9.&l.*l.=l.-l.+f.;l.>l.,l.$j.'l.)l.!l.~l.{l.]l.^l./l.(l._l.:l.<l.                                                                                                                     ",
"   [l.}l.|l.1l.2l.S; 3l.4l.5l.6l.7l.8l.9l.0l.al.bl.cl.dl.el.fl.gl.hl.il.bj.jl.kl.ll.ml.nl.ol.pl.ql.rl.sl.tl.ul.vl.wl.xl.yl.zl.i8.Al.Bl.Hb.Cl.n0.Dl.El.Fl.Gl.Hl.Il.Jl.Kl.Ll.Ml.Nl.Ol.V1.Pl.m{.Pl.Ql.Rl.Sl.Tl.Pl.Lf.Ul.Vl.Wl.Lb.Xl.Yl.'=.0_.8_.8+.D8.BW Zl.Mh.`l.'=. m..m.+m.:=.@m.d+.3S M8.;K #m.$m.Vj.%m.&m.*m. Z s6.(S ]/.=m.e+.-m.>&.$].;m.>m.fS &'.$O 7 .;t ,m.'m.)m./K e+.9 .!m.>&.N{.dr C;.k+.a=._Q l_.qw zG Yz I#.;&.s_.0S wb Op 9/.'l )l ~m.hS xm {m.eK ~y <M JG ]m.hj sB @a.Me >t mS @c.-A BB Nu K;.cD {'.L;.}M }O 6o -|.wD _&.qS b/.=|.6Z ^m.Zu n/./m.(m.-e.~e._m.:m.<m.~g.[m.}m.|m.1m.!a.2m.3m.4m.5m.6m.7m.8m.9m.0m.am.bm.cm.dm.em.fm.gm.hm.I5.p(.im.jm.km.lm.U[.*5.f9.A|.G|.L|.mm.pe.y[.ik.hi.e5. 1.j5.me.nm.ik.C[.hk.C[.jk.H|.mm.H|.mm.H|.w5.om.A|.'3.W2.qg.pm.qm.E|.rm.87.ta.pc.@3.#3.f7.o9.tg.tc.ok.xe.ye.sm.tm.vc.um.vm.q9.Ea.wm.oi.vm.xm.zg.ym.zm.Am.ui.sk.A9.Bm.Cm.A9.zi.Le.t7.Ie.F9.Dm.Fg.Q9.M9.N9.Ua.Ic.Mg.T9.Em.Pc.Fm.Gm.Sa.Mk.Ii.Hm.Im.Jm.Km.Lm.Mm.Nm.Om.Pm.Qm.Rm.Sm.Tm.Um.Vm.Wm.Xm.Ym.Zm.`m. n.Yi..n.%l.#b.+n.#f.@n.#f.#n.$n.Yi.%n.,l.&n.*n.=3.=n.-n.]f.;n.>n.,n.'n.)n.                                                                                                                     ",
"!n.~n.{n.]n.^n./n.(n._n.:n.<n.[n.}n.|n.1n.2n.3n.4n.5n.6n.7n.8n.9n.0n.an.bn.cn.dn.en.fn.gn.g0.sl.hn.in.jn.kn.ln.mn.nn.on.pn.qn.rn.sn.tn.un.Il.vn.J1.Dl.wn.xn.yn.zn.An.Bn.A0.2<.q8.Cn.Dn.En.v0.*=.Fn.Bh.Gn.Hn.In.y,.Jn.Kn.Ln.Mn.Nn.On.'=.] .Pn.Ph.Qn.Rn.6_.Sn..m.Uj.Tn.Un.M%.Vn.(2.4 .Wn.e+.+g.Wb.Xn.Yn.[=.+g.#O /I Zn.Rh.g;.UE 5S `n. |.Uz nG </.s<. o.a .Q8.r6..o.^=.-O j+.}=.g_.Q{.X0.k+.64.bS x6.+o.dr @o.#o.%k.pm T8.$|.zG 1Q ~y <M JG 8/.>F 3Q %e.kj ej Lp om Qe PW ow Op ub 0Q @c.hj :o #a.tS r+.{'.PG 5y ~A $o.X8.Np Qp PG Ou }Z u_.Re G5 %o.~F &o.*o.=o.-o.)i.{k.;o.>o.,o.;e.'o.)o.!o.~o.{o.]o.^o./o.(o. )._o.:o.<o.[o.}o.|o.1o.2o.3o.j3.4o.5o.6o.7o.}:.*^.6).oe.:3.8o.ji.~3.9o./3.jk.:3.0o.me.jk.oe.ao.P|.53.P|.C[.j[.bo.co.fk.do.fk.S[.fk.x5.'3./3.S7.47.eo.pm.'5.87.ta.j9.sg.ve.$3.fo.+3.a7.(5.go.r9.ug.vc.wg.ho.qk.wg.tm.wm.65.m7.Bc.io.jo.qi.ri.vk.ti.wk.ko.lo.ui.ko.lo.q7.Le.mo.Je.wi.Hk.x7.v7.Va.Fg.Q9.Ua.Mg.Qe.Se.Gg.Q9.Em.Ya.no.oo.po.Im.qo.ro.so.to.uo.vo.wo.A5.xo.yo.zo.Ao.Bo.Co.Do.Eo.Fm.Fo.Go.Zm.Ho.Io.Jo.Ko.Lo.Mo.+j.No.Oo.$l.Po.>l.Qo.Ro.$j.So.To.Uo.Vo.~^.o(.Wo.Xo.Yo.Zo.                                                                                                                  ",
"`o. p..p.+p.4b.{8.@p.h' #p.0b.cl.$p.%p.&p.*p.=p.9b.-p.;p.>p.,p.{8.'p.)p.!p.~p.{p.]p.^p./p.(p._p.rl.i0.:p.h0.<p.[p.[6.}p.qf.|p.1p.2p.3p.*4.s}.4p.5p.6p.7p.j8.8p.9p.0p.nh.ap.[!.[!.bp.cp.dp.ep.fp.gp.^!.hp.ip.jp.kp.lp.mp.np.J%.op.pp.c<.W%.Sd.qp.rp.i#.=/.sp.Mh.tp.E{.up.F8.vp.wp.xp.&Z Ud.yp.d+.Y}.S0.zp.Wb.D{.Ap.Bp.;K X%.Y%.qU s<.c!.*Z -K Cp.`}.h_./K !'.a=.bS }Q y#.Dp.~Q Ep.%k._Q a=.!2.Q{.pU ,t +e.O{.a=.@e.>&._M Fp.fr xG _2.s_.+a.qw |Q 1Q gr Pe pm ~t QW Op 6K ~y hw JG ]m.QW PW s+.{M {y ar )t hr xU %e.kw eI fj b4.-A *|.': tS Xh Qp Gp.w_.Hp.Ip.Jp.Kp.]t Lp.Mp.Np.Op.Pp.Qp.Rp.,a.Sp.Tp.Up.$-.Vp.ba.Wp.Xp.Yp.Zp.`p. q..q.+q.@q.x:.jg.u~.#q.$q.%q.J7.:3.do.jk.>b.<3.T7.&q.<3.eo.ji.*q.nm.I|.ii.me.hk.me.nm.ik.J7.jk.*q.jk.L|.=q.oe.co.H|.mm.H|.G|.T7.-q.;q.47.>q.se.,q.se.Z2.ue.ua.va.@3.p9.c7.35.ya.xe.'q.ok.mi.nk.tm.ni.Bc.io.55.Ea.wm.oi.Ae.)q.!q.zc.~q.{q.zc.vi.]q.xm.wi.mo.Ai.Bg.zi.x7.Dg.Dm.^q.Sa./q.Ya.Q9.Ua.(q._q.:q.Lg.<q.oo.[q.}q.|q.1q.2q.E7.om.G|.3q.i9.4q.5q.6q.7q.8q.9q.0q.aq.bq.cq.dq.eq.fq.gq.Yi.hq.Yi.iq.Ko.jq.kq.lq.mq.nq.oq.pq.qq.rq.sq.Ri.;q.tq.uq.vq.E5.wq.xq.yq.zq.                                                                                                               ",
"Aq.Bq.Cq.Dq.k1.Eq.x%.Fq.Gq.Hq.Iq.Jq.Kq.Lq.Mq.Nq.Oq.Pq.Qq.Rq.Sq.Tq.9h.Uq.Vq.Wq.Xq.Yq.Zq.`q. r..r.ch.+r.@r.#r.ol.$r.%r.&r.*r.=r.-r.;r.$4.>r.,r.Il.'r.7p.)r.!r.un.~r.xf.{r.s0.__.In.]r.Cn.^r.Fb.w,./r.(r._r.:r.<r.[r.}r.|r.1r.2r.3r.,/.4r.Xf.] .Sj.5!.a;.=m.S}.Pj.5r.vW 6_.c;.6r.vp.7r.Uh.8r.9r.0r.+m.ar.br.bU ~=.c_.jU 8S Oz $O }Q !2.HW @g. c.~2.&2.L#.cr >&.b=.mm (/.fS g+.bS 9S $|.l_._M ,t cr.O{.dr.oU .k._M dr d=.!'.er.AG 1/.qw A;.fr.Qz C;.='.a=.M#.zG 6K 2Q <M JG 8/.QW PW ow kj ej JG IG hj iw eK kw ag {M @c./t 7y !t Me 9/.gr.^t /t hr.ir.jr.kr.lr.Lp.mr.nr.or.pr.qr.rr.2].sr.tr.ur.(k._a.vr.4a.wr.xr.yr.zr.Ar.Br.Cr.Dr.+q.Er.S>.l(.Fr.ne.mm.B|.8o.jk.Gr.=q.fk.eo.<3.!l.67.Hr.G|.Ir.co.:3.=q.J|.nm.Jr.8o.:3.8o.nm.fk.J7.fk.mm.fk.nm.fk.53.a3.le.oe.Kr.me./3.G|.'3.'5.87.rm.Lr.~5.ve.@3.#3.+3.^5.(5.c7.Mr.ug.Be.nk.{q.Nr.vc.sk.q9.Ce.n7.oi.75.Or.!q.ri.Ea.n7.zi.Pr.wi.mo.Cm.Bi.Qr.t7.zi.Ie.Ha.Kg.P9.Sa.Ua.y7.Ua.Kc.Rr.Q9.Sr.Tr.Ur.oo.Vr.Wr.Xr.Oe.Yr.Zr.E7.,f.`r. s.ta..s.+s.@s.#s.$s.%s.]b.&s.*s.=s.-s.Ci.;s.Ko.Lo.>s.Lo.,s.'s.)s.!s..n.~s.$l.@j.Yg.{s.@l.]s.^s.)l./s.(s._s.:s.<s.[s.}s.|s.1s.                                                                                                            ",
"2s.3s.4s.5s.6s.7s.b+ 8s.9s.0s.as.bs.cs.ds.es.fs.gs.hs.is.js.ks.(h.ls.ms.ns.os.ps.qs.rs.ss.ts.hj.us.vs.ws.xs.ys.zs.As.Bs.Cs.Ds.Es.uf.Fs.Gs.Hs.Is.Js.Ks.Ls.Ms.i8.Ns.xj.Os.Ps.Qs.Cb.qd.Rs.Ss.Ts.l{.Us.Vs.Ws.Xs.r8.bp.Ys.<_.Zs.`s. t..t.Od.Rn.P%.+t.R%.Mh..2.,/.6_.@t.i#.#t.$t.%t.&t.YN Vh.Yd.[=.*t.tp.=t.wp._=.>K T%.d_.5 .KW ;m.-t.=Z e_.K{.]2.$O L#.!y !Z ;t.,t |=.N8.L#.M#.>&.DB !Z %k.k+.a=.AG .k.+k.>t.;t.$i.%k.AG >&.n!.dr pU fS ,t.N8.dr.O8..k.'t.$i.fr gr %].s_.PW ow Op >t P9 @c.hj PW ow Op >t {M b4.hj )t.QW Me 9/.0Q +c.Lp !t.wb ~t.{t.]t ]t.^t.)&./t.(t.kr._t.W8.:t.<t.[t.}t.)o.T6.|t.I4.1t.2t.3t.4t.5t.6t.7t.8t.2o.+q.9t.m(.0t.u5.G|.at.mm.bt.&d.B|.>b.9o.Ir.eo.ct.Hr.N|.eo.'3.dt.nm.*q.=q.bt.B|.oe.ii.me.=q.J|.;j.et.>b.=q. 1.B|./3.et.53.ik.ft.N|.hi.x5.ji.W2.>q.pm.gt. 3.R|.97.sg.+3.@3.(5.+3.35.sc.rk.xa.ug.xg.nk.io.ht.oi.75.Bc.75.xg.Ce.Ae.zc.p7.zi.vi.Ge.t7.o7.yi.zc.it.yi.Ck.Ec.Ie.Dg.jt.Kg.y7.kt./q.lt.Xa.Kc.Ya.Q9.Ii.oo.mt.nt.z7.ot.'f.,f.pt.Ir.pm.>q.ta.+3.qt.rt.st.tt.ut.vt.wt.xt.yt.zt.At.Bt.Ei.Ct.Dt.Et.Ft.Gt.Ht.#l.It.Ze..n.Oo.Jt.+j.Kt. n.W9.b5.sq.gk.V[.Lt.,j.<s.Mt.Nt.Ot.Pt.                                                                                                         ",
"Qt.Rt.St.(h.Tt.75 Ut.Vt.9l.Wt.Xt.80.Yt.Zt.`t. u..u.+u.@u.#u.$u.%u.&u.*u.=u.-u.;u.-u.>u.,u.'u.)u.!u.~u.{u.]u.^u./u.(u._u.:u.<u.[u.}u.|u.1u.&4.2u.-4.Df.J1.3u.4u.I1.5u.Gb.6u.An.Qs.qd.7u.8u.9u.Q1.0u.86.au.@/.bu.cu.du.(r.eu.fu.gu.hu.iu.ju.iu.c;.ku.i#.lu.mu.@2.] .c;.iu.nu.ou.pu.qu.ru.su.Xn.v6.tu.uu.Q0.br.Sd.vu.WY  c.1 .Wn.qG *M wu.b_.c_.}/.xu.,t C;.k+.-O t<.v#.yu.mm X0.qB ^2.t<.x6.oU dr R{.Ep.C;._Q 7K b=.A;.zu.Qz Au.Bu.Cu.-K Du.+k.y6.A<.O{.Eu.pm 0S qw zG 6K ~y hw hj %].QW Op 6K 0Q ej P9 IG QW iw ow )F ej Lp ;F dS Fu./d Gu.Hu.Iu.Ju.Ku.Lu.Mu.Nu.Ou.:t.Pu.Qu.Ru.Mu.Su.Tu.Uu.Vu.Wu.:a.Xu.1k.I4.Yu.Zu.`u. v..v.i3.9t.`7.d(.w5.~3.8o.I|.B|.J7.jk.;f.G|.Gr.mm.9o.!l.`r.+v.&q.Hr.co.@v.#v.hk.ao.P|.8o.hk.J7.;b.;f.=q.H|.nm.ik.nm.oe.$v.H|.%v./3.u5.H|.i(.H|.-q.,q.se.&v.>q.se.j9.se.*v.$3.#3.+3.Ca.(5.=v.Mr.ug.ni.ze.tk.xg.si.io.55.Ea.n7.l7.yg.vi.m7.-v.He.;v.>v.u9.Bi.mo.it.Bi.mo.F9.mo.F9.w7.Me.J9.Xa.M9.,v.'v.Hk.Ii.)v.:q.!v.~v.nt.Pa.{v.]v.^v./v.(v._v.qm.ta.:v.<v.[v.}v.|v.1v.2v.3v.4v.5v.6v.7v.8v.xe.9v.0v.av.bv.cv.dv.`m.ev.kq.fv.mq.gv.hv.@j.Kt.jq.iv.qq.Pa.&n.jv.kv.lv.]l.j3.mv.nv.ov.pv.                                                                                                      ",
"qv.rv.sv.tv.uv.2B 8b.vv.bl.wv.xv.yv.zv.Av.Bv.Cv.Dv.Ev.Fv.Gv.Hv.Iv. l Jv.Kv.Lv.Mv.Nv.Ov.qs.Pv.Qv.Rv.Sv.Tv.Uv.Vv.qb.Wv.Xv.Yv.Zv.`v.tb. w.zn..w.+w.@w.Hl.#w.$w.%w.G1.&w.*w.Ef.=w.Dl.-w.u0.;w.>w.,w.'w.)w.!w.~w.{w.]w.^w.Mf./w.(w.&=.Mb._w.&/.:w.<w.Mn.@2.=/.[w.Nd.L%.Uj.}w.P}.|w.1w.@g.2w..g.v6.h;.Xl.W%.~=.<=.'K 3w.[ .4w.jU /D 5S 5w.X}.Zf.W}.&O qU -O bS 2I L8.a .6w.%'.{I =y 7 .{K a .Q8.fS &'.Bu.er.@e.0S qw ,t C;.rU a=.7w.v#.g_.dr zu.fS ^2.bS >&.M#.!Z 1Q I#.om QG _2.eg PW (y ~y -F Lp 0j eg ~t ow Op <M JG Pe dS Fu.(o zG o+.3I 8w.Sz 9w.0w.XW aw.bw.]t.cw.dw.ir.ew.fw.gw.hw.iw.jw.kw.(e.lw.mw.nw.ow.pw.qw.rw.sw.tw.uw.`7.vw.ww.xw.S7.yw.*q.>b.J7.@v.*q.hk.J7.J7.qm.&3.zw.Aw.Bw.dt.J7.Cw.=q.;3.l5.*h.0o.bt.nm.P|.;f.nm.*h.j5.*q.G|.g5.Dw.S[.9o.S[.9o./3.bo.A|.G|.>q.ta.re.se.,q.Lr.R|.+3.:5.h7.$3.fo.+3.Ew.we.Be.'q.ho.mi.nk.Ae.55.x9.85.o7.f5.Fw.Pr.85.Gw.Hw.He.x9.Bi.Ge.>v.it.B9.Iw.yi.Ai.yi.H9.Ec.b5.Jw.Oe.O9.Ua.Ii.Lg.:q.!v.Kw.Lw.Mw.Nw.ro.Ow.Pw.(v.pm.Qw.Rw.Sw.<v..s.Tw.rt.1v.Uw.Vw.Ww.Xw.Yw.7v.Zw.yt.`w.xg. b. x..x.+x.@x.0v.#x.$x..n.Yi.%x.Ze.gv.Yi.Yi.&x.*x.U9.=x.-x.'b.;x.lv.;0._1.>x.,x.'x.)x.                                                                                                   ",
"!x.~x.{x.]x.^x./x._n.(x._x.'6.:x.<x.[x.}x.Cv.<x.|x.1x.2x.3x.FP 4x.5x.6x.7x.8x.9x.0x.ax.bx.Zq.cx.dx.Xq.ex.fx.gx.^u.hx.ix.jx.Tv.kx.lx.mx.nx.ox.Cl.px.qx.rx.&4.Js.sx.tx.ux.vx.Bl.wx.xx.yx.zx.Ax.Bx.Cx.Dx.Ex.qh.Fx.Gx.Hx.Ch.Ix.Jx.n{.Kx.Lx.!=.Mx.ou.6r.Nx.2r.Ox.w{.44.Px.Qx.Rx.Sx.1w.Tx.Ux.Ap.bU /I 6!.Vx.%Q UE VY ZY 5_. O `j.W}.Wx.Xx.[/.Yx.5S (Q }/.Zx.`n.`x.;Z 64.$O 7 .7r FW q<.Xx.64. y.7 ..y.Du._M +y.;t.k+.a=._Q l_.+k.y6.*'.Uz Au.AG -t b=.A;.zu.Qz d=.k+._2.$|.0S qw ;O fr gr om pm 0S qw /y 1Q ~y hw Qe +a.$|.;O 1Q I#.'t Fp @y.#y.8r $y.%y.&y.*y.=y.-y.(t.;y.>y.,y.'y.)y.!y.~y.{y.]y.<|.^y./y.f].(y._y.:y.<y.z:.[y.}y.u~.|y.do.G|.&h.~3.&h.;3.nm.mm.1y.2y.qm.*3.Ir.3y.Aw.~3.)f.Hr.at.;f.at.*h.>f.bt.ao.*h.ii.;f.nm.bt.ao.;f.do.gi.1y.t5.G|.4y.9o.pa.s[.oe.w5.5y.E|.,q.87.R|.pc.$3.pc.$3.<5.$3.6y.+3.35.sc.c7.xa.7y.8y.ki.vm.vc.Pr.yg.i7.De.Fw.45.Hw.9y.0y.Ia.ay.0y.G9.by.it.cy.Ck.dy.Cg.dy.Or.P9.Bi.ey.fy.Ra.kt. b.Lg.O9.Ii.gy.hy.iy.cy.ro.jy.ky.ly.my.ny.Rw.4q.oy.py.qy.ry.sy.|v.ty.2v.uy.vy.wy.xy.yy.5v.zy.Ay.q9.Kk.By.Cy.Dy.Ey.No.Fy.Gy.Hy.Io.Iy.Jy.!s.Ky.Ly.Po.pq.My.U9.So.'b.V7.Ny.*0.Oy.Py.Qy.Ry.Sy.                                                                                                ",
"Ty.Uy.Vy.Wy.Xy.Yy.Zy.`y. z. z..z.+z.@z.#z.$z.Kq.%z.&z.1n.*z.=z.-z.;z.>z.,z.'z.)z.!z.~z.{z.]z.^z./z.(z.]p._z.:z.<z.[z.Wv.}z.|z.1z.2z.wl.3z.4z.hh.5z.6z.=r.7z.8z.9z.0z.wf.az.bz.cz.dz.ez.fz.gz.hz.qh.iz.t}.jz.-w.kz.lz.!4.mz.Gx.nz.Ol.oz.pz.qz.:w.rz.sz.tz.uz.vz.wz.xz.b;./4.yz.zz.N,.Az.[=.#M >Q ]/.Bz.>K cU cU +m.uu.2S yW @g.a_.*Z kB tG mU VE 64.`b.| .1 .*Z !2.}=.`}.=Z [/.c!.*Z Cz.FW Dz.;m.Q8.Ep.+e.7w.*Z b=.A;.v<.%'.&'.qU L#.O8..k.g_.fS &'.!'.a=.Ez.>&.qw !Z Yz xG .F _Q >&.A6.!Z pU ,t om pm _2.4D zG Fz.,t U8.rU @y.2K :M +o.nm %l Gz.Hz.Sz Lu.#k.XW Iz.Jz.Pu.Kz.Lz.Mz.02.Nz.{c.Oz.Pz.Qz.Rz.Sz.Tz.Uz.Vz.Wz.Xz.Yz.,^.s[.>b.Jr.dt.ii.Zz.`z. A.at.>b..A.@v.dt.+A.Aw.*3.=3.@A.)f.#A.@v.8o.;3.Gr.Zz.8o.;3.0o.-f.$A.nm.8o.P|.ao.B|..0.;1.g5.ji.x5.ik./3.'3.%A.9o./3.R|.97.ua.ve.$3.<5.$3.<5.+3.6y.ve.@3.(5.=v.e7.we.vc.wg.tm.jo.ye.ht.&A.f5.85.x9.Hw.Ia.*A.=A.-A.;A.Ia.x9.t7.Ge.Ai.wi.>A.Ai.A9.H9.95.,A.v7.Ra.J9.Fg.'A.Ta.oo.)A.!A.~A.{A.te.]A.*v.^A./A.ny.(A._A.~l._A.:A.<A.[A.tt.}A.2v.|A.Xw.1A.2A.3A.4A.5A.6A.7v.7A.f5.8A.9A.$x.0A.>s.aA.bA.gv..n.cA.Po.Ht.Oo.dA.%l.dA.eA.W9.fA.>b.Sw.]l.gA.e3.hA.iA.jA.kA.lA.                                                                                             ",
"mA.nA.oA.rz pA.qA.rA.n1.sA.tA.uA.vA.wA.xA.yA.$z.zA.AA.BA.CA.DA.EA.FA.GA.HA.IA.JA.Kv.Pg.KA.LA.Wq.MA.NA.OA.{p.PA.QA.Yv.RA.SA.TA.UA.VA.WA.XA.YA.ZA.`A. B..B.+B.@B.#B.&4.$B.%B.&B.0p.*B.=B.-B.;B.>B.,B.'B.)B.!B.~B.{B.ep.Dd.]B.Jx.^B./B.n{.Bh.(B._B.:B.<B.[B.}B.|B.1B.2B.,=.qz.3B.%t.4B.Wb.4S k;.~K / .;/.< .P%.W%.8_.f;.I{.a+.s#.Oz Wn.Y%.:I ~K m;.i+.m;.5B.U0.`}.a .~Q c!.[/.(K Z}.6B.X}.~Q h_.|=.&2.s<.|/.a .Q8.7B.8B.u#.9B. o.0B.$].q_.LW qU ,t.7w.Du.,&.Q{.pU I#.r_.pm 7K $|.!Z pU ,t d=.k+.a=.b=.l_.aB.I#.d=.Ju bB.AG >&._M dr ,O nm bB.cr cB.,Z k!.Ou.%y.dB.or.eB.0w.Jp.fB.gB. [.hB.iB.jB.kB.lB.mB.nB.oB.pB.~(.[7.qB.E[.P|.rB.sB.me.Ir.Ir.tB.!l..A.xw.;f.at.>b.K|.ct.@A.,q.uB.vB.Ir.K|.@v..A.Cw.`z.at.'l.;f.ao.bt.8o.*q.ao.bt.nm.>b.wB./3.9o./3.B|.me.%v.le.mm.se.ua.97.@3.ve.$3.#3.97.6y.(5.a7.(5.$3.#3.+3.xB.(5.ni.'q.yB.Nr.ki.tm.g7.m7.55.l7.m7.Fw.zB.=A.AB.;A.ay.25.t7.zi.>v.it.yi.Je.Ge.Ie.Bi.L9.v7.BB.CB./q.Q9.Wa.DB.EB.(q.FB.He.GB.HB.IB.JB.KB.LB.MB.NB.OB.PB.OB.QB.RB.QB.~f.SB.TB.UB.Yw.VB.WB.XB.YB.ZB.`B. C..C.+C.@C.#C.$C.%C.0v.&C.*C.=C.-C.Dy.;C.#x.>C.,C.Lo.'C.{s.)C.V9.!C.'f.LB.~C.,j.{C.]C.^C./C.(C._C.                                                                                          ",
":C.<C.[C.k2 -U }C.=+.|C.yv.1C.Yt.2C.[x.3C.4C.<j.5C.6C.7C.8C.9C.0C.aC.bC.cC.dC.eC.fC.gC.hC.KA./z.iC.jC.kC.lC.mC.nC.oC.pC.qC.rC.|z.sC.tC.uC.vC.wC.xC.wb.yC.zC.AC.Js.BC.CC.DC.EC.FC.Gf.GC.yf.o8.HC.IC.4<.JC.KC.LC.MC.NC.qd.OC.PC.QC.RC.Ol.(B.Mj.SC.TC.UC.sz.VC.Dn.WC.XC.Ln.YC.ZC.`C. D..D.H{.,Q K{./S f;.8_..D.N%.W%.<=.'=.Wb.X%.7S 1I s6.V,.VE Vh.K{.#g.s6.~2.Xx.7 .-K FW q<.Xx.Wn.Xx.*O a_.+D. o.0B.~Q s6.g+.u#.+D.@D.}=.GW #D.q<.`b.&'.t<.9 .n!.q_.%t fS Au.B;.Eu.A6.1/.c=.I#.uB O{.a=.AG x6.N{.dr 2/.B;.$D.AG >&.+o.mm ,O fS bB.]Z tm ,Z fw Fz.3I %D.*y.&D.*D.jr.=D.-D.,a.;D.>D.,D.'D.)D.!D.)9.~D.{D.]D.^D./D.(D._D.:D.:3.<D.=f.-q.J7.)f.@v.[D.nm.,3.at.}D.;j..A.)f.zw.zw.+A.@A.)f.#A.)f.,3.Zz.[D.at.8o.Gr.J7.!3.ao.Gr.=q.@v.=q.fk.eo.|D.=h.om.%v.H|.G|.pm.'5.9o.Z2.$3.{5.+3.@3.#3.f7.^5.(5.=v.#3.+3.6y.1D.wc.e7.f7.za.ok.Nr.vc.vm.Be.sk.ni.&A.0y.Fw.Gw.Hw.ay.;A.2D.-A.=A.Ia.l7.Bi.A9.3D.it.t7.Bi.Bm.P9.w7.Kg.P9.4D.O9./q.5D.Mc.Lw.P9.6D.7D.8D.KB.9D.0D.aD.bD.:A.cD.dD.py.eD.~C.fD.gD.hD.iD.8v.jD.kD.lD.ZB.mD.nD.oD.pD.XB.qD.rD.Cg.sD.Cy.gv.$C.#l.tD.uD.vD.wD.'C.xD.Gy.xD.Ko.yD.zD.AD.BD.Zr.yw.MB.~l.CD.DD.ED.FD.GD.HD.ID.                                                                                       ",
"   JD.KD.LD.MD.ND.OD.PD.QD.RD.#z.SD.TD.UD.VD.WD.9b.XD.YD.ZD.T).`D. E..E.+E.@E.#E.$E.cC.%E.&E.*E.=E.-E.{z.;E.>E.,E.'E.)E.!E.pC.~E.dh.{E.]E.^E./E.(E._E.:E.<E.[E.}E.|E.1E.Ns.>r.*w.xj.2E.,w.3E.Fl.z}.4E.5E.[!.6E.gz.r8.7E.q0.zx.8E.9E.0E.aE.bE.cE.dE.eE.fE.gE.hE.iE.jE.UC.eE.kE.lE.mE.nE.uu./I vW oE.g<.Sj._=.b+.pE.Q,.Pj.qE.rE.>Q sE.YE Xx.:I ZN ,Q 'K :I 1I FW Vd.4 .tE.1 .T0.i+.FW -K FW uE.W{.~2.1 .vE.(K 0B.$].wE.~Q xE.yE.zE.)Z j+.v#.AE.fS &'.N8.dr.M#.>&.DB dr BE.O{.er.AG >&._M A;.zu.#o.$D.CE.>&.b=.dr @F ,t %l Ju tm b=.1D jw DE._d EE.FE.-y.GE.HE.IE.JE.KE.LE.ME.NE.OE.PE.QE.RE.SE.TE.UE.VE.WE.^D.XE.YE.ZE.`E. F..F.0o.'f.!3.+F.)f.G|.*n.`z.@F..A.,3.Zz.Ir.}5.+v.#F.3y.{3.Bw.$F.Bw.;f.yw.@v.;3.;f.at.l5.%F.#v.B|.;f.hk.mm.fk.&F.om./v.9o.4y.9o.-q.9o.ta.>q.se.qt.=v.{5.+3./5.(5.=v.#3.+3.a7.(5.=v.#3.f7.nk.xa.Nr.*F.'q.jo.ki.ht.=F.m7.-v.o7.;v.-F.;F.>F.zB.;A.{3.To.,F.Ga.>v.it.A9.Bg.jt.J9.b5.Kg.Dg.N9.Hk.'F.!v.)F.!F.~F.{F.]F.^F.`r.0D./F.(F._F.:F.<F.[F.}F.[F.}F.|F.1F.2F.3F.4F.Yw.5F.4F.6F.7F.8F.kD.9F.0F.XB.aF.yy.bF.cF.dF.eF.wD.$C.gq.fF.$C.gF.Pk.Fy.cA.Zk.kq.kq.fq. l.{s.Qo.hF.sq.uo.iF.jF.kF.lF.mF.nF.oF.DL                                                                                     ",
"   pF.qF.rF.sF.lu tF.uF.vF.wF.vF.xF.6f.8l.Iq. z.yF.5C.zF.pY AF.BF.d).bC.CF.DF.EF.FF.GF.HF.IF.JF.hC.KF.LF.Yq.MF.NF.OF.ij.eh.-r.PF.QF.[u.RF.SF.TF.UF.VF.WF. B.XF.YF.ZF.`F.ox.Gs.Ks. G.Fl..G.+G.@G.#G.$G.NC.%G.,w.iz.x}.Jb.bu.&G.*G.Lf.Hn.=G.-G.;G.>G.,G.'G.)G.G,.lp.!G.~G.{G.]G.fu.^G./G.c<.7_.Nh.tu.(G._G.:G.<G.c<.lu.[G.}G.Bu.-M oB X%.V%..M r#.|G.s#.w6.Oz [I `N 1G.d+.Ud.2G.`j.[I `N Vh.3G.yE.Zb.vE.-K W{.~Q h_.64.a_.vE.-K Td.4G.5G.&'.N8.9 .lU v#.AE.>t.6G.O{.cr.7G..k.b=.dr pU #o.8G.rU a=.A6.9G.Yz I#.uB rU eS M#..a.Se bD _d 0G.aG.mw bG.#k.0r cG.Jz.dG.at eG.fG.gG.RE.hG.:$.iG.jG.kG.lG.mG.nG.j3.oG.,d.pG.qG.rG.+F.sG.tG.uG.=f.$A.J7.So.To..A.@F.yw.,3.Ir.3y.*3.{3.@A.vG.#A.Ir..A.'f.#A.@v.[D.!3.wG.xG. A.bt.8o.*q.ao.;f.;b.5y.1y.om.=h./3.et.om.=q.;q.ta.87.yG.97.@3.ve.@3.fo.+3.a7.(5.l9.sc.c7.o9.we.g7.ok.zG.8y.AG.BG.CG.vm.55.De.yg.DG.;F.EG.-A.;A.ay.;v.O7.;F.FG.r7.;v.wi.>A.Ie.Cm.Ra.Bi.95.H9.1q.Ra.M9.GG.HG.IG.JG.KG.LG.yG.MG.NG.OG.PG.QG.RG.dD.:F.~l.RG.eD.SG.RB.TG.yt.UG.3A.VB.WB.8F.VG.WG.XG.7F.8F.YG.ZG.`G. H.4F.=v..H.+H.@H.#H.$H.%H.tD.&H.*H.=H.$C.AD.$x.-H.Ym.'C.;H.>H.,H.!C.%v.'H.;0.)H. }.!H.~H.{H.]H.^H.                                                                                 ",
"   /H.(H._H.:H.S; P* <H.SD.[H.}H.|H.1H.8l.2H.3H.4H.5H.s,.i%.6H.7H.8H.9H.0H.aH.bH.cH.dH.eH.fH.gH.hH.iH.JF.jH.kH.lH.mH.)u.nH.wl.oH.~u.eh.pH.qH.rH.pf.qC.m0.sH.tH.uH.vH.wH.xH.yH.zH.AH.BH.CH.DH.>w.EH.FH.GH.HH.IH.JH.>B.KH.LH./_.@/.x{.OC.MH.NH.OH.PH.|!.QH.RH.SH.TH.UH.7u.VH.WH.XH.YH.TC.SC.9;.b+.lu.(G.ZH.`H. I..I.+I.@I.#I.uu.< .=Q k;.I{.6!.!/.$I.K{.s#.@m._=.%I.Nh.d+.Y}.Tx.`j.+M @m.Bp.Ud.a+.Td.&I.s6.]2.u#.7 . o.0B.*I.=Z =I.c!.64.lU v#.j+.q_.Q8.fS ^2.7G.L#.-I.A;.zu.,t Au.!'.T8.$|.x#.qw I#.uB xG 9S Uh ;I.jw fw @F I#.aG.mw #'.wb /y er >I.^t ,I.hr.'I.)I.!I.!a.~I.{I.]I.^I./I.(I._I.:I.VE.Z>.b).<I.[I.}I.|I.1I.`E.2I.3I.uG.So.4I.5I.Zz.Bw.Cw.,f.6I..A.FG.zw.D7.$F.zw.vG.#A.,3.Bw.$F.at.;f.!3.#v.7I.bt.'l.$A.;3.ao.ao.J7.B|.>b.wB.~3.et.;j.9o./3.fk.pm.qm.pm.,q.se.<5.97.8I.(5.l9.m9.c7.Mr.we.za.we.9I.'q.0I.aI.bI.cI.Nr.sk.ni.g7.n7.xB.-A.jy.ay.;A.ay.To. A.>f.4I.zB.z9.Bi.yi.Ke.v7.B9.La.G9.M9.P9.Sa.L9.Gm.dI.Tr.po.ym.-F.eI.fI.gI.aD.)b.hI.@s.iI.@s.~l.<A.-n.jI.fD.kI.ZB.2A.8F.XB.kD.YB.XB.mD.8F.lI.mI.nI.oI.pI.qI.rI.sI.3F.vi.:q.tI.uI.vI.wI.wD.xI.+x.yI.$x.+H.Gt.zI.dA.+n.oq.eA.AI.BI.Pe.sB.ny.jF.CI.DI.EI.0g.FI.GI.HI.                                                                              ",
"      II.JI.KI.LI.MI.NI.OI.PI.QI.RI.SI.TI.UI.VI.WI.XI.YI.i%.ZI.`I. J..J.+J.@J.#J.$J.%J.&J.*J.=J.-J.;J.Rm.>J.,J.'J.]p.)J.!J.~J.{J.]J.^J./J.(J.uH._J.:J.<J.[J.ed.ZA.Il.on.}J.WA.|J.1J.2J.3J.4J.5J.uj.,w.6J.Cx.7J.FC.@w.qh.8J.9J.0J.aJ.gz.iz.bJ.cJ.MH.dJ.U1.eJ.fJ.eE.gJ.hJ.iJ.cp.jJ.kJ.lJ.VH.[B.mJ.wW hu.h#.nJ.xz.oJ.pJ.qJ.7_.9!.6_.rJ.sJ.b+.6!.tJ.H{.Rd.Vx.0r.uJ.vJ.up.wJ.tp.;2.6!.[=.xJ.3G.Xb.yJ.I8.1 .zJ.(K }=.AJ.a .~Q @|.[/.$Z )Z !2.=Z >m.7B.,t.BJ.9 .O8.CJ.AE.#o.C;.k+.a=.bS >&.c=.+y.pU rU _2.pm 0S qw bD Fz.3I Xz Uh 7K $|.fw Tp bw.DJ.EJ.[Z FJ.GJ.`d.HJ.IJ.!I.JJ.R6.KJ.CZ LJ.MJ.NJ.OJ.PJ.QJ.RJ.Y7.SJ.TJ.UJ.VJ.WJ.XJ.YJ.+b.ZJ.)f.c5.`J.Cw.{3.3y. K..K.J7.{3.%3.-A.zw.-j.FG.+K.K|.*q.Bw.*q..A.bt.'l.bt.@K.!3.0o.bt.8o.@v.nm.l5.mm.sB.j[.9o.%v.5y.eo.ik.!l.G|.(v.v5.#K.j9.$K.<5.+3.Ew.f7.wc.we.n9.ok.ya.ki.0I.aI.AG.ti.%K.CG.vm.ni.x9.i7.Gw.[5.vG.,f.zw.&K.EG.^v.{v.*K.-A.zB.He.Ia.Bi.=K.P9.B9.L9.Dg.jt.M9.H9.-K.HG.Wr.#F.;K.>K.OG.OG.,K.'K.)K._A.[A.!K.)K.~K.sy.{K.QB.+C.8v.VB.WB.3A.VB.8F.XB.kD.mI.]K.^K./K.nI.(K.]K._K.:K.<K.[K.}K.Bm.|K.Go.#H.*H.#H.av.eF.1K.vD.wD.cA.=H.2K.Dy.Lo.3K.Po.4K.5K.>3.#v.[A.~l.{f.6K.:y.7K.8K.9K.0K.                                                                           ",
"      aK.bK.cK.dK.eK.fK.O3.gK.hK.RI.iK.jK.2j.kK.lK. u.mK.i%.nK.`k oK.pK.qK.rK.$}.sK.Sm.tK.uK.vK.wK.xK.yK.zK.AK.qs.BK.CK.DK.1z.EK.FK.'E.GK.oH.HK.IK.RA.JK.KK.LK.{J.MK.NK.OK.XA.PK.QK.RK.RK.An.SK.TK.UK.VK.WK.XK.*w.YK.Q1.ZK./_.`K. L..L.iz.+L.@L.#L.MH.)G.Gx.$L.%L.&L.^r.*L.=L.lJ.-L.;L.>L.Kn.,L.'L.hu.)L.!L.b;.~L.{L.{=.7+.ku.Oj.Uj.lu.=m..2.0+..D.'=.`l.]L.^L./L.(L.Yn.Wb.hU Nh.Yj.;2.zp.Yd._L.d+.:L.<L.W{.[L.}L.8B.$O 7 .|L.FW ~Q `b.64.r<.7 .!2.1L.2L.u<.&'.qU 3L.7G.>&.N{.A;.4L.Ep.cr.7G.>&.M#.zG @F 3I U8.5L.-t b=.>&.r;.*t 6L.Gz.=y.wb 7L.BU 8L.9L.0L.aL.bL.cL.dL.eL.fL.gL.hL.[1.iL.jL.nG.0).kL.lL.mL.nL.oL.pL.qL.rL.uy.sL.tL.*f.uL.sG.vL.wL..K.ct.,3.&h.,3.vL.#A.vG.,3.#A.&h.at.&h.@v.`z.at.xL.yw.l5.c5.bt.7I.I|.;3.l5.%d. A.oe.yL.=h.~3.et.>b.mm.bt./v.S7.Ir.S7.!l.`r.+v.ue.zL.ve._5.o9.tg.xa.ya.mi.wg.ri.AL.bI.Nr.aI.ko.ht.x9.zB.jy.-A.=A.-A.#A.*n.-A.BL.-A.85.CL.9y.B9.x9.F9.w7.Ie.yi.DL.Iw.v7.Ua.Fg.'A.EL.FL.Hg.GL.HL.IL.JL.KL.LL.ML.NL.)K.{b.[F.(b.OL.vt.ut.2F.PL.XB.5F.3A.4A.YB.XB.7F.(K.QL.RL.`G.SL.^K.TL.^K.UL.VL.lI.mD.WL.-s.sk.Ok.wD.XL.iq.YL.+H.$x.ZL.wD.`L.$C. x. M..M.fF.+M.yD.&x.Qc.tB.zw.vo.@M.#M.$M.%M.&M.*M.=M.                                                                           ",
"      -M.;M.>M.,M.'M.)M.!M.~M.{M.]M.^M.<j./M.yv.(M._M.:M. 6.>1 <M.[M.6x.}M.|M.1M.2M.3M.4M.5M.6M.7M.8M.9M.0M.aM.bM.cM.dM.eM.fM.gM.hM.iM.jM.kM.lM.mM.nM.EK.oM.)u.pM.qM.rM.of.-r.8z.az.sh.sM.tM.}J.uM.vM.wM.+w.@w.El.xM.yM.zM.!B.AM.BM.CM.]B.{r.DM.KC.EM.FM.GM.HM.#G.IM.JM.hJ.KM.LM.MM.NM.OM.PM.QM.RM.SM.TM.UM.VM.5_.WM.XM.YM.ZM.ZH.UM.`M.Sj.S,. N.`H.Uj..N. N.]L.+N.@N.iU [=.br.Rh.%m.#N.%m.%I.8r.{2.$N.{2.tE.^=.)Z !2.}=.6w.%N.mU </.JW -m.}=.V{.;m.&N.&2.64.*N.Du.j+.Q{.fr.fS ^2.=N.-N.n!.W0.%t Qz ^2.Ju -t #y._/._M dr %l w#.sU ;N._/.Se fw Ou.]t >N.)k.,N.tr.,e.'N.)N.!N.~N.{N.]N.^N.nG.fg._^./N.(N._N.:N.<N.[N.}N.|N.1N.1I.2N.V9.3N.Pe.+A.5I.,3.`z.4N.5N.*n.5N.vG.zw.>3.,3.-j.[D.Zr.-f.wG.'l.!3.7I.!3.}D.@v.'l.!3.yw.I|.ao.;f.P|.;f.6N.@v.mm.2q.%v.9o.ao.;j.>b.eo.>b.S7.'3.,q.87.R|.97.Ew.(5.g7.Mr.tg.ki.7N.aI.8N.ti.*F.zg.p7.n7.De.9N.,f.To.0N.FG.0N.,f.jy.&K.-A.aN.#F.w7.Ia.F9.zi.&K.A7.zi.Ie.bN.Kg.Ci.GG.cN.dN.eN.&A.fN.gN.]A.hN.iN.=n.Km.:A.jN.-n.(b.SG.+C.kN.2F.UB.3A.5F.lN.XB.mN.XG.nN.mI.oN.:K.`G.]K.oI.pN.VL.qN.rN._K.:K.XG.mN.nD.sN.tN.uN.vN.Hy.uI..M.wN.tD.xN.vN.bA.bv.Ym.,s.No.tD.Ft.yN.iv.5K.zN.x5.AN.&0.U7.m(.BN.CN.nv.DN.                                                                        ",
"      EN.FN.GN.HN.IN.Gs JN.KN.LN.MN.NN.sA.Hq.ON.5C.PN.QN.i%.RN.SN.TN.UN.VN.d).WN.XN.YN.ZN.$J.`N. O..O.+O.@O.#O.$O.%O.&O.*O.=O.[z.-O.;O.>O.,O.'O.)O.`v.!J.)O.!O.~O.{O.<u.|6.]O.|E.^O.7p.XK./O.(O._O.:O.<O.[O.}O.|O.BM.1O.2O.*w.3O.4O.ud.5O.6O.]4.7O.8O.Ws.9O.0O.aO.bO.eu.cO.,G.YC.dO.eO.fO.gO.hO.jJ.iO.<B.jO.:w.`H.d#.kO.M}.lO.mO.3r.nO.Oj.~L.oO.pO.qO.rO.sO.tO.#N.`l.Rh.O,.uO.'=.tp.#N.uO.Ud.`f.xJ.[=.Ud.Yd.vO.<L.wE.[L.u#.64.$O }/.{K a .Q8.7B.,t..y.p<. o.W}.6w.7B.+e.=N.-N.n!.}/.Dz.wE.~Q u#.9 .t<.v#.aS mm pU {Q %2.=y ew kB %O 3o nm wO./t.xO.yO.zO.AO.BO.CO.DO.EO.FO.GO.HO.s|.IO.JO.Q>.KO.LO.MO.P2.NO.OO.PO.QO.RO.SO.TO.UO.VO.WO.XO.My.sG.YO.*n.ZO.Ri.)3.[D.O7.*n.,3.tB.O7.wG..A.Zz..A.$A.`O.yw.&h.7I.`O.!3.l5.!3.J7.yw.I|.bt.1y.wB.;j.mm.>b.J7.'f.j5.xw.>b.G|.~3.S7.+v.qm. P.,q..P.<5.]5.35.ze.xg.ki.+P.AL.ti.vg.ki.tm.jo.65.0y.*n.jy.0N.-A.4I.)3.@P.*n.-A.jt.ay.v7.He.9y.#P.B9.P9.95.Dg.Gc.z7.$P.Dg.EB.5D.%P.&P.*P.KB.]A.=P.=n.RG.iI.}A.-P.[A.~K.;P.~f.SB.|A.7A.3A.>P.mN.,P.'P.XG.)P.`G.!P.nN.~P.nI.{P._K.rN.]P.nI.oI.^P.oI.pI.`G./P.lN.rD.(P._P.:P.#H.<P.+H.Gt.[P.+x.uI.av.+H.,s.xI.Go.Ct.wD.}P.Re.|P.Fg.1P.AN.]f.V7.W>.2P.3P.4P.5P.                                                                     ",
"      6P.7P.8P.9P.0P.aP.bP.cP.dP.eP.fP.gP.hP.*+.yv.iP.jP.kP.lP._j.mP.nP.oP.pP.qP.rP.sP.Co.tP.bH.uP.vP.wP.xP.yP.zP.AP.BP.CP.DP.jM.EP.FP.GP.HP.IP.JP.KP.LP.MP.NP.OP.PP.QP.RP.SP.TP.vM.UP.VP.WP.XP._E.HK.YP./E.ZP.`P. Q..Q.+Q.@Q.#Q.$Q.%Q.,B.&Q.*Q.=Q.-Q.;Q.yf.>Q.,Q.'Q.)Q.QH.!Q.~Q.jJ.{Q.]Q.^Q./Q.(Q._Q.:Q.<Q.2r.g6.<w.ku.[Q.}Q.:w.XM.4!.|Q.1Q.2Q.3Q.4Q.5Q.,/.6Q.Sn..D.F8.7Q.Vj.]L.8Q.Uj.9Q.0Q.2w.`l.0r.aQ.bQ.Vd.cQ.Wn.(K dQ.eQ.W}.6w.5G.Y0.&2.Cu.n!.v#.LW fQ.i_.r<.p<.gQ.U{.Dz.wE.:/.hQ.]2.@D.iQ.Dz.`n.jQ.fS ^2.4o Gp kB kQ.QE *y lQ.Yx.mQ.;t 7L.nQ.oQ.pQ.,o.qQ.rQ.sQ.tQ.uQ.Wz.nG.b[.vQ.wQ.xQ.yQ.zQ.p|.AQ.BQ.CQ.DQ.EQ.FQ.GQ.HQ.IQ.JQ.KQ.LQ.MQ.=q.0N.95.]s.yw.$P.0N.NQ.O7.#A.)3.at.rB.4I.O7.Zz.'l..A.xw.[D.!3.xL.;3.'l.Gr.OQ.=j.&F.=j.nm.PQ.%v.'f.;j.at.$A.j[.)f.!l.=3.v5.)f.!l.vB.QQ.j9.DG.<5.i7.o9.ni.g7.vm.jo.RQ.Nr.CG.BG.jo.vi.-v.Ia.ot.(v.,3.E7.^s.4I.0N.&K.b5.SQ.TQ.t7.AB.y7.SQ.Dg.w7.Ie.Ec.zc.Ai.Ec.UQ.-K.:q.VQ.WQ.XQ.YQ.ZQ._A.`Q.{^.=n.}F.^1.}F.]1. R.{C.3F..R.XB.5F.pD.XG.'P.+R.)P.(K.!P.:K.~P.@R.#R.$R.VL.]P.^P.:K.%R.nI.oI.^P.^K.&R.0F.TL.Nr.Ok.*R.=R.-R.0v.#H.;R.+H.uD.>R.,R.$x.'R.iq.$x.)R.Pk.!R.yN.O9.BI.~R.U7.{R.]R.Y7.^R./R.(R._R.                                                                  ",
"         :R.<R.[R.}R.|R.L* 1R.2R.3R.4R.5R.6R.7R.8R.9R.1W 0R.aR.<0.bR.cR.dR.Yk.eR.fR.gR.Co.hR.iR.jR.kR.lR.eH.uP.mR.nR.oR.pR.qR.rR.sR.tR.uR.vR.wR.xR.sl.}z.yR.zR.=O.]J.AR.KK.BR.CR.DR._E.sb.Cs.ER.FR.jj.ER.GR.HR.IR.JR.KR.LR.MR.NR.zH.OR.PR.QR.RR.SR.TR.UR.VR.WR.XR.IM.JM.gu.YR.ZR.`R. S.Kx..S.+S.@S.#S.$S.%S.&S.*S.=S.-S.;S.op.3B.4r.>S.,S.'S.)S.!S.)S.<w.nO.~S.ku.7Q.{S.]S.=/.^S.4Q.|w./S.(S.#m.Wj.q#._S.X}.wu.zJ.*I.Z}.q<.`b.:S.</.+D.$O U{.<S.q_.&'.qU 9 .*N.}/.Dz.wE.q<.`b.[/.zE.%Z [S.}S.|S.`b.64.qU 9 .1S.2S.3S.'Z @Q 4S.pB >Z MW Le 5S.6S.7S.8S.9S.0S.aS.bS.cS.dS.eS.gm.fS.gS.hS.iS.jS.kS.lS.mS.nS.A:.oS.pS.qS.rS.RO.sS.tS.uS.vS.$n.wS.z7.io.I9.vL.=x.05.A7. K.@F.-j.,3.&n.rB.Zr.)3.To.c5.at.[D.yw.^s.>f.-3.`z.*h.!3.=j.%F.l5.-f.xS.'l.;f.J7.E7.~3.at.2q.*3.~3.#A.Ir.>q.+v.,q..P.R|.[5.:5.25.i7.6y.n7.Be.yS.Nr.zg.ti.si.p7.Fw.De.=A.,f.E7.0N.O7.zS.-A.FG.tB.AS.jt.95.P9.Gc.BS.bN.CS.05.w7.Kg.Bi.DS.EL.ES.F9.FS.GS.YQ.HS.IS.rt.|F.Qk.eD./b.JS.KS.Ay.]b.UB.Xw.LS.MS.qD.XB.4A.8F.ZG.^K.NS.OS.PS.QS.RL._K.RS.SS.TS.RS.US.TS.VS.WS.XS.WS.^P.YS.ZS.`S.yk.Fo. T..T.+T.uI.xN.@T.#T.xI. M.+H.>s.$x.$x.$T.+x.Ft.%T.zD.Q9.Ro.,b.&T.V7.'d.*T.=T.-T.;T.>T.                                                               ",
"         ,T.'T.)T.!T.~T.{T.]T.^T./T.(T._T.:T.gP.<T.[T.kP.}T.|T.rE 9h.1T.zo.2T.hA.3T.4T.YN.5T.oP.'0.iH.6T.'0.7T.8T.9T.0T.aT.bT.cT.dT.eT.fT.gT.HP.hT.$r.Zv.iT.{u.jM.jT.kT.lT.mT.nT.oT.Ds.pT.gh.ER.qT.rT.sT.Es.wH.$w.1J.xH.tT.(O.(O.tH.5p.o0.uT.vT.wT.xT.yT.zT.AT.BT.CT.eu.DT.kE.ET.FT.GT.HT.1;.IT.JT.KT.LT.MT.eE.NT.OT.SM.PT.QT.-/.S}.,S.RT.ST.'S.TT.6Q.XM.UT.4Q.kO.RT.VT.xz.ST.WT.XT.YT.]L.+N.ZT.Yd.W%.=t.xJ.vO.Zf.HW `T.Zb.Z}.zE.0B.*I.#D.[L.5G.+e.bS x6.|/.a .6w.h_.8B. U.*Z |L.U0..U.+U.]2. U.)Z !2.}/.$].@U.#U.$U.%U.&U.MW 9r >y *U.=U.-U.;U.!y.!i.>U.,U.'U.)U.!U.>h.~U.nG.v:.{U.]U.fg.$}.^U./U.(U._U.:U.<U.[U.}U.|U.1U.|N.2U.3U.AD.4U.!R.Hk.-x.5U.k7.x7.Ri. K.K|.6U.&K.7U.8U.&j.)3.,f.,3.h5.^s..A.-3.`z.!3.'l.!3.'l.bt.'l.9U.'l.bt.yL.%F.;f..A.@v.at.>b.#A.)f./v.=A.ky.=3.gt.[5.%3.zB..P.6y.VQ.=F.75.ni.!q.tm.0U.ko.BG.ko.tm.oi.aU.D7.-A.EG.,f.;F.BL.&K.jt.aN.)l.jt.G9.v7.#P./q.y7.H9.Ec.L9.v7.bU.cU.dU.eU.ye.]F.fU.qt.gU.)K.|F.{K.|F.1F.TB.gA.7A.{C.hU.Ay.]b.iU.`B.'P.pD.jU./P.kU.lU.mU.PS.oN.:K.nU.oU.VS.pU.qU.rU.WS.RS.sU./K.tU.uU.pN.tU.`S.vU.aI.wU.xU.vN.yU.zU.AU.BU.CU.$C.DU.vN.fF.Gt.Fy.bA.Gy.EU.uD.yI.}P.)l.NQ.FU.Lm.lv.!b.GU.HU.IU.JU.KU.                                                            ",
"         LU.MU.NU.OU.PU.QU.RU.SU.2R.TU.UU.VU.WU.XU.YU.KI.ZU.`U.~w  V..V.+V.zo.@V.#V.hA. E.$V.%V.&V.*V.=V.oP.-V.;V.;J.+E.>V.,V.'V.)V.!V.~V.{V.]V.^V./V.Zv.(V._V.:V.<V.)u.[V.fM.}V.|V.1V.2V.3V.4V.5V.6V.7V.8V.9V.0V.nf.aV.Es.uH.bV.cV.dV.eV.fV.gV.hV.iV.+G.*Q.jV.kV.*Q.-G.KM.-L.TM.[B.WC.=G.lV.YH.mV.nV.oV.pV.nV.qV.rV.sV.VT.Pj. D.<G.tV.)L.oJ.4Q.uV.ST.vV.4Q.wV._B.xV.yV.zV.YT.QT.AV.zz.BV.Uj.CV.Yj.54.{2.YN tE.Zb.xJ.wJ.4 .Zf.yJ.=I.cQ.[/.DV.7 .oU q_.LW 5G.64.u#.7 .!2.EV.4G.W{.]2. U.dQ.FV.,2.GV.,2.~2.[D ;M HV.IV.JV.KV.LV.nm MV.NV.OV.,o.Mz.PV.)a.QV.RV.SV.TV.mG.fg.UV.N>.VV.WV.~(.I5.9[.XV.YV.ZV.zQ.`V.ai.#J. W..W.+W.@W.sS.#W.Ww.$W.%W.XO.vG.A7.K9.$P.&W.*W.zN.NQ.@F.'l.'l.-x.c5.tB.=W.tB.-W.yw.xL.h5.wG.yw.[D.h5.wG.c5.l5.F7.bt.To.'f.,3.!3.ao..A.pt.To.2q.zw.+v.zw.EG.gt.%3.te.;A.-F.;v.Ca.f5.Fw.;W.ht.Be.ri.vc.vm.zg.vi.85.:5.{3.jy.O7.>W.0N.,W.b5.BL.'W.b5.95.)W.b5.H9.y7.L9.it.Bi.!W.t7.(P.5D.Fm.~W.{W.KB.<F.]W.-n.^W.(b.ty.kI.2F.^b.CD.Ay./W.(W._W.:W.<W.xy.[W.}W.|W.1W.oN.2W.PS.3W.rN.nU.4W.5W.6W.TS.VS.7W.oU.VL.8W.UL.9W.8W.0W.tU.aW.bW.cW.xk.x7.dW.eW.fW.gW.hW.iW.$T.,R.jW.vD.#T.#H.kW.jW.wD.lW.vN.%W.Ei.Ti.V9.mW.!1.nW.B5.oW.pW.qW.rW.sW.                                                         ",
"         tW.uW.vW.wW.xW.A{ yW.zW.M3.AW.BW.CW.DW.EW.FW.GW.HW.IW.JW.KW.LW.^(.MW.G~.NW.ZE.OW.PW.QW.3M.RW.SW.TW.UW.%J.VW.WW.XW.YW.ZW.`W. X.Oi..X.+X.*O.@X.#X.$X.%X.&X.*X.=X.jM.Tv._V.-X.;X.>X.,X.pC.'X.)X.,X.!X.~X.&r._E.{X.YA.aV.ZA.]X.sx.^X./X.(X.sM._X.:X.<X.[X.}X.|X.1X.|X.2X.3X.4X.5X.6X.*L./Q.7X.8X.8X.Kh.~G.'G.9X.lO.`H.'S.'L.R%.RT.rO.0X.UT.aX.AV.bX.cX.dX.}Q.yV.eX.6Q.XT.fX.(G.gX.hX.iX.jX.6!.;2.bU Y}.kX.Td.Vh.Xd.Vh.YN lX.mX.vO.=I.nX.:/.@|.:S.oX.pX.DV.0B.eQ.,2.q<.r<.:S.j_.0B.NW #D.mU  U.(2.i+.qX.sG rX.QE ~o sX.tX.uX.vX.wX.xX.yX.zX.AX.BX.CX.DX.EX.Vz.z:.uw.FX.GX.HX.fm.IX.JX.KX.kS.fg.LX.MX.0[.NX.OX.PX.QX.RX.SX.TX.UX.VX.Hy.WX.XX.Ie.Ci.Fc.U9.tB.Ha.Gc.ZO.YO.YX.ZX.&n.=W.`O.[D.`X.'l.xL.yw.4U.}D.!3.'l.bt.yw.h5.%F. Y.=W.>f.>b.at.bt.at.pt.=W.Zz.@A.(v.!l.%3.gt.;A.:5.[5.DG.;F.%3.QQ.jy.}5.VQ.i7..Y.BG.)q.ti.&P.Pr.Fw.k7.zw.&K.,f.b5.CS.zB.'W.zB.Gc.95.v7.b5.u7.P9.y7.J9.b5.M9.N9.+Y.@Y.#Y.$Y.%Y.&Y.*Y.gI.-n.*d.SB.+C.kI./W.^b.=Y.7A.cq.zy.LS.-Y..C.;Y.`B.>Y.,Y.'Y.)Y.!Y.~Y.3W.{Y.pU.]Y.^Y.rU.WS./Y.VS.TS.qU.(Y._Y.:Y.<Y.[Y.YS.}Y.|Y.<Y.aW.0W.ym.Sa.1Y.2Y.xN.+T.Xr.3Y.#H.4Y.iW.xN.5Y.hq.6Y.7Y.$C.wD.8Y.9Y.0Y.Ua.aY.ny.!b.bY.]^.cY.pW.dY.eY.fY.                                                      ",
"            gY.hY.iY.jY.JW.kY.lY.mY.TU.nY.TU.(T.oY.pY.qY.{8.rY.sY.2b tY.N[.uY.vY.wY.+J.aq.xY.eR.yY.zY.|M.NW.AY.BY.CY.DY.EY.FY.GY.HY.IY.JY.BP.KY.LY.MY.NP.NY.sl.rl.TA.OY.PY.PY.QY.zR.RY.SY.TY.$X.^J.UY.VY.WY.wl.XY.YY.jj.ZY.*r.`Y.{X. Z.vH..Z.7p.+Z.@Z.#Z.xM.~w.$Z.FH.*B.2E.%Z.&Z.*Z.=Z.-Z. S.;Z.jO.>Z.A{.jE.,Z.'Z.)Z.!Z.~Z.)L.QT.{Z.]Z.SC.|Q.^Z.)S.sO.vV./Z.(Z._Z. D.:Z.<Z.[Z.}Z.gX.|Z. m.up.uu.1Z.=M bU 2Z.Y}.3Z.Xh.qu.J{.4Z.5Z.YN V0.6Z.g+.7Z.yE.j_.iQ.8Z.W{.9Z.%N.8B.$Z +D. o.,2.~Q c!.0Z.&Z Ud.;2. k.2S aZ.!K Wz Gp bZ.cZ.dZ.eZ.fZ.gZ.hZ.iZ.jZ.kZ.lZ.mZ.nZ.z:.oZ.im.RJ.pZ.dR.qZ.JX.rZ.sZ.tZ.uZ.vZ.r|.i3.wZ.xZ.yZ.Bo.Co..W.zZ.AZ.BZ.3v.)C.CZ.Ge.7U.$P.DZ.Dc.H9.Zr.|P.`O.=W.,F.^s.EZ.>3.tB.`O.So.'l.!3.@K.!3.'l.=j.%F.@v.@F.4I.>b.E7.pt..A.)f..A.;f.To.4I.(v.Zz.'f.jy.+v.[5.+v.*A.>F.te.>F.te.=3./v.FG.=A.zB.[5.xB.yg.Be.o7.Ae.9y.@A.BL.&K.FG.CS.zB.w7.Ia.Ec.95.J9.w7.NQ.J9.FZ.Va.H9.GZ.M9.HZ.IZ.JZ.KZ.LZ.MZ.NZ.qc.gU.1F.{K.OZ.SB.KS.DD.PZ.3F.-Y.QZ.RZ.SZ.LS.TZ.aF.>Y.UZ.}W.VZ.WZ.XZ.YZ.ZZ.pU.`Z.5W.rU.nU.oU. `.(Y..`.+`.@`.#`.$`.}Y.0W.tU.%`.tU.aW.&`.*`.=`.zg.Mk.-`.tI.;`.>`.,`.'`.)`.vD.YL.uD.!`.,R.gW.xI.vI.@H.~`.{`.]`.)C.yw.oc.bY.=n.^`.<U./`.(`._`.:`.                                                   ",
"            <`.[`.}`.|`.1`.2`.<n.<{.3`.4`.[h.5`.6`.7`.8`.F*.9`.0`.~w a`.b`.c`.d`.e`.#V.ZE.(1.AY.f`.F~.g`.h`.i`.Om.j`.k`.l`.m`.n`.Rm.eC.yP.o`.p`.q`.r`.DP.s`.t`.u`.v`.lT.w`.x`.jx.y`.z`.A`.PP.;X.B`.sC.1z.C`.D`.}6.Cs.E`.ZA.F`.G`.H`.5z.zC.I`.DC.J`.tT.K`.L`.M`.N`.O`.6u.LR.P`.lV.Q`.R`.S`.T`.gO.=S.U`.~Q.V`.W`.X`./Q.Y`.U`.=S.Z`.``.  +. ++ +@ +# +$ +BV.% +54.& +:Z.[Z.BV.* ++t.vJ.ZT.Yd.sE.Zn.= +P%.!/.Xf.- +d+.; +5Z.> +, +ZT.`j.' +Ud.;2.) +Zf.}S.J8.! +yE.~ +pX.{ +}=.6w.%N.mU  U.nU ] +`j.Wb.^ +/ +0r.nG ,Q bj 9r %g.( +_ +: +< +a2.[ +b2.} +| +1 +2 +2 +3 +4 +0).5 +6 +7 +8 +9 +r|.0 +fm.a +b +Er.c +d +e +f +k`.g +h +i +j +EQ.k +l +Bt.Ik.4U.4D.m +n +o +7U.Hc.p +ZX.Zr.LQ.Zr.|P.q +[D.`O.'l.xL.%F.,H.>f.r +s +2q.E7.>b..A.)f.#A.)f.,3.at.8o.at.>b.FG.)f.,f.=3.#F.jy.+v.zw.R|.[5.-F.FG.EG.To.'f.t +;F.-v.0y.ni.oi.n7.:5.*A.jy.&K.ot.BL.u +BL.'W.zB.w7.95.t7.95.)l.bN.O9.J9.P9.v +w +x +y +eN.KG.aU.z +A +B +C +D +/W.-d.E +RZ..C.F +-Y.G +Xw.H +iU.H +I +J +K +}W.L +M +N +O +WJ.P +Q +ZZ.6W.pU.R + `.(Y._Y.S +@`.uU.T +}Y.[Y.$`.%`.T +U +|Y.`S.V +YS.W +wk.X +Y +Z +` + .+!`.uI...+eW.>`.!`.$T.`L.%H.=R.+x.+.+@.+#.+.b.!C.O7.NB.OB.$.+;0.z:.%.+&.+*.+=.+                                                ",
"            IY -.+;.+>.+,.+'.+cb.).+!.+nY.~.+5l.BW.TU.#K KI.IL {.+].+^.+/.+<:.(.+}M.d).b)._.+wY.NW.:.+F~.<.+qP.[.+3M.}.+|.+1.+hR.2.+fC.3.+Kv.Wk.4.+5.+6.+7.+8.+9.+0.+a.+b.+c.+d.+e.+f.+g.+h.+i.+ws.j.+'O.jn.3V.IK.GR. B.0z.k.+l.+Gl.m.+n.+o.+TK. G.p.+q.++Q.r.+s.+2J.t.+u.+v.+w.+x.+y.+z.+WR.Ys.rz.YC.A.+dJ.gO.B.+C.+D.+E.+R`.GT.A.+-L.F.+G.+=S.UM.H.+I.+/Z.=t.{S.8Q.kO.J.+pu.K.+1G.sE.Ud.Sd._=.Rn.Sj.] .ar.L.+Yj.qu.ZT./S.M.+#N.ZT.mX.N.+Tx.O.+P.+Q.+/D Td.] +U0.5w.wE.o<.c!.)Z (K :L.R.+Ux.yp.@N.S.+Rh.%M Yd.`j.-Z T.+U.+]a V.+o .>U.W.+X.+Y.+Z.+`.+%}.g). ++.+++++@++#++b9.$++%++i3.&++fc.*++=++(N.-++;++>++,++'++)++!++~++{++]++^++/++6D.-`.DB.(++_++Me.Zr.tB.Pa.Oa.So.:++hF.W9.@F.-j.`O.So.'l.U9.xL.-3.yw.!3.FG.EG.To.'f.To.)f.,3.E7.pt..A.>b.)f.>b.&h.*3.,3.jy.)f.jy.=A.zB.[5.*A.}5.QQ.2q.QQ.>W.<++h5.=A.zB.0y.>F.m7.-v.Gw.;A.&K.ot.BL.CS.ay.jt.CS.b5.*n.v7.95.Ie.1q.jt.M9.Fg.Ua.it.[++}++|++1++2++3++4++WQ.5++6++kI.7A.cq.SZ.G +7++:W.LS.UG.`B.pD.8++9++'Y.0++a++b++c++XZ.ZZ.|I.d++e++f++P +g++ `.h++i++/Y./Y.j++i++T +k++[Y.T +%`.T +ZS.T +tU.V +bW.aW.YS.l++D7.Rr.+T.Pk.m++<P.n++`L.By.YL.o++2Y.uI.>`.XL.` +eq.+x. x.iy.p++/q.^s.bD.:F.;0.q++r++s++t++u++v++                                             ",
"               w++x++Y(.y++>r z++A++B++C++^#.D++C++BW.E++F++G++H++I++~w J++x|.K++<s.L++M++N++O++P++Q++(^.R++S++T++oP.U++V++W++X++Y++Z++`++'z. @+.@++@+ml.x`.z`.<V.@@+#@+$@+%@+&@+>O.&@+*@+=@+-@+;@+lT.>@+eh.,@+'@+GR.<O.Gl.)@+!@+~@+t.+{@+]@+Fl.^_.^@+ZP.xx./@+(@+_@+BC.UK.:@+<@+[@+]Q.}@+|@+(4.1@+2@+W`.3@+4@+Ss.5@+6@+5X.7@+8@+9@+=Z.0@+hO.UC.3X.a@+XT.b@+uV.YT.c@+H.+d@+hX.Y}.i+.(2.wu.T%.e@+0+.uJ.wp.vJ.Vj.q#.]/.Wb.C{.uV.^L.f@+wJ.g@+h@+i@+Xd.j@+%I.k@+l@+g+.m@+*Z -K Cp.<L.l@+Vd.;K aQ.n@+o@+(L.q#.yp.Y}.p@+oB q@+r@+s@+t@+}X ,c.u@+v@+w@+x@+y@+Vz.z@+wQ.A@+B@+C@+bC.tw.D@+E@+F@+0i.2o.a +G@+H@+I@+J@+K@+L@+M@+N@+O@+Bo.P@+Q@+R@+FQ.3U.S@+Mk.T@+Ka.4D.Ci.Hk.Dc.rq.EZ.&n.fA.'l.tB.wG.-3.=x.So.U@+c5.-3..A.r +>f.^s.EG.,f.4I.2q.4I.'f.To.EG.{3.;f.do.xw.>b.=W.EG.,3.zw.uB.w9.+v.zw.QQ.*3.2q.Ow.]v.ot.V@+2q.;F.>F.ay.[5.9y.;F.vG.FG.jy.0N.O7.b5.,F.N9.>A.y7.{A.He.P9.W@+Nc.Ai.HZ.Nc.dI.IZ.X@+ym.Y@+Z@+`@+ #+.#+}K.(W.{C.Xw.]b.-Y..C.-Y..C.pD.8++J +a+++#+@#+}W.##+$#+{Y.%#+&#+*#+=#+-#+;#+P +e++rU.>#+,#+'#+h++i++)#+!#+j++i++$`.ZS.T +k++T +`S.~#+{#+qN.tU.}Y.[Y.=`.]#+^#+/#+(#+uI.DU.%H.` +uI._#+!`.3Y.;`.%H.DU.*H.:#+<#+nt.%T.9Y.z7.(v.iN.!b.Lt./^.[y.[#+}#+|#+1#+                                          ",
"               2#+3#+4#+^8.5#+6#+7#+3`.8#+9#+0#+a#+b#+c#+R; d#+e#+f#+g#+h#+i#+j#+k#+l#+m#+q++MW.n#+o#+p#+3 +q#+r#+sK.s#+VN.t#+'0.u#+=E.=u.v#+w#+x#+y#+w#+]J.z#+)u.=@+A#+B#+os.kC.6.+C#+D#+E#+{O.kj.F#+pM.G#+H#+I#+J#+K#+%B.}O.wd.L#+M#+N#+O#+P#+K`.Q#+R#+*w.@w.XK.S#+7p.T#+U#+V#+<X.HM.W#+X#+Y#+E.+Z#+`#+V`. $+.$+IM.+$+@$+'Q.$S.gO.#$++$+$$+%$+&$+*$+=$+zV.kO.-$+XC.;S.[Q.fX.xW HW -M 0r.Y}.+t.;$+lu.>$+]S.su.I8.%I.%I.pu.,$+_G.Vj.'$+)$+0r.2G.T0.' +xJ.`f.!$+] +Td.V0.`N ~$+{2.@g.4S Xj.{$+Zd.Wd.]$+xJ.^/.^$+0!..Z /$+($+or._$+:$+<$+[$+}$+|$+z:.i3.Xz.1$+2$+}^.}^.&++zY.3$+4$+5$+t#+6$+9H.7$+8$+9$+0$+kS.a$+b$+z:.c$+(U.d$+bC.e$+f$+g$+h$+i$+Nk.j$+Fc.k$+l$+Kg.B7.Wa.:++*x.ZX.XO.>3.@F.U9.`O.So.=x.,H.sq.fA.@F.EG.=W.'f.#A.'f.=W.4I.)3.To.'f.at.>b.,3.>f.,3.Zz.&K.{3.ct.vL.zw.*A.%3.jy.=A.FG.EG.pt.To.EG.#F.@A.D7.Gw.95.zB.=A.zB.#A.CS.&K.m$+n$+/q.B7.w7.P9.BL.Gc.NQ.CB.o$+Nc.p$+3D.IZ.q$+r$+Y@+Y@+s$+t$+u$+v$+5++iU.7A.cq.UB.G +H +w$+x$+y$++#+##+$#+z$+M +A$+B$+C$+f++=#+;#+qL.D$+Q +qL.E$+F$+D$+Q +G$+>#+^P.^K.^K.pN./Y.9W.ZS.!#+j++T +sU.TL.}Y.H$+&`.I$+J$+k++K$+0U.$P.L$+%H.+T.wN.;`.xN.n++`L.o++>`.o+++T. x.!`.`L.M$+5Y.N$+zU.}P.O$+pt.oy.;0.P$+Q$+R$+S$+T$+U$+V$+                                       ",
"               W$+X$+Y$+SN.Z$+`$+ %+.%++%+@%+#%+$%+%%+&%+{T.*%+SH =%+-%+Oh ;%+mc. 8.]R.>%+,%+`7.O++}M.'%+@}.NW.P++)%+TW.!%+hA.~%+{%+]%+^%+)z./%+(%+_%+:%+<%+[%+}%+,E.|%+1%+2%+3%+<%+7.+4%+5%+6%+7%+8%+9%+7%+0%+:u.a%+KP.b%+*4.&w.JH.AH.c%+4J.k.+d%+e%+UK.f%+@Z.d%+LR.g%+1J.h%+i%+j%+k%+l%+GM.m%+5X.n%+#$+o%+p%+q%+S`.r%+s%+t%+Rs.u%+v%+w%+x%+OM.S`.y%+z%+A%+B%+!L.C%+F.+[Q.YM.{L.^/.r#.D%+Wb.E%+,/.(Z.F%+Vj.3Z.l@+G%+Wb.Rh.O,.H%+#N.`l.I%+N,.Ux.J%+zp.d+.Wh.[I X}.G%+K%+_L.Bp.q#.L%+^$+M%+- +N%+oB xJ.0!.%M O%+P%+Q%+R%+S%+T%+(t.U%+V%+Uz.W%++q.Er.X%+Y%+t#+SW.Z%+`%+xZ. &+.&++&+@&+E@+#&+$&+t#+%&+Xz.&&+*&+=&+-&+R>.;&+>&+6 +,&+'&+)&+AZ.!&+{Y.~&+_++Kw.cN.{&+|5.]&+Dc.Qa.ZX.=x.LQ.>3.rq.>3.rq.-3.6U.`O.c5.)3.=W.Zr.4I.@F.>f.O7.FG.E7.To.)f.O7.>f.,3..A.>3..A.Zz.{3.Zz.)3.jy.k7.zw.vG.)f.QQ.EG.]v.,f.jy.-A.FG.BL.ay.;F.&K.;A.-A.;A.0N.9y.b5.^&+BL. K.hF.N9.w7.Kg.Gc.jt.Ie.v7.L9.!W./&+(&+_&+:&+<&+[&+}&+|&+(W.5++UG.;P.UB.KS.1&+2&+jI.k#+@#+$#+z$+c++3&+##+%#+{Y.4&+5&+*#+g++6&+7&+Q +3U.P +Q +pU.e++NS.rI.8&+,P.NS.rN.'#+i++/Y.9W.WS.XS.8W.UL.}Y.qN.9&+0&+a&+$`.ZS.0W.T +Ak._++b&+c&+n++d&+0v.` +,R.n++e&+f&+;`.g&+h&+`L.;`.%H.(#+i&+eF.}P.Va.EG.:A.-P.j&+iF.k&+l&+m&+n&+o&+                                    ",
"                  p&+q&+LI.5#+r&+.%+s&+t&+9#+u&+v&+w&+x&+y&+z&+A&+j# `] B&+C&+D&+E&+y~.F&+c).G&+(^.H&+I&+G~.J&+J&+D~.P++K&+L&+<.+M&+N&+O&+P&+Q&+R&+lH.S&+rs.T&+$@+tR.U&+V&+W&+X&+/V.Y&+Z&+`&+ *+.*++*+@*+#*+$*+%*+u`.1V.&*+**+SK.=*+-*+;*+'r.pn.>*+SK.,*+'*+LR.)*+!*+~r.~*+{*+]*+:@+r.+^*+/*+(*+_*++$+dJ.:*+<*+[*+Z#+}*+q%+|*+s%+1*+2*+3*+4*+5*+.S.%S.:Q.[w.6*+!Z.7*+MM.[w.8*+|G.9*+Xn.54.0*+* +VT.nJ.$ +@N.&m.tE./D Xd.zp.a*+b*+54.su.Wb.su.uO.c*+L.+zp.I8.d*+_L.[=.Y}.ZT.Yj.e*+f*+yp.;K g*+K{.@Z &M h*+i*+j*+k*+l*+r@+m*+n*+o*+p*+q*+E@+r*++8.s*+t*+u*+v*+w*+t#+x*+y*+9H.z*+A*+#}.fg.F@+JO.I~.B*+C*+D*+E*+F*+G*+H*+~(.mS.I*+J*+K*+Q@+L*+M*+N*+g7.O*+(&+Gi.P*+Q*+R*+Ha.tB.B7.y7.>3. K.>3.|P.n$+wG.U9.'l.S*+,3.Zr.,3.fA.FG.4I.-A.E7.,f.To.^s..A.O7.,3.%d.=W.Zz.`O.*3.vG.FG.vG.@A.}5.*3.]v.jy.8D.FG.*3.,W.To.@A.ay.;v.B9.zB.'W.,f.Ow.)3.-A.jt.95.H9.Ri.Hc. K.fA.y7.95.Dg.Ec.Ke.yk.T*+U*+V*+W*+2++X*+Y*+}K.Z*+5++`*+cq.eD. =+~l..=+OB.^^.^b.[W.+=+O +M +{Y.WZ.`Z.f++g++;#+@=+5&+f++P +-#+#=+g++h++,#+$=+%=+&=+.R.z~.|&+ZB.R +'#+G$+/Y.'#+i++/Y.ZS.qN.9&+*=+qN.T +@`.#`.T +==+-=+!W.:q.;=+n++;`. T.>=+;`.nt.Xr.!`.4Y.>`.uI.;`.vD.3Y.eq.-C.wI.%T.,=+NQ.EG.=n.-n.{R.'=+q*+)=+!=+~=+                                    ",
"                  {=+]=+lP.^=+/=+(=+_=+:=+<=+[=+}=+|=+1=+r%.2=+3=+2B 4=+Tt.5=+dk. =+x|.6=+7=+8=+nP.9=+I&+0=+D~.Mm.a=+.J.P++F~.b=+c=+Qm.bH.d=+e=+f=+g=+h=+i=+j=+k=+ss.l=+m=+Ov.n=+o=+p=+;X.q=+r=+s=+,O.7.+ix.t=+Tv.u=+v=+w=+x=+2p.vH.y=+z=+A=+fV.B=+e%+C=+D=+vx.wd.KR.E=+3p.~*+F=+R#+G=+RK.H=+I=+J=+K=+L=+M=+7@+N=+O=+P=+Q=+R=+S=+(*+T=+U=+V=+W=+WH.X=+=Z.Y=+Y`.!Z.TM.MM.Z=+MM.`=+ -+.-+Vj.+-+a@+@-+#-+^S.+m.$-+%-+m;.Xj.&-+*-+=-+2w.Nh.[=.f*+Tj.(L.up._L.Yj.--+1w.su.D%+@N.^$+;-+.o.T%.nG {$+*M >-+mB ,-+'-+)-+!-+~-+{-+]-+^-+/-+(-+Nm._-+kL..++:-+<-+[-+}-+|-+1-+2-+3-+4-+QW.T++pP.PW.t#+5-+6-+7-+o-.t|.sZ.8-+9-+:).0-+a-+xQ.b-+c-+d-+e-+f-+EQ.g-+h-+i-+Sr.cN.j-+Ha.z7.v7.Fg.5K. K.fA.-3.|P.=x.k-+,H.EZ.r +fA.Zr.To.Zr.To.O7.To.Zr.,f.-j.,f.Zz.[D.at.^s.Zz.@F.#A.*n.@A.(v.;F.EG.;F.-v.jy.=A.ky.EG.2q.FG.EG.9y.zB.95.k7.*A.&K.*A.'W.O7.zS.u +Ic.NQ.BL.7U.,F.N9.jt.P9.l-+m-+it.n-+U*+o-+p-+Y@+q-+r-+s-+v$+=Y.t-+CD.U7.ei.dD.u-+[F.}F.v-+cq.w-+x-+WZ.YZ.3U.y-+{Y.4&+E$+ZZ.z-+Q +A-+g++B-+C-+5&+4W.e++P +mU.<K.UG.$.+D-+UG.{P._K.UL.VL.UL.rN.oI.TL.nI.}Y.qN.&`.@`.[Y.T +}Y.aW.=`.E-+F-+G-+Y +H-+c&+xN.n++Si.c&+;s.I-+e&+` +.T.EU.xN.+H.` +%H.J-+@.+8Y.P9.;q.PB.j&+jF.^l.#8.K-+L-+M-+N-+                              ",
"                  O-+P-+Q-+R-+S-+j# T-+U-+V-+W-+[#.X-+Y-+Z-+`-+ ;+.;+kY.+;+@;+#;+$;+gD.%;+]l.&;+n#+O++C~..J.xo.Mm.*;+=;+-;+;;+>;+ZE.3M.pP.Oy.,;+';+);+!;+~;+{;+*E.];+^;+/;+(;+7%+_;+:;+HP.<;+<V.*@+(;+[;+e.+};+|;+1;+2;+3;+LP.4;+bV.tM.5;+>r.vM.6;+7;+tM.8;+OR.JH.5;+/O.|J.9;+>r.F=+UK.BH.M`.0;+a;+b;+c;+d;+e;+f;+K=+g;+h;+i;+j;+K=+k;+hJ.j;+l;++$+m;+n;+o;+p;+q;+&$+r;+a<.s;+t;+`Y u;+v;+yz.w;+x;+y;+4B.ar.%-+W{.z;+[=.9r.A;+wJ.B;+Tj.Xn.Od.pu.C;+,$+D;+E;+q#.F;+G;+@N.D;+#N.H;+I;+= +J;+K;+{/.V%.L;+M;+N;+O;+P;+Q;+R;+S;+T;+U;+V;+Nm.8 +W;+;n.X;+Y;+Z;+f`.NW.`;+ >+.>+PW. E.+>+!++@>+#>+$>+%>+&>+GA.*>+=>+g~.->+;>+-&+>>+,>+/D.Er.'>+)>+!>+~>+{>+)q.Nk.]>+^>+/>+Lg.x7.Di.Qa.y7. K.>3.|P.6U.rq.U@+-3.:++(>+tB.O7.tB.,3.tB.=W.#A.O7.=W.Zr.=W.@F.=W.@F.#A.at.[D.@v.[D.#A.@A.zw.k7.[5.-F.;F.EG.To.(v.;v.;A.,f.Gw.;A.k7.,f.&K.&K.b5.0N.v7.BL.`X.NQ.n$+^q.NQ.J9.Bi.m +H9.w7.Ie._>+/&+q$+:>+0y.GB. #+<>+[>+=Y.iU..C.}F.!b.}>+1&+OZ.[A.|>+UO./W.5F.qD.1>+O +M +@R.B$+,#+E$+2>+3>+-#+C-+5&+#=+D$+h++3>+h++,#+F$+4>+5>+DD.E$+6>+]P.nI.^K.sI.7F.7>+8>+At.*=+9>+9&+0&+ZS.0W.tU.%`.0W.K$+aW.0>+m +a>+n++.T.b>+c>+d>+e>+f>+g>+eW.h>+5Y.i>+uI.+T.By.M$+#.+zU.eF.Gg.Ua.`r..s.}F.-n.j>+EI.k>+l>+m>+                              ",
"                  n>+o>+p>+}R.q>+B_ 6`.UU.@%+r>+S. s>+t>+u>+|$ d#+v>+w>++;+x>+y>+z>+A>+B>+C>+D>+E>+&;+q++E~.'%+vY.9=+F>+G>+UN.H>+zo.I>+GA.Om.J>+K>+L>+M>+N>+O>+P>+Q>+R>+S>+T>+A`.U>+V>+W>+X>+Y>+Z>+`>+T>+ ,+.,++,+@,+#,+$,+%,+&,+*,+=,+-,+;,+>,+`A.,,+',+e%+),+!,+~,+{,+o.+6;+],+9;+^,+/,+BH.(,+_,+:,+|X.X=+dJ.<,+[,+},+|,+1,+2,+3,+l;+4,+5*+n%+=G.5,+6,+7,+8,+nV.9,+0,+a,+b,+c,+d,+e,+f,+=S.0X.g,+oJ.WT.h,+.O i,+[I &-+I%+%m./Z. N.+t.(G.j,+AV.k,+J.+l,+, +,$+m,+^/.zp.n,+0r.D{.Sn.tu.f;.RE o,+p,+q,+r,+'y.s,+t,+u,+v,+w,+x,+y,+z,+ ++A,+B,+A$+C,+D,+E,+F,+G,+yY.H,+I,+J,+3T.&>+K,+RW.pP.L,+3o.M,+V;+7$+N,+b +Q2.WV.O,+P,+Q,+R,+S,+T,+U,+V,+W,+X,+Y,+[q.Z,+Gi.GG.HG.x7.Me.y7.Ic.U9.zN.W9.W9.U9.`O.n$+BI.Jm.>3.NQ.>3.#A.)3.To.Zr.,3.-j.O7.,F.[D.at.'l.;3.,3.at.=W.Zz.)3.jy.=A.zw.)f.25.=A.-A.EG.;F.=A.(v.#A.;v.Ia.ay.w7.0N.5K.0N.^s.,F.`,+y7.hF.)l.B7.Ic.^q.hF.p$+Bi.ey.Je. '+.'++'+@'+[&+t$+=d.#'+t-+`*+]b.SB.t:.lv..=+j&+)K.$'+*d.^b.=Y.^b.CD.)Y.M +%'+B$+4W.&'+ZZ.g++-#+A-+D$+ `.*'+='+A-+5&+pU.)Y.pU.)Y.-'+;'+^K.<K.<K.>'+^K.r-+[K.,'+''+pk.,'+&R.{#+qN.V +$`.[Y.T +==+V +bW.-=+vk.HG.+.+fW. T.)'+n++!'+~'+Y +{'+tI.I-+(#+c>+eW.`L.iW.vD.2Y.eF.Y +Ei.Ta.(v.-n.RB.$.+'d.]'+^'+/'+('+                           ",
"                     <#._'+:'+<'+['+}'+l%.|'+1'+2'+l%.W-+3'+4'+5'+6'+7'+8'+; .9'+x~.0'+a'+V[.b'+C>+u:.kF.D5.0=+MW.+J..J.Q++e`.(D.+8.9H.5T.c'+}U.}.+>V.d'+e'+f'+g'+h'+aM.i'+j'+k'+x#+f.+l'+m'+&@+W>+n'+o'+p'+q'+GK.+*+TY.!J.-@+r'+s'+t'+x=+7;+u'+v'+w'+x'+y'+5;+E=+.Z.z'+S#+h%+(X.A'+`A.B'+C'+D'+E'+F'+G'+H'+I'+i;+J'+K'+L'+M'+N'+o%+O'+:*+#$+8O.P'+dJ.Q'+R'+S'+8@+P=+T'+U'+V'+W'+X'+3X.jJ.Y'+lO.a@+Z'+{S.0r.`'+I8.Xh._S.% + )+.)+0Q.H%+UT.YM.+)+ST. D.@)+#)+CV.$)+G;+%)+L%+vJ.&)+*)+=)+-)+;)+>)+,)+')+'I.))+)y.!)+~)+{)+oP.2T.GA.])+^)+/)+()+_)+:)+<)+1-+}M.C*+[)+})+}M. E.|)+>z.QW. >+1)+[I.2)+3)+^:.KX.4)+5)+4)+6)+:^.7)+8)+9)+0)+eR.a)+b)+c)+d)+e)+f)+g)+Mk.h)+i)+j)+Te.]&+]s.rq.n$+@F.EZ.wG.EZ.W9.k)+,H.O7.,F.=W.fA.=W.Zr.=W.fA.@F.FG.>3.%F.wG.yw.^s.*3.@F.#A.@v..A.EG.{3.*3.,f.[5.zB.;A.(v.@A.>F.#F.4I.Ia.Gw.Ma.0N.=W.NQ.=x.EZ.fA.hF.n$+Ic.5K.D9.)l.hF.J9.N9.Va.Ai.l)+q$+m)+n)+o)+p)+#'+q)+.R.H +cq.Y%+r)+YE.;0.Ny.~l.}F.s)+UO.$'+uy.SB.JS.jN.~f.-d.t)+@R.B$+4W.{Y.6W.D$+='+2>+u)+A-+P +h++,#+{P.$R.mD.v)+w)+0F.XG.x)+-s.y)+A +z)+A)+A +qt.'H.z)+pk.'q.$`.%`.T +tU.aW.T +K$+V +W +B)+C)+hy.+T.D)+iW.E)+>`.f>+F)+Y +1Y.;`.c&+iW.m++&H.c>+Lw.yI.`L.Ue.Ji.Gc.EG.RG.RG.Lt.G)+H)+I)+J)+K)+                        ",
"                     L)+M)+N)+O)+>% P)+Q)+R)+S)+T)+sz c+ U)+V)+W)+X)+Y)+,M.85 Z)+`)+ !+.!++!+@!+#!+j~.r)+(.+C~.m#+$!+D~.%!+&!+8$+}M.d).*!+0H.BY.=!+zP.-!+;!+>!+,!+'!+h'+)!+!!+~!+{!+]!+^!+W&+/!+(!+_!+:!+<!+&@+[!+HP.}!+Tv.|!+1!+2!+3!+4!+5!+6!+7!+8!+9!+0!+a!+e%+C=+$B.b!+#Z.c!+d!+e!+#Z.M`.BH.f!+g!+h!+i!+j!+k!+l!+m!+4,+n!+K=+2,+o!+`#+p!+q!+cO.r!+s!+t!+u!+v!+P=+w!+x!+y!+;G.PM.z!+XH.Y`.A!+B!+p;+e,+Px.D%+_=.Yj.% +(S.C!+:Z.sO.D!+E!+h6.F!+G!+H!+AV.uV.^L.+-+I!+Xn.J!+TY K!+#I.L!+=U.fw.M!+N!+O!+P!+xX.Q!+R!+{)+S!+T!+U!+1$+KS.SZ.V!+W!+=s.X!+9q.Y!+Z!+Xz.`!+yY. ~+.~+ >+S++|-+$&++~+$&+@~+#~+6-+$~+z*+r(.j3.%~+S,+&~+9H.aq.@8._-+zo.*~+!&+=~+-~+;~+[q.G-+T@+>~+,~+L9.M9.N9.Ic.LQ.6U.-3.rq.`X.=x.'~+)~+fA.`X.hF.`O.n$+O7.>f.^s.,3.`X.%F.-3.`O.So.[D.at.[D.@v.[D.>f.O7.@A.Zz..A.=A.;F.jy.-A.;F.ay.-A.;v.z9.FG.H7.)3.H7.,F.)l.,F.sq.hF.fA.!~+Zr./q.F9.Ie.F9.Ec.Cg.3D.U*+}++w +IB.ug.~~+D-+2A._W.DD.A~.{~+]~+u-+Ny.]^.{b.]1.kI.QZ.D-+WL.ZB..R.^~+}F.cq.7A.OS._K.E$+G$+P +Q +2>+D$+/~+P +'#+(~+/Y.oI.;'+0F.,P.s-+`Q.iN._~+<v.QG.bD.:~+A +z)+qt.p9.@3.CG.zG.sU.0W.}Y.[Y.T +K$+V +tU.*`.<~+Cm.Ii.)`.[~+H-+}~+;`.|~+1~+e>+eW.2~+Si.c>+>`.`L.!`.8A.>`.eq.3~+4~+5~+H9.87.<A.-P.6~+7~+x@+8~+9~+0~+                     ",
"                     a~+b~+c~+d~+e~+f~+1R.g~+h~+W-+r>+i~+`(.j~+|[ k~+l~+6'+_j.m~+;%+#;+n~+o~+'j.p~+::.q~+r~+&;+s~+YE.a=+Q++t~+p#+(^.u~+v~+c=+YN.'0.GF.w~+x~+y~+z~+A~+B~+,!+C~+D~+E~+F~+G~+F~+H~+I~+1%+J~+K~+L~+M~+M~+y`.N~+zR.O~+P~+*X.Q~+R~+E`.S~+T~+U~+DR.V~+W~+o.+X~+}O.5p.`A.Y~+Z~+`~+ {+.{++{+@{+#{+${+%{+&{+*{+={+-{+;{+c;+u!+u!+>{+,{+'{+){+FM.!{+~{+K=+{{+]{+^{+/{+*{+({+_{+'{+:{+.t.TT.<{+qV.!Q.oJ.Px.CV.#m.4B.[{+D!+}{+kO.@)+F!+F!+|{+Sx.1{+2{+3{+4{+I.+5{+6{+U,.#I.q6.7{+8{+9{+0{+a{+b{+c{+d{+e{+f{+g{+h{+Rk.y,+i{+:s.j{+k{+W!+l{+m{+n{+o{+'=+p{+d).q{+r{+ak.s{+t{+u{+dR.v{+w{+x{+#>++>+D*+y{+z{+J>.A{+$~+1)+B{+hA.=;+C{+zY.PW.D{+f$+f$+E{+F{+G{+H{+I{+Tr.J{+J{+Hk._q.Lc.K{+XO.-3.fA.=x.BI.'~+Ri.`X.rq.`X.=x.,3.=x.NQ.@F.,H.`O.c5.wG.r +W9.'l.`O.=x.>3..A.at.@F.*3.,f.>f.vG.;A.D7.#F.'f.k7.zB.zi.ay.95.>v.Ri.fA.@F.Ri.fA.NQ.,F.J9.hF.^q.!C.fA.^q.Gc.Ie.Je.L{+|++DS.M{+rc.N{+6F.O{+-Y.P{+$.+~K.Q{+A~.Ny.:s.^^.e3.(b.R{+TB.`*+`B.^b.aF.-P.Ny.S{+cq.>#+%'+kU.,#+T{+>#+D$+h++2>+U{+h++V{+^K.<K.mD.lN.W{+X{+*d.Uw.Vw.st.ut.d7.A +=v.{5.qy.qc.Tw.Y{+}v.:Y.$`.%`.T +ZS.0W.bW.aW.0W.==+Z{+]#+no.*R.g&+>`.~'+n++{'+ T.~'+g>+8A.>`._#+`{+YL.`{+ ]+m++3~+0Y.;=+Ya.O9.$K.[v.OB.:F.Y[..]++]+@]+#]+                  ",
"                     $]+%]+&]+*]+=]+-]+;]+>]+g~+S)+@_.D++,]+']+)]+!]+l~+~#.~]+{]+]]+d:.#q.*5.k~. ^.^]+km./]+(]+_]+:]+g3.<]+F>+[]+|M.+J.8 +}]+|]++&+1]+2]+.O.>V.3]+4]+5]+&E.6]+g=+w#+3%+7]+8]+qR.MY.dT.9]+eM.0]+x#+a]+L~+b]+c]+LK.d]+e]+Ds.f]+g]+h]+i]+HK.sf.j]+k]+vM.o.+l]+m]+e%+n]+`A.o]+p]+xM.q]+r]+s]+t]+u]+v]+w]+,Q.[,+x]+y]+6,+K=+z]+2,+S`.A]+u!+1*+l%+B]+C]+(*+D]+E]+F]+[,+G]+H]+I]+J]+]Z.K]+=Z.L]+M]+nJ./S.sO.N]+~S.O]+P]+@)+Q]+R]+S]+T]+U]+V]+]Z.W]+XC.X]+&Q Y]+D{.q@+Z]+`]+ ^+.^+Op.+^+@^+#^+$^+%^+oB.lF.Rk.y,+=0.{1.&^+*^+9++=^+-^+b).;^+B~.P++>^+.>+>^+,^+V;+'^+6$+zo.$&+@J.#~+(1.)^+Oy. ~+!^+~^+{^+]^+ak..>+^^+/^++8.(^+8$+-^+qK.!++_^+:^+<^+[^+}^+|^+I{+5D.]#+Ta.)C.|P.Pe.n$+7U.U@+EZ.Ro.*j.:++=x.n$+^s.U9.&n.hF.wG.yw.W9.c5.W9.&n.U9.wG.U9.`O.yw.`O.7I.-W..A.Zr.{3.-j.uB.[5.a5.FG.&K.vG.95.D7.05.BL.0N.So.`X.$j.1^+BD.k-+!C.hF.>v.!C.NQ.Lc.,A.L9.Ie.5D./&+n-+De.pk.2^+3^+3^+v$+1A. R.4^+uq.5^+6^+nW.j#+]^.gD.~C.KS.^b.t-+5F.WL.nD.{Y.7^+%'+kU.3W.##+lU.T{+G$+,#+6&+*'+D$+h++8^+9^+_K.mD.lN.Vw.PL.0^+|v.OL.st.gU.st.#s.ry.Tw.QG.$K.Tw.wa.{5.mk.<Y.uU.T +9W.a^+T +b^+[Y.c^+d^+|Y.e^+f^+O*+`L.f>+m++g^+h^+Si.e>+;s.e>+(#+F)+i^+'`.iW.eq.1Y.Im.>`.j^+mt.(q.Ra.Lr.dD.P$+uq.>0.k^+l^+m^+                  ",
"                     n^+o^+p^+q^+r^+s^+t^+u^+v^+w^+x^+y^+z^+A^+B^+C^+D^+E^+F^+G^+H^+I^+J^+vw.K^+L^+M^+N^+X7._]+A~.O^+P^+Q^+H&+R^+kL.S^+&!+T^+U^+*!+V^+V++W^+X^+Y^+Z^+`^+ /+./++/+@/+;u.#/+$/+%/+cT.&/+*/+=/+-/+;/+:!+6.+>/+ys.,/+'/+)/+!/+~/+{/+]/+nT.P~+^/+//+(/+_/+:/+2p.tM.`A.WP.l]+F=+iV.</+[/+}/+_@+|/+1/+2/+u]+3/+4/+5/+6/+f;+7/+8/++$+T`.9/+V=+<@+0/+a/+b/+s%+c/+d/+e/+[@+f/+cp.FT.g/+h/+i/+2@+Y=+j/+k/+4{+J.+l/+[Z.m/+n/+o/+VT.S]+p/+q/+r/+MM.s/+t/+@ +,L.u/+Un.v/+w/+x/+y/+z/+A/+B/+B/+C/+D/+E/+R$+F/+Oy.G/+s:.H/+I/+J/+e$+K/+e$+L/+M/+N/+.8.O/+(:.}]+G)+P/+C{+Q/+R/+d$+F,+#>+#~+S/+T^+hA.9H.XE.w{+T/+Nm.U/+4$+A{+XE.S/+V/+W/+(^.X/+zY.Y/+Z/+`/+ (+J{+.(++(+@(+k$+#(+J9.O9.Lc.$(+vS.[D.,H.-3.So.=x.n$+,H.rq.&n.YX.U9.r +W9.OQ.,H.-x.EZ.wG.'l.-3.`O.q +`O.q +[D.tB.$F.@A.)3.*3.)3.=W.'W.ay.v7.BL.&K.,F.@F.7U.n$+!C.fA.Lc.b5.=x.5K.,F.y7.fA.Ai.Iw.Cg.Ai.%(+|++&(+De.ug.,'+~~+2A.6F.*(+D +{l.=(+]f.-(+uq.A~.j&+~b.~C./b.(W.Xw.ZB.P{+kU.3W.f++,#+$=+_K./P.>#+/P.c++QS.T{+_K.,#+h++8^+;(+_K.;'+4F.[>+*1.-h.>(+QB.>(+@s.[A..s.PB.,(+_F.~5.<v.ve.qc.qy.$3.sU.0W.$`.'(+#`.)(+K$+0W.K$+<~+!(+%`.~(+{(+F)+:P.'`.g^+i^+f&+>`.I-+m++d>+:P.iW.2Y.`L.tI.dF.'`.8A.](+Y +Ik.Ya.H7.Lr.dD.-(+^(+v:./(+((+_(+               ",
"                        :(+<(+[(+}(+|(+1(+2(+3(+4(+5(+6(+7(+8(+9(+0(+a(+/n.b(+c(+d(+e(+f(+g(+g(+h(+i(+K^+j(+5^+k(+l(+(.+m(+<I.n(+F~.o(+kL.@8.qK.p(+v~+YN.q(+r(+s(+t(+u(+v(+w(+x(+y(+~;+z(+A(+4]+B(+C(+D(+E~+#/+E(+3%+F(+_V.9.+;X.LK.G(+H(+I(+'X.J(+K(+L(+M(+N(+O(+P(+Q(+3p.g%+R(+Is.9!+S(+,*+R(+>*+u'+e%+),+T(+U(+V(+W(+1/+X(+J'+Y(+2/+Z(+7O.v%+D]+T=+`(+_*+F]+|*+]{+ _+._+G'+IM.5X.+_+kE.@_+g/+#_+$_+%_+&_+*_+H.+=_+-_+;_+UT.>_+H!+,_+'_+aX.wV.)_+`C.!_+!L.(4.~_+{_+<=.]_+^_+/_+(_+__+9S.gZ.:_+<_+[_+}_+h{+Om.$>+|_+1_+2_+9++3_+X!+[)+:-+h3.n#+Z!+XE.4_+DI.5_+6_+7_+ ++6-+&>+5-+})+I>+})+v~+1-+-^+zY.4-+B*+2-+8_+/N.9_+%&+0H.0_+t~+&>+@8.}]+a_+b_+c_+:^+d_+[^+e_+f_+g_+Vr.Ta.K9.Ua.5N.]s.`X.rq.`O.rq.-3.EZ.,H.>f.So.r +,H.h_+$j.W9.$j.i_+OQ.W9.&n.U9.-x.W9.,H.So.@F..A.@F.#A.-j.#A.)3.@A.tN.-j.{3.BL.&K.hF.-3. K.3I.j_+6U.-3.$j.n$+)l.,F.Kc.y7.0N.b5.b5.F9.k_+|++x +l_+m_+n_+}K.o_+|A.5F.2F.p_+-(+{R.z~.;x.wo..=+Ny.q_+$.++C.UB.qD.ZB.6A.~P.OS.2>+D$+nU.,#+T{+$R.OS.lU.8&+_K.E$+9^+r_+,#+6>+;'+0F.3A.<A._(.'H.@s.[A.s_+)K.py.t_+QG..s.^A.(A._F.u_+Tw.Y{+u_+[Y.T +v_+d^+0W.'(+a^+==+%`.)(+%`.w_+zm.Or.x_+*R.y_+c&+f>+I-+eW.c&+z_+b>+A_+`{+>`.m++h>+eq.h>+eF.1Y.B_+po.C_+ b.H7.NB.Lm.Z7.7).:).D_+E_+               ",
"                        F_+G_+H_+I_+J_+K_+L_+M_+N_+O_+P_+Q_+R_+S_+T_+tv.;U U_+ie V_+W_+#^.5(.j:.X_+d(.Y_+Z_+`_+0t.A~.c`. :+.:+N++H>+wY..8.1$+E5.+:+[I.@:+BY.Qm.W^+#:+W^+jR.$:+7x.%:+&:+*:+=:+-:+;:+>:+&/+B#+rR.,:+':+):+b]+!:+Y>+t`.-X.~:+{:+nT.0%+]:+^:+/:+(:+_:+::+<:+[:+5;+}:+|:+1:+2:+3:+4:+2:+5:+6:+R(+7:+8:+1O.j%+9:+0:+v]+@{+a:+b:+c:+3*+d;+v!+W=+j;+d:+e:+|*+]{+N'+f:+,{+g:+h:+1;.`R.i:+j:+k:+3X.l:+&Z.m:+n:+o:+;S.p:+Q]+ST.q:+r:+s:+t:+u:+RM.v:+w:+x:+u:+0;.y:+z:+A:+B:+C:+D:+E:+F:+G:+H:+<y.I:+T!+p{+L/+J:+2_+K:+L:+K +M:+:-+N:+@8.O:+DI..}.C{+P:+5_+Q:+.}.R:+1-+S:+e$+T:+})+1M.&V. ~+ >+e`.|-+U:+>z.D*+V:+oP.Oy.W:+H,+X:+Y:+Q/+a_+(1.Z:+`:+ <+.<+ (++<+@<+#<+I{+J{+Ta.$<+C7.6U. K.-3.EZ.,H.=x.n$+=x.So.W9.+l.-x.6U.,H.-x.U9.F7.LQ.wG.rq.,H.rq.-3.yw.U@+`z.@F.}D.%<+-A.FG.&K.{3.Ia.,f.H7.Zr.7U.H7.,H.rq.-3.rq.ZX.S9.ZX.^q.!C.ZX.!C.]q.F-+w7.wi.F-+&<+*<+cy.ni.rD.bF.!P.,P.5F.lD.jF.=<+dD.uq.5q.!b..=+Ny.OB.-P.jN.+C.Xw.ZB.kv.'#+-<+;<+P +5&+2>+`Z.US.3W.]P.)Y.]P.%=+T{+]P.><+,<+<K.mD.1A.W{+uo.w~.<F.}A.ry.[A.'<+)<+_F.)b.PB.(A.Qw.u_+<v.+3.rc.<5.8N.cW.d^+<~+Z{+[Y.!<+'(+d^+!(+[Y.!<+Z{+$Y.F-+H{+}~+iW.d&+h>+~<++T.{<+c&+H-+]<+^<+!`.#.+tI.eW.m++eW.1Y./<+C_+Kk.Lc.'l.Uo.=(+(<+_<+:<+<<+               ",
"                           [<+}<+|<+1<+LI.2<+3<+4<+5<+6<+7<+8<+9<+0<+a<+;U b<+c<+d<+e<+f<+`].g<+!1.h<+4).i<+j<+&T.Y[.s:.Um.]R.&;+q++i{+$!+k<+l<+m<+i`.n<+o<+p<+q<+oL.r<+s<+t<+u<+v<+w<+x<+y<+z<+A<+B<+R>+F~+C<+D<+:!+E<+F<+&@+G<+A`.};+H<+I<+J<+q=+{/+K<+L<+M<+4!+N<+9!+DR.d!+m]+O<+e]+P<+Q<+R<+S<+T<+:O.tM.C=+^@+)r.|/+|/+2/+U<+V<+V<+W<+X<+Y<+r%+Z<+D]+`<+ [+.[+._++[+S`.@[+aE.}@+&L.#[+$[+%[+&[+*[+i/+8,+=[+-[+;[+>[+q/+'_+R]+3Q.@-+o:+,[+'[+)[+k,+UT.yz.'L.![+9!.$U.~[+p,+{[+][+^[+/[+([+_[+<y.Rk.x,+Z!+:[+<[+VZ.b++[[+}[+X!+C*+|[+'%+f3..}.f3.cY.&++>;+1[+2[+ ~+3[+4[++:+5[+6[+7[+8[+#>+YN.9[+I~.0[+I>+y,+V:+a[+b[+c[+d[+s#+a=+e[+(^+f[+Q/+<-+aq._^+g[+h[+i[+}^+j[+k[+ '+Ra.]&+Qa.Fg.Ri.&n.n$+-3.So.=x.EZ.,H.$j.wG.wG.LQ.-x.U9.W9.k-+-x.OQ.U9.wG.-3.,H.q +xL.%<+@F.Bw.&h..A.-j.=W.H7.-j.b5.>3.>3.hF.>3.NQ.>3.5K.-3.%n.vS.U9.Ti.EZ.^q.Ri.N9.wi.l[+it.m[+.'+Kg.vG.pk.n[+o[+lN.VB.UG.+C.p[+Y_+;0..!+,j.;0.]f.q[+iI.d3.+C.7A.3^+ZB.nI.{P.3>+B-+-<+r[+7^+ `.G$+RS._K.T{+~P.OS.]P.NS.VL.]P.NS.lN.5++_A.s[+'1._A.t[+^W.eD.s_+[A.<A.:F.oy.iN.yG.<v.,(+$3.{5.pc.u[+6D.YS.Z{+aW.|Y.'(+a^+c^+K$+!<+)(+0>+v[+w[+Fm.|K.n++x[+y[+2Y.Z +z[+h>+e>+2Y. T.Xr.3~+Si.[~+2Y.;=+A[+yI.o++](+C_+y7.#A.-(+Q>._<+B[+C[+               ",
"                              D[+E[+F[+G[+H[+f~+I[+Xt.5(+J[+v&+K[+L[+M[+2l.TH N[+O[+P[+Q[+e(+R[+w~.vq.vw.(b.S[+&T.T[+Y%+U[+ 8.6o._b.Q>.V[+W[+.++M/+X[+Y[+yY.Z[+`[+ }+W^+q<+.}+ZW.+}+@}+#}+$}+%}+&}+*}+R>+W&+W>+=}+-}+;}+>}+F~+C<+,}+'}+)}+!}+~}+{}+]}+{:+^}+/}+P~+(}+_}+:}+:/+uH.<}+'/+{}+L<+[}+//+R<+x'+(/+C=+}}+|}+1}+2}+3}+4}+5}+6}+7}+8}+J=+9}+0}+d;+|*+i;+a}+b}+c}+d}+e}+S`.:*+P'+f}+0,+g}+h}+=[+NT.#_+i}+9,+j}+8,+k}+l}+m}+n}+o}+p}+q}+sO.|{+cX.zV.VT. D.r}+s}+ew.t}+u}+v}+w}+x}+y}+z}+(-+A}+A}+P:+`[.aF.()+W!+9++<-+B}+=^+C}+>^+C~.D}+}]+7_+V;+kL.ZE.E}+P/+u~+:)+zo.F}+G}+H}+.~+e$+w*+a_+I}+#>+9H.pP.J}+J*+4$+K}+L}+M}+N}+Y;+*!+(1.O}+P}+Q}+R}+S}+W,+T}+T}+U}++<+V}+gy.I9.Ra.$P.o +hF.6U.-3.EZ.-3.=x.U9.W9.:++-x.6U.i_++l.i_+wG.LQ.-x.ZX.BI.6U.&n.U9.`O.`z.@F.}D.@F.,3.*n.^s.,F.vG.,3.Ri.wG.EZ.-3.5K.>3.W}+X}++b.vS.1^+Y}+*x.R9.rq./q.N9.zS.Lc.Z}+`}+HG.m-+vc.*=+[K. |+<K.'P.VB.gD.~l..=+-(+wo.;n.!b.,j.S{+~K.sy.7A.UB.3A.uy.='+.|++|+@|+.`.B-+7^+ `.#=+'#+>#+nU.NS.oI.NS.%=+6>+<K.>'+1A.#|+vo.$|+%|+RG.<F.}A.<A.-n.>j.@s.oy.iN.bD. s.(A.#K.JB.mk.Y{+zL.j9.=v.e7.uc.q9.&|+c^+b^+*|+)(+==+=|+-|+;|+>|+,|+M$+'|+)|+xN.g&+;`.~'+M$+I-+Si.I-+!|+-`.2Y.~|+{|+]|+^|+]|+Im.%T.!C.,f./|+(|+di.U]._|+               ",
"                                 :|+<|+[|+4#+A{ Xy.6{.}|+||+1|+2|+3|+4|+5|+6|+7|+8|+d(+9|+9|+0|+j:.g<+s[+a|+b|+ek.M^+]R.c|+]R.d|+e|+s:.pG.bk.f|+E5._^.F~.!++qP.AY.BY.fR.U++g|+h|+i|+j|+k|+l|+m|+n|+o|+p|+q|+eM.r|+s|+~z.t|+u|+v|+w|+x|+};+y|+z|+J<+!}+A|+B|+i]+C|+D|+B|+vC.E|+F|+G|+H|+g]+I|+M(+J|+_:+O(+K|+_O.L|+M|+N|+O|+:X.u]+t]+P|+V#+Q|+R|+S|+T|+U|+V|+Z<+W|+#$+W`.z!+X|+V`.s!+-G.Y|+S'+Z|+y%+`|+ 1+.1++1+y%+Y#+@1+#1+*[+4X.]Z.$1+%1+&1+XT.X]+5Q.aX.*1+J%.=1+-1+;1+>1+,1+'1+)1+!1+~1+F/+G/+{1+]1+^1+`B./1+b++J +(1+_1+aC.'%+:1+}y.N/+>^+N/+nP.a=+ E.<1+T,+!++g`.G,+9q.[1+V!+Y;+}1+|1+AY.I}+11+21+31+41+51+Z[+61+$&+F>+71+81+91+01+T,+SW.f`.a1+Y!+S/+b1+g[+c1+d1+e1+f1+k[+g1+f^+Ua.N9.5K.k-+wG.U9.-3.EZ.-3.EZ.BI.$j.LQ.xL.:++-x.LQ.h1+vS.i_+$j.U9.wG.:++'l.-3.'l.So.,3.tB.*n.,f.,F.&n.rq.-3.|P.So.7U.So.W9.|P.i1+>l.qq.j1+j_+k1+j1+b5.Dg.]q.!W.l1+m1+y +HG.Or.9I.n[+oI.mN.XB.lD.UB.D>+.=+-0.n1+/^.!b.nW.Lt.d3.~C.!f.^b.8v.ty.X{+@|+o1+;<+p1+q1+#=+.`.B-+r1+rU./Y.nU.lU.]P.!P.>'+sI.nI.mD.s1+}K.=n.t1+-^.t[+<A.u1+<A.u1+<A.RG._F.bD.^A.v1+87.^A.w1+Y{+qt.p9.=v.Ew.sc.uk.r9.x1+y1+[Y.z1+'(+=|+E-+A1+;|+i-+#C.;=+n++` +)|+^<+H-+ T.B1+2Y.nt.[~+dF.m++*R.m++Y +](+Et.C1+D1+iy.Qe.To.E1+Y%+w|.F1+G1+               ",
"                                    5W H1+I1+IW.J1+f~+&+.K1+L1+M1+N1+O1+P1+Q1+R1+S1+T1+U1+V1+2:.7(.W1+fi.X1+U2.s~.Y1+7).Z1+`1+ 2+j(+.2++2+E>+@2+M++w:.#2+z@+$2+%2+5T.&2+*2+=2+-2+;2+>2+,2+'2+)2+!2+*:+~2+k'+{2+h=+]2+^2+/2+(2+_2+:2+<2+[2+}2+r'+|2+12+22+nT./:+_}+32+42+52+62+72+82+_/+I|+92+02+/:+a2+b2+72+c2+d2+e2+}/+XK.f2+g2+h2+i2+HH.X<+j2+k2+l2+m2+n2+s%+o2+p2+'{+q2+[r.r2+s2+t2+HM.6@+'{+u2+v2+w2+u2+9,+x2+y2+z2+A2+B2+jJ.C2+D2+*1+E2+F2+3Q.zV.yz.G2+Mb.H2+I2+J2+K2+L2+M2+N2+O2+P2+V;+XE.Q2+$.+-d.rI./1+/1+R2+S2+SZ.T2+Mm.U2+V2+D5.]^.+}.'%+a=+'^+F~.W2+e$+21+2_+k +X2+Y2+Z2+`2+11+ 3+0[+<-+.3++3+M}+@3+#3+$3+%3+&3+k +*3+=3+-3+[I. ~+;3+L/+:-+m<+H&+>3+,3+'3+)3+JZ.y +I{+Bt.Me.)l.)l.tB.5K.@F.|P.So.]s.6U.+b.LQ.-3.|P.U9.%n.U9.rq.:++1^+n$+-3.rq.-3.hF.,H.rq.>3.'l.)3.{3.tB.Zr.!3+So.*x.h1+*j.~3+U9.7U.k-+^q.k-+Qo.]s.$j.j1+rq.Ic.{3+k_+]3+^3+HG.dI.O7.ze./3+YG.^P.mD.zy.sy.6^+{^.{l..=+lv.j#+nW.:s.{b.jN.fD.kI.-(+yt.'#+pU.3>+(3+p1+q1+;<+_3+r[+(Y.oU.6W.:3+nU.RS.(K.^P.>'+TL.rN.VL.YG._~+1v.F[.Fr._F.Eo.|v.-h.t[+py.,(+9D.^A.Rw.rg. s.<3+yG.^A.w1+@3.;W.mk.[3+<5.p9.'(+d^+f)+v_+=|+v[+B)+}3+|3+DB.xU.13+1Y.e>+|~+>=+3Y.23+e>+;`.h^+!`.!`.z_+33+!`.|q.Si..M.43+C_+5~+53+E7.E1+X[. 2+63+73+               ",
"                                       83+93+03+dK.a3+b3+c3+d3+e3+R)+f3+g3+h3+i3+j3+k3+l3+m3+6:.n3+o3+a(.p3+q3+b|+r3+ma.V[.V[.D>+s3+l(.k(.(.+t3+u3+v3+w3+v:.x3+p(+y3+z3+PW.4M.A3+B3+C3+D3+E3+F3+G3+H3+R&+I3+Q>+F~+B<+J3+,J.K3+L3+M3+OA.N3+O3+P3+A|+Q3+oT.{}+]/+R3+_}+ZY.::+{,+S3+T3+x'+U3+V3+W3+X3+Y3+O(+e]+4!+5!+Z3+`3+ 4+.4++4+@4+V<+J=+V#+#4+#4+$4+j;+%4+K=+a}+t%+CT.CT.&4+*4+BT.=4+-4+#L.X#+]Q.;4+>4+p!+,4+'4+)4++[+IT.+_+@1+)4+!4+yV.*1+r:+Y'+pO.~4+a<.{4+]4+^4+/4+(4+_4+:4+g).<4+dR..}.X7.Km.MS.lU.OS.[4+aF..C.S2+}4+|4+bk.u:.~b.r~+14+7=+s~+O++L/+;3+24+1-+34+2_+44+54+64+}I.74+K +84+.}.21+I}+G,+$&+ >+6[+94+&3+04+pL.UJ.a4+IQ. 3+b4+c4+kL.n{+h3.01+d4+;~+e4+f4+g4+h4+g_+Gm.Fc.I9.05.Lc.tB.!C.So.`X.!3+hF.|P.LQ.]s.$j.i4+h1+-x.LQ.,H.n$+ZX.rq.-3.sq.U9.`O.n$+>3.Ri.-j.So.fA.@F.U9.-3.Ri.>3.!C.>3.C7.rq.tB.$j.ZX.i4+EZ.Pe.!3+)C.N9.Bi.r$+j4+.'+{&+!W.35.'q.k4+VL.[K.8F.X{+o~+RG.iI.l4+'d.&;+!b.:s.}F.$.+!f.JS.wy.o_+*(+G$+D$+r[+m4+o1+;<+n4+q1+B-+)#+qU._Y.5W.8W.rN.9>+^P.rN.pN.rN.qN.SL.,'+o4+a7.p4+>j.q4+rt.Tw.[v.qt.,(+.s.Rw.<3+my.<3+#K.Rw.w1+r4+}v.<5.f7.Be.yB.85.*`.v[+)(+'(+s4+t4+;|+Ak.u4+{&+d>+v4+8A.+T.i^+/#+` +`{+;s.w4+Y +`L.!`.x4+tI.^<+3~+L$+y4+z4+Ji.9Y.k1+Lc.E1+0t.FX.ge.A4+               ",
"                                       B4+C4+D4+<0.X)+E4+V3 F4+G4+H4+I4+J4+K4+L4+_h.M4+N4+u[.V1+O4+9|+P4+Q4+|:.j(.R4+S4+S[+T4+a'+Vo.D>+6K.U4+Q>.V4+W4+X4+Y4+Z4+o#+o{+q{+_-+`4+/D. 5+.5++5+@5+#5+$5+%5+&5+D~+*5+EP.=5+]2+_2+-5+;5+>5+n'+@,+AR.,5+,5+oT.'5+{/+)5+!5+6!+~5+{5+W~+,,+vM.6!+]5+^5+b2+/5+a2+(5+/5+_5+S3+tM.u'+:5+gV.<5+u]+c:+[5+}5+d:+|5+V<+Y<+R=+b;+15+e;+25+lV.AT.35+45+55+S|+@$+m%+65+:*+75+85+85+%[+95+05+a5+0,+b5+c5+g}+]Z.d5+e5+mE.pO.uz.f5+g5+h5+i5+j5+k5+l5+m5+dR.G/+n5+qB.o5+5F.)Y.!P.&=+MS.iU.UG.]b.s)+14+{1.^`.^`.$.+H/+jN.14+p5+q5+NW.r5+`2+s5+t5+u5+v5+@=+s5+`2+}[+f[+w5+h`.x5+y5+R}+z5+M,+A5+B5+tS.C5+D5+&3+54+E5+E,+*;+F5+M/+2[+I&+&3+G5+H5+I5+J5+K5+y +L5+g1+Me.Gc.C7.`X.hF.hF.5K.hF.!C.!3+:++Ti.k-+5K.W9.$j.M5+Ti.So.-x.n$+wG.So.,H.U9.-3.Ri.-3.'l.U9.=W.i_+-3.Ri.-3.zN.y7.Zr.5N.Ri.C7.hF.N5+ K.Pe.5K.6U.Lc.Cm.Cg.%(+O5+P5+I9.:5.[3+Q5+RS.n[+(K.R5+uo.%|+MB..=+6^+'d.Qk.j&+~l.}F.fD.kI.t-+;P.5&+h++S5++|+T5+U5+V5+W5+q1+='+X5+U{+7W.oU.7W.Y5+RS.8W.XS.8W.UL.sU.TL.rN.pN.lI.,'+.s.ne.Z5+03.`5+_F.Tw.iN.my.<3+se.Rw.rg. s.iN.yG.^A.Lr.+3.i7.&A.85.zg.U +v[+c^+|3+ 6+.6+Ak.+6+@6+#6+,|+hy.`{+>`.I-+'`.`{+f&+A_++T.Xr.2Y.`L.Si.$6+m++(#+%6+(#+;R.nt.Ei.Fo.^q.rg.&6+4 +*6+=6+               ",
"                                             -6+;6+>6+,6+xN '6+)6+!6+~6+{6+*%+b(+]6+^6+/6+(6+U1+M[.g:.y>+_6+:6+<6+w~.n~+w~.S[+a'+T[+=<+Ny.`[.<s.[6+q(.}6+|6+M/+8H.16+y3+q(+26+@q.36+w~+46+56+o`.66+76+86+96+06+a6+b6+(z.c6+J3+h'+d6+&/+e6+f6+g6+^}+h6+i6+j6+(}+0!+k6+k]+6!+]5+l6+m6+n6+E`.o6+p6+q6+9!+T~+r6+b2+0!+`A.s6+1}+9;+7}+!{+t6+u6+${+cJ.w]+v6+4}+w6+:,+k;+x6+B.+y6+z6+A6+B6+C6+iz.D6+jV.E6+F6+:*+G6+H6+I6+J6+K6+05+X`.}@+L6+M6+N6+rz.)_+*1+_B.mJ.O6+P6+Q6+R6+S6+T6+U6+GA.GA.2[+V6+W6+>#+1>+sI.ZG.9F.X6+P{+t-+Y6+R{+Q{+U[+OZ.gD.s)+jI.$.+p5+v-+B,+Z6+J/+`6+ 7+@=+.7++7+&#+a4+@7+.8.#7+F~.F}+$7+%7+=3+c[+&7+*7+=7+&3+-7+;7+>7+a4+,7+'7+M:+)7+'%+!7+0=+~7+{7+]7+^7+/7+(7+m1+_7+(P.Me.K9.b5.7U.b5.Lc.hF.`X.$j.U9.k)+qq. K.1^+]s.$j.wG.n$+`O.hF.-x.$j.`X.%n.:++`O.So.@F.U9.wG.Ri.>3.y7.fA.=x.H7.fA.)l.fA.zN.5K.R9.BD.U9.zN.rq.^q.5K.`a._&+:7+<7+L9.#F.]5.ZS.[7+}7+:K.|7+ry.17+27+-(+.!+6^+:A.-P.[F.(b.}F.!f.DD.*d.37+(3+#=+47+T5+57+67+77+.`.67+87+97+'#+i++:3+WS.TS.07+a7+tU.qN.^P.qN.^P.%R.^P.*=+b7+c7+9I.bD.d7+e7+$K.oy.#K.i9.87.rm.LB.my.(A.#K. s.*v.Lr.i7.xB.f7+~q.{q.g7+-|+h7+i7+]3+}3+j7+j-+k7+l7+m7+n7+F)+o7+'`.i^+'`.iW.m++eW.F)+tI.c&+h>+eq.Y +Pk.1~+*R.!`./<+p7+%W.hF.`r.q7+r7+s7+t7+u7+            ",
"                                             v7+w7+x7+1l.2l.y7+z7+A7+B7+C7+D7+,r H@ E7+F7+G7+H7+I7+J7+5:.he.K7+g<+*^.p3+_(.L7+M7+2).b'+N7+d|+O7+P7+ja.Q7+R7+ci.S7+F}+_.+;;+T:+VN.T7+U7+Sk.V7+W7+X7+BP.Y7+B~+/2+(z.Z7+`7+9]+ 8+.8+@}++8+@8+#8+4%+$8+%8+&8+-X.~/+I|+P(+*8+=8+4!+-8+;8+r6+>8+3:+,8+'8+//+62+-8+)8+!8+X~+~8+1}+D'+{8+]8+6}+H=+R=+^8+/8+(8+S|+|5+:,+b;+_8+q!+h;+:8+<8+[8+}8+,B.|8+18+~{+28+38+38+9,+L]+I6+B2+*[+48+58+68+x.+#1+78+!Z.88+'S.98+08+a8+b8+c8+d8+e8+&~+&~+.}.^1+DD.{P.>#+(K.sI.#R.o_+P{+v$+-Y.;0.$'+ R./b.~f.~C.Um.{C./b.=Y.,d.|>+CI.f8+`6+g8+h8+54+i8+@7+j8+k8+l8+m8+hA.R}+n8+o8+t#+>z.p8+q8+r8+s8+zZ.S}+54+t8+W!+9q.(1.1$+p{+c4+f3.'7+u8+v8+w8+H5+x8+j[+g_+_++Ta.x7.Za.!C.EZ.NQ.'W.hF.rq.C7.6U.|P.y8++b.y8+wG.k-+^s.EZ.U9.6U.ZX.>3.So.`O.U9.BI.hF.=x.EZ.Zr.`O.NQ.fA. K.Ri.)l.hF.Lc.Ti.U9.eA.$j.^q.rq.Me.r$+B7.@6+z8++<+A8+-W.za.ok.WS.B8+[K.6v.2v.C8+Sw.6~+)b.6~+Lt.6~+iI.RG.~l.SG.(W.|&+TB.`*+#=+2>+r[+#=+q1+T5+n4+q1+77+97+ `._Y.R +j++WS.<Y.sU./K.*=+WS.`S./K.*=+D8+{#+E8+^P.E8+n[+7y.ny.F8+v1+#K.rm.:v.ta.<3+my.v1+#K.^A.ky.97.se.xB.xB.zB.vi.]q.G8+r$+G{+H8+r$+j7+j-+I8+eN.J8+K8+,|+tI.1Y.iW.]<++T.H-+tI.eF.iW.`L.i>+`L. T.iW.c>+z_+Pk.iW.9Y.yI..b.Hg.L8+MB.V[+L>.M8+N8+            ",
"                                                O8+P8+Q8+R8+b3+S8+T8+U8+V8+IW.W8+X8+Y8+Z8+33.`8+ 9+.9+0|++9+@9+7(.h[.<6+_(.#9+$9+ ^.V[.$9+#!+j#+%9+&9+*9+=9+-9+;9+.++wY.>9+B{+s#+}U.,9+'9+)9+OO.!9+l|+~9+{9+]9+!2+^9+/9+(9+w#+'!+_9+h'+:9+<9+t=+[9+}9+|9+Y&+19+29+f]+39+49+59+69+E`.79+89+99+::+E`.09+W~+)5+a9+.Z.,*+>*+B'+B'+C'+(8+b9+c9+R|+d9+e9+H=+f9+g9+h9+i9+j9+l%+9O.k9+1X.l9+.L.3E.vT.Y<+bJ.$G.9O.|,+d}+`|+m9+=[+n9+g,+o9+E.+8,+p9+ 1+  +RM.'L.q9+r9+s9+,1+t9+u9+Wz.v9+*>+w9+Z*+VL.#R.SL.oI.`G.WB.ZB.jD.yt.D +x9+$'+jF.$.+$'+R{+gA.R{+gA.=Y.]b.|>+Y6+w-+y9+z9+u5+A9+.7+D5+B9+_)+*^+<-+X!+F,+C9+[I.D9+D{+|)+4-+E9+F9+G9+f-+=7+i +x5+e$+O++XE.m8+X:+Mm.(]+y9+H9+I9+J9+K9+L9+M9+g_+(P.Hk.O9.5K. K.,F.!C.So.hF.hF.`X.k)+:++vS.:++Ti.-3.y8+BI.Zr.EZ.BI.rq.U9.rq.BI.EZ.:++r +-3.3I.>l.-3.7U.n$+>3.y7.tB.|P.6U.Pe.EZ.Fg.!3+5K.Ic.F-+k_+N9+O9+%P..H.ni.E8+uU./Y.P9+WG.s1+Ww.Q9+NB.MB.PB.=n.PB.=n.)b.!K.rt.Vw.|A.6++yt.8v.2>+q1+T5+R9+V5+W5+q1+S9+T9+q1+(Y..`.U9+8W.pI.`S.TS.9W.WS.V9+9>+cW.9>+XS.%R.9>+*=+D8+8N.W9+7N.^A.,(+^A.(A.ta.v1+#K.Rw.rg.^A.Rw.L8+Lr.>F.~3.ay.-A.oi.dy.A9.X9+zk.Y9+Z9+j)+DS.`9+J8+j)+m7+Si.f>++T.z[+F)+YL.23+Ok.(#++H. T.*R.>`.z_+Pk.;s.*R.[~+eF.Lw.]|+ 0+/q.>q.l4+O:+.0++0+@0+            ",
"                                                   #0+$0+%0+&0+*0+Tn =0+-0+;0+}T.w>+>0+,0+`8+'0+)0+!0+Q[+~0+{0+b:.]0+^0+[:.(s./0+lm.(0+a'+::.q7+_0+:0+<0+[0+}0+|0+.8.10+(D.G)+20+30+pP.40+50+`[+,9+`N.60+70+80+90+00+a0+b0+c0+C~+d0+e0+f0+g0+=}+h0+&@+i0+l'+j0+|9+jT.k0+l0+m0+I<+H|+_:+92+n0+o0+p0+q0+62+5!+r0+o.+W~+z'+s0+R(+t0+u0+M`.E'+v0+w0+x0+w]+%Q.0O.y0+z0+$4+F6+1X.A0+B0+C0+SR.D0+E0+F0+G0+H0+${+S=+M=+I0+J0+K0+L0+M0+jJ.N0+O0+y%+!Q.P0+Q0+Mx.R0+S0+T0+U0+V0+W0+WE.WE.Q2+X0+#R.rN.VS.:K.^K.WB.8F.4F.o[+2A.[A.8).RB.$'+{K.Y0+SB.|>+_W.QZ.S2+t-+^~+gA.Z0+!Y.`0+ a+.a+54+y9+64++a+W!+:[+[[+Y;+r5+@a+C5+#a+$a+%a+&a+*a+=a+-a+>7+;a+r8+ 3+R/+I&+>;+>a+E}+N:+,a+v5+'a+)a+!a+~a+.'+.'+EL.Mc.Kc.`a.zN.zN.hF.-3.!3+NQ.{a+rq.{a+U9.^q.hF.So.5K.tB.!C.fA.Lc.,H.`O.n$+&n.:++`O.n$+`X.6U.:++fA.y7.He.EZ.hF.C9. K.Ic. K.b5.Dc.Ja.Ua.P9.Ci.f^+g_+]a+$(+9y.+3.]5.^a+b7+WB.n[+st.4q.<F.PB.9D.NB.LB.NL.iN..s.@s.2v./a+(a+4F.oU.='+_3+67+W5+67+T5+q1+='+T9+q1+_a+X5+oU.7W.UL.}Y.WS.9W.8W.<Y.:a+XS.8W.pI.sU./K.}Y.9>+AL.*=+<a+7N.WQ.my.[a+-b.}a+<3+ s.LB.ta. s.MG.rg.EG.v5.Fw.He.l7.Bi.s7.Cg.it.|a+3D.xi.|a+`9+l7+cF.C)+Lk.h^+2Y.Xr.3Y.h>+:P.iW.F)+eW.2Y.1~+_#+1a+Xr.2Y.`L.m++$6+2Y./<+2a+i&+N9.FG.Lt.>0.e|+3a+4a+            ",
"                                                   ']+5a+6a+|B U_+7a+}8 8a+9a+q>+0a+aa+ba+ca+0(.J7+da+ea+u[.H[.fa+ga+J^+ha+ia+ja+D&+a'+N7+ka+Y1+ie.la+ma+na+oa+pa+n(.qa+l<+0=+ra+0H.61+PW.rP.o<+sa+ta+ua+%:+va+wa+A~+xa+ya+za+Aa+Ba+Ca+Da+Ea+Fa+Ga+rR.DP.i0+3%++,+i0+Ha+Ia+Ja+Ka+La+Ma+<}+_:+Na+Oa+V3+Q(+h]+Pa+`A.>*+u'+e!+Qa+Ra+Sa+Ta+Ua+Va+55+NH.E0+$4+Dx.x0+Wa+Xa+Ya+Za+`a+p0. b+2J.E0+G=+Dx.a:++G..b+V<++b+-{+E.+@b+&_+#b+$b+%b+&b+>4+h:+*b+=b+-b+;b+>b+,b+'b+)b+r++7)+&~+!b+^W.RS.RS.pI.:K.|7+kD.4F.PL.jD.wt.;x./|+~l.JS.~C.KS.~C.~b+{b+_W.]b+KS.gA.^~+()+^b+i8+h8+F9+/b+L +*#+(b+_b+}W.m{+()+9++:b+94+<b+Q@+[b+}b+>7+|b+zZ.1b+x5+X!+}]+U!+26+2b+C*+(1.3b+4b+5&+5b+6b+7b+8b+9b+0b+ab+Ta.M9.Hc.]s.zN.0N.NQ.LQ.zN.hF.-3.5K.i_+Ti.W9. K.U9.!C.hF.`X.:++W9.hF.`O.:++3I.>l.Ro.^s.rq.,H.y7.hF.C7.:++zN.^q.U9.|P.k-+Pe.y7.k_+Cm.I8+wU.bb+cb+db+Ec.eb+fb+gb+9W.pI.mN.rD.>j.)5.PB.QG.Sw.iN.9D.4q.QG.>j.q4+A +n9.bF.sN.R +B-+97+hb+97+;<+97+67+77+97+qU._Y.oU.7W.X5+U9+i++RS.8W./Y.8W.XS.qN.^P.sU.pI.XS.qN.UL.cW.D8+bI.W9+sm.n9.LB.R[.Q9+pm.ib+#K.47.ky.Lr.,b.pt.-v.He.x9.it.yi.#6+Ck.wi.jb+Z9+kb+Fk.l7+{&+9v.Tr.Sr.F)+Si.z[+,`.m++1Y.M$+iW.Pk.23+-`.2Y.eF.1~+i^+}~+Im.eq.8A.zU.lb+mb+Hg.jy.!K.nb+wQ.WV.ob+            ",
"                                                      pb+qb+rb+%0+e#+je I[+sb+tb+].+7'+ub+vb+wb+xb+`8+yb+zb+0|+fa++9+e(.>^.ia+Ab+Bb+1:.Cb+Db+i<+Eb+Fb+p~.Gb+Hb+Ib+Jb+H*+i`.&>+X%+ ++X[+Kb+Lb+Mb+Nb+Ob+Pb+gC.,z.Qb+Rb+o|+Sb+Tb+Aa+Ub+Vb+Wb+Xb+w(+Yb+<z.Zb+`b+ c+,:+<9+.c+Ka++c+@c+A|+#c+$c+%c+&c+*c+=c+/}+a2+W~+-c+>*+;c+,*+|J.>c+,c+'c+)c+@{+!c+%Q.~c+|8+k2+`a+.{+{c+]c+^c+u0+/c+(c+q]+_c+:c+<c+[c+%Q.4O.}c+#{+|c+1c+L'+2c+E.+3c+4c+5c+6c+hO.7c+8c+9c+0c+(4+ac+bc+)j.cc+1[+M/+dc+At./Y.pN.pI.mN.|7+kD.ec+~~+2v.@s.fc+gc+~l.~l.~C.=Y.|>+QZ.hc+ic+CD.Z6+|>+`B.`B.k#+%#+/b+TX.jc+kc+@=+v5+lc+()+1W.mc+6&+@=+ a+54+nc+f$+*a+oc+pc+c)+tS.qc+x3+aq.<]+C*+(1.XE.'^+rc+C$+sc+tc+uc+vc+wc+xc+yc+L{+zc+Sa.Fg.]`.|P.y7.hF.1^+vS.>3.Ri.LQ.Ti.U9. K.5K.+b.rq.q +|P.fA.EZ.ZX.zN.U9.-3.LQ.&n.6U.ZX.y7.n$+C7. K.-3.5K.hF.Lc.Ha.i4+|P.Wa.)l.5K.m[+Ac+Bc+Xm.Cc+Dc+=`.E8+VG.i++:K.|7+#|+Ec+>j.PB.iN.py.QG..s.oy.iN.ua.A +st.Tw.]K.sU./Y._Y. `._Y.Fc+77+Fc+S9+X5+qU._Y.X5+@`.X5+qU._Y./Y.uU.R +7W.^Y.qN.nI.^K.^P.RS.sU.TS.}Y.D8+8N.Gc+,'+ok.a7.(5.R[.Hc+my.L8+ta.my.v5._v.Fw.}5.Ga.De.Ja.Ge.zi.C9.it.m +f^+l$+k$+Tr.EL.Ic+>|+gy.Jc+hy.d>+>`.{'+|~+eW.;`.h&+(#+#.+tI.;s.F)+*R.B_+Xr.0Y.1~+33+Xr.Kc+ l.Hg.-F.=n.7~+7).Lc+Mc+            ",
"                                                         Nc+Oc+Pc+pA.Qc+M[+Rc+Sc+Tc+8'+J= j%.Uc+e<+Vc+ea+ea+Wc+6:.{0+Xc+Yc+]0+Zc+`c+ d+.d+kg.(0+(0++d+@d+#d+$d+%d+&d+T>.eR.gS.*d+l-.=d++J.h`.-d+u*+;d+>d+,d+'d+)d+!d+~d+@}+g0+{d+]d+^d+/d+(d+_d+ts.:;+p=+:d+<d+[d+l'+}d+|d+1d+2d+3d+4d+4d+L(+5d+M<+6d+7d+8d+c2+9d+0d+ad+VP.;,+S(+Z3+bd+[/+a;+cd+8}+dd+CM.ed+ {+8:+fd+b9+gd+0;+g%+hd+<5+id+M`.jd+j%+E'+kd+ld+md+nd+#{+l;+od+pd+n!+L=+C.+T'+W'+qd+O6+rd+sd+td+ud+vd+r++wd+xd+`[.yd+/K.pI./K.XS.b7+|7+zd+x)+Ad+2v.X{+Bd+Cd+}A.S{+)H.R{+jI.Dd+<[+Ed+CD.QZ.|>+iU.Z0+(b+/b+Fd+g$+jc+Gd+u5+6&+Hd+Id+&=+B$+Jd+Kd+Ld+{7+Md+f$+Nd+Od+Pd+Od+GQ.D5+21+B}+S/+Qd+Rd+3[+'=+q5+.C.Sd+Td+Ud+Vd+Wd+Xd+Yd+|++ab+cN.Ta.Za.5N.j1+EZ.zN.So.7U.6U.^q.$j.Zd+7U.BL.`d+p +7U.b5.$(+rq.,F.rq.`X.fA.,H. K.-j.!C.n$+:++b5.LQ.^q.EZ.j1+b5.L9.xi.dy.Z9+r$+ e+.e++e+}^+k$+l7.:Y.bI.]K.]K.|7+n[+bF.-s.@e+@s.t[+<F.,(+[v.Tw.QG.t[+qt.q4+rc.Tw.cW.qN.}Y.X5+R +X5+B-+.`. `._Y.R +(Y.X5+:3+7W.oU.j++)#+ZS.)#+k++i++VL.pI.VS.WS.RS.8W.pI.9W.:a+/K.{#+#e+CG.we.35.=v.=h.$e+ s.`r.ta.QQ.ky.>b.-F.zB.9y.Gw.B9.Ka.Ie.Bi.cN.#6+Vr.cN.%e+J8+J{+Gi.cF.X +&e+Y +M$+}q.`{+3Y.c>+_#+>`.Y +EU.YL.;=+;s.By.1~+|q.1~+Lk.Sr.0Y.)s.<#+5K.0N.=n.Km.qB.*e+=e+            ",
"                                                            -e+;e+>e+,e+'e+)e+h# !e+~e+d~+A{ U` {e+]e+^e+/e+(e+Wc+_e+:e+<e+[e+}e+|e+p3+1e+2e+3e+4e+5e+6e+7e+8e+9e+$5.l<+@}.0e+ae+be+ce+V/+K&+X/+0[+rP.de+ee+fe+W++ge+he+ie+-5+s|+je+ke+le+K>+me+ne+19+,}+@8+-5+oe+[d+pe+]!+qe+re+|d+se+'/+79+J|+te+ue+RA.ve+we+9!+-c+xe+ye+W~+ze+Ae+</+|/+Be+Ce+_c+O1.wT.De+kd+Ee+Fe+Ge+[c+He+)r.{@+ G.Ie+:c+{8+Je+Q#+Ke+Le+Me+Ee+}c+J'+Ne+Oe+E]+Oe+P=+p!+Pe+Qe+Re+Se+Te+Ue+Ve+We+GU.xd+Y7.Xe+k9.pN.8W.WS.D8+b7+7y.zd+WQ.b7.st.'H.Ye+Ze+-n.~K.-P.jN.1F.s)+gA. =+`e+H/+<[+cq.R2+7&+b1+g$+Fd+5b+ f+.7+qL.4&+8&+x-+.f++f+@f+I9+#f+#f+$f+%f+&f+]7+F9+b1+64+21+N:+d).*f+=f+-f++a+Z0+;f+>f+,f+'f+)f+!f+*a+x8++e+ab+j-+I8+H9.M9.!3+7U.!C.{s.|P.U9.EZ.n$+$j.tB.|P.Ri.zN.6U.So.hF.`X.Ti.U9. K.U9.Ti.-3.>3.!C.tN.rq.wL.zN.Ja.Ri.5K.fA.Lc.y7.H9.~f+%(+o-+{f+]f+^f+D7.a^+:Y.uU.j++TS.B8+lI.WB.>(+/f+u1+ry.Tw.t[+4q.oy.QG.:~+r-+[3+07.+3.sU.pN.ZS.WS.j++oU.7W.R +(Y.)#+:3+i++/Y.ZS.)#+ZS.i++$`.ZS./Y.uU./Y.i++qU.(f+XS.8W.pI./Y.sU.:a+_f+#e+*F.ug._5.fo.Y{+;q.+0.ky.S7.+v.QQ.,b.*3.}5.a5.;v.t7.E9.Bg.Bi.Ja.Gk.C9._++Dm.>|+:f+9v.Vr.#(+9v.^#+}~+nt.<f+Si.[f+3~+`L.4Y.o++1a+:#+#C.;=+i>+Jc+qo.j^+D1+L$+sD..l.Iy.p++0N.=n.-0.4 +}f+|f+            ",
"                                                            1f+2f+3f+[R.4f+w>+5f+^w 6f+7f+i3+,M.8f+9f+0f+af+'0+;%+bf+Wc+L[.cf+df+ef+ff+ff+gf+hf+if+jf+kf+lf+mf+nf+of+pf+m<+qf+qP.b$+rf+S/++3+sf+0[+I,+tf+uf+gR.vf+wf+xf+1.+yf+zf+Af+Bf+o|+x<+<d+/V.Cf+Df+Ef+Ff+Gf+Hf+If+<2+If+Jf+Kf+Lf+P<+Mf+Nf+[}+Of+Pf+H(+Qf+5V.DR.Q(+9!+Rf+xe+Sf+1}+fd+y=+Tf+j%+~w.Ce+Uf+Vf+Wf+Xf+E'+hV.J`.J`.Fl.Ie+j2+iV.Tf+Yf+Zf+`f+ g+.g++g+@g+#g+v]+4/+$g+%g+m!+&g+*g+=g+-g+;g+>g+,g+'g+)g+!g+84+~g+b3.#e+cW.TS.^P.qN.&R.Q5+rD.^5.k9.r-+<F.{g+!1.iI.dD.{b.{K.$'+DD.gA.=Y.t-+^~+/b.|>+$=+/b+]g+^g+Fd+sS. f+/g+7&+6&+kU.$R.,#+(g+_g+:g+<g+[g+}g+|g+1g+2g+Od+3g+%3+4g+5g+_W.6g+7g+8g+9g+F +()+0g+ag+bg+'a+'a+cg+dg+eg+}++fg+M9.gg+L9.zN.y7.NQ.i4+U9.EZ.,F.Ic.rq.So.rq.n$+U9.tB.B7.>3.7U.EZ.&n.U9.>3.EZ.,H.k-+fA.NQ.:++Zr.5K.B9.v7.w7.Cg.]q.Ke.hg+ig+^3+N9+jg+kg+So.zm.'(+p)+kD.TL.nI.<a+[K.bF._A.lg+gU.-h.u1+ry.st.B +^5.d7.wa.:~+oy.@3.9>+}Y.qN.9W.WS.9W._Y.oU.i++/Y.uU.UL.ZS.a7+9W.uU.UL.ZS./K.}Y.uU.9W.8W.RS.WS.XS.8W.a7+mg+ng+AL.bI.og+wg.we.#3.j9.xB.53.pg+`r.=h.(v.%v.;F.)f.z9.0y.Ka.B9.z9.Ja.t7.Kg.u7..H.P*+Fm.'A.Q*+qg+_++i-+rg+m7+tI.m++sg+eq.2Y.Lk.!'++H.Y +Xr.+T.eW.B_+(#+%6+*R.i&+tg+Kk.eq.2a+Po.AI.0N./F.{f.r7+ug+vg+            ",
"                                                               wg+Xn xg+yg+Gs zg+Ag+Bg+Cg+Dg+Eg+P1+Fg+Gg+Hg+Q[+Ig+M[.Jg+Kg+Kg+Lg+Mg+Ng+Og+^0+Pg+Qg+x|.Rg+Sg+Tg+Qg++d+Ug+Vg+Wg+Xg+.&+G/+$V.[I.Yg+O:+Zg+w{+R++`g+ h+rP..h++h+@h+#h+$h+%h+&h+(2+*h+e6+=h+-h+;h+>h+Sb+Hf+,h+'h+Hf+)h+!h+~h+22+{h+]h+^h+(:+8d+/h+(h+M<+a2+_h+E|+*8+r0+S3+,,+n.+h%+2J.:h+J`.<h+[h+Ae+}h+|h+1h+1O. b+3O.xx.u6+2h+f!+3h+4h+5h+s6+6h+7h+8h+y'+9h+@{+0h+ah+%4+x!+T`.bh+ch+dh+eh+fh+gh+hh+f +y{+$M.N7+yd+zG.u[+k4+qN.pN.k4+|7+rc.ih+st.QG.NL.PG.jh+)K.iI.P$+iI.Ed+^b.]b+)H.}F.{K.{b.5F.ZZ. f+g$+kh+^++^g+]g+/b+e++$=+$=+,#+D$+@|+lh+mh+nh+oh+ph+Ud+sc+=~+qh+ f+4&+rh+sh+^~+th+[4+7g+uh+vh+<W.wh+/g+xh+yh+zh+F{+Ah+Bh+Ch+_7+Dh+-K.Ke.Pa. K.Ic./q.Pe.y7.rq.]s.Ri.Lc.y7.La.A7.La.rq.-3.Ri.ZX.!3+fA.|P.rq.i4+EZ.n$+!C.jt.|P.So.zN.Ri.Ai.F-+Ek.Eh+yk. e+Fh+Gh+0Y.Hh+Ce.0W.0W.7W.k++WS.sU.]K.zd+_~+^W.Ih+QB.B +>j.r-+Jh+i9.;5.PB.Kh+r-+u[+Lh+Mh+%R.bW.ZS.pN.ZS.UL.ZS.pN.sU.9>+Nh+:a+]K.E8+/K.cW.uU.<Y.sU.9>+Mh+E8+Mh+:a+mg+Oh+AL.bI.Lh+AG.bI.8y.ze.Da.(5.%3.L8+T7.;b.`r.=A.(v.yw.[5.Ph+k7.;v.G9.9y.Ha.t7.Kg.Ie._++P*+Ra.Em..H.Mk.Hi.no.Bt.Nk.K8+L$+}~+}q.F)+L$+Qh+Rh+#C.(#+_P.iW.Pk.z_+eF.eW.Sh+i^+|q.0Y.Fo.Dy.Th+N5+J9.LB.{R.U2+Uh+Vh+Wh+         ",
"                                                                  e,.Xh+Yh+Zh+`h+3!  i+.i+>% +i+Q1+@i+#i+$i+%i+^e+9|+&i+*i+Xc+=i+-i+Zc+;i+>i+]0+,i+'i+)i+3e+i<+/0+!i+5e+~g+~i+{i+]i+yY.&~+H,+^i+(1.+J.8[+qP./i+(i+_i+:i+WW.<i+>d+[i+K3+}i+NA.|i+1i+2i+3i+4i+!!+5i+6i+7i+8i+)h+9i+0i+ai+bi+ci+di+ei+p6+fi+gi+hi+22+ii+ji+ki+li+mi+9!+A'++w.ni+oi+pi+fV.qi+ri+ g+i%+Ta+si+J`.ti+p0.;*+ui+Be+:X.vi+wi+Fe+xi+yi+zi+Ai+y'+|/+|/++4+Bi+ _+F]+Ci+Di+Ei+Fi+Gi+Hi+Ii+Ji+Ki+Li+L@+Mi+(A.ok.Gc+Gc+E8+#e+&R.kD.WQ.A +qy.B +4q.PG.Ni+=n.hI.dD.-P.RB.{K.~l.jF.Oi+8&+x-+@R.1N.ag+5b+Pi+5b+Qi+]g+Gd+$=+OS.NS.Ri+.|+Si+Ti+bg+Ui+Vi+Wi+Xi+Yi+Zi+}g+`i+3U.()+Sd+:W.iU. j+e++Gd+C$+}4+,a+-0.$=+.j++j+@j+#j+$j+%j+k[+&j+J{+P*+I9.K{+zN.Ri.Lc.EZ.zN.7U.Lc.)l.Pa.B7.Ka.$P.H7. K.Ri.Gc.fA.i4+$j.-3.rq.V9.y7.B9.F9.t7.H9.Bi.Ma.J9.yk..6+Bi.m[+*j+Gh+_P.JQ.j7++P.Be.7y.tU.sU.tU.D8+>'+ec+=j+E1+tq.n_+|v.ry.st.Uw.'H.st.a7.|7+0I.D8+}7+Oh+-j+;j+Lh+_f+E8+cW.WS.SL.9>+]K.og+k4+Gc+<a+cW.ng+b7+bI.<a+;j+Oh+aI.AG.+P.AG.0I.*F.yB.+P.AG.uk.rk.m7.6y.j9.DG.>j+ao.,j+jy.=A.O7.%F.@A.D7.uB.Ma.95.H9.Ac.Dm.Me.x7.Di.K9.Sr.Ya.<q.'j+K8+<7+Oc.&e+)j+3~+hy.f&+!j+eq.Xr.|q.i^+Pk.(#+`L.tI.Lw.Hy.eF.`k.eq.Hy.;=+Fo.@H.4K.~j+Ic.{j+]j+4o.^j+/j+(j+         ",
"                                                                     _j+:j+<j+Y$+[j+75 }j+|j+aP.1j+8,.2j+3j+0f+^e+Ig+4j+5j+K7+P4+`c+6j+7j+J^+8j+9j+0j+aj+Bb+o~.bj+cj+dj+^(.ej+fj+T2.b4+gj+D*+hj+T:+F~.I>+v~+ij+;d+Z[+PW.jj+kj+)9+lj+70+.@+mj+nj+oj+pj+qj+o|+Z7+Q>+M~+2d+rj+sj+tj+_;+uj+vj+wj+49+xj+_h+Q~+yj+zj+Aj+3;+Bj+Cj+4!+Dj+sf.pT.~r.Ej+Fj+S#+Gj+qi+Hj+a!+Gj+o]+R#+_,+Ij+Jj+Kj+jd+Lj+q]+s]+Mj+Nj+:h+Oj+Pj+Qj+Rj+[h+Sj+Tj+U<+|*+U|+Uj+Vj+Wj+Xj+Yj+Zj+`j+ k+.k++k+.0+9D.o9.ok.nk.Gc+Q5+,'+|7+8>+1v.qt.A +QG.E1+4q.NL.=n.:F.P$+@k+~l.^W.~l.jF.6F.|W.;'+E$+g++#k+qh+Qi+qh+ag+0g+5&+6&+4W.E$+5&+2>+$k+%k+Ui+&k+Wi+bg+*k+=k+=k+#k+5&+*#+kU.-k+*(+f++;k+>k+`i+,k+w$+|>+uh+3>+m4+<g+'k+)k+!k+J5+j[+{f+Ya.Mc.z7.Kc.b5.Hc.rq.zN.|P.Pe.)l.hF. K.5N.]s.~k+]s.BL.C7.|P.`X.k-+LQ.%n.n$+5K.$j.C7.Ma.-3.Bi.wi.Eh+j7+ e+%(+{k+.e+.'+;s.lt.wU.xk.K$+{#+u[+$`.qN.u[+8>+]k+k9.^k+/k+=d.2v.ut.1v.n_+d7.At.<a+b7+YG.D8+b7+bI.0I.AG.0I.(k+bI.}7+Oh+<a+u[+k4+0I.gb+xe.l9.+s.$3.,'+bI.u[+AL.bI.+P.*F.sm.xg.wg.Nr.nk.tm.jo.sk.xg.&A.Da.zL.>F.qm.>F.QQ.-A.jy.EG.,3.@v.95.'W._k+G9.H9.x7._k+Me.x7.4D.Ra.<7+:k+Pc.<k+4D.[k+Ji.Lk.:q.m7+(#+ ]+Si.m7+1~+-`.g>+nt.>`.*R._P.iW.|q.Sh+Hy.i^+_P.}k+[k+S@+fF.;H.|k+hF.#K. 8.1k+W].2k+3k+         ",
"                                                                        4k+5k+6k+7k+1B 8k+9k+0k+ , 2W TH g3+ak+I7+bk+]]+ck+@^.Kg+#^.dk+ek+_(.fk+D&+o~.o~.8j+gk+[:.hk+ik+jk+kk+lk+mk+O>.Y[+>9+nk+sf+qK.ok++>+Z[+pk+de+>z.aq.qk+rk+sk+tk+uk+vk+YW.>2+wk+xk+Q&+ 8+yk+zk+Ak+<9+Bk+)u.};+Ck+Dk+Ek+B`.Fk+Gk+Hk+hi+Ik+Jk+|V.Kk+Lk+Mk+4;+Nk+WA.7;+Ok+A'+Pk+Qk+Rk+Sk+Tk+>*+wM.9;+G=+Uk+sj.Ls.(c+!*+Vk+Wk+ti+wT.JH.Xk+~,+Yk+Zk+`k+Vf+8:+3}+ l+.l+p8.+l+@l+#l+$l+%l+&l+f +f +*l+=l+_v.35.p9.xa.7y.li.n[+]k+Ad+k9.}v.u1+oy.{j+Qw.NL.)b.MB.-l+)K.hI.}A.;l+}A.o_+,P./P.e++g++Qi+>l+,l+S5+'l+3>+-#+ZZ.3W.5&+6W..|+)l+Ui+&k+bg+Ti+Ui+@f+!l+Qi+S5+-#+~l+F$+[W.x-+3U.e++,k++f+{l+Q$+<[+*f+]l+-#+bg+^l+/l+(l+{f+_l+L{+k[+Di.Wm.Hc.j1+/q.T9.zN.EZ.^q.y7.Ie.Ri.u7.Hc.Ri.!C.,H.rq.rq.5K.So.!3+NQ.,F.|P.5N.N9.jt.Gc.NQ.J9.lo.yi.Z}+V*+:l+L{+<l+5~+{&+ 6+za.[l+}l+bW.{#+bI.<a+li.g9.At.:~+/k+A)+>(+}v.W{+p)+&R.At./K.SL.9>+b7+bI.W9+CG.c7+li.7N.og+bI.W9+c7+og+7N.pk.zd+pk.:v.va.=v.l++Gc+%K.AG.0I.8y.yB.Nr.ki.io.q9.Ce.q9.vc.75.55.dq.xB.25.j[.L8+-F.QQ.jy.=3.ay.,3.-3.|l+uB.~k+A7.J9.N9.Va.I9.Ya.Q9.Za.Rr.lt.Xm. b.[k+Ji./<+1l+2l+|K.eq.F)+(#+f&+}q.F)+!j+33+(#+/<+(#+3l+}q.eF.eW.;=+4~+qo.kg+C_+4l+5l+6l+/q.'3.l(+(<+7l+8l+9l+         ",
"                                                                           0l+al+T3 bl+cl+aP.g# 1b c~+dl+el+85 fl+gl+Wc+hl+/e+Kg+il+Og+Zc+jl+,i+:6+kl+ll+ml+9j+A>+s~.nl+ol+pl+ql+rl+ug+Q>.Q>.sl+{++F~.`!+I~.n<+tl+ul+vl+wl+ij+xl+r<+yl+zl+WW.Al+Bl+60+]2+(z.Cl+Dl+w#+El+Fl+Gl+Hl+Il+Jl+Kl+%8+Ll+Ml+Nl+Ol+Pl+Il+sj+Ql+Rl+Kl+'5+Sl+'@+ZA.3V.Tl+Ul+ye+:O.Vl+qi+Wl+.Z.{,+F=+Xl+Yl+Zl+`l+J`. m+_X.(c+E0+JH..m++m+@m+#m+Wf+$m+7:+Ee+Mj+%m+&m+*m+=m+-m+;m+>m+,m+'m+)m+~U.!m+~m+Ca.e7.wc.o9.xa.7y.{m+zd+WQ.a7.qt.Tw.LB.3q._F._A.NB.=n.=n.P$+}A.-n.^W.}A.(W.TB.OS.lU.5&+p1+.|+(3+S5+'l+P +5&+4W.%=+]P.pU.(3+]m+Ui+&k+Ui+&k+Ui+^m+.|+Si+S5+T{+)Y.3U.)Y.)Y.3>+T{+V{+/m+f++]l+(m+iF.Dd+Dd+><+$k+^l+_m+:m+<m+]a+[m+!v.Q9.Fg.Ua. K.C7.!C.Pe.y7.`a.Qa.Qa.Pa.Ha.C7.7U.)l.rq.]s.n$+i_+rq.U9.!3+Ha.|P.lo.Je.xi.lo.wi.B9.F-+Ak.wU.fg+Jc+Pk.]&+Cm.}m+jo.8N.aW.c7+&A.tg.-j+@3.|m+c7.d7.n9.A)+n9.d7.1v.sN.r-+u[+b7+u[+<a+bI.Gc+Q5+sm.li.nk.uc.vc.7N.8y.Gc+Q5+/3+9I.$3.go.35.we.Ba.sc.=v.CG.zG.*F.wg.tm.vc.xa.wm.g7.75.55.75.n7.De.VQ.wc.EG.$v.;A.QQ.;A.=A.0N.;F.Zz.=x.|5.Oa.1m+M9.P9.Sa.]&+Pa.lt.O9.Fo.Ei.2m+Rr./<+Xm.Fo.B_+Fo.*R.;=+)`.Lw.`{+F)+i^+>`.}q.1~+eq.!|+;=++T.eF._P.By.uN.;=+p7+[k+lt.3m+4m+eA.y7.=h.kv.s*+5).5m+6m+         ",
"                                                                           R)+7m+8m+9m+d~+0m+H*.am+Tc bm+(h.cm+Yy.dm+em+fm+gm+hm+@^.im+jm+km+@^.lm+ d+ll+mm+,i+nm+W1+om+pm+qm+rm+sm+tm+P^+L:+F}+um+V/+vm+b$+wm+y3+xm+ym+zm+Am+Bm+|.+Cm+)9+;d+Dm+Em+Fm+Gm+Hm+Im+Jm+dT.za+Km+d.+Lm+Mm+Ja+Nm+Om+Y>+Kl+Pm+wj+%8+;X.Qm+3d+Rm+-X.Sm+Tm+Um+Vm+Wm+Xm+we+Gk+Ym+Zm+Wl+VP.`m+e%+^@+ n+.n++n+!r.@n+#n+)r.$n+Ij+%n+&n+*n+=n+-n+;n+>n+fd+Mj+,n+'n+)n+!n+~n+ud+{n+]n+^n+/n+3)+9 +(n+ne._n+_n+35.(5.sc.n9.wa.tc.rc.^5.$3.ua.'H.Kh+Qw.9D._A._A.jh+=n.:n+~l.<n+|F.1A.7A.!P.3W.G$+p1+.|+@|+-<+C-+3>+>#+,#+>#+_K.P +@|+[n+&k+bg+}n+bg+|n+^m+1n+.|+D$+$R.e++A-+>#+@|+C-+2n+@f+Jd+3n+4n+5n+iU.x-+6n+-#+S5+7n+8n+9n+0n+an+X@+Ji.Jc.Xa.{s.)l.Dg.Ic.5K.NQ.y7.!C.J9.Gc.x7. K.Fg.hF.U9.|P.Zr.Bi.LQ.5K.hF.&W.7U.tB.Ha.Bk.Ck.Ak.r$+r$+wU.bn+>|+tD.cn+Eh+ht.tm.aW.U +AL.{#+dn+<a+7N.en+a3.[3+ug.9I.d7.^5.d7.tg.u_+AG.0I.b7+u[+<a+Gc+W9+nk.uc.g7.ok.xe.za.ya.sm./3+za./3+ki.%A.@3.<5.(5.35.dn+35.7N.8y.sm.ya.rk.xa.ht.g7.75.55.l7.f5.85.De.i7.f5.;b.PQ.;A.ay.;A.(v.&K.@A.0N..A.Gc.A7.x7.J9.Qa.Hh+Wa. b.Xa.Ji.sD.fn+Fo.XX.uN.p7+eq.D1+ ]+qo.2Y.!`. ]+tI.Si.2~+(#+F)+Si. T.Jc+qo.^<+-C.eq.gn+B_+B_+}P.Ya.Va.hn+eA.4m+l-+FG.Lm.FX.E&+=&+in+         ",
"                                                                              jn+kn+ln+mn+nn+HW.>1 on+pn+~#.qn+;U rn+sn+tn+G7+0f+zb+zb+un+df+jm+jm+*i+vn+ d+wn+lg.N[.xn+yn+zn+An+Bn+Cn+Dn+En+Fn++:+sl+#V.|M.]i+g`.rK..3+Z[+Gn+Hn+g +X^+In+Jn+Kn+`[+Ln+00++}+#O.Mn+j'+Nn+ 8+On+Pn+|9+Qn+Rn+Sn+Tn+Un+Vn+Wn+Qn+Qn+Xn+Yn+Zn+&8+}2+fh.^J.9%+f]+j6+ki+P<+`n+!8+Z3+|u..Z.9;+n.+WK.F`.dV.^O.bz. o++Z..o++o+7p.@o+o8.#o+$o+J=+6}+ti+Ra+@w.%o+&o+*o+=o+-o+{n+;o+>o+%~+30+vQ.,o+T7.}5._n+R|.j7.(5.(5.c7.1D.n9.:~+=v.qt.^A.'o+3q.NB.bD.NL.P$+)o+~l.Uo.<n+6++^W.~~+!P.lU.nU.7^+(3+@|+(3+3>+5&+%=+T{+NS.E$+pU.2>+|n+&k+bg+}n+bg+!o+^m+~o+pU.A-+4W.D$+G$+_K.h++2>+@|+3n+,f+(g+{o+]o+ic+w)+^o+A-+/o+=k+(o+_o+Vi+:o+Ch+(&+Ik.Xa.lt.C7.7U.H9.wi.P9.yi.it.Dg.L9.u7. K.y7.Zr.k-+H7.Lc.b5.zN.A7.A9.Le.y7.H9.v7.J9.Qa.Ck.Ck.<o+bn++<+[o+X +k_+i7.g7.xa.*F.&A.xa.*F.0I.(5.tg.[3+ze.wa.ze.[3+sc.n9.o9.tg.~5.c7+0I.AG.0I.CG.ok.nk.xa.tg.za.sc.za.sc.g7.ok.Be.ze.p9.ze.-b.#3.mk.55.&A.}5.za.ya.sm.ok.vc.za.ht.g7.Ea.n7.i7.m7.n7.x9.25.Ga.;v.%F.}o+-F.-A.FG.&K.,f.BL.Zr.rq.|o+1m+1o+N9.Va.Hg.2o+Wm.Kk.gn+Ue.uN.%W.%6+D1+eF.Pk.Xr.-`.yI.(#+eW.}~+Lw.~'+2Y.eW.^<+*R._#+*H.i^+`L.eW.](+%W.Hy.2o+Sr.3o+Gm.4o++M.5o+`X.To.6o+`1+7o+8o+9o+         ",
"                                                                                 0o+ao+bo+co+do+eo+sv.fo+go+(h..;.I3.ho+io+jo+0f+gm+u[.ko+hm+il+df+fa+6:.lo+Og+hf+5(.Og+mo+mf+no+oo+8e+Cn+Y[.<s.nP.71+m<+po+qo+3_++:+ro+so+Ao.to+;d+1]+Bo.uo+)9+sk+aT.%:+IY.vo+wo+~9+i|+xo+D(+X>+yo+zo+Ao+Aj+Un+Bo+yo+Xn+Co+Do+f6+Eo+Fo+Go+6V.Ho+Io+Jo+g6+!/+Ko+Lo+2!+_5+UP..Z.n.+`A.tM.Mo+F`.No+Oo+~@+Po+FC.@w.Qo+Ro+So+w}.To+<X.r]+j2+ n+)r.^O.Uo+Vo+Wo+Xo+Yo+Zo+`o+IO.be+*l+q(. p+%3..P.:5.zw.R|.zL.mk.$3.=v.a7.1D.=v.$3.qt.Kh+3q.Ih+9D.Uo.Uo.:A.:F.[F.}A.`Q.lD.|&+XB.YB.>#+VL.(3+6W.A-+C-+P +)Y.;'+)Y.<K.NS.P +~o+bg+}n+&k+.p+!o+o1+r[+p1+rU.A-+='+~o+U{+(3+o1+@|+C-+3n+.f+4>++p+:n+@p+#p+6F.,#+7^+uc+$p+%p+j[+Bc+&p+Oc.Me.k$+Lc.Dc.7U.C7.05.Dc.Cc.Cc.Cg._k+7U.Ja.Ha.Ri.zN.EZ.n$+!C.>3.5K.yi.~f+wi.Bi.3D.H8+xi.V*+j4+q$+Si.[k+Ck.De.<~+U +l++ti.%K.Nr.ok.sN.sc.to.ze.p9.Fw.p9.=F.p9.[3+ok.we.*p+xa.vg.'q.xg.'q.ya.za.sc.&A.p9.Ba.ug.ni.&A.p9.&A.Vm.Fw.&A.;b.ze.55.zL.L8+55.Vm.=F.ze.ni.za.Ea.85.xB.0y.i7.z9.25.Ga.a5.Ma.'W.@A.r +=p+ay.FG.BL.0N.!C.fA.=x.n$+Ri./q.C7.Q9.M9.2o+lt.-p+gn+%W.qo.;p+eq.zU.@.+o++Hy.Xr.wI.M$+iW.c>+e&+eF.+T.A_+m++YL.1~+8A.;s.Y +zU.*H.a>+%6+~`.qo.kg+Xm.Ne.k-+>p+,p+'p+jy.NB.Z7.Cb+Cn+)p+         ",
"                                                                                       !p+N*.~p+{p+]p+^p+/p+(p+Eg+qn+_p+:p+<p+Hg+[p+~0+em+}p+hl+un+df+|p+1p+6:.3(.T|.2p+3p+4p+5p+5p+#d+6p+7p+8p+vY.M++D~.9p+}0+.J.=;+(D.*~+0p+)9+tK.ap+Am+ }+1]+bp+cp+ua+dp+Y++ep+`^+aT.-:+}i+Km+(9+fp+_;+gp+hp+9]+ip+}d+jp+[z.kp+lp+Qm+Hl+}V.mp+[9+Lf+Lf+np+l0+op+pp+qp+rp+5z.sp+/O.tp+/X.3p.up+vp+wp+(c+El.xp+yp+xH.nx.`l+_X.2J.zp+Ap+Bp+un.Cp+Dp+Ep+Fp+Gp+Hp+Ip+Jp+ak.y:.Kp+Lp+9o.#F.jy.-F.%3.,q.gt.mk.6y.m9.o9.(5.Y{++3.@3.47.Mp+Mp+NG.iN.:F.@k+_A.*d.rt.)b.ec+mD.kD.mN.oI.U{+='+U{+@|+(3+2>+G$+%=+)Y._K.$R.h++!o+Np+&k+Np+Op+!o+R9+~o+RS.h++U{+='+Pp+Qp+!o++|+bg+Rp+Sp+Tp+Up+(~+Vp+D-+5++2A.,P.G$+zh+Wp+Xp+(o+<m+Yp+eN.EL.#(+#(+)l.J9.Ja.Ac.Dc.Ha.Bg.Ha.J9.P9.fA.&W.G9.|P.jt.wi.Fa.Dc.BL.Or.wi.q7.A1+Ck.]3+yk.l1+q$+Zp+`p+ab+|l+xg.!q.d^+Z{+ri.'q.ki.7N.>j+f7.wc.Vm.55.35.o9.g7.Vm.=F.35.Da.,q.tm.vc.xa.vg.za.vc.ok.g7.o9.55.e7.(5.Ew.(5.=F.;W.n7.wc.f5.eo.H|.>b.6y.85.g7.75.55.xc.Da.Ca.f5.VQ.|l+ q+Ph+#F.zw.D7.#F.*n.vG.NQ.r +ZX.'W.,f.NQ.>3. K.So. K..q+K{+zN.zN.O$+K{+lt..b.uN.C_+qo.Hy.yN.wI.+q+Pk.Hy.+H.+H.;`.YL.%H.A_+8A.tI...+Qh+2Y.@q+tI._P.Xr.wI.iW. x.eq.5~+Pk.5~+p++p7+Ta.Gg.Y}+fq.m$+NQ.NL.>0.l(.Cn+#q+         ",
"                                                                                             $q+%q+O. &q+*q+=q+-q+;q+>q+,q+'q+)q+ 9+ 9+J7+cf+!q+hm+~q+{q+]q+^q+/q+8(.(q+#;+_q+:q+<q+[q+}q+|q+1q+2q+3q+pK.R2.l<+G&+i{+.3+4q+o(+*~+0p+`[+5q+6q+to+7q+8q+9q+>V.Y^+0q+aq+yP.zK.bq+cq+;}+F(+t=+rj+dq+eq+R>+fq+Ka+gq+hq+iq+jq+kq+lq+Ck+Rn+t=+Il+mq+nq+Hl+~h+Xm+Rf+oq+pq+qq+rq+<O._O.uf.sq+tq+uq+De+</+Fj+c!+sn.vq+{*+wq+ti+Yf+xq+9p.yq+zq+Aq+Bq+Cq+Dq+Eq+Fq+Gq+n(.6o.Hq+{3.;F.jy.@A.+v.=3.gt.}5.zL.w1+mk.97.f7+ve.pc.my.Iq+to.LB.<3+9D.hN.<A.B +<A.iN.bF.WB.bF.[K.nI.VS.R +U{+/Y.(3+P +]P.;'+Vp+_K.G$+(3+Pp+}n+&k+}n+:m+o1+|n+)#+='+Jq+U{+Rp+='+~o+Qp+!o+o1+~o+Qp+Kq+Lq+Mq+v$+,P.5++1A.G$+Nq+}n+Oq+Pq+Qq+Rq+Sq+|++cN.u7.Ra.P9.3D.]q.Cm.lo.Ie.u7.Tq+$P.Bc.Lc.,F.^q.B7.Gc.y7.A9.H8+Bm.wi.wi.F9.dy.Uq+Vq+<o+fg+Wq+Xq+&e+j-+Yq+ko.U +<~+tm.l++8y.wg.wc.>j+wc.Vm.p9.Fw.wc.xg.35.Fw.za.ht.DG.qg.vc.xa.xg.za.q9.35.55.o9.f7.Ew.(5.Ca.#3.wc.35.(5.i7.zL..P.6y.VQ.Ca.f5.VQ.:5.VQ.Dc+a5.w9.k7.*A.D7.vG.FG.vG.*A.tN.vG.A7.,F.7U.,F.%F.qq.0N.!C.fA.Lc.hF.Kc.j1+y8+zN.]s.]`.$(+Re.Wm.D1+4~+Zq+`q+yN.zU.@H.`L.%H..T.`L.%H..T.o++1a++H.c>+Ok.}~+c&+eq.(#+Xr.i^+*H.h>+;s.eW.vD.+q+ r+yN.a>+%T.^#+Lg.p7+hn+)l.NQ.NB.uq.wQ..r++r+         ",
"                                                                                                   !6+@r+*^ _w #r+$r+4b.qn+%r+&r+*r+ea+ea+^e+[e+bk+hm+{q+=r+-r+*i+;r+>r+,r+'r+)r+!r+~r+{r+]r+^r+/r+(r+&s._r+=d+:r+b)+t~+%&+U:+zo.!++<r+[r+[U.}r+EY.|r+u#+7q+u#+tk+~d+s(+1r+2r+~;+3r+M~+4r+5r+6r+xk+7r+i0+8r+9r+0r+ar+,E.Un+@c+br+cr+dr+0i+Ll+g.+Hl+er+fr+XP.Ul+DR.gr+x=+U~+cV.hr+ir+'r.F=+jr+S(+Ra+|u.bV.rp+(/+VP.N|+kr+ZP.lr+mr+Aq+Aq+nr+Hp+or+}1.*l+y:.v:.ge.pr+,3.#A.To.Bw.#A.=3.(v.}5.qm.<5.j9.te.j9.lk.*v.#K.qr+03.my.<v.HS.iN.(A.A +W{+s1+s1+zd+bF.n[+rN.pN.rr+'#+U{+h++VL.$R.lN.,P.oI.G$+6W.|n+bg+Np+&k+.p+|n+|n+sr+='+U{+tr+ur+~o+Qp+|n+Si+='+Tp+rN.A-+0F.vr+#'+(W.!f.1A.Vp+{P.'#+wr+6b+xr++j+yr+.'+zr+{&+J{+H9.jt.L9.P9.Gc.Eg.zk.}3+j7+3D.fA./q.Ja.Ma.)l.0N.w7.A7.F-+]q.Ck.h7+A9.Z}+.6+.e+#<+{<+Ar+oo.yi.qi.Yq+}m+xk.aW.ri.CG.jo.L8+Br+wc.Vm.=F.wc.f5.-v.0y.Da.eo.wm.xa.i7.za.ht.g7.uc.nk.f7.Ew.*v.:5.ve.:5.<5.]5.Ca.fo..P.R|.25.Ca.v9.wc.:5.w9.Dc+uB.w9.k7.@A.H7.*n.,3.*n.{3.H7.ZO.wL.)3.7U.tB.)3.7U.n$+!3+k-+/q.^q.Kc.^q.|P.k1+%n.AI.j1+]`.)C.%W.}P.O$+,=+Th+i&+yN.By.@H.y4+%H.Et.-R.]|+,`.xN.3Y.y4+)'+[~+}q.Y +eF.{|+*R.2Y.;s.!'+~|+_P.vI.$C.Xr.Cr+Pk.,=+Ue.Ji.Jc.Dr+Er+Qe.EZ. s.Fr+Gr+Hr+Ir+         ",
"                                                                                                         Jr+Kr+}m Lr+Mr+Nr+Or+Pr+Qr+I7+I7+[p+J7+gm+Rr+Sr+Tr+Ur+Vr+Vr+}e+Wr+Xr+Yr+Zr+gk+`r+ s+Rg+^(..s++s+Y%+@s+Yz.#s+$s+y3+h`.%s+&s+$s+Lb+/i+YN.*s+=s+-s+;V.[i+GY.;s+>s+,s+[i+bM.'s+@8+,:+)s+!s+~s+{s+]s+^s+/s+(s+_s+zk+:s+<s+hi+Mk+[s+}s+}s+cr+|s+h.+1s+2s+f]+Nl+3s+4s+x=+/E.+B.xH.UP.Qa+5s+Le+gV.sp+t'+6s+7s+8s+Hj+),+p.+sj.9s+0s+as+bs+cs+ds+7[.T>.n(.Z[.#9+es+$F.`O..A.@v.Zz.)f.Aw.gt.Ir.zL.}5.fs+L8+fs+87.ky.`r.bo.87.MG. s.'H.2^+s1+n[+n[+pk.n[+ec+|7+nI.^P./Y./Y.VL.nI.{P.sI.<K.!P.(K.G$+'#+;<+Np+&k+]m+|n+!o+sr+o1+R +gs+hs+Rp+is+|n+!o+Np+='+UL.rN.R +oI.Vp+C +w)+js+*d.ks+[K.UL.='+uc+ls+Qq+ms+Gh+j$+-K.dI.#6+]q.3D.y7.$P.Ge.Kg.Dg.I9.b5.EZ.ns+b5.F9.95.7U.w7.C9.os+lo.}3+i7+Cm.hg+^3+#<+ps+qs+DB.`9+G8+ 6+xk.e^+rs+Am.8y.'q.ni.fk.pg+;W.85.-v.;W.i7.Ba.Ae.Be.p7. P.n7.35.xa.ye.ok.vc.sc.Ew.*v.:5.<5.H|.ky.>q.:5.<5.Hw..P.25._n+j7.w9.:5. q+.P.dq.*A.*n.ZO.,3.-j.#F.YO.6I.Ri.>3.7U.fA..K.5N.fA.Ri.fA.^q.!3+`a.Lc.hF.)C.^q.)C.j1+ss+N5+}P.3K.zD.}P.ts+yN.Dr+Pk.N$+o++Hy.<#++H.0v.YL. x.y4+vD.vN.,`.vD.;`.A_+F)+nt.3~+Ok.](+Jc+5~+*R.zU.Y +-R.iW.](++q+@H.gn+us+2a+{`.vs+)s.)l.Zr.ly.ws+xs+ys+zs+As+      ",
"                                                                                                                  Bs+Cs+Ds+Es+qn+%r+Fs+Gs+H7+[p+/e+ 9+{q+Hs+Is+9|+un+Js+Ks+Ls+Ms+Ns+Os+mf+Ps+Qs+Rs+%9+c`.Ss+.++'=+0[+B{+}]+_i+}]+xY.Ts+Us+ul+E9+Lb+Vs+Ws+xf+Xs+Ys+Zs+`s+ t+.t++t+@t+o|+ 8+#t+$t+%t+Z7+:2+&t+hq+*t+=t+C<+kq+39+d]+2!+)X.Xm+32+-t+O~+;t+jT.>t+pp+,t+'t+)t+U~+_E.!t+~t+{t+}}+]t+6h+^t+>*+/t+(t+_t+62+,*+M|+@w.%o+:t+<t+[t+}t+|t+1*.0i.y:.4o.qB.1t+LQ.wG.-W.yw..A.Zz..A.Bw.Zz.Ir.!l.gt.ky.Ir.!l.!l.S7.;q.rg.#K.Lr.Y{+1D.n9.pk.]k+sN.pk.|7+<a+^P.TL.YG.k4+^P.^K.>'+oI.^K.sI.^K.RL.U{++|+^m+&k+bg+}n+Op+q1+='+Jq+U{+gs+Qp+%k+2t+~o+R +o1+)#+)#+'#+nI.{P.YB.Oi+3t+,P.4t+}K.VL.Jq+r[+$k+ph+5t+6t+7t+m1+o-+|a+I8+]#+F-+Z}+yk.Z}+F9.!C.B7.5N.P9.y7.P9.w7.J9.Bk.Or.Bi.mo.F-+Ag.Ck.j7+8t+&<+`p+9t+Fm.0t+G8+Ek.e^+ko.~q.AL.vU.8y.tm.ye. A.pg+;W.-v.xB.85.}5.n7.-F.25.i7.za.55.za.xg.za.vc.o9.=F.#3.97.R|.S7.qm.L8+Aw.zL.*A..P.Dc+;F.%3. q+:5.25.w9.Ph+uB.#A.+K.{3.wL.-j.Ri.So.C7.rq.>3.tB.+K.7U.rq.Hc. K.R9.Lc.!C.Ic.C7.Qc.j1+.b.at+BD.&x.{s.AD.zD.Dr+}P.zU.4~+!R.+q+zI.yI.~`.-R.%H.YL. x.tD.-R.%H..T.+H.bt+` +ct+3~+~|+*R.xU.L$+_P.tg+;=+*R.;=+4~+wI.+q++H.]|+;=+4~+Pk. b.Qo.dt+Lc.NQ.to.&T.et+ft+gt+ht+      ",
"                                                                                                                     it+jt+]x.Es+D^+kt+lt+`8+mt+`8+[p+nt+ot+pt+Ur+-r+Ur+Js+qt+rt+st+tt+L7+ut+vt+om+%9+~b.wt+xt+N++>9+yt+d$+xm+3T.zt+Yg+At+UN.8[+Bt+Ct+nL.Dt+`[+5q+Et+Ft+Gt+U7+Ht+It+Jt+Kt+n|+Lt+P>+Ff+Mt+Nt+Ot+8i+f.+Pt+Hl+Qt+4d+Rt+St+St+)t+P~+>X.b]+A`.c]+Tt+I<+Xm+K|+Ut+zC.1E.(/+Vt+6:+Wt+Zk+s6+Fj+Xt+-c+Na+!8+6!+Yt+Zt+`t+ u+.u++u+@u+#u+$u+p(.%u+@2+&u+yL.*u+,H.sq.xL.at.[D.yw.at.)f.~3.)f.QQ.Ir./v.mm./v.eo.%v.=h./v.L8+*v.=u+t$+#e+[3+ug.pk.xe.-u+pk.s1+''+k4+nI.^P.;u+YG.0F.>'+RL.^K.rN.|n+Np+bg+}n+}n+Pp+Qp+='+sr+='+>u++|+>u+}n+_3+R +r[+)#+/Y.TL.rN.;u+3t+.#+,u+=d.s-+<F.&R.;(+'u+r[+Vi+)u+!u+~u+{u+q$+j-+u4+3D.w7.F-+s7.Cm.Ak.F-+Bk.P9.v7.A9.95.BL.7U.BL.Ri.A9.Ck.wi.]q.3D.yk.@Y.]u+^u+O*+g1+i7+ko.wk./u+w[+9&+(u+=`.ti.qk.&A.&d._u+0y.-v.0y.-v.De..P.6y.w9.ni.Ae.g7.75.Ba.ht.wc.p9.Ew.ve.%3.9o.=A.eo.[5.!l.R|.*A.%3.;F.>F.a5.zw.k7.w9.zw.-A.@A.H7..K.wL.tB.C7.rq.>3.7U.So.o +rq.$(+Ri.EZ.5K.EZ./q.^q.Kc./q.Qe.`a.Pe.]`.eA.iv.zD.yD.zD.:u+4K.AD.:u+Zq+3l+N$+Pk.Cr+YL. x.gq.-R.]|+vD. x.` +<u+[u+,`.YL.g&+}u+#C.;=+|u+;=+i^+po.i&+/<+D1+[k+@H.#.+yI.YL.0v.yN.zU.!R.4K.Ky.Hg.&n.%v.`1+1u+2u+3u+         ",
"                                                                                                                        4u+5u+6u+X)+_d.7u+8u+9u+0u+Hg+au+bu+bu+=r+ef+{q+cu+du+eu+fu+gu+hu+iu+ju+ku+lu+mu+q~+nu+(.+s~+G>+TW.n<+q(+ou+[y.$V.ym+.>+pu+qu+ru+su+tu+5q+-s+Et+uu+vu+`s+Ys+wu+xu+yu+zu+Au+Bu+3]+Cu+Du+jq+p|+Eu+&@+Fu+Gu+Ho+R<+x=+Hu+Iu+f]+;X.Tt+x|+h.+gi+*8+6!+Ju+`Y.Ku+t'+r0+ze+Lu+Ae+>,+Mu+Nu+Ou+S~+Pu+Qu+Ru+=r.Su+Tu+Uu+Vu+Wu+Xu+QJ.p(.4o.1k+Yu+,H.$j.,H.wG.`O.r +`O.4I.4I.EG.Zz.>b.>b.)f.mm.~3.B|.2q.eo./v./v.`r.HL.1D.Vm.ug.'q.ok.ze.xe.y)+p)+-u+]k+s1+k4+^P.TL.|7+>'+YG.>'+^P.'#+R +Np+Zu+`u+!o+ v+|n+Pp+Qp+.v+o1++v+o1+`u+@v+d1+_3+#v+i++:3+VL.VL.$v+ks+Mq+%v+q)+&v+N{+mD.TL.:3+~o++j+_m+*v+7t+X@++6+eU.jt.F-+h7+L9.tB.Kg.F9.Ge.Bk.Or.lo.Bm.F-+Ge.it.wi.A9.C7.wi.m[+Cm.j4+=v+-v+FL.cN.Ak.vk.e^+0U.vk.d^+U +vU.*F.&P.CG.n7.G|.;v+-v.x9.Hw.xB..P.DG.Pr.yg.o7.n7.Ea.Da.Ba.rk.#3..P.R|.>F.zL.l5.-F.ky.zw.>b.15.zw.ay.*A.+v.@A.=3.#F.zw.ay.vL.H7.-j..K.So.n$+!C.U9. K.rq.$(+|P.n$+Ic.|P.zN. K.k1+Ic.Qe.k1+^q.K{+Pe..b.k1+53+k1+Zq+ts+k1+yD.Ft.~`.2a+Hy.Th+yI.%H.tD.By.Et.vD.vN.` +vI.,`.<u+>v+hW.,v+[u+,`./#+hy.Lw.|q. 0+|q.{`.Jc+D1+'v+Kk.)v+_P.,=+ x.wD.dF.N$+zU.!v+~v+j1+-f.j[.Z1+jm.&9+{v+]v+      ",
"                                                                                                                           ^v+M[+cm+qn+G*./v+(v+_v+:v+<v+[v+}v+|v+=r+=r+cu+1v+2v+3v+4v+5v+6v+7v+lf+vt+p~.{~+q~+ck.8v+Q^+9v+0v+61+j3.av+bv+cv+gj+#s+L:+pu+dv+ev+Jn+fv+gv+hv+iv+,s+Ft+jv+kv+lv+mv+nv+ov+he+pv+qv+rv+sv+Q>+Km+tv+:9+Tt+j6+N<+g]+uv+vv+Q3+i6+wv+xv+yv+zv+Av+Bv+tH.YP._E./t+Cv+ze+Nu+Dv+Ev+Fv+Gv+Hv+Iv+Jv+Kv+Lv+Mv+Nv+Ov+Pv+iA.Qv+cc+Rv+_^.=<+Sv+qq.k)+i_+ZX.-x.wG.sq.`O.[D.)f.4I.>b.EG.2q.at. A.'f.>b.%v.!l.&q.2q.zL.xB.ze.ye.CG.sc.o9.[3+f7.]k+/3+9I.pk.D8+&R.D8+TL.k4+^P.TL.pI._Y..v+Tv+ v+`u+ v+Pp+Jq+sr+'#+U{+2t+Uv+o1++v+U{+i++;(+U{+nI.VL.:3+Tp+rN.ks+Vv+Wv+]P.Xv+[K.YG.XS.Yv+Zv+`v+ w+.w++w+an+ '+Fk.K9.{k+Eh+~f+lo.it.jt.Je.NQ.5K.05.]q.jt.Bm.]q.yi.Z9+F-+3D.Je.*j+K5+qs+{|+gy.`9+xm.e^+xk.vk.aW.<~+*`.8y.ri.&P.p7.g7.=A.@w+-v.#w+Hw.45.Hw.*A.m7.Fw.f5.55.De.Da.Aa.Da.VQ.}5.R|.;f.a3._3.(v.@A.zw.{3.@A.*3.#F.*3.)3.@A.&K.@A.D7.)3.,3.*n.>3.Ri.6I.`d+$w+o +Ri.U9.^q.|P.zN.rq.3K.^q.%w+j1+)l.Hg.C7.Xa.Kc.3o+)C.p++ss+&x. l.Jy.Zq+yD.%T.Go.`L. .+.l.0v.vN.+H.0v.YL.lb+,`.%H.vN.` +wN.bt+<P.&w+hW.<P.'`.Xr./<+{`.mt.B_+Y +Lk.Fo.0Y.,=+Kk.yN.#.+0v.iW.zU.Go.yN.fq.*w+n$+=w+bo.~m+-w+$5.;w+>w+      ",
"                                                                                                                              ,w+:H.Es+>q+^h.'w+)w+!w+~w+{w+]w+^w+/w+(w+cu+_w+:w+<w+[w+}w+|w+6v+3p+1w+2w+3w+17.<:.4w+6=+J&+}M.5w+I,+s{+6w+&2+q8+7w+8w+9w+0w+*~+uo+aw+hv+bw+cw+dw+ew+fw+gw+hw+iw+jw+kw+V^+he+lw+mw+nw+ow+pw+qw+rw+sw+Ml+tw+Wm+8d+L<+Q~+I(+g6+uw+vw+Ju+'8+ww+xw+yw+6s+1:+zw+ze+Xt+Aw+Bw+Cw+Dw+vw+ki+Ew+Fw+Gw+Hw+Iw+Jw+Kw+Lw+s(.P}+Mw+Q>.Nw+&j.Ti.LQ.BD.i_+LQ.=x.r +=x.at.#A.EG.E7.>b.4I.=3.~3.-F.2q.)f.(v.=A.QQ.>F.wc.ze.ye.ze.yB.p9.mk.1D.qc.xe.9I./3+#e+*=+#e+zG.k4+|7+k4+/K.i++_3+Ow+#v+Ow+Ow+Zv+87+sr+_Y.sr+Yv+Zv+@v+Zv+_3+)#+'#+R +:3+rr+VL.Pw+,<+sI.,u+Qw+#|+0F.s1+W{+@`.X5+Zu+Rw+Sw+Tw+Uw+Vw+M9+(&+GG.C9.;|+Ww+Z}+KZ. e+A9.Xw+Ck.05.v7.t7.Ck.Bi.Ck.3D.J{+@6+Eh+.'+Yw+Zw+i-+j)+zk.0U.w[+ti.Z{++P.Am.ti.`w+ri.vg.p7.=F.Fw.pt.To.'f.De.VQ.%3.jy.9N.45.m7.l7.v9. x+v9.wc.25.:5.vB.ao.25.;A.-A.[5.zw.#A.*3.)3.,3.,F.{3.5N.*n.,3.-j.@F.fA.0N. K.tB.C7.Ri.>3.&W.$w+C7.|P.)C.]s.k1+]s.|P.Kc.Oe.Hg.Ic.Qe.Kc.Mg.Mg.O9.Q9.Pe.Dr+AD.!R.yD.+q+Zq+Go.@H..l.Hy.@H.+H.]|+>C. x..x+vD. x.,`.vI.+x+@x+>v++x+<u+#x+.T.v4+us+hy.Lk.Xm.eq. 0+;=+ b.$x+Ji.{`.Ji.!R.5~+Zq+Hy.yD.Hg.%x+Qo.&n.4y.x9+&x+*x+=x+         ",
"                                                                                                                                 -x+T` ;x+D^+>x+,x+'x+)x+!x+~x+{x+]x+^x+cu+/x+(x+_x+:x+<x+[x+}x+|x+1x+2x+3x+4x+p~.b'+t:.5x+K +6x+b).7x+zY.|)+tK.so+%a+Zg+Y[+8x+9x+0x+ax+-V.bx+cx+dx+ex+fx+fv+gx+hx+Zs+ix+jx+sk+kx+lx+mx+nx+ox+px+5r+br+xv+Wm+j6+5V.5V.O(+2s+hi+qx+)t+k6+3!+Ku+rx+Ym+(t+sx+tx+ux+vx+wx+xx+yx+W3+Mk+Ew+zx+Ax+Bx+Cx+Dx+Ex+Fx+n(.0).Mw+&0.Gx+%n.k)+i_+BI.M5+U9.,H.Zr.[D.To.*3.@v.%d.EG.EG.'f.EG.Ir.4I.%3.-F.%3.-F.Fw.wc.Fw.&A.=F.&A.(5.(5.w1+mk.sc.Vm./3+ye.Hx+zG.0I.pk.[3+D8+*=+/K.ZS.Ix+Yv+(Y.(Y.9W.(Y.ZS.)#+qN.Jq+[^+Zv+Qp+.v+/Y.UL.o1+Jq+/Y.Jx+Kx+Lx+Mx+Nx+,u+Ox+n_+}K.6++pI.sr+Px+Yv+Qx+Rx+Sx+Tx+Ux+Vx+DS.Ck.La.Kg.Ww+Le.Ec.KZ.8t+A9.KZ.i7+F-+F-+yk.La.Ck.Ke.Wx+g_+2~+Xx+po.cN.Ak.xm.e^+ko.zm.+P.0U.(u+Yx+}m+Zx+yS.ni.De.-v.;v.Hw.;j.;v.Hw.0y.jy.z9.;v.E9.45.t9.45.25.|l+ q+`x+&K.&n.zB.;F.k7.@A.,f..A.0N.-j.YO.-j.@F.wL.@F.Ri.tB.7U.So.$(+o +q +KQ.Ri.C7.rq.$W.]s. y+i4+5K.My.Lc.Kc./q.Q9..y+p++Qc./q.Mg.Kc. b.Xa. b.3o+O$+sD.AD.~`.!R.Cr+N$++H.+q+zI. x.tD.vD.Et.YL.Et.+x+<u+>v+,v+#H.#x+,v++y+@y+/#+mt.Ik.Xm.Fo.!A.](+j^+a>+/<+no.Qe. b.Gg.5~+2a+uN.%T.4~+Qo.#y+!3+-f.sB.Z1+e|+$y+%y+&y+      ",
"                                                                                                                                    *y+=y+=z.-y+;y+>y+,y+'y+~x+)y+!y+~y+{y+]y+^y+/y+(y+_y+:y+<y+[y+ d+ia+{r+}y+|y+(s.7).1y+_b.YE.MW.sl+2y+3y+4y+5y+6y+r#+%&+Mb+7y+zm+/i+8y+jw+9y+0y+oL.oL.Ft+ay+by+cy+bx+dy+bx+ey+fy+gy+hy+iy+jy+ky+ly+'O.H(+(J.Hu+my+ny+I(+~h+zj+nT.oy+qp+py+5d+mi+qy+ry+sy+ty+ji+o0+sy+/5+'X.~:+f]+uy+vy+wy+xy+yy+zy+:).}y.Ay+W7.By+_3.$j.vS.LQ.M5+$j.BI.:++`O.sq.-A.FG.-A.jy.;F.%3.,f.4I.2q.=3.)f.>F.-F.;F.85.75.tm.g7.=F.f7+;W.f7+te.mk.6y.ze.f7.CG.Gc+wg.zG.ug.[3+p9.Gc+,'+}Y.ZS.Cy+k++bW.k++tU.ZS.i++(Y.Jq+Ow+Pp+Dy+.`.i++R +:3+)#++|+U{+Pw+Ey+$v+s-+gU.Fy+4F.lN.^P.Jq+Yv+Ow+rN.Gy+Hy+Iy+Jy+Ky+Ly+&<+#(+Z}+My+Ny+Le.Ww+ e+zk.xi.Cc.G8+Z}+~f+Ck.j7+_&+Ck.J{+Oy+Py+Qh+cN.j7+xm.Ag./u+vk.0U.}m+Qy+uk.`w+ri..Y.{q.vi.yg..P.Hw.2D.-f.Hw.Gw.;v.O7.vL.[5.z9.f5.u9.|l+G9.Ph+jt.)3.-A.95.ay.jt.ay.jt.)3.tB.*n.6I.NQ.tB.`d+5N.Qa.YO.C7. K.XO.Ry+rq.)C. K.R9.zN.Ri.Ry+!3+Ic.Pe.)C.^q.Qe.Fg.Lc.Ua.Kc.O9./q.Gg.O9. b.Sy+Qc.Ei.Mg.sD.3o+Hy..l.i&+~`.gv.0v.zI.3l+Cr+-R.0v.YL.-R. x.>v+lb+,`.<u+<P.@x+&w+D)++x+[u+Xr.Sh+5~+no.<7+/<+us+Ik.&e+Ei.Kk.Mg.Sr.Xa.sD.Mg.Ua.!R.N5+Ty+'~+Uy+&d.Vy+;9+Wy+$5.Xy+      ",
"                                                                                                                                          Yy++;+P1+Zy+`y+ z+.z++z+@z+#z+ot+$z+%z+&z+*z+=z+hu+-z+;z+>z+>z+ !+ik+,z+'z+A>+M^+|4+)z+(]+!z+(D..}.~z+{z+]z+`[+uo+rf+Ts+^z+/z+DY.(z+_z+:z+dx+ay+<z+[z+}z+1.+[r+ex+|z+1z+ox+2z+3z+4z+%h+5z+lq+2s+6z+7z+D|+my+<}+gi+tj+k0+i6+8z+Iv+9z+0z+az+(t+bz+X3+cz+dz+Ma+p6+ez+K(+8z+fz+g8.gz+hz+iz+jz+kz+X4+lz+O:+Y[.q5.i4+eA.zN.pq.BD.hF.:++EZ.,H.`X.,f.,W.-A.&K.;F.;A.-A.jy.;F.=A.#F.[5.{3.FG.;A.;v.[5.Ae.vc.Fw.;W.DG.DG.zL.=F.Vm.DG.;W.GB.f7+=F.p9.wa.ug.c7+CG._f+9&+c7+=`.yB.c7+Gc+mz+nz+oz+@`.pz+Ix+Qp+Np+UL.nI.TL./Y.pN.Ey+,<+qz+q)+~~+:F.s-+{P.Ey+nI.sr+Yv+Dy+rz+Gy+sz+tz+uz+vz+Gh+g_+zc+wz+s4+l)+xz+Z}+Z}+dg+~f+H8+Cm.yi.F9.KZ. e+Je.wU._l+yz+zz+!v.]3+xm.G8+wk.zg.~q.um.)q.yS.0U.0U.Az+qi.75.x9.Bz+;v.;A.Gw.#v.Gw.#F.#w+@A.*A.`x+dq.y9.k7.k7.tN.k7.tN.wG.Ha.jt.$P.b5.SQ.95.O7.So.-j.7U.tB.R9.7U.+K.Qa.wL.7U.EZ.$(+KQ.R9.zN.rq.zN.XO.$(+zN.T9.Ua.Mg.K{+Lc.Kc./q.O9./q.Sy+O9. b.Jc.Hg.Ji.Gg.Ji.Cz+5~+Ei.Xm.!R.!R.N$+@H.Hy.zI.+H.@H.+H. x.tD. x.uI..T.vI.xN.YL.Dz+@x+Ez+<P.@x+Dz+g&+`{+j^+O*+no.Rr.^#+Fo.<q.sD.^#+Em.<q.Mg.Va.Lg.Ra.Re.]`.Ue.W}+S*+(>+ A.vo.U2+Fz+:1+Gz+      ",
"                                                                                                                                             Hz+Iz+y7+U3 Jz+Kz++z+Lz+Mz+bu+Nz+Oz+Pz+Qz+Rz+Sz+Tz+,r+;i+vn+Uz+Vz+Wz+Xz+Yz+Zz+Y0+O^+`z+ A+c[.h3.cY.Y[+/z+Bm+vf+r#+[N..A+ym+ax+)9++A+@A+#A+V^+cy+$A+>2+%A+&A+*A+Bl+=A+ie+-A+;A+a0+>A+,A+Jk+'A+xv+Jo+yv+T<+8!+nT.Mm+W>+Yn+gi+)A+vw+sy+!A+ez+b2+ty+~A+{A+]A+^A+/A+_h+6s+O(+sf.(A+_A+:A+<A+s|.P}+@8.[A+}A+_u+pq.{s.Ti.#n.!3+{a+!3+hF.tB.0N.BL.ay.,f.&K.,f.-A.FG.-A.;A.&K.x9.;F.ay.zB.zB.;v.a5.85.[5.:5.6y.DG.;W.i7.ni.%3.zL.QQ.IB.f7+<5.*v.fs+ve.DG.f7+X*+vg.9&+=`.yB.ki.c7+ze.Gc+*=+k++Yv+|A+Pp+Yv+X5+1A+UL.oU.pN.nI.TL.s1+2A+3A+4A+A +5A+)#+>u+(Y.TL.1A+6A+7A+8A+9A+0A+aA+:o+m1+fg+%(+I9.Ww+bA+Ww+;|+~f+cA+dA+A9.8t+eA+r$+Z9+xi.@<+fA+ps+!A.j)+wk.0U.gA+0U.wk.Qr.Az+ko.Or.~q.vm.si.Pr.r7.io.>v.[5.-F.FG.#v.zB.*A.vG.#A.`x+vG.uB.Ga.k7.95.Ia.jt.,H.k-+b5.95.N9.BL.Dg.w7.Gc.So.Qa.7U.H7.7U.&W.C7.Ri.$(+zN.K{+zN.]s.K{+ K.$(+Ic.Wa.Pa.Pc.Za.Hc.Xa.Kc.Mg.Va.Q9.Ua.Xa.Xa.Kc.lt.Xa.Pc.Cz+Xm. b.5~+ b.kg+Ik.sD.0Y.gn+eq.N$+#.+yI.yN.3l+vN.YL.%H.y4+vI.AU.wN.#H.+x+,`.bt+AU.hA++x+` +m++us+K8+C_+Ig.Mc.Mk.GG.Wm.C_+Mc.kg+]`.(q.]&+Mg.I9.Ic.`a.V9.iA+jA+%F.uo.`1+kA+:1+lA+      ",
"                                                                                                                                                   mA+nA+oA+pA+qA+.z+rA+sA+tA+uA+vA+wA+xA+yA+zA+AA+1p+im+y|.BA+CA+DA+EA+ie.FA+rG.(.+`7.GA+HA+IA+r8+C{+JA+<r+fR.VN.KA+LA+>z.MA+NA+OA+PA+kw+QA+RA+SA+TA+,2+UA+VA+WA+XA+~s+Yb+R>+YA+06+T>+[z.h.+ZA+er+Mk+`A+ B+[!+@8+RY.!}+.B+Ao+yj++B+@B+#B+$B+vw+]A+%B+T<+_h+&B+*B+L<+=B+Jv+PK.-B+;B+{1+T>.RJ.C5.>B+rB.*x.{a+{a+,B+*x.Ti.EZ.!C.hF.CS.Ia.ay.ay.,f.&K.;F.&K.&K.,f.ay.Gw.ay.#F.*n.9y.m7.zB.Hw.n7.DG..P.DG.>F.-F.+v.-F./v.V@+QQ.<++ky.ky.v5.v5.-F.ky.(v.&A.=F.zL.-v.yB.c7+'B+bW.YS.<Y.$`.uU.ZS.)B+Jq+(Y.TL.%R.WS.!B+~B+{B+]B+^B+/B+_~+bF.Ey+ZS.uU.ZS.Yv+Pp+(B+8A+sz+_B+:B+<B+_l+q$+Fk.%(+Ww+8t+{k+~f+La.Cm.yk.h7+dA+V*+o-+dA+[B+Xq+}B+|B+{&+xi.xm.ui.pi.Ag./u+qi.xm.qi.~q.si.1B+vi.mo.Bc.Gw.He.;v.zB.Hw.>f.;v.Ia.zB.To.*n.{3.95.|l+v7.|o+Ha.A7.r +:++95.P9.B7.x7.v7.L9.v7.H7.Gc.7U.Hc.7U.R9.Lc.K{+2B+ K.My.Ry+$W.^q.O$+5U.3B+Ra.J9.Za.Ua.Mg.O9.Gg.O9. b.O9./q.Wm.O9. b._q.Se. b.^#+kg+lt.Kk.Ya.us+Ya./<+,=+%T.zU.Zq+Hy.zI.-R.Cr+`L.o++ x.y4+-R.` +<u+AU.wN.+y+4B+@x++y+,v+'|+Si.FL.Kk.xU.DB.Di.Ya.K9.Vr.T9.Gm.Xa.Ik.GG.5B+Xa.P9.z7.5K.Ic.EZ.=l.h5.6B+T[+S>.7B+8B+9B+   ",
"                                                                                                                                                            LU.0B+)y+sA+aB+bB+cB+dB+eB+fB+gB+hB+iB+jB+kB+ff+lB+;z+mB+nB+/r+z~.Eb+2&+oB+u|.pB+o#+qB+rB+Us+y3+sB+^i+tB+uB+vB+wB+MA+xB+Bm+yB+zB+AB+1z+BB+9q+CB+XA+DB+EB+FB+n'+GB+70+HB+IB+JB+rR.,:+,}+$X.Lk+Lk+Aj+Yb+^s+Xn+,h+KB+LB+MB+vj+9z+(5+$B+NB+OB+/5+PB+QB+=B+Ds.RB+SB+ve+yy+TB+z,+oW.@8.d|+UB+N5+VB+N5+#n.ZX.@l.rq.k-+!3+n$+WB+'W.'W.zB.-A.&K.O7.CS.-A.9y.zB.95.=W.,3.ay.vL.-A.;F.;v.85.0y.ni.=F.>F.}5.=A.+v.pt.2q.2q./v.j[.es+nm.EG.;j.V@+te.[5.xB.o9.DG.&A.Be.CG.vg.0W.#`.XB+{#+*=+W9+c7+ZS.c7+Gc+8N.#e+#e+YB+]B+y)+rD.qN.)B+@`.ZB+`B+ C+.C++C+@C+@C+8A+#C+$C+%C+x8+[m+5D.zr+;|+G{+h7+8t+]q.r$+bA+A1+`d+m[+&C+Uq+*C+=C+-C+>|+`9+dy.Le.;C+>C+1B+Qr.>A.Bc.Ge.>C+>A.mo.Bc.yi.E9.Ka.z9.Ia.#F.Ia.=W.zB.Ia.Gw.vG.To.>3.D7.v7.A7.*n.05.^s.jt.,F.Dc.Ma.H9.J9.v7.J9.Ha.Fg.Qa.Wa.C7.T9.,C+KQ.Wa.Cc+)C.^q.Qc.R9.3B+Wa.o +Wa.P9.Ra.Va.Gg.Za.z7.Q9.Kc.Xa.Hg.Xa.Ua. b.Xa.Xa.Rr.Q9. b.Rr.^#+Ya.Kk.Kk.Ei.Xm.Ik.B_+kg+`L.zU.o++@H.>C.vD.'C+YL.o++;`.vD.)C+,`.wN.+y+!C+'|+[u+~C+c>+{C+Ok.:k+Ig.'A.Sr.Q9.'A.P*+Ji.Cz+Va.4D.Ua.Rr.Wa.Ra.)l.Kc.7U.W9.X}+6N.~R. 8.`[.wQ.]C+      ",
"                                                                                                                                                            ^C+/C+(C+sA+Kz+_C+:C+<C+[C+}C+|C+1C+2C+2C+3C+4C+Zc+5C+6C+rm+c(.7C+.=+M^+k(.r~+f|+8C+9C+u3+D~.0C+aC+sf+bC+zm+/z+2y+cC+dC+eC+fC+gC+hC+ey+Y^+iC+Z^+jC+kC+lC+*E.;}+mC+lw+nC+HB+oC+cq+xa+l=+,t+pC+ki+qC+qR.rC+sC+tC+uC+vC+hp+wC+xC+ue+ii+9z+yC+cz+sx+zC+Pf+$*+AC+BC+dh.CC+I*+y{+GU.P}+E&+DC+Po.N5+|P.)l.eA.]s.^q.EC+5K.y7.,F.zS.Ia.0N.,F.O7.,F.O7.9y.9y.ay.He.Zr.Ga.=W.)3.-A.Zr.{3.*3.zw.=3.%3.}5.*3.>b.h5.es+g5._3. A.#v. A.bt.pt.FC+DG.QQ.%3.jo.xB.;W.Fw.;W.ni.vg.CG.Be.l++9&+Gc+ug.%Y.dn+Gc+Gc+dn+pk.ug.pk.GC+p)+]k+D8+H$++`.ZS.$`.#e+XB+HC+(B+IC+JC+sz+KC+LC+MC+an+Fh+Vq+Ai.]q. e+|3+j7+Ww+!W.8t+xz+.6+%(+NC+OC+^u+^>+/>+wi.>A.Ek.Bk.os+>C+>A.PC+Cc.q7.Bc.Bk.pi.Cc.Ka.Ja.Fa.Ha.D7.,f.ay.=W.BL.ay.95.Ga.jt.So.tN.~k+95.B7.Oa.!3+So. K.05.Ma.J9.w7.L9.P9.L9.$P.Jc.Fg.B7.Wa./q.$W.]s.Qc.R9.|P.Jt.My.}P.Hc.T9.Wa.Lg.Ra.M9.Q9.Va.Q9.O9.Gg.O9.Gg.Xa.Kc.O9.Kc.Ji.lt.Se.Mg.^#+Ji.S@+Ya.Ik. 0+Ik.1l+D1+L$+5~+p7+Pk.N$+yI.vN.YL.+H.>`.-R.vI.d&+y4+bt+<P.&w+)C+ct+D)++T.`{+j^+^>+Rr.Ig.4D.DB.cN.x7.Sa.Fg.#(+Wm.Ya.Sa.Mg.Pa.b5.Gc.Zr.hF.&n.h5.Dw.QC+>0.(<+|0+      ",
"                                                                                                                                                                  RC+SC+Kz+sA+TC+TC+UC+VC+WC+XC+=r+YC+ZC+9(.jl+`C+ D+.D+X_++D+X_+_s.@D+#D+di.$D+%D+s~+&D+g`.8=+nP.*D+7x+sB+=D+%2+wf+-D+;D+Bm+oL.>D+,D+'D+/d+)D+!D+zP.~D+{D+]D+ee+^D+/D+(D+;h+Nn+@8+A`.+B+_D+ly+7r+:D+<D+[D+}D+pw+|D+|d+12+1D+ii+2D+h6+Xm+O(+i]+3D+4D+lT.5D+6D+7D+xQ.@q.be+(<+8D+Ti.i4+#n.rq.,C.R9.N9.Ic.!C.,F.#P.9D+BL.,F.BL.O7.,F.0D+&K.aD+9y.z9.Ia.Zr.k7.>3.@F.'l.&n.[D.`O.at.FG.#A.#A.=j.pt.es+;b.bD+xS.sB./v.=j.cD+2q.dD+IB.=A.xB.[5.DG.;W.GB.f7+ni.%K.Hw.%K.ni.za.Gc+1D.ZS.yB.Gc+yB.zG.dn+{B+2^+t$+^k+Hx+D8+Hx+Gc+bW.+`.*=+S +eD+fD+gD+hD+iD+jD+kD+Rw+x8+O5+/&+l1+Uq+Le. e+j7+Ha.8t+lD+Uq+lD+mD+nD+oD+G-+#(+Ck.s7.Le.>A.ns+s7.La.Ge.Bc.>A.mo.Cc.A9.Ai.Cc.u7.Ja.Ka.Ac.tN.A7.=W.`X.B9.Ec.G9.'W.p +^s.Gc.Ma.Pa.05.BL.EZ.So.5K.Ma.x7.$P.L9.Dc.Gc.z7.N9.z7.zN.pD+]s.Xa.R9.Ti.R9.zN.Kc.Lc.Xa.)C.Mg.Za.$P.Sa.z7.Sa.z7.Pc.Va.Lg.Va.Ua.Jc.Kc.Re.Xa. b.Xa.Xm. b.Wm. b.Mg.Se.Mc.Ig.Xm.Lk.D1+2l+|q.,=+_P.a>+(#+yI.4Y.yI.3l+` +vI.` +<P.)C+@q+Dz+#x+#x+&w+)'+B1+:P.}~+(P.Ii.4D.Ta.Oc.O9.Mc.Kg.Ta.x7.N9.Za.Fg.M9.)l.Me.BL.jt.0N.sq.at.-b.r3+~g+qD+rD+      ",
"                                                                                                                                                                     sD+tD+uD+)y+qA+vD+wD+xD+yD+1C+zD+qt+Ks+1p+AD+BD+CD+DD+k~.nl+i<+ED+x|.FD+GD+HD+ID+JD+KD+LD+MD+uY.E5+;;+zo.ND+6y+tl+OD+PD+jx+QD+RD+SD+TD+UD+>s+FY.f'+VD+WD+hx+ey+lv+XD+YD+ZD+/9+`D+<s+ E+.E+_2+dq++E+@E+#E+$E+%E+&E+*E+Nm+Mf+=E+-E+Mf+;E+>E+,E+'E+)E+!E+~E+#++{E+Er.be+]E+^E+/q.^q.Hg.zD.'C.eA.k-+N9.BD.i4+Gc.Gc.'W.'W.0N.Zr.BL.O7.BL.'W.w7.9y.fA.`,+,f.He.sq.@F.=W.>3.%F.r +$h./E+h5.'f.(E+#v._E+pt.:E+=j.2q.=j.#v.h5.EG.;A.-F.;j.DG.IB.{W.zL.<E+DG.0y.vg.&A.=F.bW./3+{B+ug.%Y.[E+ze./3+zG.pk./3+2^+GC+}E+l++$`.tU.8N. C+0W.|E+1E+IC+2E+fD+3E+4E+5E+TX.6E+7E+}++&j+dg+8E+V*+~f+A1+A1+j4+&C+0b+9E+Xx+0E+Hi.f^+Bg.Le.aE+Je.Cc.Ge.dy.Ka.Le.Ec.C9.Bi.C9.Cc.Ge.Cc.Ac.Fe.Ec.Dc.A7.D7.:++95.w7.95.05.G9.7U.05.A7.05.Ma.Hc.So.)l.N9.M9.Gc.Gc.J9.v7.x7.Fg.Za.C7.z7.K{+zN.ss+Jt.ts+Jt.53+k1+Re.O9.R9.O9.L9.Sa.L9.4D.Va.Lg.Ra.Ua.Xa.M9.Gg.`a.Gg.Za.Ya.Ei.Qe.Ei.Qe.Ik.Xa.Ik. b.us+Gm. b.[k+Kk.Lk.bE+*R.](+Xr._P.0v.4Y. x.y4+YL.3Y.` + x.AU.3Y.)'+hW.g^+Z +cE+e>+1Y.i^+P*+GG.Ra.j)+]&+Mc.#(+Dc.M9.Ec.K9.H9.Hk.Pa.L9.]q.&K.tN.,f.0N.%d.2q.~l.-0.Z1+dE+eE+   ",
"                                                                                                                                                                        fE+'x+.z+)y+bB+gE+hE+~y+qt+ot+ot+cu+Js+iE+jE+kE+L7+lE+s[+mE+ek.nE+ ^.mc.FD+>%+>%+C~.LD+*s.Fn+IA+oE+pE+qE+rB+rE+sE+[N.tE+g +Em+uE+vE+hw+wE+>D+=A+Au+WA+xE+he+yE+zE+YD+AE+xk+=/+BE+d.+=}+/9+CE+DE+EE+FE+GE+HE+)h+IE+*E+JE+KE+ E+Ml+a%+LE+ME+NE+OE+PE+QE+3a+xQ.RE+lz+SE+@A.Po.N9.z7.Kg.Ic.`a.$(+P9.tB.!C.p$+95.0N.,F.0N.jt.'W.b5.'W.zi.o7.B9.^s.,f.O7.To.ay.'l.TE+&n.sq.yw.$h.!3.%d.s +=p+:E+UE+;j.VE+es+h5.=j.FC+%d.(v.>F.-F.=A./v.]v.IB.WE+-F.DG.VQ.Fw.wc.'q.ye.zG.c7+GC+[3+GL.c7+&A.wa.fN.zG.8N.p9.dn+XE+fb+9&+YE+CG.c7+[Y.ZE+`E+ F++C+7A+Ix+.F++F+#<+@F+#F+$F+%F+l)+&F+*F+~f+V*+k_+o-+-C+=F+zz+-F+#6+aE+Ge.Ja.t7.Ja.;C+Le.Cc.it.Bi.yc.wi.yi.wi.Ge.Cc.Ec.u7.s7.Ac.Dc.jt.Dc.fA.;F+*j.Dg.Ha.G9.b5.5N.Lc.B7.Pa.$P.Ic.>F+!3+Pa.v7.J9.$P.M9.P9.M9.My.&W.Wa.)l.k1+$(+Xa.k1+4K.ss+^q.Wm.ss+}P.Kc.J{+4D.Lg.K9.Me.Nc.Ua.Xa.T9.Gg.T9. b.Xa.Kc.Xa.Hg.Ei.Jc.Ik.Ei.T9.Ei.Re.C_+ b. 0+Xm.;=+B_+Ik./<+{`.Im.eq.o++h&+.T.y4+-R.A_+YL.[u+<P.bt+hW.,F+~<+)'+'F+c>+)F+>`.Fm.m +GG.Ie.H9.Q*+Je.Ra.Dg.Ke.yi.L9.05.w7.$P.D7.w7.vG.BL.,f.^s.ky.~K.{f.r7+!F+      ",
"                                                                                                                                                                           ~F+.z+{F+]F+^F+/F+(F+qt+_F+cu+:F+=r+=r+<F+[F+ll+J^+]0+U2.}F+<6+s~.|F+1F+Zz+1).Y[.2F+3F+O/+4F+5F+6F+7F+um+s8+8F+_i+0p+2M.q<+9F+iv+@A+HA.0F+aF+bF+cF+dF+eF+fF+Af+gF+hF+iF+jF+kF+lF+(9+6r+mF+:s+]!+nF+oF+tv+pF+qF+rF+;X.PP.!:+_;+Ew+sF+tF+uF+vF+wF+xF+4)+iS.GU.wQ.Kh+R9.zN.`a.{s.i4+EZ.O9.Kg.t7.P9.Gc.yF+BL.y7.Zr.,F.&K.0N.'W.'W.zF+mo.lo.He.-j.=x.'l.`O.YX.wG.r +=W.r +F7.%F.xG.s +2y.=p+pt.%d.AF+%d.;f.#v.'f.2q.4I.=A.4I.=A.4I.8D.-F.EG.=A.FG.2D.m7.Fw.BF+&A.Gc+CF+*P.DF+dn+=F.#3.&A.fs+p9.'q.{#+ni.Be.6D.V +%`.CG.fb+CG.ZE+EF+FF+GF+HF+pz+IF+JF+KF+7t+:7+z8+o-+LF+MF+NF+OF+$F+PF+`p+QF+RF+&e+Dm.n +Ja.F9.Ja.La.Ac.F9.Ec.Ge.Bi.Ge.it.Ge.Le.Ja.C9.os+Ge.Bg.Ha.u7.P9.Kg.P9.J9.;F+'~+Ja.Gc.x7.Ha.I9.)l.Ua.N9.Qa.Fg.!3+Pe.~k+L9.Qa.J9.P9.P9.Ua. K.Hc.Ic.3K.j1+.b.Ua.R9.O$+)C.Ei.O9.Q9.Sa.Ya.Sa.Kg.Ta.I9.Lg.O9._q.Za.Kc.Jc.Kc.Xa.K{+Mg.Hg.Ei.Wm.O$+Qe.O$+Ei.Gg.Ik.Mg.[k+5~+sD.,=+C_+qo.{`.|q.](+2Y.+H. x.YL.-R.` +vI.d&++T.b>+@q+1Y.b>+)C+SF+/#+~C+b>+~'+>|+H9.K9.Dc.m +Dc.Nc.L9.Mc.f^+B9.H8+t7.Ec.B9._k+B9.95.Gw.;A.Zz.L8+QB.^l.j>+TF+UF+   ",
"                                                                                                                                                                              VF+)y+)y+WF+XF+*z+qt+YF+1C+~x+ZF+=r+}e+jB+=i+`c+2p+nl+mm+`F+aj+#9+(0+j(+k(.C>+ G+3q+.G++G+o#+@G+#G+8F+$G+%G+$2+/z+&G+*G+=G+kw+PA+bv+2M.-G+;G+>G+vE+,G+'G+)G+!G+~G+{G+]G+^G+/G+(G+_G+:G+<G+!h+1d+qj+GB+@E+[G+^s+Zn+}G+g.+|G+1G+2G+3G+4G+5G+6G+b[.7G+a +$M.8G+Ow.F-+M9.Jy.EZ.]s.3K.P9.NQ.Dg.#P.Ie.b5.v7.b5.tN.Ia.'W.BL.,f.ay.'W.Ha.t7.vG.)3.^s.e^+a5.-A.-A.D7.Hw.4I.9G+s +%F.aY.%F.0G+rB._E+sB.EG.g5.at.#v.=j.!l.E7.%d.xB.V@+pt.=p+E7.aG+E7.-A.>W.(v.bG+te.DF+c7+6D.8N.BF+=F.&A.<E+zL.xB.q-+ni.=F.Be.jo.#`.cG+[Y.%`.dG+K9+|E+ F+eG+fG+gG+fD+hG+iG+jG+Yd+kG+lG+mG+nG+oG+pG+V*+#<+=F+zz+z_+.H.f^+Dg.Me.Ec.C9.Cc.Ge.wi.yi.Bg.yi.F9.Bi.Ie.wi.q7.ns+D9.Bg.La.n +Ie.DZ.Ie.v7.H9.5K.^q.Dg.Va.Ja.Kg.N9.!C..y+05.Ua.zN.Wa.Lc.Ua.C7.b5.Fg.05.H9.Qa.T9.Pe.5K.>H.Lc.ss+zD.yD.Kc.Wm.Hg.Kc.Sa.Ai.GG.Kg.GG.Hk.Pc.M9./q.Xa.K{+Wm./q.Mg.Ua.Mg.O$+Hg.p++)C.Ue.3o+p7+Qe.C_+XX.3o+Ik.Mg.5~+Se.8Y.{`.|q.[o+zU.iW.uI.;`.4Y.d&+<P.Z +3Y.,`.qG+4B+g^+)'+~C+rG+sG+Z +z[+~'+Se..H.Ie.J{+it.Ai.F9.wi.x7.05.Bg.zi.A9.zc.Ea.mo.De.He.;F.Ia.2q.-v.sy.n#+nb+tG+uG+   ",
"                                                                                                                                                                                 vG+)y+wG+xG+Wh+~x+=r+Ks+_F+cu+Ks+ZF+yG+=i+zG+AG+s[+BG+mm+z>+0j+CG+Ug+wo.DG+2&+EG+FG+GG+HG+IG+.3+JG+%G+%G+KG+LG+4q+.A+MG+NG+qk+ij+tl+OG+Wb+Xb+PG+QG+>D+3]+u<+RG+SG+TG+UG+VG+WG+@E+Du+XG+YG+ZG+_G+`G+iF+ H+.H+kq+g.++H+@H+#H+$H+%H+&H+*H+=H+%++-H+y:.tG+;H+$j.Xa.Wa.!3+v7.Kg.L9.7U.I9.y7.y7.hF.tB.5N.Gc.Ac.Ga.t7.95.95.95.B9.jt.Ia.tB.>3.,F.yw.Ia.o7.45.o7.75.x9.h5.sq.xG.]3.aY._E+-f.pt.-f. A.=p+}o+h5.E7. A.%d.'f.E7.V@+-f.#v.=p+>H+E7.9G+>f.FG.(v.jy.DF+f7+DG.{W.{W.vg.BF+ye.ti.Nr.[E+=`.xg.Ae.bG+m7.ni.-=+V +[Y.,H+XB+#`.'H+)H+!H+sz+~H+{H+]H+^H+/H+(H+_H+:H+<H+[H+U*+oD+}H+b&+Mk.P*+La.Kg.x7._k+u7.Ec.La.t7.Bg.Ja.Ie.Bi.Ge.Bg.yc.Fe.05.u7.Bi.Me.La.Na.L9.Dc.Ci.H9.Dm.)l.Dg.Kg.N9.L9.x7.]&+Dc.Pa.Ua.7U.Pa.*W.Wa.y7.H9.Fg.O9.C7.Hc.Kc.^q.`a.$(+Q9.`a.}P.`a.Kc.O$+Kc.]&+Jc.(q.P*+cF.#(+Me.L9.Pa.Q9.,C+Qe.K{+Jc.`a.Pe.Qe.Kc.Wm.Hg.Gg.Qe.,=+Wm.3o+Mg.3o+,=+Dr+,=+kg+*R.zU.@.+](+[o+iW.uI.,v+y4+)'+3Y.`L.'`.)C+|H+3Y.,F+,F+1H+&w+c>+'F+~'+~<+i&+Rr.Ra.Ke.Dg.>A.it.zi.Cm.w7.Kg.Bi.l7.zi.Pr.zi.zB.zi.#F.'W.#F.qm.f7+;P.]l.+++l(.2H+   ",
"                                                                                                                                                                                    3H+4H+5H+6H+7H+=r+8H+9H+_F+=r+[v+8H+ZC+#^.0H+fi.BG+*5.BG+aH+A>+f[.mc.of+bH+2q+5x+T2+*s.cH+dH+eH+fH+gH+74+hH+s8+iH+a)+jH+kH+.A+8F+lH+oL.=G+mH+|.+vE+nH+oH+pH+qH+rH+qv+sH+tH+uH+vH+:D+sC+wH+xH+iF+yH+zH+AH+BH+4r+CH+DH+EH+FH+GH+HH+IH+JH+KH+vQ.I~.LH+MH+&x.Qo.]s.YO.L9.L9.Kc.x7.F9.'W.'W.7U.b5.A7.y7.NQ.Gc.'W.'W.zi.yi.A9.B9.Ec.Tq+He.x9.l7.Bm.^s.zc.#F.-A.zB.De.F7.rB.>f.-f.9G+%d.9U.EG.es+NH+sB.=j.#v.h5.pt.E7.%d.'f.'f.#v.9U.h5.OH+%d.>f.E7.jy.Ae.%K.ti.yg.ti.DG.zB.[5.85.[5.aW.*`.KG.==+=`.-=+PH+!(+W +jo.-=+QH+RH+SH+TH+UH+VH+!H+WH+h[+XH+YH+ZH+`H+<H+OF+lD+ I+.I++I+@I+$x+Gi.#I+Ha.u7.La.Ie.La.C9.Ja.Ge.Ja.t7.Bg.Ec.C9.yc.Bg.Bg.t7.Cc.Eg.Me.Dc.Te.J9.Hk.Ci.Bg.Dm.P9.$I+H9.K9.M9.L9.Kg.)l.H9.Fg.O9.Fg.K{+Pa.cn+Fg.)l.Fg.v7.O9.Ti.O$+Hc.Xa.k1+Ic.Qc.Ua.Wm.K{+Va.Hk./>+Te.J9.Hk.K9.Di.$P.Q9.O9.Gg.Pa.z7.Gg.`a.}P.Hg.Ei.Qc.sD.3o+Kc.sD.Hg.Ei.!R.,=+Mg.D1+%T.3o+@.+wD.Hy.0Y.vI.]|+1a+o++%I+&I+;`.hW.xN.+y+hW.AU.*I+[u+=I+)'+|H+`{+-I+;I+L9.Gm.Q*+m +P9.C9.wi.Bi.pi.o7.Bi.q7.w7.He.Bm.De.Ka.k7.=A.-A.-v.FG.j9.q4+>I+j>+jm.,I+   ",
"                                                                                                                                                                                       'I+)I+!I+.z+|v+8H+Ks+9H+=r+=r+{q+jm+im+Q4+,i+cj+mm+~I+i<+mE+{I+x|.]I+mc.^I+/I+(I+ID+X!+_I+:I+<I+[I+}I+|I+1I+2I+3I+4I+a)+5I+6I+7I+ND+8I+ij+bx+X^+xE+wE+Bm+QG+9I+wu+0I+aI+bI+cI+dI+&t+eI+:G+_G+g0+/G+M~+fI+gI+nC.hI+iI+Eq+jI+kI+lI+mI+nI+vQ.oI+pI+S7.j1+j1+Fg.Hk.J9.b5.y7.)l.fA.,F.7U.Fe.b5.'W.w7.t7.A9.BL.#P.tN.BL.Ia.Bm.mo.95.vi.si.He.x9.9y.AS.;v.z9.s ++b.9G+&n.TE+YX.%F.qI+h5.UE+4I.:E+rI+=j.%F.UE+=p+%d.#v.>W.NH+sI+s +>f.tI+=j.aY.E7.>W.ti.uI+6D.W +m7.jo.*`.zg.n7.zg.vI+M{+0y.m7.==+b^+y1+xk.!(+wI+!(+!<+xI+2E+yI+gG+zI+AI+AI+~H+BI+CI+@<+DI+EI+FI+_H+NC+GI+f>+m7+Vr.Hi.$P.u7.Fe.C9.Dc.t7.H9.La.u7.Dc.Ie.La.Me.Dc.Ha.Fe.Ha.u7._k+Ci.Dc.C9.Ie.Dc.Kg.u7.Va.Me.Kg.Ke.P*+Ie.C9.m +Dg.Ci.H9.Ra.Pa.Ra.Ua.)l.K{+/q.Ua.P9.Ra.Hc.O$+Wa.Wa.O$+Ic.Sa.O$+(q.z7./>+{&+|a+#(+Dm.'A.P*+'A.Hk.(q.Ra.x7.Za.z7.Re.cn+Ya.z7.Gg.O9.ss+Di.`a.p++ts+Ei.yD.3o+!R.Jy.~`.Ht.+x.Dy.$x. M.=H.#T.HI+,R.dv.II+JI+&I+KI+LI+MI+MI+NI+OI+PI+hA+QI+)C+ T.0Y.K9.Mc.]&+J{+u7.Hk.Cm.zc.Ka.sk.lo.x9.wi.>v.Bi.0U.xg.z9.25.zB.EG.vG.+v.xB.u1+]R.:]+7o+RI+   ",
"                                                                                                                                                                                          SI+TI+UI+Lz+9H+=r+9H+{q+]q+ef+VI+jm+WI+j:.XI+^0+~I+~I+hf+3e+YI+D&+lm.lm.ZI+`I+ J+.J++J+@J+#J+$J+%J+ro+oE+JG+&J+*J+qu+$G+=J+-J+;J+>J+,J+[r+;D+ay+'J+)J+iG+!J+~J+{J+]J+^J+/J+qv+FE+(J+_J+:J+<J+v|+W&+[J+}J+|J+1J+2J+2J+3J+4J+cg.ai.KH+/N.di.8D+95.Pa.pi.m +)l.)l.Ec.Me.A7.5N. K.H7.fA.H7.w7.t7.w7.B9.W@+yi.E9.He.A7.Tq+D7.Ia.>v.Zr.Bc.Gw.9y.x9.He.;v.9y.f5.=x.9G+!3.9G+s +9G+#v.>H+Bz+jo.=A.%d.EG.'f.5J+<++>H+'f.h5.-f.%d.-F.xB.yg.0y.ko.6D.vk.RH+=`.{q.zg.xk.BG.{q.*`./u+*`.6D.BG.ti.Ae.'(+ko.6J+!<+f)+7J+8J+9J+8J+zI+0J+!H+eG+AI+Gy+aJ+bJ+cJ+[m+[m+FI+JZ.dJ+eJ+fJ+gJ+Hi.aE+K9.x7.Eg.I9.Na.x7.Dc.Gk.Na.DZ.x7.Tq+Bg.Ha.Dc.Tq+it.Dg.I9.Te.Na.Te.Dc.K9.H9.Hk.Dm..H.#6+L9.Nc.F9.Q*+Va.cF.I8+_++Ta.Va.Ta.Ra.Gg.O9.Sa.Q9.Ya._q.x7./>+_q.cF.K9.Vr.|a+DS.k$+]#+J{+k_+Cg.Ke.DS.Cg.#6+Dm.Eh+Q*+Ci.Ua.Kg.hJ+z7.$(+Za.{s.3K.1o+AD.'C.Zk.Ko.AD.Ko.iJ+-H.dA.jJ+kq.kJ+lJ+mJ+nJ+0A.oJ+pJ+qJ+rJ+sJ+tJ+uJ+vJ+wJ+xJ+yJ+zJ+AJ+BJ+CJ+DJ+EJ++x+Y +)C.Mc.P*+gy.L9.La.Ie.mo.wi.Or.]q.o7.A9.Or.o7.E9.p7.vi.m7.zc.Hw.&K.EG.j9.;q.:v.l4+X7.FJ+GJ+   ",
"                                                                                                                                                                                             HJ+)y+Lz+.z+Mz+Ks+ef+au+Ur+-r+VI+im+vn+[:.IJ+mm+p3+fk+.d+ik+JJ+KJ+]r+Y1+4w+_<+|4+2&+LJ+MJ+NJ+2I+=;+9w+dH+OJ+5F+M}+PJ+QJ+qE+{++&G+vu+5q+dx+PD+RJ+'J+SJ+Bm+ex+TJ+/D+UJ+VJ+WJ+XJ+YJ+ZJ+xu+Aa+(2+E~+`J+ K+.K++K+5[.@K+#K+$K+%K+nI+7G+!m+&K+&F.$j.Ac.O$+Ie.!C.w7.Ie.Ri.5K.Ha.G9.,F.=x.|P.Ha.Ec.tB.tN.Ge.Ia.>v.zc.wi.zi.t7.zF+*n.He..Y.Ia.ay.CS.TE+*n.45.,f.Gw.yg.,f.s +%F.=p+s +>H+cD+=j.EG.;A.(v.Hw.M{+9y.WE+]v.%F.#v.%d.rI+r +0y.;W.*K+KG.W +==+==+-=+==+yg.K$+=K+*`.Z{+zg.-K+K$+W +K$+ti.z1+K$+/u+;K+>K+9J+8J+TH+,K+!H+eG+zI+AI+Jy+'K+)K+!K+~K+{K+]K+^K+/K+{|+i-+4D.yc.B9.La.Ka.s7.Ec.Ie.P9.u7.Bg.Fa.La.Ac.Bg.95.Dc.>A.u7.Ac.B7.Ja.05.Je.u7.Me.Kg.Oc.L9.Je._q.Kg.cN.#(+{&+Dm.>|+(K+C9.P*+(K+j)+cN.5D._&+k_+]#+Y9+|a+Me._K+&(+-K.`9+.6+Y9+h7+Y9+KZ.%(+xi.Eh+Le.F-+Je.Ha.m +Ai.u7.Qa.Di.z7.Dc.z7.vS.T9.W}+4o+,C.!R.Lo.:K+gv.*l.<K+[K+}K+|K+1K+2K+}K+3K+4K+5K+6K+7K+8K+0A.9K+0K+aK+bK+cK+dK+eK+fK+gK+hK+iK+jK+kK+lK+mK+]<+p7+'A.!W.it.u7.Ha.m +w7.Ec.B9.Le.Bm.Pr.zc.De.ui.sk.zi.{q.Be.BG.;W.EG.eo.+v.>1.yG.uq./]+p[+nK+   ",
"                                                                                                                                                                                             oK+.z+)y+)y+Lz+|v+-r+Sr+Sr+-r+|e+df+Lg+K7+vn+pK+fk+BA+kl+kl+CG+kg.qK+c(.ie.rK+u:.ma.8v+sK+tK+uK+ro+qB+vK+wK+s~+pK.xK+b)+yK+zK+AK+BK+CK+DQ.DK+EK+FK+Bm+Bm+#A+GK+HK+IK+JK+KK+LK+MK+zE+NK+OK+ua+PK+:%+QK+RK+SK+TK+UK+VK+WK+XK+YK+/N.4 +ZK+UE+dy.k$+Ke.Pa.$(+J9.B9.Zr.B7.05.dy.hF.05.w7.o7.t7.Dg.it.Ri.P9.Bi.Ha.Bc.wk.]q.KZ.Ec.De.l_+w7.BL.*n.BB.'W.#A.=W.a5.:++He.Gw.ay.CL.aU.`K+%F.0y.To.dD+%F.FG.&n.0y.f5.x9.x9.x9.-v.;v.De.DG.^s.zg.-=+Ae.-|+ L+K$+==+zg.)(+.L+b^+=K+l7.ti.y1+==+.L+b^+=`.6J+!(+!<+6J+9J++L+%C+%C+@L+GF+#L+*v+sz+$L+%L+&L+*L+=L+-L+Ia.;L+Kw.05.E9.#F.G9.&K.A7.Ga.Ac.BL.o7.yi.Ka.Ha.G9.t7.jt.Ha.Ac.B9.Ja.05.Ci.it._&+Z}+DS.Cg.Ke.l7+(P.(q.Bi.it.YS.bW.vg.bW. 6+*=+&R.qU.&'+j++>L+U5+h++,L+2>+5W.oI.RS.b++k8+>Y.WJ.H +5g+%'+{Y.WZ.XZ._b+_)+'L+L +V!+K +)L+}W.J +X!+<W.O++.C.9v+!L+u|.~L+{L+]L+^L+/L+(L+Yz.Vg+_L+:L+Rg.<L+[L+}L+|L+1L+2L+3L+4L+5L+6L+7L+8L+9L+0L+aL+bL+cL+dL+eL+fL+gL+hL+iL+jL+kL+lL+iW.Sa.Nc.Ge.]q.B9.Ie.Bk.o7.w7.zc.mo.x9.yi.o7.mo..Y.0y.z9.Ae.p7.=F.:&+Vm.Ir.>q.R[.-q.uq.ws+}A+mL+   ",
"                                                                                                                                                                                                nL+oL+pL+.z+{w+-r+~q+%i+Sr+au+ef+&i+*i+;r+`c+qL+mm+BA+9j+M7+ol+qK+(s.4e+rL+sL+GD+Y[.E~.tL+9C+p#+@G+IG+uL+*J+eH+@G+iH+xm+vL+PD+eC+;D+wL+BK+/z+xL+OG+Bm+fx+yL+zL+WJ+MK+AL+BL+CL+DL+(d+EL+FL+Lt+GL+HL+IL+>(.JL+KL+LL+ML+-&+7G+NL+Fz+OL+)l.La.j1+Gc.Ma.t7.5N.*n.H7.Bk.xi.wG.a5.Bc.G8+tN.}3+Le.wi.V*+>A.lo.Ww+h7+.6+&F+8t+{k+}3+~f+dy.Cm.i7+wi.Ee.bA+lo.Cm.Ww+E-+F-+$Y.Ny+>v.#P.o7.PL+zc.QL+s4+/u+>K+ui.]q.ym.QL+ui.ui.<o+A9.A9.Ww+v[+RL+SL+TL+#`.Uw+TL+s4+.L+TL+UL+VL+9J+b^+TL+UH+WL+#`.XL+XL+QH+SL+FF+YL+fG+ZL+`L+ M+.M++M+@M+#M+$M+%M+&M+*L+*M+=M+-M+;M+>M+by+,M+'M+)M+h`.W^+'9+PD+rk+LA+!M+~M+'>+`g+LA+$7+ge+{M+]M+QX.^M+/M+(M+ee+_M+:M+<M+SJ.[M+;3+kI.t#+Z!+.E.M:+U:+S++}M+|M+1M+2M+3M+4M+!H.JO.O2.5M+6M+7M+8M+l3.9M+0M+aM+bM+cM+dM+eM+fM+gM+hM+iM+jM+kM+lM+mM+nM+oM+pM+qM+rM+sM+tM+uM+vM+wM+xM+yM+zM+AM+BM+CM+DM+EM+FM+GM+HM+IM+JM+KM+LM+MM+NM+OM+PM+QM+QM+RM+SM+TM+UM+VM+WM+XM+YM+ZM+`M+ N+.N++N+@N+#N+$N+lb+9Y.Mc.$P.Dg.Bc.vi.mo.>v.A9.x9.yi.>v.t7.o7.{q.l7.p7.pi.0y.vk.Ae.75.za.u_+`r.,b.+0.qe.Uo.p~+%N+&N+   ",
"                                                                                                                                                                                                   vG++z+*N+=N+-N+;N+ZC+~q+Ur+Ur+df+Vr+cf+f(+ll+qL+BA+gf+>N+Tg+jk+@d+Y1+#!+_<+_<+nW.2&+;Y. 7+,N+nP.IG+'N+bq.)N+IG+Fn+!N+[N.~N+{N+kH+NA+wL+]N+^N+'J+/N+(z+(N+_N+:N+<N+fF+[N+9I+}N+|N+1N+2N+3N+4N+5N+>(.,(.Q].}1.6N+7N+xQ.R>.0).8N+9N+&h.7U.-3.:++Fa.5N.>3. K. x+H7.=x.q7.*n.;|+Ma.>3.{k+0N+t7.Ww+V*+.6+xz+bA+E-+aN+G{+bN+Ny+Xw+8t+Ww+8t+QL+&F+dg+bN+bN+cN+9J+cN+dN+>K+eN+bN+eN+$j+cN+cG+SL+8J+;K+SL+>K+EF+8J+cN+>K+fN+8b+1E+7A+rz+gN+)u+$p+H5+ w+<^+hN+iN+jN+kN+lN+mN+nN+oN+pN+qN+rN+sN+tN+uN+pN+vN+wN+xN+pN+yN+zN+AN+BN+CN+DN+EN+FN+GN+HN+IN+JN+KN+CF.LN+MN+{^+p(+(^+E>+NN+8v+<I.ON+|[+'%+c|+>0.A~.;n.]l.:]+lv.PN+QN+RN+xd+^j+SN+TN+UN+VN+WN+XN+YN+ZN+`N+ O+.O++O+ys+@O+#O+$O+%O+|6+&O+&O+*O+=O+-O+;O+>O+,O+'O+)O+!O+~O+{O+]O+^O+/O+(O+_O+:O+<O+[O+}O+|O+1O+2O+3O+4O+5O+6O+7O+2O+8O+9O+0O+aO+bO+cO+dO+eO+fO+gO+hO+iO+jO+kO+lO+mO+nO+oO+pO+qO+rO+sO+tO+uO+vO+wO+xO+yO+zO+AO+BO+CO+DO+EO+FO+GO+HO+IO+JO+KO+LO+yD.no.Kg.G9.cy.zg./u+De.Fa.E9.F9.wk.Ea.l7.Pr.Or.Ae.x9.Pr.zi.zg.=F.xg.1D.7D.4y.%v.MO+/A.vo.r7+p[+NO+OO+",
"                                                                                                                                                                                                      PO+pL+QO+RO+Sr+un+un+Ur+]q+Ur+au+Sr+hm+jm++^.SO+BA+8j+Tg+TO+UO+mc.x|.VO+WO+XO+O^+YO+YO+*s.$G+aC.L:+pG.T2+vh+IA+ZO+`O+ P+7y+.P+kH+OG+=G+vL+NA+kH+mH+#A++P+_N+}N+@P+OA+#P+RA+$P+>s+.t+L>+%P+>(.&P+&P+$K+*P+=P+ai.AQ.l-.tG+-P+c5.;P+7I.95.qq.`X.>f.wG.A7.vG.,l.W9.;C+'l.+A.>P+To.,P+-|+{3.bN+8E+#F.}b+!<+6J+QL+bN+cN+'P+Xd+x9.)P+w_+bN+!P+U9+~P+{P+]P+ f+^P+/P+(P+kC+<i+_P+:P+<P+bJ+[P+[P+}P+|P+1P+2P+3P+4P+5P+6P+7P+8P+9P+0P+aP+bP+cP+dP+eP+fP+gP+hP+iP+jP+kP+;M+lP+mP+h[+nP+.<+oP+pP+.j+qP+rP+.p+IF+3E+Gy+Gy+sP+!k+&k+tP+uP+vP+wP+xP+yP+T7.g9.;5.Mp+ p+03.zP+ p+AP+mW.0^+{g+0^+{g+dk.b|+r3+c|+T[+:]+7~+X7.'=+^l.8$+E}+BP+CP+DP+EP+b +FP+GP+d +r++HP+7$+iL.IP+JP+KP+LP+MP+NP+OP+PP+QP+RP+SP+TP+UP+VP+WP+XP+YP+ZP+`P+ Q+.Q++Q+@Q+#Q+$Q+%Q+.Q+&Q+*Q+=Q+-Q+;Q+>Q+,Q+'Q+)Q+!Q+~Q+{Q+]Q+^Q+/Q+(Q+_Q+:Q+<Q+[Q+}Q+|Q+1Q+2Q+3Q+4Q+5Q+6Q+7Q+1O+8Q+9Q+0Q+aQ+bQ+cQ+dQ+eQ+fQ+gQ+hQ+iQ+jQ+kQ+lQ+mQ+nQ+oQ+pQ+qQ+rQ+sQ+6N.M9.t7.Ai.ko.E-+p7.mo.Pr.ht.Or.De.mo.De.xm.75.pi.zg.jo.oi.VQ..Y.=F.ni.tQ+5y.uQ+vQ+,5.}>+W[.jm.wQ+   ",
"                                                                                                                                                                                                         xQ+uD+yQ+au+;N+VI+zQ+{q+]q+au+!x+au+zQ+Ng+;i+ll+AQ+BQ+M7+4x+Y_+CQ+#!+%9+DQ+EQ+FQ+GQ+HQ+IQ+JQ+KQ+wK+LQ+MQ+NQ+/1.UN.74+8F+OQ+[N.PQ+QQ+RQ+=D+SQ+TQ+UQ+fF+~J+~J+VQ+WQ+ey+lw+XQ+he+YQ+ZQ+`Q+ R+.R++R+!:.@R+b9.b9.#R+y:.$R+%R+s +.f.at.q7.$h.-j.F7.&R+So.WO.ke.>5.*R+1F+Am+=R+xl+ P+-R+;R+jC+>R+,R+'R+)R+ya+!R+~R+{R+]R+^R+/R+(R+_R+:R+<R+[R+}R+Ju+|R+1R+jp+2R+3R+4R+jM.OP.5R+6R+7R+8R+9R+0R+aR+bR+cR+dR+eR+fR+gR+hR+iR+jR+kR+lR+mR+nR+oR+pR+qR+ 3+rR+sR+Q/+tR+uR+vR+lR+wR+y5+xR+rL.yR+zR+AR+K}+BR+#>+CR+e-+DR+f$+ER+>3+FR+*J.GR+HR+x'+,J./v.!K.gD.,d. =+OZ.~C.v-+m(+)7+F>+U:+f`.<]+:.+aC.R/+u*+PW.%J.IR+JR+%J.KR+LR+MR+NR+OR+PR+QR+RR+SR+TR+SR+RR+UR+VR+WR+XR+YR+ZR+VR+`R+ S+.S++S+@S+#S+$S+%S+&S+*S+=S+-S+;S+>S+,S+'S+)S+>S+!S+~S+{S+]S+^S+/S+(S+_S+:S+<S+A4+[S+}S+(S+|S+1S+2S+3S+4S+5S+6S+7S+8S+9S+0S+aS+bS+cS+dS+eS+fS+gS+hS+iS+jS+kS+.Q+lS+mS+nS+oS+pS+qS+rS+vM+sS+tS+uS+vS+wS+xS+yS+zS+AS+BS+CS+DS+ha+#w+J9.mo.m7.zg.jo.!q.Nr.wk.m7.pi.ko.jo.m7.jo.ko.85.ko.ht.o7.&P.f7+fs+Tw.ES+FS+Q7.mW.GS+Y[.*6+HS+IS+",
"                                                                                                                                                                                                            JS+Kz+KS+nt+LS+ef+ef+Ur+Sr+!x+MS+~0+ef+NS+;i+b(.9(.lB+OS+PS+QS+}A+mc.RS+}A+37.k(.En+/1.IA+L:+SS+TS+(I+O^+US+MW.VS+WS+.J.XS+YS+jH+ZS+`S+lH+ T+.T++T+mH+@T+#T+$T+Et+%T+/d+&T+sk+*T+=T+-T+;T+>T+,T+7[.-&+rZ.'T+_^.)T+!T+~T+{T+]T+D3+^T+8]+/T+Sb+(T+_T+w|+:T+<T+8s+[T+39+}T+|T+~u.6%+La+1T+2T+mC.Z>+3T+4T+5T+6T+7T+8T+9T+.v.0T+8i.aT+bT+cT+dT+eT+fT+gT+hT+iT+jT+kT+lT+mT+nT+oT+pT+qT+rT+sT+tT+uT+vT+wT+xT+yT+zT+AT+BT+CT+DT+ET+FT+GT+HT+IT+JT+KT+LT+MT+NT+OT+PT+QT+RT+ST+TT+*s+UT+VT+WT+XT+YT+ZT+`T+ U+.U++U+XT+@U+@U+#U+$U+%U+&U+vl.*U+;q.[A.9q.=U+-U+;U+>U+,U+Hn+>U+'U+-U+ t+CF.vf+)U+p<+,&+-U+.O.6M.!U+~U+{U+]U+^U+/U+]U+fT+(U+_U+:U+<U+[U+}U+|U+1U+2U+3U+4U+5U+fT+<U+6U+:U+7U+8U+9U+0U+aU+bU+cU+dU+eU+&S+fU+gU+hU+iU+jU+kU+lU+kU+mU+nU+oU+pU+qU+rU+sU+tU+uU+vU+wU+xU+yU+zU+AU+BU+CU+!S+DU+EU+:S+FU+GU+HU+IU+JU+KU+@Q+LU+MU+NU+OU+PU+QU+RU+SU+TU++Q+UU+VU+WU+XU+YU+ZU+`U+ V+.V++V+@V+#V+$V+%V+&V+*V+=V+jt..Y.vi.p7..Y.Ae.-|+BG.=F..Y.ti.0U.55.0U.&P.Pr.jo.%K.yg.ye.tm.<5.f7+pr+-V+;V+0^+>V+Y%+6o.,V+'V+",
"                                                                                                                                                                                                               JS+'y+'y+nt+nt+)V+!V+%i+KS+RO+]q+{q+iB+iB+~V+6j+{V+]V+,r+^V+/V+(V+EA+lm.'z+_V+]~+j>+&;+:V+k{+<V+9C+Ss+&;+[V+KD+:]+/1.ro+9x+qE+}V+|V+iH+1V+2V+3V+4V+^N+5V+6V+#A+jv+7V+Bm+Gt+8V+9V+0V+aV+bV+cV+dV+iS.eV+%++fV+gV+m5+HO.hV+x~+iV+jV+kV+lV+mV+nV+oV+pV+qV+}U+rV+sV+tV+(S+A4+uV+vV+wV+|*.xV+yV+zV+AV+nU+BV+CV+DV+EV+FV+GV+HV+IV+JV+KV+LV+MV+NV+OV+PV+QV+RV+SV+TV+UV+VV+WV+XV+YV+ZV+`V+ W+.W++W+.W+@W+#W+$W+%W+&W+*W+=W+-W+;W+>W+,W+'W+)W+!W+~W+{W+]W+^W+`V+/W+(W+_W+:W+~U+<W+[W+IF.}W+|W+1W+2W+ S+2W+3W+Uk.#U+4W+L>+5W+6W+7W+8W+ln.9W+'f.py.}4+xl+lL.0W+aW+JN+bW+cW+dW+eW+@O.eW+fW+gW+hW+iW+hW+C3+>V.dW+bW+IA.jW+kW+lW+,V.mW+nW+oW+pW+qW+^U+rW+sW+tW+uW+qW+Kv.vW+]U+{U+wW+xW+yW+Pg.zW+AW+BW+CW+DW+EW+FW+GW+HW+aU+IW+JW+KW+LW+aU+MW+NW+OW+PW+QW+RW+SW+TW+UW+VW+WW+XW+YW+ZW+`W+ X+.X+)T++X+@X+#X+$X+%X+&X+*X+=X+-X+;X+>X+,X+89.'X+)X+!X+~X+{X+jU+]X+^X+/X+(X+_X+:X+Fx+<X+[X+}X+|X+1X+2X+;O+3X+4X+5X+6X+7X+{W.wk.{q.l7.8X+ye.Nr.vg.xk.ni.ko.ni.Pr.*`.Be.ht.yB.U +yB.BG.ye.55.$K.9X+0X+aX+bX+cX+`1+|7.Z_+dX+",
"                                                                                                                                                                                                               eX+Kz+'y+'y+RO+nt+!V+Q[+Sr+]q+{q+pt+pt+{q+=i+-i+jB+{V+tt+3p+fX+gX+pl+hX+iX+jX+::.B>+kX+~1.g3.lX+[V+_I+_b.8=+D5.D5.+J+m{+iH+mX+dv+nX+oX+pX+qX+sE+rX+FK+2V+sX+cy+7V+tX+uX+>s+Pm.vX+H~.wX+k3.xX+AQ. &+T].U].yX+zX+AX+BX+CX+DX+BP.EX+FX+GX+HX+IX+JX+KX+_I.LX+MX+NX+OX+PX+QX+RX+SX+TX+RX+UX+VX+WX+XX+YX+ZX+`X+ Y+.Y++Y+@Y+#Y+$Y+%Y+&Y+&Y+*Y+=Y+-Y+;Y+>Y+,Y+*Y+'Y+)Y+!Y+~Y+{Y+]Y+^Y+/Y+(Y+_Y+:Y+<Y+[Y+}Y+!Y+|Y+1Y+!Y+2Y+3Y+4Y+5Y+6Y+-W+7Y+8Y+9Y+0Y+:R+aY+bY+cY+dY+eY+fY+gY+hY+iY+jY+kY+lY+mY+nY+oY+pY+qY+rY+sY+tY+dV+uY+vY+wY+xY+yY+zY+cC.S7.s_+B}+g +AY+AY+cW+fH.eW+BY+hW+CY+fW+Pb+fW+`N.hW+fW+>V.DY++E.DY+`++EY+Ca+o`.FY+GY+g'+HY+:W+IY+:W+6]+JY+KY+LY+MY+NY+,V.IY+nW+1W+^U+rW+]U+5U+OY+PY+QY+w,+RY+SY+TY+UY+VY+WY+KW+XY+YY+FW+)T+BV+ZY+`Y+ Z+.Z++Z+@Z+#Z+UW+$Z+LX+%Z+&Z+*Z+=Z+-Z+YW+;Z+cU+lU+nU+>Z+iU+,Z+'Z+)Z+!Z+|S+~Z+{Z+]Z+^Z+/Z+(Z+!S+_Z+:Z+<Z+[Z+}Z+|Z+1Z+/X+2Z+3Z+4Z+5Z+6Z+7Z+8Z+9Z+0Z+0Z+|0+Z1+Vm.!q.Be.p7.=`.BG.aZ+U +=`.Ea.*`.%K.6D.=`.ri.ye.)P+bI.%K.8N.bZ+35.Y{+jv.cZ+dZ+{g+=j+D>+di.eZ+fZ+",
"                                                                                                                                                                                                                  oK+Kz+Kz+yQ+RO+Vc+}p+gZ+Ur+{q+iB+{q+Is+VI+#^._w+<y+tt+hZ+iZ+jZ+kZ+lZ+]r+hX+mZ+4^+W].5^+|4+nZ+oZ+Y2+|[+'%+C~._I+P^+pZ+qZ+rZ+sZ+tZ+qu+uZ+vZ+wZ+xZ+yZ+zZ+AZ+BZ+CZ+fw+DZ+to+l`.EZ+FZ+GZ+HZ+r|./N.}^.IZ+e +JZ+KZ+LZ+MZ+NZ+OZ+PZ+QZ+RZ+SZ+TZ+UZ+VZ+WZ+XZ+YZ+ZZ+`Z+ `+.`++`+@`+#`+$`+%`+&`+*`+=`+-`+;`+>`+,`+'`+)`+!`+~`+{`+]`+^`+/`+(`+_`+:`+>Y+<`+[`+}`+[`+|`+1`+2`+[`+3`+4`+5`+6`+7`+8`+9`+0`+a`+%W+b`+c`+d`+e`+f`+g`+h`+i`+j`+k`+l`+m`+n`+k`+o`+QY+p`+q`+r`+cY+s`+r`+t`+QY+u`+v`+w`+IF.x`+y`+z`+#U+O>+@O.A`+B`+6W+C`+D`+E`+F`+D`.G`+>f.iN.DD.;U+SJ.aW+H`+0W+aW+cW+fW+eW+I`+gW+I`+m`.fW+W7+x~+J`+K`+L`+M`+h|+N`+O`+P`+O`+Q`+R`+aR+z`+S`+T`+S`+GY+U`+V`+Q`+W`+mW+^%+BP.lW+X`+Y`+X`+Z`+``+`W.  @yW+. @+ @@ @# @$ @% @& @% @* @= @- @; @IW+> @M2., @' @) @' @! @~ @! @{ @] @^ @xU+*X+yU+.Z+&S+.Z+Lw+RX+/ @( @_ @: @< @[ @: @_Z+} @2k+'S+| @1 @2 @3 @4 @5 @6 @7 @8 @9 @xF+5 @0 @a @b @c @d @e @f @g @h @,u+aZ+ti.ye.%`.ye.Am.&P.AG.&P.CG.b^+[E+BG.8y.BG.l++#e+7N.7y.'q.[3+Vm.~R.%q.i @p_+Vy+l(.Y1+^j+j @",
"                                                                                                                                                                                                                     k @Kz+Kz+Kz+nt+gm+gm+Sr+cf+8H+pt+pt+l @Js+m @n @o @p @hu+q @r @>N+ik+s @t @jX+u @s3+>%+v @w @x @.J.IQ+y @s~+>^+8=+Ss+z @vK+aC+wK+A @B @C @/++D @E @F @NG+G @rH+jw+bw+H @I @J @jS.K @7N+7N+HX.>++L @M @N @O @P @Q @R @S @T @U @V @W @X @Y @Z @` @ .@..@+.@@.@#.@$.@%.@&.@*.@;`+-`+=.@-.@;.@>.@,.@'.@).@!.@).@~.@^`+{.@].@^.@|Y+/.@(.@_.@:.@<.@[.@1`+}.@|.@1.@2.@1`+2.@4`+3.@4.@5.@6.@7`+7.@8.@9.@0.@a.@6`+b.@c.@3`+d.@3`+e.@f.@g.@o`+h.@i.@,W+j.@dY+r`+w`+k.@l.@m.@n.@o.@p.@eT+q.@bT+r.@s.@Uk.t.@u.@v.@w.@x.@_Z+y.@z.@A.@B.@c2+C.@QQ.>j.>Y.SJ.<N.H`+AY+g +yP+0W+hW+.O.hW+D.@gW+jW+eW+dW+E.@F.@gH.n`.t(+Z++G.@d'+o.@d'+O`+P`+G.@H.@I.@J.@K.@L.@M.@KY+N.@O.@P.@mW+Q.@R.@'V.R.@S.@^%+T.@U.@``+V.@W.@X.@RY+Y.@Z.@`.@ +@.+@0.@= @++@@+@Xu+#+@$+@%+@&+@*+@=+@-+@;+@>+@{ @,+@'+@)+@!+@LL+6[.dU+~+@'S+{+@]+@^+@/+@(+@_+@[Z+!Z+:+@CU+<+@[+@:Z+}+@|+@1+@gM+2+@3+@4+@}*.5+@6+@7+@8+@9+@g @0+@a+@b+@c+@d+@e3.*F.V +ug.*F.c7+CG.wg.&P.l++6D.CG.dn+l++9&+%K.sc.l++]k+e+@Gc+n[+en+f+@g+@2(.fc+&T.Cd+jg.4^+h+@",
"                                                                                                                                                                                                                        i+@j+@rA+'y+Hg+ 9+~q+ef+=r+{q+=r+Js+df+2C+k+@l+@o @m+@n+@o+@7j+2w+ik+p+@17.Ps+l(.]R.q+@r+@_b.=^+f3.xo.*D+s+@f3.GG+t+@x @Y2+n(+E5+u+@7I+0C+v+@}V+w+@x+@)J+-G+Bm+[r+Nb+ 5+y+@z+@A+@7G+de.;++B+@C+@D+@E+@F+@G+@H+@I+@J+@K+@L+@M+@R @N+@O+@P+@Q+@R+@S+@T+@U+@V+@W+@X+@Y+@Z+@`+@ @@.@@+@@@@@#@@$@@%@@&@@&@@*@@=@@-@@;@@>@@,@@}`+'@@)@@!@@)@@%@@}.@5`+~@@{@@]@@^@@/@@(@@_@@:@@6.@<@@[@@CC+5`+}@@7.@|@@<@@1@@6.@2@@a.@3@@`.@4@@5@@6@@7@@8@@RY+,W+dY+rw.lW+w`+9@@}W+`W.kY+:W+0@@a@@b@@c@@|W+d@@e@@-J.f@@g@@h@@i@@j@@k@@l@@m@@n@@o@@p@@aG+c7.|A.|1+Jn+de+QX.aW+g +`T+q@@r@@6M.m`.L>+W7+bW+0W+s@@M`+s@@N`+t@@P`+DY+d'+n`.O`+M.@R`+aR+O`+)!+u@@v@@JY+w@@V`+iY+x@@IY+W`+kW+y@@x`+O.@z@@O.@:R+A@@j=+'V.i'+B@@j.@C@@D@@E@@F@@5@@G@@H@@I@@J@@K@@L@@M@@N@@O@@P@@Q@@' @R@@S@@T@@U@@V@@W@@X@@Y@@Z@@`@@ #@.#@+#@@#@##@$#@%#@&#@*#@$#@^X+*#@=#@-#@;#@>#@/X+UP+,#@D_+:+@3Z+dT+'#@)#@!#@~#@{#@]#@^#@/#@(#@Jb+YK+_#@:#@c7+*F./3+0W.yB.&P.0W.W9+yB.Gc+9&+dn+(k+'q.jo.*=+&R.W9+8>+9I.m[.R[.`5+<#@%N+qD+qD+[#@+D+}#@",
"                                                                                                                                                                                                                           |#@rA+Kz+<v+[p+yb+Vc+=r+{q+=r+ef+LS+8H+1#@2#@3#@4#@5#@hu+6#@7#@8#@|q+}y+9#@0#@!L+t:.#D+sL+T2+I&+&;+<V+a#@b#@8H.VS+'N++J+,N+eH+qu+c#@RX.7I+d#@dv+7y+MA+9x+{M+0p+j`.T!+&J.q-.*T.+k+e#@c9.f#@g#@h#@i#@j#@k#@l#@m#@n#@o#@Zo.p#@GI.q#@r#@s#@t#@u#@v#@w#@x#@y#@z#@A#@B#@C#@D#@E#@F#@+@@G#@H#@I#@J#@)@@;@@K#@L#@M#@N#@O#@)@@)@@P#@)@@Q#@;@@E#@R#@S#@T#@U#@K#@V#@W#@X#@Y#@Z#@`#@Z#@ $@8.@.$@+$@@$@#$@$$@%$@5@@&$@*$@6G+=$@F@@-$@;$@>$@,$@yV+|U+w`+r`+8Y+'V.'$@xW+)$@!$@~$@{$@xW+e=+99.HO.`N.]$@^$@/$@($@2S+_$@:$@<$@[$@}$@|$@1$@2$@3$@;A.wy.8++hH+~M+ h+g +4$@BY+5$@6$@7$@8M.s<+8$@K`+9$@E.@9$@K`+8$@le+8$@0$@`++N`+O`+rY+G.@N`+G.@a$@M.@H.@g'+iP+aR+P.@M.@b$@N.@^%+c$@IY+b$@mW+x@@ X.)V.IY+d$@U.@e$@.X.QY+f$@p`+g$@h$@X.@i$@j$@k$@6G+l$@m$@;+@!+@ga.n$@~ @o$@p$@' @q$@XW+r$@s$@t$@IW+u$@GW+v$@>S+w$@{ @x$@y$@#X+z$@$#@} @^X+(+@_+@A$@B$@C$@A$@8B+D$@wX+q|.oT+E$@F$@G$@JP+H$@I$@J$@-&+GP+K$@L$@e3.rD.%K.tU.vg.c7+W9+yB.}Y.bW.zG.T +Gc+%K.c7+0I.'q.9>+zG.sN.#e+M$@Rw.N$@,^.Hq+W[.gc+ge.Cb+Vo.O$@",
"                                                                                                                                                                                                                              P$@rA+Q$@mt+Hg+Sr+RO+nt+|v+{q+-r+{q+m @R$@jE+o @R$@5#@dk+xn+7#@S$@Fb+[q+T$@U$@V$@W$@j(+<V+=0.j>+_b.J&+n(+L:+t+@qZ+X$@[I+g`.wm+Y$@Z$@`$@9q.@G+8x+ %@vl+.%@S++gR.tw.+%@@%@K@+zt+~(.c9.#%@$%@%%@&%@*%@=%@-%@;%@>%@,%@'%@)%@!%@~%@{%@]%@^%@/%@(%@_%@:%@<%@[%@}%@|%@1%@2%@3%@4%@5%@6%@^R.7%@{@@8%@H#@7%@hh+9%@0%@a%@}$@b%@c%@d%@e%@f%@g%@h%@i%@j%@k%@l%@m%@n%@o%@p%@q%@r%@s%@t%@HU.u%@v%@[@@w%@x%@y%@z%@A%@$ @B%@xV+9U+dY+YY+C%@D%@; @E%@'V.rW+lW+,V.F%@G%@H%@7U+pW+_W+0T.UR+ k+I%@J%@K%@L%@xO+M%@N%@O%@P%@Q%@R%@S%@T%@2.@U%@V%@,F.1D.P{+[1+W%@5T.*G+X%@Y%@Z%@-U+`%@ &@Z%@mL..&@9$@.&@+&@@&@2.+#&@%E.0$@le+Z++t@@$&@n`.EY+M.@EY+I.@T`+J.@G.@v@@:W+%&@&&@Mn+P.@M.@%&@Q`+KY+:W+]9+9W+]9+*&@Y`+=&@'V.i'+uW+,W+-&@W.@;&@>&@,&@'&@)&@% @!&@~ @~&@{&@]&@^&@/&@(&@_&@:&@<&@[&@}&@YY+_I.lG.KW+|&@1&@[S+2&@3&@D`+2&@4&@5&@##@6&@*X+7&@H>.8&@9&@0&@a&@b&@Dr.c&@d&@Dr.e&@f&@g&@.k+uZ.a ++k+h&@vQ.d+@=Y.&P.tU.i&@CG.*=+bW.zG.<Y.D8+l++i&@,'+e+@%R.l++W9+8N.TL.Gc+rD.PG.j&@>i++9+k&@;H+l&@FJ+=<+m&@   ",
"                                                                                                                                                                                                                                 n&@j+@o&@9u+p&@,y+KS+|v+8H+ef+{q+q&@r&@'r+s&@t&@u&@f(+xn+7#@v&@w&@x&@y&@z&@t:.V$@k(.D5.P^+#D+l(.Y%+A&@D}+xo.B&@}[+9w+$G+a#@C&@`$@5I+Fn+ 3+hj+7w+q#+u*+D&@5-+E&@Rk.Z>.zt+b[./:.F&@G&@H&@I&@J&@K&@L&@M&@N&@O&@P&@Q&@R&@S&@T&@U&@(%@V&@##@W&@X&@Y&@Z&@`&@ *@.*@+*@[%@@*@#*@$*@_@@7%@%*@7%@&*@**@=*@-*@i%@;*@>*@,*@S%@'*@)*@S%@!*@~*@{*@]*@{*@^*@/*@(*@o%@p%@_*@~E+:*@<*@[*@}*@|*@1*@8.@2*@3*@4*@w%@,&@i.@QY+T;+p`+5*@'&@]%+6*@s-.7*@8*@9*@[U+0*@a*@r.@VR+b*@2M+z~+VR+c*@d*@e*@eS.f*@g*@h*@i*@##@j*@k*@l*@m*@n*@o*@p*@q*@r*@s*@>F.|A.b++t*@wR+u*@.%@-U+0W+v*@2]+w*@Z%@x*@y*@2M._M+z*@.t+A*@|r+B*@C*@A*@mL.DY+EY+J`+z`+J`+d'+a$@G.@z`+S`+D*@S`+J.@I.@v@@o.@v@@E*@FY+F*@'z.F*@'z.P.@U`+x@@G*@A@@H*@'V.=&@I*@J*@|U+p`+K*@L*@M*@N*@= @MW+O*@P*@Q*@rU+R*@S*@T*@U*@V*@W*@X*@; @FW+We+Y*@NW+Z*@`*@x$@'X+ =@3&@.=@+=@(+@>S+7&@6&@@=@#=@$=@%=@&=@*=@Dr.eS.d&@QJ.NP+==@qZ.-=@;=@>=@Ay+>a+NL+,=@''+l++c7+l++dn+<~+0&+bW.i&@`B+i&@'=@<Y.#e+*F.{#+CG.zG.^P.pk.t[+N$@Bd+Hq+%N+)=@p[+[#@=<+[#@!=@   ",
"                                                                                                                                                                                                                                    j+@,y+9u+_v+RO+KS+{w+|v+ef+{q+l @~=@{=@~y+jE+1v+dk+]=@KJ+^=@2w+NO+/=@(=@GD+(|+;n.[V+L++p~+t:.2&+nZ+_=@:=@<=@pG.u+@*J+IQ+ro+[=@hj+FG+a#@a#@#>+U:+c'+.&+A*+_-+}=@|=@AQ./:.XK+1=@2=@3=@4=@5=@6=@7=@8=@9=@0=@a=@b=@z$@b=@c=@ =@d=@*S+e=@bc.< @f=@g=@h=@i=@j=@k=@Y+@l=@9.@]@@m=@n=@o=@`#@p=@6%@q=@r=@s=@t=@u=@v=@w=@x=@y=@z=@R#@]*@A=@B=@C=@D=@E=@F=@G=@7.@H=@I=@J=@A%@1@@8%@K=@L=@H@@M=@N=@4@@i'+& @g$@hY+I@@O=@P=@Q=@tV+R=@<U+w,+S=@T=@U=@}U+V=@W=@X=@Y=@Z=@`=@0T.t@@ -@Y>..-@+-@@-@#-@,Z+$-@%-@&-@*-@R#@q=@)*@=-@--@~u.;-@CS.rc.`B.K +~++u*@>-@2]+X%@Cm+H`+,-@50+x*@'-@3$@'-@)-@/M+#:+!-@`%@|r+56+zP.dW+>V.a$@K`+a$@O`+$&@aR+O`+S`+o.@v@@T`+S`+H.@M>+D*@~-@{-@~-@]-@z`+S`+^-@/-@(-@IY+x@@R.@_-@x`+A@@U.@5*@:-@[U+T;+<-@MX+[-@We+}-@iU+}-@GW+|-@rw._I.NJ.1-@2-@WY+EW+3-@4-@[-@NW+LW+gU+5-@6-@RX+7-@8-@9-@'Z+}+@0-@6&@a-@2k+b-@]'+*=@c-@d-@e-@f-@HP+g-@r++f +h-@b +7$+V;+b +i-@QZ.#`.yB.j-@;j+Gc+YE+#e+*=+/B+k++/B+Gc+(Y.k4+Hx+D8+tU.]k+u[+WQ.oy.k-@j<+l-@N7+(s.Vo.=<+ge.m-@      ",
"                                                                                                                                                                                                                                    n-@Kz+o-@9u+)x+,y+'y+Lz+]q+{q+|v+2C+2C+k+@m @p-@qL+ll+&^.zn+1w+q-@r-@s-@|y++O+YE.t-@s:.k(.Y[.rK+t:.u-@g3.v-@&J+$G+Fn+=J+JD+C*+X/+C*+|[+C*+[=@ZE.0)+>++M@+xQ.w-@f~.^:./:.nI+x-@y-@z-@A-@B-@C-@D-@E-@F-@&S+G-@H-@I-@J-@J-@R*@bc.`@@K-@L-@M-@P@@o$@N-@O-@n$@L@@/@@#$@P-@_*@Q-@R-@S-@^@@T-@U-@V-@W-@+$@X-@-*@Y-@Z-@O#@`-@ ;@.;@+;@@;@#;@B#@m*@$;@%;@J=@J=@&;@*;@%$@=;@-;@}Y+;;@>;@x%@-&@,;@B%@';@);@9@@!;@~;@w,+qW+{;@2U+IF.];@Z=@0*@^;@/;@(;@_;@oB.V=@:;@<;@ZR+[;@};@(-+|;@1;@2;@3;@4;@5;@6;@*-@7;@8;@.;@9;@0;@n%@a;@b;@c;@IN+-F.P{+x$+!%+At+d;@JA+oL.e;@OX.wP.50+f;@/i+Am+q<+Cm+.5+#:+|r+/M+g;@Ht+s@@h;@M`+a$@dW+i;@t@@h|+n`.~-@j;@I.@/-@G.@{-@~-@]-@u@@M>+t.@K.@k;@~-@]-@I.@E*@FY+b$@:W+LY.)V.LY.l;@m;@r`+);+>&@n;@@ @o;@UY+p;@ZY+q;@r;@KW+X*@KW+2-@YY+s;@t;@u;@v;@t;@w;@x;@1-@y;@z;@;Z+A;@(+@B;@( @C;@D;@E;@(+@:+@F;@G;@H;@8*@SR+I;@!H.mG.LP+J;@K;@LP+eS.y,+L;@M;@N;@Er.O;@%Y.XB+zG.yB.*=+l++*=+cW.P;@bI.%R.Q;@D8+/Y.I$+/B+$`.#e+'q.,'+0F.AP+qL+fc+D&+W[.l(.p[+ge.7B+Qs+      ",
"                                                                                                                                                                                                                                       ~F+!w+9u+o-@<v+KS+Lz+uD+[v+|v+|v+qt+R;@m @m @;i++^.S;@T;@U;@ja+r @V;@Rg+x|.W;@.2+,%+r7+X;@6o.ka+.s+g3.E~.C~._I+*J+Y;@)N+k{+:.+a_+<]+O++}M.F@+Er.Z;@b$+zt+xQ.gS.fS.ak.`;@ >@.>@+>@@>@#>@$>@EI.]N.%>@&>@*>@=>@=>@u$@->@1*@|*@;>@>>@N@@P@@=+@P@@W@@,>@'>@)>@!>@~>@7.@-;@{>@R-@G=@p%@]>@3.@^>@/>@U-@(>@^@@_>@T-@]>@|@@:>@<>@v=@[>@}>@|>@l=@1>@2>@3>@*;@M=@4>@M=@5>@&;@e.@6>@:Y+7>@>$@8>@9>@0>@a>@b>@c>@d>@e>@zW+{;@qV+f>@&=@Z=@fW+xP.2M+pV+IT+QR+g>@eW+h>@Sk.i>@j>@k>@l>@m>@n>@o>@U&@$-@p>@q>@r>@s>@t>@u>@2.@v>@E=@1.@w>@~;+SQ.y)+`B.X!+I>+5T.x>@)U+{M+,9+u*@,9+o<+`g+)-@y>@)-@z>@zl+A>@/M+'-@B>@56+9T.J`+K`+DY+E.@n`.s@@C>@D>@u@@E>@u@@D>@F>@G>@H>@E>@I>@D>@J>@F>@K.@K>@'z.:W+6]+(-@w@@)V. X.)V.8Y+z@@lW+L>@4N+M>@7T+N>@We+.]+rw.O>@rw.|-@We+|-@; @P>@UY+WY+4-@Q>@u;@0U+R>@DW+S>@T>@U>@V>@W>@%X+X>@C;@Y>@Z>@`>@ ,@{X+.,@)j.0M.NR+!H.*=@+,@d-@@,@<U.#,@z*+$,@*>+%,@Q}+RJ.sh+{#+*=+AG.c7+&,@c7+*,@U9+TL.%R.nI.uU.YG.uU.&R.%R.`B+UL.=,@>'+''+)b.-,@;,@{g+l(..0+[#@ka.%y+         ",
"                                                                                                                                                                                                                                          >,@mt+9u+<v+9u+Kz+rA+rA+Mz+,,@Mz+_F+cu+:F+NS+SO+4C+',@lo+),@!,@~,@qK+Rg+ka+#!+Y1+[#@r7+nZ+E>++2+E>+Y%+_b.C~.{,@N++d`._I++G+yo.J&+LQ+pK.$~+0i.KX.%++U].],@be+KH+7G+^,@VP+/,@/,@(,@_,@:,@<,@[,@},@|,@V*@KW+1,@MW+QW+@+@|*@2,@3,@P@@4,@' @5,@6,@ZW+7,@8,@9,@0,@a,@b,@8T+c,@d,@c,@_*@a.@e,@e,@f,@g,@]@@<*@h,@p%@i,@j,@k,@l,@m,@n,@o,@/@@p,@q,@r,@s,@8@@t,@w%@B%@u,@v,@w,@x,@;&@y,@p`+z,@eY+A,@{)+:U+``+8U+m;@|W+B,@ST+0T.C,@_;@D,@`=@vW+E,@F,@G,@H,@I,@/M+J,@K,@L,@M,@N,@O,@P,@i=@Q,@R,@;@@o*@}.@x=@S,@T,@U,@u>@V,@W,@X,@#:+-v.pD.x$+t*@K}+'>+Y,@%>+{z+de+4$@2M.Am+ge+y>@LA+z>@Z,@`,@ '@zl+.'@/M+56++E.56+Ht+t@@N`+56+Z+++'@F>@#&@@'@#&@#'@E>@K>@$'@%'@$'@H>@D>@j;@)!+6]+FY+&'@LY.*'@8Y+W`+kW+A@@j=+uW+='@-'@NX+;'@>'@,'@ZY+q;@X*@KW+X*@P>@lG.P>@''@X*@R>@)'@!'@~1+~'@)'@t;@{'@|,@]'@CV+^'@/'@;Z+('@b~.mU+Fx+_'@:'@_).3Z+W=@J,@<'@['@}'@|'@1'@2'@v9+`4+V;+~^+U!+!g+3'@pI.zG.4'@$`.5'@*=+zG.{#+%R.*=+,'+@`.UL.qN.Ey+VL.UL.6'@pI.[K.-u+/k+)K.AP+6o+7'@.0+Vo.7l+^j+8'@         ",
"                                                                                                                                                                                                                                             9'@mt+_v+Hg+KS+uD+rA+uD+!x+|v+Mz+_F+0'@R;@Ks+Ng+kB+3p+a'@),@4x+6e+$9+pm+b'@5e+ka+X]..:+`7.E>+c'@-9+oB+8v+lX+T2+D}+d'@D5.=0.N++O++'%+e'@f'@J>.vZ.e +g'@gS.ak.7G+b[.h'@i'@j'@k'@l'@m'@:,@%>@n'@o'@lG.V*@T*@z;@1,@@+@p'@q'@r'@Y&@s'@t'@ZW+K=@p'@<*@=;@!>@u'@a,@u'@8T+v'@w'@P-@-;@7.@J=@c.@x'@_*@3.@:*@:*@I=@y'@z'@p=@A'@B'@C'@D'@_@@r,@E'@F'@G'@z,@H'@w%@s,@M=@,;@B%@y,@I'@q`+c$@J'@h$@_-@K'@L'@M'@g{+'2+N'@F%@O'@_U+P'@XR+F.@Q'@R'@nW+S'@q*+iW+,;+T'@i3.U'@V'@W'@X'@Y'@O-@'+@}>@7;@Z'@Z'@`'@s>@ )@S,@.)@+)@v>@l=@@)@#)@zF+y)+'Y.$)@%)@1I+&)@MG+{z+,9+u*@de+*)@`g+PX.ge+*J.rk+fe+z>@_M+A>@B>@`%@C*@n`.8$@56+mL.%E..'@Qb+F>@e@@F>@#&@=)@#&@@'@e@@@'@E>@K>@E>@t.@'z.JY+V`+ X.-)@;)@d$@:R+MY+d>@tW+5*@>)@L*@M*@,)@')@O>@rw.O>@We+3-@))@XY+; @= @!)@))@~)@<-@{)@])@u;@^)@u;@DW+o'@/)@A;@()@;S+C;@{X+_)@:)@<)@[)@I>.l3.)(..v.})@|)@1)@1M+2)@3)@6$+@~+EP+4)@6$+5)@cc+6)@7W.bW.9W.%R.c7+W9+T +og+8N.qN.&R.'=@^K.nI.,<+)#+mN.YG.{P.8F.}K.Fy+<F.vo.=<+7)@|y+8)@9)@+O+            ",
"                                                                                                                                                                                                                                                0)@_v+9u+-N+yQ+rA+uD+!x+'y+Mz+|v+yD+iB+9H+-i+kB+AA+a)@>z+Bb+pm+om+b)@pm+Rg+/0+4^+c)@/]+<s.d)@-9+YE.>%+P^+[V+e)@a#@Mm.8=+c).D}+!z+f)@g)@h)@G5.l-.T>.!m+7G+J}+i)@j)@k)@l)@m)@n)@o)@%>@p)@n'@q)@lG.)T+)T+KW+s;@r)@s)@t)@u)@K=@v)@w)@t$@x)@E@@y)@2>@z)@u'@A)@B)@a,@C)@D)@0,@1>@P-@-;@_*@%$@~>@A%@I=@z%@4>@%$@:*@8.@E)@F)@G)@H)@;B+I)@8@@t,@G'@J)@K)@L)@H'@M)@N)@8>@O)@P)@S.@l;@:U+_-@o.@MY+uW+Q`+^%+Q)@R)@qV+a*@S)@IT+c*@T)@H>@U)@V)@hH.QR+9$@1M+W)@X)@Y)@Z)@`)@ !@.!@+!@@!@#!@$!@%!@&!@-*@K#@c%@ )@*!@=!@-!@;!@>!@bd++E.bG+,P.b++41+,!@A5+XJ.~++{z+SJ.,9+'!@`g+^z+ge+)!@y>@!!@*J.~!@fe+/M+`%@2.+z*@{!@@&@.'@A*@z*@#&@g;@#&@-R+]!@^!@e@@/!@sY+(!@_!@F>@#&@d'+a$@:!@<!@_-@jC.X`+[!@MY+sW+R'@Kv.3U+}!@T;+|!@!)@/l.1!@2!@3-@))@ZY+,'@!)@))@~'@CW+Q>@3!@4!@E%@CW+O=@5!@BW+CW+9*@ Z+P*@6!@7!@C$@8!@9!@0!@A`+a!@a&@b!@c!@jL.d!@e!@f!@uK.g!@KR+*s+h!@N;@O}+iR+g&@i!@#|+)B+tU.)B+0&+D8+tU.+`.'=@ya.pN.j!@6'@TS.{P.'=@VL.sI.oI.B-+mD.`Q./a+:F.k!@>I+X[.l!@*6+^j+m!@            ",
"                                                                                                                                                                                                                                                   )w+_v+_v+n!@Kz+Kz+yQ+'y+!x+{w+Mz+Ks+Js+VI+iE+AA+Zc+Zc+BA+o!@p!@b)@p!@Rg+b'@5e+q!@r!@$d+s!@e9.t!@l(+j>+8v+f3.MW.u!@9p+O:+0=+9=+&d+&d+(:.v!@w!@!m+S>.x!@ai.7G+z-@y!@z!@A!@AT+B!@C!@Q>@x;@D!@E!@o'@EW+o'@F!@G@@$ @5@@3@@G!@=$@:Y+*$@x)@&;@H!@u'@I!@J!@K!@B)@L!@M!@w'@p,@1>@-;@_*@N!@O!@A%@;B+3*@M=@4>@&;@7`+P!@:*@Q!@H)@E)@R!@'J.z,@q`+,W+J)@S!@0>@G'@J)@T!@U!@kH._-@F3+R.@c>@/W+V!@V!@W!@G.@X!@}!@0T.kW+KY+Y!@U=@`.+/U+Z!@2M++&@iW+`!@ ~@.~@+~@@~@#~@$~@%~@&~@*~@=~@-~@;~@[>@R,@/*@>~@)*@,~@'~@p*@8;@)~@!~@1.@TF.~~@@F.y)+-k+{~@41+k +=3+@3+ev+SJ.<N.u*@:M+ge+a)+!M+rk+]~@z>@rk+HA.z>@`%@#:+^~@g;@z*@/~@`%@.'@`%@!-@`%@UA+Qb+-R+e@@[W+(~@_~@sY+-R+C>@:~@i;@mW+R.@*&@A@@r`+Y`+A@@d>@wW+'2+;2+<~@[~@BW+.S+f>@&}.}~@X*@[-@We+[-@>'@v;@3!@G@@N>@N*@8U+|~@O=@1~@2~@RY+5!@3~@WY+2k+vU+4~@4~@i-.b-@5~@6~@/(+7~@}*.j-.8~@^;@ ~@9~@0~@a~@b~@IR+ >+J*+5$+p{+7)+c~@&R..C+pN.bI.(Y.d~@mz+pN.*=+k4+e~@TL.k4+U{+]P.;u+{P.:3+0F.nI.8v./k+[>+Lt.f~@Q^+ 8.*6+ma.g~@h~@            ",
"                                                                                                                                                                                                                                                      ,y+<v+'y+n!@Kz+'y+KS+[v+Mz+Lz+i~@ef+VI+km+3#@iE+kB+;i+^0+J^+1:.`F+b'@j~@$9+D>+.s+k~@0L+l~@&9+km.k(.nZ+(I+O++vm+m~@o#+;3+f[+[A+[7.&d+Wy+n~@o~@p~@hg.ai.R>.q~@m)@r~@s~@$>@t~@u~@0U+DW+v~@~'@u;@w~@u;@x~@y~@z~@F@@#W+4@@/-+A~@''@z%@o`+q,@B~@C~@B~@K!@B)@D~@a,@u'@0,@J=@P-@%$@E~@#$@N!@e.@w,@n`+F~@z%@,;@i.@4.@G~@H~@Li.I~@J~@P)@K~@L~@O)@U!@M)@M~@U.@T.@c$@U`+N~@Y`+>J.w@@O`+O~@P~@T=@Og.Q~@R~@S~@T~@7M.d'+dW+U~@V~@J%@JF.n`.dW+<'@j>@W~@wO+X~@Y~@Z~@`~@ {@.{@+{@@{@#{@${@%{@,*@E`+/*@v=@&{@c%@*{@={@S,@-{@;{@#Z.51+Fw.4F.mc+k +,!@N}+N}+ym+~M+<N.~M+MG+ge+PX.>{@XS+!!@,{@>{@8y+*J.'{@){@B>@#:+.t+x*@zl+A>@zl+!-@'{@!-@/M+!{@@U+~{@^!@[W+{{@]{@+'@/~@N`+L>+oR.LY+^{@[!@I*@-E./{@(U+J%@Vk.({@_{@])@.S+}$+]'+O>@)j.3-@:{@[-@CW+<{@[{@}{@|{@1{@!z.2{@3{@h.@T;+2{@4{@5{@'$@r;@6{@7{@8{@dT+9{@xF+n3.0{@a{@eg.b{@dc.})@9~@c{@d{@a[+e{@f{@5$+g{@h{@i{@Ay+~P.ZS.Ix+&R.P;@:3+pN.Q;@uU.)#+*=+Yv+>'+^P.Jx+[7+Xv+R +rN.]K.mD.^o+*d.RB.U7.Q2+ 8.l!@(0+}A+,z+               ",
"                                                                                                                                                                                                                                                      j{@,y+'y+n!@'y+'y+k{@l{@Lz+Lz+ZF+pt+VI+Js+iB+iE+iE+AD+`c+vn+nl+1:.b'@j~@om+m{@S2.i~.n{@o{@p{@2u+7B+Y[.X].v|.q{@r{@E5.gS.~7+5w+KH+s{@t{@u{@v{@w{@hg.}=@KH+x{@y{@z{@A{@B{@<,@Q>@W0+C{@D{@D{@G@@1~@E{@xV+F{@j.@G{@i.@M*@.+@H{@79.I{@B%@J{@K{@L{@M{@N{@B~@J!@L!@=;@2>@p,@P-@-;@O{@~>@7.@5>@2>@o`+8>@o`+>$@g$@;$@N=@;$@# @7T+LF.z,@i'+P{@J*@O)@r`+*&@O.@W`+5.+Q{@[U+oY+>J.j;@K>@5]+R{@B,@S{@n;@|W+T{@U{@6U+V{@`N.Y=@N&+mY+OR+ -@9$@W{@A3+X{@l>@Y{@Z{@`{@ {@ ]@.]@+]@@]@#]@{*@R%@l@@$]@.;@%]@&]@.;@*]@-*@=]@-]@;]@>]@,]@BB.:~+x-+mc+']@)]@qc+@a+!]@W%@~]@*)@A5+zm+{]@LA+nL.LA+rk+)!@z>@>M+){@*J.]]@^]@`,@/]@(]@_]@`,@_]@A>@'{@){@:]@]!@<]@[W+{!@]{@@&@E,@pY+[]@R{@_;@])@PR+A@@|W+wW+{;@IT+Q=@}]@|]@1]@2]@3]@4]@|,@5]@We+5]@~'@6]@7]@YR+p.@,)@~)@T;+w,+|~@4{@j.@8]@~;@e>@9*@DW+9]@b~.6N+a&@0M+0]@a]@b]@c]@jS.b{@8M+d]@MN+q@@e]@f]@g]@h]@J*+i]@!^+DI.j]@{P.&R.3A+UL.nI.Yv+rN.pN./Y.VL.k4+nI.i++nI.(Y.rN.qN.rN.~P.mD.wy.NL./|+MB.X[.84+(|+7o+}A++O+                  ",
"                                                                                                                                                                                                                                                         k]@l]@'y+'y+'y+m]@uD+.z+.z+.z+[v+Ur+Js+|e+ef+iE+n]@im+p3+vn+:6+L7+om+om+m{@o]@!i+oo+p]@17./(.t:.v @qB.X;@bi.q]@r]@!m+s]@R^+be+t]@u]@v]@w]@VV.S>.XK+KH+x]@y]@z]@+S+jT++S+A]@A]@^)@^)@y~@|~@B]@j.@C]@D]@f$@F~@G{@M*@E]@F]@G]@& @'J.N)@H]@I]@H]@7@@L!@J]@J!@K]@y)@!>@!>@L]@J=@7.@J=@!>@=;@8@@K{@0>@z,@L>@z,@9>@,$@M]@V.@N]@)z.r`.KA.i'+V.@KA.l;@8Y+%&@O]@5]+P]@f'+Q]@>J.R]@EY+hC.S]@LY+V{@5]+T]@U]@a*@7M.V]@OR+3M+W]@I`+&=@X]@Y]@Z]@`]@ ^@.^@s'@+^@@^@@!@#^@$^@%^@&^@*^@%!@e%@T%@*]@=^@-^@;^@w=@p*@n%@V,@>^@,^@'^@)^@QQ.Ww.aF.8++!^@*3+44+%a+~^@!]@N}+A5+{^@[b+PX.nL.PX.nL.LA+XS+rk+)!@>M+2]+^]@A>@y>@(]@>{@*J.zl+]^@B>@zl+^^@/M+^!@B>@{!@/^@mL.(^@BY+eW+gW+]U+c]@_^@I*@JF.4U+7M.6U+2W+:^@<^@b&@]N.w;@O>@EI.X*@v;@[-@C,@}{@[^@TR+dY+6]@~)@_W+4{@}^@4{@;$@|^@~;@7U+)'@.v.1^@9!@/(+9]@0M+t(.2^@8~@3^@Y>.UV.4^@ZT+f{@c{@f]@>-@$&+5$+F,+F,+d-@6-+5^@[^+,<+nI.U{+i++rN._K.VL.]P.rN.>'+pN.6^@mD.VG.7^@nI.YB.^K.8v.NB.8^@V[.qB.@q.~g+qB.=<+Ug+9^@                  ",
"                                                                                                                                                                                                                                                            0^@'y+a^@'y+k{@{w+.z+)y+.z+!x+nt+ef+ef+ef+b^@|e+#^.c^@p3+,i+vn+}F+b)@}A+CQ+/0+d^@e^@VO+|y+2u+r7+6K.HS+P7+f^@mk+D~.Zg+Zg+hA.g^@h^@;>+]#@S>.tG+XK+nI+i^@j^@eT+k^@l^@m^@m^@~)@)'@[{@<-@bY+`V+C]@F~@n^@G'@P)@';@!;@KL+o^@p^@q^@U.@r^@s^@K)@t^@M{@K!@ @+L!@B~@6@@8@@2>@p,@8T+D)@8T+u^@2*@L!@J)@J)@U.@v^@w^@9@@QY+=u.V.@KA.x^@V.@y^@yV+5*@``+MY+IY+O`+~-@M.@7x.z^@oY+IF.Og.A^@B^@dC.}U+4W+R.@C^@R=@F.@vo+D^@X]@K`+FY.pV+E^@wK.F^@g*@G^@H^@I^@Z&@J^@K^@L^@M^@N^@B#@~*@R%@d%@O^@&{@*]@u=@P^@%]@Q^@R^@S^@T^@9`+1@@U^@u|+W@+ua./P.$#+L +&#+a4+V^@W^@A5+41+K}+=3+X^@B5+X^@B5+X^@)!@,{@Y^@Z^@>M+Z^@`^@ /@>M+fe+rk+fe+>{@A>@*J../@(]@:]@!{@+/@@/@#/@/~@s*@JN+5$@m`.`N.`=@%}+^U+/U+#U+H%@|)@$/@%/@&/@2]@*/@5]@!$@q)@)j.DW+~'@=/@{$@-/@TR+^;@TR+;/@{$@8U+C^@K'@>/@p.@XR+7U+,/@#>@'/@+5.)/@!/@dc.0k.cg.=T+~/@cg.:b.MR+{/@]/@f]@Gn+f{@:N.e{@yR+^/@M;@//@G$+A-+Vp+(/@6W.,<+,P.h++_/@r[+nU.lU.^K.h++d~@0F.R +:/@mD.3A.JS.L^+ge.&T.cc+Mw+v @S4+[#@</@                     ",
"                                                                                                                                                                                                                                                               [/@,y+yQ+k{@Kz+}/@.z+.z+uD+-N+Q[+{q+{q+|/@1/@jm+f(+`c+p3+`c+J^+`F+lm.RS+2/@ol+3/@4/@5/@/(.jm.HS+2u+^j+fe.km.bi.L/+:r+0[+GU.K@+6/@nI+7/@lz+0i.Q2.~(.|*.w;@iT+k^@)$@'$@{)@'$@<-@8/@9/@0/@a/@b/@M)@hY+,W+q`+7T+c/@d/@> @e/@hY+f/@f/@K)@7@@H]@I]@H]@7@@J]@K!@B~@J!@g/@a,@h/@0,@i/@B)@L{@j/@k/@d$@S.@U]@l/@:U+m/@W.@3U+/W+F3+)z.n/@KY.lW+^%+mW+F>@u@@0$@JY+BP.0T.C>@%/@IF.o/@p/@<^@}^@S)@c*@z~+K`+q/@(M+r/@BY+};@!U+kR.1M.s/@t/@u/@v/@w/@%+@x/@y/@z/@A.@{*@&-@A/@B/@w=@C/@D/@E/@F/@G/@H/@I/@p*@J/@!~@K/@L/@M/@N/@O/@k5.Uw.UZ.7&+B9+%3+P/@Y/+']@N}+Q/@=3+{^@K}+[b+K}+,{@R/@,{@S/@]~@T/@]~@9P+U/@>M+U/@rk+XS+-D+U/@V/@){@`,@_]@/]@^^@W/@X/@Y/@Z%@yP+5$@CY+D.@};@9~@0M.D^@Y=@6U+Z/@U~@`/@ (@HO.]'+.(@v;@x;@v;@3!@C,@{)@SR+_^@+(@VR+UR+;/@@(@V=@C^@bT+XR+|]@#(@{)@$(@9{@}*.%(@0M+0]@t(.&(@cg.*(@~/@~(.=(@>-@f{@-(@Gn+q@@:N.;(@x{+>(@WE.,(@-f+'(@E$+r_+Lq+h++G$+VS.*k+rI.Lq+,#+r_+_K./Y.9^+:3+A-+;'+;'+-d.f[.ma+Y1+pB+b$+Yz.km._<+X].9^@                     ",
"                                                                                                                                                                                                                                                                  i+@Kz+KS+'y+)y+.z+)y+{w+KS+KS+{q+pt+)(@<F+VI+im+f(+f(+f(+p3+,i+om+b)@p!@3e+z&@@d+Db+%y+Vo.p~+c(.^j+^j+!(@km.~(@_I+0=+B{+gS.nI+xQ.{(@U2+](@r|.r|.RW+rT+^(@YR+/(@((@MT+_(@{$@:(@w`+h$@<(@z,@J)@S!@J)@hY+,&@rw.[(@[(@T;+S!@U!@}(@j/@t^@|(@I]@1(@r^@2(@3(@r^@s^@K)@2(@4(@B)@5(@L{@8x.s^@6(@V`+PT+m;@'2+`W.7(@m/@8(@m/@e$@m.@-E.-E.O.@y@@d'+_!@@h+GY+9(@0(@wW+_U+=E.a(@vW+eW+b(@c(@U)@c*@b*@/~@d(@e(@`%@f(@g(@W]@=2+h(@i(@j(@k(@l(@*+@m(@0%@n(@0%@n*@8;@o(@3%@p(@q(@r(@)~@s(@R^@&]@t(@Q^@;^@u(@v(@w(@x(@G!@y(@z(@A(@B(@3F.cq.C(@b++D(@j8+P/@P/@,!@=3+M}+K}+{^@E(@h +F(@h +nL.)!@T/@]~@T/@)!@F(@PX.E(@XS+!!@Z^@>M+!!@)-@G(@){@(]@/]@H(@I(@J(@K(@L(@X%@M(@N(@9~@vW+ &@3M+ZQ+O(@P(@Q(@R(@.v.)j.S(@4]@.(@9*@1]@=/@7U+T(@`=@U(@V(@+(@`=@W(@SR+XR+['@}]@X(@rT+c-@Y(@5M+}*.Z(@c]@`(@k3. _@I5.._@9t.+_@-(@Gn+e]@@_@MN+#_@e{@$_@%_@&_@*_@^/@8&+5^@$R.D$+=_@;'+-_@-n.g++r_+)Y.2>+/m+^K.8^+Ri+<K.)Y.oN.gA.gA.W>.`[.;_@~(.JX.;9+Y1+!(@>_@                        ",
"                                                                                                                                                                                                                                                                     ,_@'y+n!@}/@.z+qA+Lz+KS+-N+MS+'_@qt+Xr+}e+|p+@^.f(+#^.c^@vn+,i+)_@!_@4x+ol+ s+@d+p~.Ug+~_@b'+Y1+{_@j~.P7+s:.YE._I+b).Rv+x:.g'@]_@w|.RE+e#@fg.'(.T>@^_@<W+/_@/_@(_@>/@UR+fY+]W+9@@__@:_@M~@:R+X`+M~@H*@<_@RY+<-@M~@[_@:R+-)@;)@|(@|(@}_@|_@}(@1_@k/@2_@3(@s^@;)@|(@t^@I]@|_@|(@3_@(-@x@@Q`+^%+tW+4_@PY+8(@:U+5*@l/@d>@m.@tW+R.@EY+P`+9(@@h+B*@3]+1W+6U+F%@nW+ S+Y=@5_@6_@<;@_U+7_@3M+6$@6M.8_@A>@9_@0_@a_@b_@c_@d_@e_@I^@f_@g_@h_@t=@Z'@z=@i_@j_@!*@V,@`-@k_@l_@m_@n_@o_@I/@p_@q_@r_@s_@J/@t_@u_@r%@g,@v_@_N.yw.1v.y-+ZZ.3&+A9+.a+VJ.w_@,!@b_+~^@IQ.~^@x_@y_@z_@B5+A_@z_@XS+R/@X^@B5+#a+XS+B_@XS+C_@,{@nL.!!@PX. W.]]@D_@E_@Y/@F_@G_@H_@yP+KN+M(@q@@I_@J_@ &@ED.U(@b*@K_@L_@M_@N_@O_@*/@O_@P_@jT+U)@#(@<'@OR+Q_@R_@S_@T_@-/@+(@O(@|'@U_@V_@W_@e-@X_@ha.5M+Y_@Z_@em.Y>.b{@nG.s|.jL.U;+`_@a[+f{@:N.Gn+#_@ :@f{@CQ.mR+>=@.:@@7+T{+Lq++:@!Y.S5+@:@D-+#:@]P.D$+x-+$:@x-+$R.T{+Ri+T{+%=+x-+*f+1$+ia.]i+z{+._@g'@a'+^]+c)@%:@                        ",
"                                                                                                                                                                                                                                                                        |#@QO+)y+}/@pL+.z+MS+au+RO+{w+Tr+&:@*:@ZC+!q+cf+=i+SO+p3+vn+0H+vn+~I+UO+VO+17.17.=:@.r+E&+ie.ie.u @s:.oB+k(+-:@G&+V/+U>.0).;:@w{@f~.e#@b[.>:@=>@^;@3M+3M+IT+IT+IT+,:@1U+QT+QT+r`+'V.S.@X`+X`+:R+X`+:R+d$@S.@d$@X`+2_@':@aY+aY+):@|_@j/@1_@!:@!:@:R+~:@{:@':@(-@]:@E*@^:@/:@^-@]9+U`+mW+R.@=E.l/@w`+B@@[U+5*@<U+'2+tW+Q`+N.@j;@JY.(:@_:@pH+::@<:@VA+R`+VR+[:@}:@I%@^;@7M.0M.|:@<;@1:@2:@3:@2:@h{+U;+0).4:@5:@6:@7:@8:@9:@x/@l@@T#@0:@a:@Y-@W#@v>@y=@b:@c:@]@@d:@e:@f:@g:@h:@i:@*]@j:@k:@l:@m:@n:@c,@o:@p:@q:@a3.r:@iD.s:@SO.h8+z9+D(@:b+44+*3+*3+t:@FR+*7+x_@y_@#3+R/@A_@F(@u:@*7+{]@v:@{]@0C+#a+U/@S/@]~@6y+^]@w:@x:@pS.y:@/~@I(@z:@K(@L(@A:@`T+Gn+J_@B:@1)@C:@D:@m5+E:@F:@mG.O_@`.+O2+3]@4M+,/@MR+G:@H:@I:@J:@K:@OR+MR+['@!H.L:@BQ.M:@N:@O:@A-@{:.5+@P:@c]@jL.:1.Q:@f).>h.@++R:@f]@S:@T:@LN+g]@U:@f]@V:@W:@X:@Y:@0_+]l+ j+WL.!Y.@f+Z:@`:@ <@.<@rI.f+++<@]l+5&+T{+,f+-#+Id+ <@4g+:-+RE+NL+M@+@<@gg.4 +}A+7l+#<@                           ",
"                                                                                                                                                                                                                                                                           $<@.z+}/@oL+)y+l]@-N+-N+Lz+.z+bu+ef+Vr+Kg+cf+VI+~V+f(+`c+%<@%<@`c+Bb+TO+&<@*<@=:@.r+Z_+x|.{_@ie.jm.nb+.s+qB.(<+n#+=<@+V.7/@-<@L>.IO.7N+;<@1,@{$@><@><@O'@O'@c*@fT+kY+qW+m;@d>@'V.S.@S.@':@_-@d$@b$@*&@':@,<@[_@'<@{:@)<@!<@|_@|_@~<@!:@!:@V`+{<@H.@'<@b$@]<@v@@^<@J.@/<@(<@@'@I.@FY+x`+xW+xW+_<@V!@w`+4U+(U+Kv.Q{@Q{@z`+d'+dp+(:@W]@:<@It+(:@!{@^^@]{@<<@[<@mZ.Q(@aV+U(@q/@]]@){@}<@2]+hR.f;@T++|<@1<@2<@3<@4<@5<@x/@6<@7<@8<@u=@0:@={@(>@Z-@U-@t_@9<@X#@9<@l_@e:@f:@h:@o(@m@@0<@a<@b<@v(@c<@_*@d<@e<@f<@@s.Q5+ZB.)P.1W.,k+`0+w_@w_@;a+P/@IQ.81+FR+&3+x_@h +IQ.*7+h +z_@g<@z_@#3+*7+C_@v:@C_@B_@XS+F(@)!@h<@Z,@D_@i<@I(@IN+j<@k<@l<@[M+m<@cC.N(@w*@OX.LR+T!+!H.n<@o<@I;@#8.}:@p<@q<@E:@W_@n<@J,@r<@s<@t<@Q_@u<@G:@['@=(@o<@W_@v<@w<@x<@!/@y<@8[._U. _@z<@A<@ k+f).p<@Vz.y+@e]@>-@MN+v*+LN+b[+U:@x{+&_@B<@/D.O:@R2+5>+v8+4&+g++A9+tc+C<@D<@E<@ j+5&+F<@@:@5b+Id+-k+G<@!Y.(b+F +gS.x:.Q2.H<@cg.](@7).*x+E&+I<@                           ",
"                                                                                                                                                                                                                                                                              J<@}/@)y+)y+uD+KS+KS+bu+uD+Mz+MS+~q+}p+!q+df+-i++^.K<@c^@Mg+c^@L<@fk+VO+M<@|y+Y].Z_+x|.~_@ie.Vo.6o.GD+l(.e|+X[./]+`7.+V.N<@O<@b[.Q2.>o+P<@2~@B:@Q<@Q<@R<@S<@S<@qW+qW+m;@m;@sW+m;@_-@_-@_-@d$@_-@T<@T<@{:@U<@'<@{:@6(@9W+9W+^:@P.@c$@V`+T<@V`+KY+l.@V<@:W+d'+~-@#'@'z.^<@~-@~-@JY+Q{@^%+4_@V!@V!@B,@;2+W<@1W+R.@oY+:~@]{@!-@X<@Y<@mR.h;@{U+hH.a(@L(@Z<@J:@H,@QR+^N.P(@Sk.`<@G(@e]@+E.v*@)^+ [@.[@+[@@[@#[@$[@%[@%-@&[@*[@=[@-[@n*@u=@!*@!*@m_@;[@>[@l_@>[@u_@,[@'[@)[@![@~[@={@,[@{[@l:@b<@][@^[@/[@([@_[@ve.:[@z-+<[@Td+`0+SO.}I.[[@a4+54+C5+TO.VJ.81+&3+#3+>7+}[@|[@}[@PO.}[@*7+#3+z_@FR+R/@y_@F(@!M+PX.<M+w:@G_@1[@IN+2[@J(@h>@S:@3[@a[+f{@4[@5[@*s+6[@D:@,(@7[@.:@W_@MP+W_@d-@8[@7[@9[@0[@wZ.a[@b[@I:@c[@d[@I;@8[@U6+B@+Wz.e[@f[@g[@eS.PJ.f[@^N.nG.h[@MP+i[@j[@(-+k[@l[@lL.m[@n[@%_@$&+o[@g{@v*+p[@MP+S,+4&+4>+Gd+tc+C<@]7+q[@tc+r[@s[@t[@1N.u[@uh+rh+F$+(b+*#+(b+S2+P++6/@T].v[@w[@$u+ 2+ge.E&+#<@                              ",
"                                                                                                                                                                                                                                                                                 x[@.z+}/@rA+Kz+l{@)y+!x+(w+{w+Vc+hm+!q+ZC+VI+[F+SO+dk+c^@Mg+`c+hf+1w+y[@Rg+z[@4e+E&+z[@'z+}A+l(.6K. 2+l(+(<+e|+*6+A[@kc.9)@ak. &+B[@Y@@6]@1:@B:@Q<@C[@><@D[@c*@qW+qW+rW+}W+E[@F[@8Y+KY+KY+b$@U`+KY+T<@F[@G[@U<@G[@U<@H.@v@@b$@V`+b$@V`+MY+8Y+:W+N.@P`+$&@H[@F>@#'@h|+u@@JY.0R+V{@m;@4_@yW+UR+I[@6U+q.@1W+0*@W!@J[@]!@^!@W]@K[@L[@M[@iH.E^@P(@N[@C:@p<@O[@e]@P[@7$@iH.!U+Q[@(M+f;@>z.R[@S[@T[@U[@V[@Z&@W[@X[@@;@y/@7<@Y[@Z[@`[@s=@[$@-*@ }@n%@m_@u_@o%@.}@+}@@}@#}@$}@ }@={@%}@&}@*}@=}@-}@;}@>}@ w.Tk.bD+v~.,}@z-+ZZ.Q +`0+SO.[[@a4+64+'}@+7+tS.jc++7+2U.&3+UJ.x_@)}@h$+)}@}b+}[@x_@y_@C_@{^@F(@=3+@3+c[+w:@4$@'9+!}@lL.5$@~}@m<@{}@LN+]}@IR+^}@yZ./}@EP+(}@L;@V_@W_@.:@W_@i{@E:@9[@_}@OX.0~@:}@b[@<}@[}@JT+MP+N[@i^@j-.OP+/n+nG.NX.MP+LP+KP+Vz.:I.q*+E:@7[@,0.B3+}}@oS.|}@n[@1}@2}@U:@x{+5$+3}@y,+4}@5}@6}@7}@8}@9}@8}@Z:@7n+(g+0}@a}@uh+(b+*#+8g+b}@c}@f8+(b+r5+C*+y{+d}@q-.]:.e}@4o.=<+7l+p[+f}@                              ",
"                                                                                                                                                                                                                                                                                    sA+.z+HJ+rA+g}@/w+<C+h}@Lz+-N+~q+:e+|p+VI+i}@[F+b(.qL+c^@c^@Og+ d+CG+D&+q-@4e+=<+{_@{_@u @::.}A+}A+A~.j}@9).1k+-:@km.k}@Kp+s(.Q2.l}@U=@m}@ ~@<;@t<@R<@n}@fT+c*@c*@o}@|W+p}@x`+8Y+N'@PT+l.@PT+U<@l.@U<@PT+PT+V<@N'@Q`+Q`+8Y+U`+b$@IY+8Y+PT+x`+oW+y`+o`.C>@P`+{{@{{@le+$&@q}@ST+/U+IF.Vk.IT+JA.S<@q.@|W+W!@Ca+P`+r}@s}@SD+Y<@t}@Y<@z*@u}@Z%@v}@w}@x}@*=@y}@>-@%>+z}@A}@ t+ge+s#+e'@UM+B}@C}@D}@E}@O@@F}@}>@;*@,*@G}@]*@%{@n*@H}@I}@*{@={@J}@K}@>^@L}@(>@ }@r=@M}@N}@!*@f:@=]@O}@a;@P}@Q}@R}@S}@PF.T}@U}@ 3.P9+7^+)P.,Y.`0+z9+1b+=#+1b+V}@[[@A9+i8+ a+i8+tS.+7+>7+`:+#W.W}@>7+}[@81+h +x_@pE+Q/@P@+@3+h<@'!@X}@Y}@X}@Y%@X}@l[@Gn+CQ.{/@o[@0~@*s+x,+6-+/D.n<@Z}@`}@+,@`}@L;@n<@1'@ED.1M+Y]@b[@o[@ |@.|@+|@}'@*=@@|@3^@#|@(N.$|@7$+r++WE.%|@&|@*|@0k.Vz..:@+,@`}@9 +IR+X%@%>+1}@|-+B<@Z:+V:@=|@4$+mG.-|@;|@(g+-k+^l+>|@Wi+,|@kh+/g+'|@)|@u[@f8+!|@~|@{|@]|@rh+^|@_1+N,+X:+B[@p|./|@(|@l(.2u+u @K7+                                 ",
"                                                                                                                                                                                                                                                                                       .z+_|@sA+sA+oL+4H+*N+Lz+KS+;N+Q[+cf+df+Js+AD+:|@8j+hf+^0+^0+Og+hf+CG+om+Y].Y1+ie.Y]..d+Y].=<+_<+r7+Fz+<|@-:@X[.HS+z[@O:+[|@}|@||@1|@1)@FF. ~@2|@C[@n}@D[@D[@3|@^U+4|@0@@NY+x`+5|@PT+N.@Q`+N.@6|@V<@N'@N'@7|@V<@0*@N.@W!@Q{@Q`+MY+Y`+P]@R'@ST+0@@pY+i;@d'+C>@J[@T)@n`.b@@pV+8|@fT+e=+3M+b(@0M.^U+DX+0*@a(@[W+!{@.'@9|@>V.^~@0|@a|@V/@r@@5$@m<@b|@+,@ZV.a[+b~@c[+E(@Z^@$&+ }.c|@d|@e|@f|@g|@h|@i|@j|@k|@[$@T%@l|@`[@8<@n*@d%@s=@/*@c%@!*@v>@J}@_>@.}@m|@!*@u=@s(@n|@(>@.}@o|@p|@q|@r|@s|@t|@|@@u|@v|@2q.A)+lD.7^+-#+5&+z9+@=+XZ.w|@y9+v5+7&+=#+`0+.7+/b++7+=7++7+04+tS.04+RO.|[@|N.C5+*3+Q/@XJ.P@+z5++3+]M+31+*)@QX.x|@CQ.[I.CQ.$&+y|@O}+x,+9[@y,+L;@v9+/D.v9+L;@v9+F/+=(@1'@}'@uK.a~@4[@z|@A|@B|@S_@}'@*=@nG.s|.#R+2o.z*+b +e[@)++S!+Rk.9[@u{+v<@2T.U;+}'@C|@A:@%>+l[@D|@E|@F|@G|@V:@34+@~+<U.t8+E$+/g+C$+:^+H|@:^+tc+I9+S2+I|@J|@K|@L|@@7+u[@[[+}I.=f+M|@aq.*T.xX+N|@O|@P|@oG.Vo.u @Lp+f}@                                 ",
"                                                                                                                                                                                                                                                                                       Q|@rA+sA+QO+)y+R|@UI+}/@QO+;N+ea+}p+hm+S|@Js+9(.jl+ d+CG+L7+^0+hf+CG+aj+X_+4e+'z+.r+'z+Y_+.d+{_@j~.*V+T|@((.~i+ug+L^+$!+0i.R>.U|@V|@I:@ ~@ ~@B:@2|@R<@R<@q.@O'@nY+~U+W|@X|@X|@Y|@oY+V<@W!@Z|@V<@7|@5|@7|@5|@`|@0*@5|@oW+Q`+Q`+^%+N'@wW+q.@fT+NY+pW+0*@rY+EY+t@@t@@8$@q/@hH.};@ 1@d(@`!@Rm.ZQ+.1@iW+i;@]{@+1@X<@ '@Z<@@1@Ob+#1@L(@z>@D_@Y%@MN+:N.b~@O@+$1@y@+X}@%1@&1@j{+*1@=1@x.@-1@;1@>1@,1@'1@=[@8<@l*@A=@=[@)1@o(@-^@8;@s=@C/@&{@(>@K}@ }@`-@ }@X-@!1@j_@o_@m_@L}@~1@{1@d:@c<@]1@^1@5`+L/@/1@(1@_1@:1@q4+lD._K.5&+SO.7&+w|@XZ.w|@lc+v5+*#+lc+v5+=#+[[@.7+tS.<1@tS.<1@tS.;7+VJ.S}+54+[1@b_+N}+BR+{++ym+!]@W%@$7+nk+T,+%_@}1@&_@sK.M,+T!+P2+L;@DP+#}.GA.y,+Y:@|1@Y:@y,+n<@A}+R:@b~@b~@f{@A|@Y]@11@21@EP+MP+k-.QJ./n+-&+u{+#}.31@41@y|@0~@IR+[}@S!+Vz.51@A:@61@K*+{}@mR+B<@i]@#~+3}@T,+v<@Y]@71@81@uh+3U.mc+91@`i+01@ f+a1@^b+b1@c1@d1@e1@f1@L|@S}+g1@-3+h1@&~+i1@$++j1@cg.(<+k1@2u+2p+                                    ",
"                                                                                                                                                                                                                                                                                          l1@'x+sA+HJ+m1@~x+Kz+Kz+-N+0f+hm+n1@Vc+Ur+ef+Wr+[F+~I+X1+p!@CG+aj+pm+`F+.d+Y_+.r+Y].0j+s~.Y_+~_@o1@p1@.0+e|+Uh+j~@~g+ak.ak.q1@P<@K:@JR+FF.r1@C[@C[@R<@nY+s1@s1@t1@u1@v1@w1@`|@`|@Z|@x1@`|@LT+ST+8|@y1@z1@A1@4|@NY+x`+0T.oW+0*@/{@qW+fT+3|@nY+~U+S)@pY+{!@B1@M`+E,@eW+e]@,;+C1@D1@a~@3:@E1@O[@XT+.'@dW+_]@iW+B>@#/@F1@G1@bp+X++H1@,-@KR+#_@I1@J1@$_@b[+aq.|)+aq.&^+7l+K1@L1@M1@N1@O1@j*@:$@P1@Q1@N^@+{@R1@S1@#}@M}@T1@j_@a:@s>@a:@u>@W#@`-@n_@r=@'[@;^@!*@!1@J}@.}@U1@u_@V1@W1@-}@X1@Y1@3.@-;@Z1@>h.=W.1D.`1@sI.3W.Ri+3U.WZ.N + 2@s5+u8+I/+I/+WZ.B9+@=+.2@b1+ a+RO.jc+ a+3g++7+V}@}I.u5+X;+M}+Q/@o8+M}+P@+`2+o8+01+G}+%_@#>+#_@>z.*s+pP.#}.6-+v9+#}.DP+/D.z*+r++E@+S!+n<@h!@JR+J*+o[@$_@A|@h]@y|@g!@x,+2 +/:.W%+0 +$}.8[++2@31@&_@@2@&_@C|@g{@S:@v9+wZ.K(@#2@K*+$2@E|@21+%2@&2@*2@0_+T!+=2@4&+()+-2@C$+<[@h8+<1@;2@>2@>f+_b+6}@b1@>f+,2@'2@J/+o8+BR+)2@2-+!2@!2@cV+~2@/N.[#@HS+^j+{2@                                    ",
"                                                                                                                                                                                                                                                                                             ]2@rA+sA+]F+^2@/2@(2@-N+0f+_2@:2@Vc+-N+Ur+yG+Wr+[F+vn+:6+p!@DD+p!@2p+<2@ !+cj+.r+.r+Y_+Y].^j+~_@8o+[2@8o+}2@x9+`[.0i.^:.5M+^R.d]@ ~@1:@B:@Q<@B:@|2@|2@|2@t1@12@22@32@42@42@y`+S)@LT+52@52@pW+W|@nY+O'@c*@nY+oW+ST+0*@0*@ST+NY+nY+fT+~U+0@@8|@8|@62@K`+{!@#/@M(@7$@72@f{@+O.D1@]}@82@72@M(@IN+.&@92@]^@./@02@9_@a2@9P+b2@1[@0~@c2@f]@)m+40+O}+V:@d2@~M+F(@ a+e3.e2@f2@5=@rU+g2@h2@i2@j2@k2@l2@m2@n2@@{@P1@V#@o2@Z-@p2@(>@J}@x=@p2@m_@+;@n|@!*@q2@r2@s2@j_@W#@t2@u2@v2@w2@W1@R-@x2@r%@1>@y2@z2@G~@(b.R|.bZ+5W.'#+4W.D$+Hd+VZ.J +W!+b++0++A2@(b+ 2@v5+64+.7+ a+i8+jc+`i+V}@B2@@=+1b+v5+2_+s5+,!@u8+t8+N}+,!@y5+o8+d2@L}+|-+X:@zY.C2@6-+u{+v9+#}.&~+WE.*>+v9+D2@$}.eS.%~+<U.O}+y|@#~+#_@ :@)^+y|@S,+A}+6-+hm.y{+0 +|1@>z.J*+V:@ :@x{+ :@h]@E2@^}@J1@F2@m[@#2@yR+D|@t5+T/+G2@*2@T,+v<@H2@I/+I/+4n+G<@a1@I2@D,+%#+71@4&+y9+f8+u[@J2@,2@t5+ a+T/+K2@|1+-3+L2@M2@N2@O2@P2@S>.u @7l+Q2@                                       ",
"                                                                                                                                                                                                                                                                                                ]2@x[@R2@TC+Hg+(2@-N+;N+Vc+-N+-N+[v+au+'_@<F+S2@1p+T2@,i+o!@2p+X1+#;+<2@X1+b)@.r+Y].'z+Y_+Y].=:@^j+}y+ge.qD+j(+](@s(._U.U2@r.@a[@V2@FF.I:@B:@1:@Q<@t1@m}@W2@O[@32@X2@d@@d@@52@LT+8|@pW+8|@W|@ZT+fT+R<@O'@^U+~U+pW+8|@pW+hH.8|@8|@~U+Y2@[]@Z2@h>@+&@F_@`2@AY+q@@72@ 3@Co.b~@11@{/@l`.C.@^]@.3@+3@`<@@3@]^@C.@J_@02@=R+Z,@4y+I1@M,++2@)2@z*+0 +T,+8x+ a+>L+#3@$3@%3@&3@*3@=3@-3@;3@>3@,3@'3@y/@@{@)3@-[@!3@~3@u2@{3@c:@U-@v>@.}@]3@^3@+;@/3@a:@q2@X-@!*@(3@`-@.}@o%@_3@:@@^[@:3@<3@(@@[3@}3@|3@13@-j.AL.bZ+kD.6W.4W.B$+Z0+23@>Y.TZ.R2+x$+C(@(b+!^@j8+D(@b1+3g+ a+`0+.7+SO.[[@*#+I/+C$+_b+X;+s5+t8+33@BR+t8+R}+01+F,+Q/+ ~+4$+'^+{1+V;++&+D*+_-+v9+z,+z*+&~+z*+&~+@~+2b+O}+bC.aq.#_@43@zY.~7+2b+9H.+&+t|.Er._1.U!+&_@53@#_@h{@$_@A|@U:@E2@2}@E2@>(@m[@63@73@yR+t5+&2@83@r5+Z:+_}@24+u[@}I.I2@93@;k+@7+c1@03@a3@b3@X;+u[@M|@j8+c3@,2@*2@g1@3}@>(@d3@B@+e3@f3@g3@fS.;h.7l+7l+h3@                                       ",
"                                                                                                                                                                                                                                                                                                   i3@j3@k3@KS+l3@-N+0f+;N+-N+0f+[v+MS+'_@m3@n3@o3@Vr+T2@>r+p3@,i+q3@.^.0H+DD+r3@Y].'z+Y].c(.eZ+eZ+s3@4/@t3@q7+Gq+/:.H5.u3@~'@v3@a[@a[@m}@FF.1:@w3@m}@I_@W2@X2@|:@X2@32@22@52@8|@pW+W|@~U+1:@><@S<@#U+F,@{U+8|@x3@XT+yP+H,@hH.9~@8|@y3@z3@@&@I(@F_@A3@AY+'U+]/@Hn+Sm.Yk.J*+Gn+B3@[M+u*@!!@q<+=R+C3@D3@0|@*J.e]@E3@CF.F3@EP+M,+M,+S,+'^+^^+43@QW.<)+Z0+s3@G3@H3@uV+I3@J3@K3@.$@L3@%+@@!@N^@M3@N3@}>@!3@t2@l_@]@@U1@O3@t2@O3@>[@L}@W-@5G+p2@r2@N}@#}@(3@r=@L}@o%@P3@R-@Q3@R3@S3@T3@3.@J=@U3@V3@1(@T9.25.(k+a7+^P.nU.yy.[W.SZ.hU.W3@hU.kF. :+VZ.Id+}I.a4+ a+3g+h8+.7+B2@@=+SO.d++_b+C$+_b+Id+_b+I/+k +2_+BR+G}+G,+11+E,+~7+-3+'^+X3@z,+6-+V;+Nm.d).Z%+cY.*>+DI.U!+6-+S,+O}+43@)^+ ~+4$+<]+f`.$>+RE+oZ.Z%+.&+3-+$>+-3+G|@V:@%2@U:@%2@V:@%2@B<@n[@>(@mR+T/+=|@K|@t5++a+r5+73@0[@R_@K2@^|@Y3@K|@Z3@64+34+d1@9g+b1@`3@j8+5}@I2@ 4@.4@34++4@r5+73@<-+d3@J1@<{@@4@#4@b[.7B+$5.$4@                                          ",
"                                                                                                                                                                                                                                                                                                      %4@]F+<v+&4@-N+;N+~q+-N+MS+!x+KS+'_@{y+{y+df+*4@9|+;%+ck+>r+>r+=4@&i+-4@`F+.r+Y].Y_+Y].c(.c(.4e+eZ+^j+j<+lz+de.7N+|*.s;@a[@w*@a[@V2@a[@V2@V2@m}@;4@W2@O[@>4@,4@O[@'4@w3@~U+s1@u<@#U+R_@><@R_@><@1:@9~@32@Z<@(^@M(@yP+yP+z3@yP+(^@+&@]]@]^@(]@]]@Y%@KN+r<+VW.+O.J*+e{@f]@1}@]M+,{@)4@+W.!4@U/@v*@!4@~4@Am+]~@z5+Hn+@~+aq.@~+{4@)2@i]@X:@2_+UZ.N7+]4@^4@D-@l}@/4@7%@Ji+(4@_4@)3@M^@:4@)3@<4@[4@t2@l_@9<@}4@r|@V1@|4@^1@14@O3@4T+24@+;@M}@X-@34@44@r=@54@64@]3@Q3@w2@74@84@94@04@c,@a4@b4@c4@d4@Ai.+P.AG./K.US.`G.-k+^~+,d.:s.A~./W.;d.VZ.A$+}I.v5+tS. f+V}@B2@u5+=#+%#+A$+mc+}W.Hd+()+!Y.(b+r5+J/+21+21+}1@9q.U:+Y!+f[+p{+,^+GA.XE.z,+DI.(1.B~.DI.V;+,^+V;+Q++'^+C*+~7+Y!+)2@4$+U:+8 +e4@f4@>;+g4@b +*>+GA.U:+eR+h{@G|@h4@%2@$_@W2+b[+yR+Z:+t5+i4@u[@j4@t5+a3@k4@X:@d(@l4@r5+m4@@7+i4@n4@o4@`3@^|@p4@X;+I/+q4@,!@m4@9g+r5+g1@C5+21+r4@$&+JR+s4@&>@t4@IX.qB.F5.^j+u4@                                          ",
"                                                                                                                                                                                                                                                                                                         v4@Hg+w4@nt+x4@~q+-N+'_@=r+-N+]q+,,@Mz+zQ+y4@hl+;%+6:.;%+{0+&i+O4+c^@J^+r3@Y_+s~.0j+Y].Y].i<+4e+E&+%N+7/@gg.hm.j^@K@@0~@11@b[@b[@w*@*U+*U+;4@z4@z3@|:@z3@>4@O[@A4@m}@|2@><@B4@P'@u<@R_@<}@1:@2:@Z<@M(@yP+Z%@#/@!}@L(@cW+JN++&@]]@fe+rk+|.+C4@D4@KN+f{@72@Ao.y|@I1@4M.x>@zm+{]@SX.X,+E4@F4@G4@H4@Y%@}U.Y%@CQ.I4@nk+ >+Qd+oZ.8$+XE.-^+3g+]b+J4@K4@6~@L4@r)@2`+M4@**@+$@+$@N4@O4@P4@@{@[4@u_@U1@9<@}4@P3@Q4@{1@R4@S4@{1@T4@}4@j,@U4@+$@l,@X-@4T+l_@G=@P3@V4@W4@X4@Y4@Z4@74@`4@a.@ 5@.5@+5@@5@j1+{q.*F.M$@]K.SS.8F.t-+{C.^^.14+Y6+~b.H/+NQ+@=+u5+#5@u5+j8+@=+v5+7&+A2@Hd+;f+-k+[4+()+Id+_b+b++K/+[[+1-+$5@C*+i`..}.z,+a=+XE.DI.3-+#7+(1.9H.4_+F~.>^+P++:-+Z!+'^+C*+!^+-3+4$+;3+%&+%5@A*+*T.GU.A{+L@+z*+3-+u*+&5@X:@G2@&2@X:@24+Z:+^|@=|@K|@M|@r5+03@J/+4g+@7+4g+1)@R:@{^@*5@=5@i4@93@t5+-5@J2@b1@;5@34+c3@>5@s5+r5+u8+{^@M|@73@6[+43@4M.-|@r.@,5@$S+_^..0+'5@2p+                                             ",
"                                                                                                                                                                                                                                                                                                            )5@!5@l]@<v+;N+-N+{q+'_@Vc+Ur+,,@Mz+zb+YF+zb+Wc+y>+;%+~0+{0+0|+1p+L<@X1+#9+nm+>i+0j+.r+Y].E&+x|.~5@c[.fg.IO.{5@)>@]5@^5@;(@/5@/5@/5@(5@_5@:5@>4@z3@yP+>4@_5@]}@V2@I:@d]@OR+M_@K_@8V+-J.-(@cC.5$@`2@k<@IN+F_@IN+W/@.&@.5+x:@|.+<5@9P+[5@rk+pS.}.+}5@>-@y|@|)+|)+l[@z5+Y,@#W.!>+|5@15@25@35@45@+W.y>@=U+gR.Y,@5$+%_@p[@ >+i]@T,+_1+sh+55@65@75@85@95@!&@05@$*@a5@s%@:>@b5@z/@m*@L3@u_@o%@P3@Q}@c5@v2@d5@e5@f5@W4@g5@T4@h5@i5@j5@:>@r=@&*@n=@q%@{1@k5@W4@l5@m5@n5@o5@Y4@p%@p5@i.@q5@r5@s5@O/@Le.vc.bI.TS.nI.8v.5F.uq.OZ.d3.H/+s)+;d./b.@=+j8+f++u5+*#+B9+Id+(b+j4@R2+b3@'Y.()+1W.'Y./1+J +t5@B}+E,+*;++8.lz+NL+O++XE.z,+cY.GA.DI.3-+i{+F~.>^+4_+Z!+N:+u5@Y!+;3+Z;+;3+m8+-^+ZE.<).Xz.$M.Er.Z%+Er.cY.V;+4-+v5@w5@x5@24+r4@y5@z5@a3@*2@03@5}@Id+&^+Z0+m4@Hd+}-+x,+$_@A5@^|@B5@C5@t8+8g+D5@E5@c3@y5@5}@`2+p4@b_+_b+F5@+4@=|@|-+W2+M,+}}@G5@H5@I5@(N.&0.J5@K5@L5@                                             ",
"                                                                                                                                                                                                                                                                                                               M5@Kz+-N+p&@nt+N5@N5@au+Ur+N5@_F+cf+Is+O5@J7+il+y>+a(.e(+0|+1p+c^@-4@<2@nm+>i+P5@0j+Y_+4e+^j+u~.Uh+fg.Q5@R5@S5@#(@g{@g{@A|@ :@B3@B3@`_@`_@`T+T5@3[@q@@g]@f{@OX. ~@<'@EF.U6+*=@E:@wP.a~@X%@lL.v*@A>@){@`<@]^@(]@)-@ W.U5@Ft+gv+Ft+<5@<5@Z,@.E..E.e{@Hn+V5@c2@W%@8x+W}@Q@+W5@|5@25@,3+T}+X5@/l+RX.'&+8x+v*+d[+2-+GA.F,+|-+Y5@7g+HS+|6+Z5@`5@ 6@.6@$*@+6@M4@~@@@6@#6@&*@$6@^@@c:@]@@%6@c5@%6@e5@W4@l5@^1@f5@&6@v'@`4@*6@t2@U-@:>@@6@`#@=6@V4@%6@-6@;6@>6@,6@X4@Y4@:@@T4@g5@*;@'6@n`+UA.*:+Bg./u+=`.uU.oU.lN.mD.eD.{R.OZ.;d.$.+)6@ :+@=+ZZ.*#+6&+%#+A2@()+b3@hU.kF.]1.H/+1W.'Y.}W./1+0++R2+SZ.W3@=<@ug+4o.XE.4_+XE..}.cY.DI.3-+wY.DI.V;+0=+P/+n{+a_+)7+<]+!6@-3+43@Y!+#&+NL+~6@{6@[7.Ay+]6@&++oW.z,+a_+C*+/)+^6@wh+n4@K/+4g+03@Id+rh+/6@4g+[4+8g+@7+(b+21@Q_@$7+D,+i4@5}@r5+.4@-5@(6@_6@D5@03@b_+R}+t5++4@Y5@$7+Z2+$2@g1@f]@}'@:6@Q)@')@<6@e|+7o+K5@[6@                                                ",
"                                                                                                                                                                                                                                                                                                                  }6@KS+xb+nt+MS+au+au+Sr+*:@YF+cf+|6@zQ+Q[+16@il+26@@^.e(+S|@#^.c^@3(.36@(q+#;+}F+cj+8^@z[@AN.q-@}=@Q5@0[.U|@+S+x{+x{+x{+U:@:N.1}@LN+LN+X%@X%@KN+@_@>-@o[@31@46@#,@g).MP+E:@J @6[@f{@[M+^]@<M+*J. W.V/@V/@>{@>M+<5@ee+H4@56@66@=R+`^@/i+H`+}5@$1@;U+d3@QW.q8+C_@}N.X5@!>+76@86@96@06@a6@b6@v:@qS.M}+[1+C*+Z:+21+4-+X:@c6@d6@e6@f6@9T+I-@z;@<.@g6@g6@@*@a5@Y#@h6@i6@|@@5R+U1@^[@j6@k5@;6@k6@l6@m6@g5@n6@8T+v'@o6@R-@9.@^@@p=@p6@q6@V4@l6@m6@r6@m6@S4@s6@t6@u6@`4@^[@x'@v6@w6@x6@y6@z6@K[@m +/u+6D.uU.n[+rN.6F.0^+Y6+|>+v-+CD.;d.,k+;#+*#+!Y./1+!Y.A6@j&+]b.|>+~b+B6@[4+'Y.[4+w$+>L+H +/W.C6@I&+c).i{+B~.Q++2[+,^+a=+DI.3-+d).V;+a=+P++N:+:-+D6@n{+C*+c4+-3+aC.-3+=d+u5@O>.V>.u]@RJ.>;+RJ.*>+a=+a=+kF.yo.'7+w$+b3@[W.()+/6@;|@rh+uh+4g+^b+j4@lc+}-+S,+x|@E6@F6@G6@3}@H6@rc+I6@}I.f1@63@a3@J6@F5@R}+b_+xR+34+wR+K6@6$+n<@L6@R(@M6@N6@v:.}A+O6@z[@L5@                                                ",
"                                                                                                                                                                                                                                                                                                                     P6@KS+KS+'y+-N+Vc+Vc+Vc+Q6@YF+2C+!q+zG+P4+P4+Rr+Mg+;r+c^@#^.f(+>r+@9+(q+]0+R6@]0+0j+Y].k&@k&@u]@%K+IO.HW+3{@x{+%2@|-+%_@B<@T:@T:@{}@S6@l[@[M+CQ.1}@5$+T6@d3@<1.Y:@D2@v<@1'@6[@U6@a[+QX.>{@>M+rk+ee+Z^@+3@V6@=R+W6@DQ.oL.G1@<5@Z^@Z,@<N.Nb+%>+=U+&2+X6@f]@z5+Y6@wc+,3+86@Z6@`6@ 7@.7@UX.+7@+7@C5+C5+01+M}+Y;+=f+h8+#:@Cn+@7@#7@$7@%7@&7@J#@N#@;3@IH+j,@Z#@h6@j,@=6@*7@P-@=7@v'@m6@-7@;7@r6@8T+>7@C)@-7@C)@7.@G=@5R+c:@h6@n=@=6@`4@D)@,7@'7@;7@j6@)7@!7@o=@S4@7.@c.@m6@~7@0`+{7@]7@^7@x_+it.ko.9&+tU.n[+b7+PL.^W.~C.gA.=Y./7@Q +/g+,#+B$+OS.sh+gA.s3+]1.s)+H/+Y0+w-+pD.aF.>L+sh+]b.KS.14+|4+E~.MQ+ }.B,+2[+.}.'%+,^+2[+wY.>^+4_+ }.7_+f[+L/+=^+!6@ 3+5g+q5+Y!+q5+Y!+c4+kL.4 +V>.(7@im.<).D~.D~.7=+7=+:W.aF.|W.1W.I2@uh+c1@f8+I2@Hd+8g+Hd+&^+a~@S_@B<@T/+G|@I6@G}+3}@@a+yR+t5+_7@f1@21+D5@M}+E5@{^@m[@$2@:7@b[+EP+,0.<7@[7@5N+f3@-:@*6+=:@lm+                                                   ",
"                                                                                                                                                                                                                                                                                                                        }7@KS+Kz+KS+p&@k{@Vc+)V+{q+|7@@^.&i+.^.Yc+2:.;r+`c+Og+f(+%^.%<@3(.lg.I^+]0+2p+|F+Y_+BG+%0.7/@pB.AQ.U*@17@%2@W2+T,+D|@27@61@l4@61@x|@x|@x|@%>+$&+#_@V:+37@AQ.WE.#}.@~+A}+47@e{@%>+x>@]~@)!@Z^@U/@V6@57@tu+9x+67@DQ.qk+~4@77@LA+87@x|@de+x|@o<+Us+Y,@%a+v:@&1@Q@+97@07@a7@b7@c7@-a+`:+Pd+33@;5@d7@j4@d7@^|@Gd+;'+W].e7@75@f7@g7@h7@7,@i7@Q,@j7@k7@:>@p=@Z#@l7@O{@J=@v'@k6@>7@m7@n7@o7@0,@p7@B)@q7@&6@p,@r7@i,@q6@T-@`#@s%@s7@t7@;7@u7@v7@w7@w'@^[@x7@Q3@!7@04@g5@y7@!>@z7@=;@A7@B7@C7@/>+Ek.Or.+P.6D.u[+#e+}K.$'+JS.R{+SB.`Z.4W.E$+3W.z$+5^+c|+ws+ R.d3.(b.^^.6)@qD.w$+qD.^~+u-+]^.,j.14+q++MQ+N++:[+>^++}.>^++}.>^+.}.>^+Z!+>^+O;@L/+n{+D7@B&@c4+E7@$5@W3@F7@)6@E7@v-+<I.u5@+++G7@Z[.f3.F&+_]+1&+qD.8++&=+Hd+x-+Id+H7@Id+!Y.Z0+,2@I7@}-+J7@;(@_7@6[+73@H6@m[@F|@D|@=|@73@q4@M}+9g+63@K7@i4@L7@+3+|}@M7@U:@v9+M2@.S+N7@8t.dV+_<+8G+O7@P7@                                                   ",
"                                                                                                                                                                                                                                                                                                                           }7@Kz+'y+Q7@KS+xb+-N+N5@R7@&i+Q4+T2@P4+.^.p3+L<@aj+hf+%^.-4@lg.#;+I^+<2@nl+:6+>i+.r+)^.'5@S7@AQ.<6@J}@CQ.63@63@g1@T7@T7@T7@d2@W%@nk+I4@%_@[I.aq.;3+p{+u]@z,+U7@V7@6$+V:+g{@)^+h]@F(@A_@tu+A_@.W.W7@OQ+BZ.X7@/++[N.A_@U/@]~@w:@X}@p<+Ao.A5+z_@B_@}N.v+@V,+,3+Ah+Y7@ <+>3+d4+Z/+54+c}@(b+y9+Y3@I2@03@u5+,#+qD+Z7@`7@`5@Z@@ 8@i7@.8@+8@a%@@8@#8@$8@%8@l7@[@@_*@r%@D)@b,@o7@&8@*8@=8@-8@-7@;8@b,@!>@o6@N!@h,@e,@o=@n=@84@S4@3T+-6@>8@,8@-7@x7@W4@)7@S4@'8@g5@r%@~>@6@@)8@!8@~8@{8@]8@;I+#(+wi.q7.Z{+Zx+yB.og+t[+^8@Vw.TB.A-+>#+`Z./P.z$+'j.^(+}>+RB.1F. R.}F.UB.{C.WL.-Y.-P.OZ.Q$+Ny.]R.4w+~g+V$@:[+H/+:[+ }.{1.+}.7=+N:+B,+N:+/8@L/+N:+ON+!6@p5+W3@]b.*f+_W.)6@E7@~b+W3@~b+B,+r7+(8@j~.>%+_8@QZ.8++|W.!Y.T{+;|@$=+Id+I/+Id+(b+F$+C$+)^+ &@:8@<8@[8@}8@|8@18@28@Z:+:8@E5@38@D|@T/+W2+o8+48@58@68@$2@$_@4[@}'@78@9k.88@@5..++c)@W].98@                                                      ",
"                                                                                                                                                                                                                                                                                                                              'x+uD+_v+,y+<v+p&@-N+gZ+{0+/q+>r+ck+=4@^0+~I+aj+CG+hf+`c+R[+]0+]0+#;+X1+:6+<2@cj+k:.7o+>&++k+08@H#@,-@9g+01+`2+`2+91+BR+a8@b8@d2@n8+[=@}1@-3+-3+i{+c8@d8@.}.Qd+5)@~7+p[@!^+ ~+R/@+W.QO.PO.RX.OQ+)&+Y6@PO.v+@57@S/@-L+87@^M+[b+[b+[b+%a+g<@i +b6@W5@,3+!a+c7@e8@f8@g8@AZ. f+5b+lc+h8@J:+()+-f+*#+Si+hI.{U.i8@j8@LW+k8@l8@,@@7,@%*@m8@#8@$8@n8@p6@8.@^>@J=@8T+h/@o8@B)@p8@n7@p8@;8@A)@q7@u'@0,@;B+a.@_*@[@@q8@r8@s8@t8@u8@H=@v8@w8@m6@x8@v'@S4@E~@R-@C)@d,@04@C)@*;@j`+y8@z8@&L+A8@x_+Le.Ek.zg.!q.aI.(k+og+PL.ut.jD.VL.>#+#R.%=+XG.'j.Km.}>+RB.|F.(b.fD.UG.;P.kI.Z1+}F.!b.u-+]j+uq.,j.B8@(|+CI.Y6+,a+Y6+,a+~C.H/+Y6+ON+ }.ON+c4+Z6+E7@hU.C6@CD.~b+W3@_W.th+CD.th+cq.]b.t-+e3.V7.]1.|4+-d.LS.1W.Hd+$=+Hd+C$+Hd+C$+F$+(b+F$+3U.^b+D:@]}@:8@b[+xR+$_@$2@]M+C8@D8@vR+Z:+G2@G6@E8@38@K}+T:@mR+#2@E|@b~@&_@Rk.2 +F8@G8@(L+j~.2u+m{@H8@                                                      ",
"                                                                                                                                                                                                                                                                                                                                 rA+_v+,y+_v+o-@-N+0f+Wc+O4+Rr+Rr+&i+-4@f(+~I+Bb+L7+vn+>r+]0+,i+#;+X1+,i+:6+cj+I8@`1+>++/:.OJ.hh+8]@&^+J/+@7+r5+r5+r5+`2+BR+X2+}1+G,+[)+Z;+M:+'=+J8@B5.K8@N:+C*+-3+h{@h{@Y!+FR+$a+}N.L8@SX.M8@i +SX.B_@QO.B_@nL.X^@N8@zm+R/@B_@L8@i +=a+a6@76@O8@wc+c7@P8@$f+Md+Q8@Gd+5b+A9+*#+H7@>f+R8@]l+(3+5A+k1@HX.S8@T8@l}@U*@U8@V8@7%@&l+j,@:>@W8@X8@$8@s%@Y8@Z8@!>@h/@>7@p8@p8@=8@p8@B)@`8@J!@0,@d,@}Y+a.@ 9@_*@ 9@O{@r%@:3@3T+o8@.9@H=@+9@<3@g5@@9@x7@k5@7.@k6@#9@-7@w%@$9@%9@&9@*9@=9@-9@gy.F-+>A.zg.9&+9&+Oh+#e+nI.^P.:K.^P.(K.XG.8v.ha+vq.~5@-h.-n.^W.-n.d3.jF.w9+x9+{b.iI.^^.{R.]f.'d.]f.ws+i(+]f.Qk.^^.{K.~C.OZ.~C.H/+Y6+D7@~b+D7@/W.<[+C6@/W.hU.=Y._W.-Y.CD.Xw.QZ.CD.DD.CD.Xw.LS.-Y.`B.b3@[W.^b+!Y.y9+4n+Id+F$+Id+(b+F$+lc+#~+><@xR+|-+Z:+;9@%>+)^+K6@28@V:@+3+2}@=2@[b+#2@>9@x|@wR+,9@zR+'9@m[@y|@(}@_;@)9@!9@(8@p[+~9@}(.                                                         ",
"                                                                                                                                                                                                                                                                                                                                    ,y+_v+9u+9u+<v+xb+fm+~0+;%+a(.@^.%^.{9@c^@hf+h:.vn+>r+]9@,i+|F+nl+]0+:6+cj+na.j<+](@r|.r|.W*@^9@r5+!^@&#+_b+_b+!^@_b+!^@J/+r5+C,+<-+q5+*;+1$+Fz+>^+K8@/9@/9@q5+}-+*;+&5@=7+Nd+Nd+Nd++7@Q@+&1@Q@+E4@W}@0C+R/@R/@D{+(9@{^@#W._9@`:+Ah+06@96@06@ 7@:9@f8@%f+tc+|g+b1+WZ.h8+qh+8&+e++h8@Rp+Gd+jm.<9@O_@w;@1~@-$@I=@0`+a.@^>@[9@t%@Z#@}9@$8@|9@Z#@r8@~E+r%@-7@B)@19@29@39@;8@49@59@69@79@%$@3.@:Y+$$@e,@7`+-;@89@H=@B)@;8@49@w'@;7@v'@99@r7@99@r7@k6@b,@79@v8@!>@e.@F~@5(@09@a9@b9@Ig.Ie.wi.-=+ti.bW.AL.`S.u[+<a+]K.VG.mN.mD.7>+I8@>V+uo.s_+fD.*d.}A.*d.jF.cX+W[.)K.-P.]f.6^+-0.;x.uq.l4+S{+-(+:A.c9@~l.~K.[A.$'+~f.R{+p5+/W. :+{C.]b. R.=Y.Xw.QZ.CD.DD.=Y..R.`*+2A.`*+D-+`*+LS.:W.J +Z0+()+H7@4&+d9@{l+Id+F$+Id+{Y.e++/1+VT+e9@qR+b[+f9@g9@T,+&_@E8@#2@G2@;9@,9@48@#2@L7@T:@+3+X}@48@h9@KN+i9@j9@x,+K'@'&@k9@z[@j~.k}@l9@                                                         ",
"                                                                                                                                                                                                                                                                                                                                       `8+Hg+yb+mt+<v+ 9+V1+Ig+Wc+}p+|p+|p+}p+cf+Mg+;r+>r+>r+vn+]0+cj+`F+1:.#9+BG+!1.w]@r|.j3.7%@Z4@i]@2_+&#+C$+I/+=#+=#+y9+A$+A$+0++'7+j]@*;+1$+m9@>^+B5.N:+D6@$5@E7@[[+j4@pL.UX.n9@nc+nc++7@nc+&1@W}@UJ.o9@{^@{^@Q/@Q/@a4+VJ.`:+p9@pc+pc+:9@c7@c7@$f+q9@r9@ f+_^+`i+f++$=+$=+7}@iU.5&+{P.]1+s9@j-.0T+bY+t9@M=@A%@I=@ 9@gT+O{@u9@v9@j,@h6@h6@[@@:@@Z8@:3@u'@:z.w9@K!@B)@=8@w9@x9@y9@e.@z9@1.@2@@A9@:Y+e.@6@@6@@8@@J!@-8@49@B9@C)@m6@D)@C9@&6@T3@k5@v8@m6@D9@w'@M=@z~@E9@F9@G9@H9@'v+#(+zk.Or.6D.6D._f+tU.ng+#e+#e+VG.s1+B +#s.rt.^W.gU.s_+ry.^W.-h.RG.<A.}A.dD.P$+{R.l4+U7.l4+{R.U7.P$+Lm.vq.b|+{g+-n.RG.}A.(b.fD. R.UO.{C.^b.DD.|A..R.t-+v$+t-+.R.qD.v$+*(+1A.D-+P{+yt.WL.*(+Sd+I9@Hd+E$+{l+4&+e++6&+D$+-#+D$+`Z.pU.}1@0@@E|@E8@J9@mR++4@I4@f9@vR+~}@K9@L9@$2@%>++3+m[@d2@m[@[M+n[@/5@M9@3)@R:@N9@,&@ S+O>.M<@c)@O9@                                                            ",
"                                                                                                                                                                                                                                                                                                                                       P9@I7+H7+Hg+9u+yb+I7+Q9@fm+gZ+R9@~q+~q+gZ+}p+0|+;%+;%+&i+:6+<2@}F+X_+0j+cj+R4+&d+IO.9[.GW+S9@50+2_+&#+I/+=#+@=+*#+f++qL.WZ.A2@4g+T9@F7@'=+U9@N++N:+L/+q5+F7@!6@j{+a1@F9+V9@UX.`:+=a+=a+Nd+Q@+nc+#W.UJ.Q/@2_+%3+81+tS.`:+W9@@j+%f+g8@86@e8@p9@W9@<1@=~+lc+]g+g$+tc+0g+,k+R2+4n+Zu+p5+X9@Y9@I%@}{@O)@F~@z%@,;@&;@-$@Z9@%$@O!@`9@8.@5R+s%@i,@O!@o6@o6@ 0@.0@K!@=8@+0@@0@z)@#0@$0@a.@%0@8`+ +@G!@x%@G{@M=@w%@&0@K!@L!@*0@B)@8T+a,@D)@k5@3T+x8@H=@k6@p,@_*@=0@-0@89@t,@;0@>0@,0@]^@!v.Cg.Or.ti.vU.9&+|Y.}Y.c7+#e+Ad+iN.'0@A +ry.t[+<A.rt.-h.s_+_A.}A.s_+=n.:F.{^.Uo.dD.6^+dD.;x.P$+l4+PG.P$+Uo.b|+[A.s_+[A.@s.sy.*d.7A.=d.5++|A.Yw.jD.3^+D-+3^+D-+6F.2A..R.ZB.2A.3^+6F.3A.|W.%=+$=+Hd+E$+e++P +)0@A-+C-+ `.6W.pU.kU.D1@l[@G|@!0@+3+63@~0@n[@E|@{0@B<@,9@]0@x|@^5@E|@S6@m[@:N.61@^0@B3@v3@/0@IT+P)@!T+GA.l(.Cn+eZ+(0@                                                            ",
"                                                                                                                                                                                                                                                                                                                                          _0@ea+H7+Hg+Hg+I7+Q9@.9+;N+!x+:2@;N+0f+0f+fm+;%+;%+0|+&i+@9+>i+#9+#9+b)@-^.'5@e#@p-.:0@<0@kH.!^@&#+d++@=+*#+;#+f++f++*#+%#+A2@0++SZ.2[+w|.N:+N:+c4+!6@:[+2_+V}@2U.Fd+<1@V9@`:+ER+)>+h$+nc+Nd+>7+;a+X;+2_+2_+s5+p4@b1+%f+%f+]7+[0@g8@}0@'3+_^+|0@Q8@tc+`i+Gd+,k+]g+lc+$=+Qp+B$+10@(#@20@:^@~;@30@o`+>$@8>@x,@E'@5>@&;@:*@}Y+[@@z'@h,@i,@L]@r7@40@.0@50@=8@t,@+0@D~@60@69@70@80@90@l$@y2@y2@00@h`+o`+F'@J]@);@B~@H]@h/@q7@a,@m6@&6@k6@H=@g5@r6@<3@;7@e,@#$@P!@w,@j.@a0@b0@c0@Se.Fk.Bm.w[+vU.d^+<~+cW.Mh+tc.z)+1v.r-+u1+}v.[v.<A._F.-h.>j.)b.<F.PB.)b.NL..!+:F..!+Qi.l4+d0@MB.NL.P$+l4+MB.}>+MB.-(+-h.;P.rt.Vw.2F.Uw.X{+Ww./a+W{+-s.#|+3^+ZB.D-+.R.6F.>P.lD.3A.mD.8F.;'+lU.)Y.pU.D$+'#+#=+R +r[+#=+'#+6W.:3+<-+w*@e0@n[@f0@g0@lR+h0@c[+W:@E|@n[@S:@i0@>-@[8@I1@z5+:N.]0@j0@k0@l0@G:@m0@<W+n0@]T+_]+&9+o0@p0@                                                               ",
"                                                                                                                                                                                                                                                                                                                                             q0@H7+Hg+Hg+`8+em+r0@n1@rA+k{@x4@x4@p&@H7+bk+bk+~0+0|+6:.@9+<2@j:.1:.k:.u:.9[.i)@s0@8<@t0@01+d++u5+@=+1N.u0@<[@v0@f++f++WZ.mc+w0@SZ.7~+L/+ON+E7@p5+&#+&^+i8+b1+ f+Fd+Fd+-a+ <+*a+ER+c)+n9@D5+a4+s5+@7+4g+s5+j8+kh+_^+=~+|g+]7+Md+TX.#f+=~+!Y.5b+H7@x-+x0@8&+o_+$=+Si+Gd+=(@y0@iL.z0@:U+eY+>$@A0@B0@A0@C0@I)@E'@5>@x)@ 9@<*@D0@@$@7`+L]@4>@40@w%@]z.J!@J]@L!@N)@E0@F0@G0@%0@6.@V-@0.@H0@=$@x)@I'@M)@B~@J]@C~@I0@h/@L!@h/@B)@w'@1T+m6@l6@D)@J0@p%@]>@1@@u)@K0@L0@M0@N0@o6+#:+#(+it.Or.ti.}m+d^+a^+Mh+wg.ly.p)+Eo.Sw.,(+>(+q4+_F.qy.<F.iN.bD.RG.)b.NL.bD.ww.E1+Uo.NB.:F.MB.NL.vo.Uo.-(+=n.!f.:F.SG.sy.ut.QB.st.>(+:[@R5+rc.Ad+W{+''+~~+lD.o_+Yw.;'+nD.lN.3A.WB.8F.nN.{P.RS.h++6W.='+ `.Jq+qU.q1+(3+Jq+)Y.(5@0~@{}@h<@O0@W2+P0@D|@68@E2@tR+[M+n[@o[@m[@{}@B<@Q0@LN+K6@^0@31@BQ.J,@N9@O=@R0@#}.r7+7)@M<@S0@                                                               ",
"                                                                                                                                                                                                                                                                                                                                                T0@9u+9u+9u+ea+I7+Hg+rA+xb+9u+0f+9u+U0@Wc+Ig+Wc+Wc+J[.il+il++9+<2@V0@p[+7G+ &+W0@dU+`4@nk+qL.*#+1N.<[@v0@(g+<[@,k+;#+ZZ.B$+mc+A6@m(+j>+&;+/)+'7+j8+V}@b1+`i+AZ.sS.Fd+X0@X0@|b+|b+*a+tS.D5+}I.@7+&^+;f+j8+h8+b1+H9+Md+Y0@;~+Z0@g[+Q8@C<@`0@=k+3>+3>+_g+]g+5&+(3+$:@ a@.a@1=@M:@{)@'&@+a@I~@I'@f$@-&@B0@B0@E'@@a@@a@ 9@E@@%$@E@@A%@v,@5>@5>@I)@#a@B~@B~@$a@I0@y8@%a@1@@A9@V-@0.@l$@&a@&$@}Y+*a@H'@t,@29@I0@J!@I0@2*@h/@2*@y7@C)@=a@v'@w8@6T+]>@m=@p%@r$@1*@70@,$@-a@;a@>a@Ik.Ke.yi.ui.Am.zm.vU.BG.Yx+pk.:~+k9.qt.qy.}v.'H.Eo.'H.[v.,(+<F.[v.bD.iN.bD.<3+9D.NB.bD.NB.KL.PG.E1+Uo.NL.=n.U7.^W.sy.rt.ry.A +2v.2v.Ad+W{+sN.d7.p)+M$@rD._~+1A.,P.6F.lN.ZB.kD.mD.,a@RS.VS.oU.B-+.`.qU.Yv+U{+Yv+'a@'#+U{+3}@C|@)a@!a@l[@>(@x|@'9@tR+E2@61@~a@!a@S:@g0@j0@S:@{a@Gn+K*+B3@1}@uK.ED.P(@)$@r8@@S+=0.wQ.k}@]a@                                                                  ",
"                                                                                                                                                                                                                                                                                                                                                   ^a@_v+o-@Hg+I7+Hg+uD+_2@h3@Hg+Hg+H7+Wc+J[.Wc+Wc+hl+;%+/a@4j+@9+dZ+%0.oI+b9.>o+0%@(a@/^@;#+Q +~l+Td+0g+0g+0g+<[@;#+;#+3U.B$+mc+;f+}4+14+TZ.23@=#+jc+ f+AZ.AZ.sS.TX.TX.gN+Z0@g8@oc+`:+64+s5+&^+wh+4g+^b+@=+kh+tc+=~+Y0@H9+[g+5b+sc+(g+Ri+D$+u)+*'+3>+(g+!l+_a@f;@:a@a$+.:@X(@}{@<a@K*@[a@X.@o`+-&@G'@B0@6>@N=@A%@}a@P!@|a@i$@i$@N=@w,@o`+I)@1a@K!@L!@N)@q,@8@@3>@0`+%0@K0@2a@H#@0.@3a@E@@2>@8@@J!@J]@2*@=;@8@@J!@B~@=8@R&+h/@4a@&6@99@m6@V4@d,@h6@2,@5a@6a@4@@7a@tN+8a@Cm+Lg.Hk.yk.]q.vk.zg.Am.+P.R|.om.z)+qt.q4+qy.A +^A.,(+{5.oy.Tw.iN..s.<3+9D.(A.LB.Rw.0D.<3+9D.aD.NB.tq.PG.Vy+gU.@s.>(+|v.ry.st.9a@0a@1v.zd+Ad+c7.y)+x)+8>+R5+^a+vy.kD.YB.#|+(K.WG.pI.XS.(f+oU.7W.)#+(Y.sr+ `..`.'#+Jq+e++#_@d{@T:@LN+/5@aa@Y%@K*+o[@vR+[M+[8@ba@z|@ca@m<@a[+N(@x|@oS.E2@o[@ED.da@ea@9*@3`+cc+fa@{v+ga@                                                                     ",
"                                                                                                                                                                                                                                                                                                                                                      ha@<v+<v+Hg+Hg+l{@!x+Hg+H7+n1@ea+Wc+J[.Wc+Wc+Wc+bk+/a@ia@ja@ka@la@lz+/:.AQ.|*@I/@ma@B$+~l+)0@na@0g+0g+B2@<[@oa@;#+3U.4&+%#+A2@A2@Id+y9+`0+i8+b1+Fd+AZ.5b+[g+pa@qa@ra@H9+gN+kh+-7+j8+s5+4g+4g+()+Hd+`i+B2@H9+I9+I9+sc+'f+e++'l+)0@S5+Ti+%k+@|+,#+~o+/7+NS.[7.sa@f +mG.YR+[~@30@ta@ua@N=@X.@;&@:-@X.@X.@*$@va@va@wa@M*@P!@D@@N=@';@A0@I)@B~@L!@B~@z)@xa@2*@n`+ya@<@@V-@{@@++@A'@ 5@~>@w%@=;@a,@2*@h/@g/@2*@r^@M{@za@Aa@:z.Ba@Ca@Da@P-@1@@Z#@A'@Ea@.$@U2@3*@Fa@Ga@Ha@Ia@C_+Lg.u7.Le.Ag.ui.~q./u+vc.97.+3.qt.u_+q4+{5.ua.$3.ua.Tw.^A.oy.^A.oc.yG. s.yG.ly.<3+(A.'o+LB.Ih+E1+Ih+(a+|v.ry.u1+>j.u1+>(+0a@:[@zd+8>+ec+9I.Ad+p)+sN.xe.-u+Ja@|7+YB.,a@7F./K.pI.07+i++@`.Jq+R +sr+ `.r1+:3+Jq+2>+^|@Ka@d{@{a@46@L9@/5@:N.Gn+v*+La@Ma@Na@.|@~}@e]@f]@`_@|:@Oa@k0@;(@LR+Q[@p<@O2+l$@t;@Pa@F5.}f+Qa@                                                                     ",
"                                                                                                                                                                                                                                                                                                                                                         [/@RO+/2@9u+'y+!x+p&@ea+ea+Q[+zb+~0+Wc+~0+J[.;%+6:.Ra@ja@Q2@Sa@U2+Q2.s(.l}@5`+Ta@4g+`Z.~l+~l+(g+(g+B2@B2@1N.f++3U.qL.WJ.Id+%#+%#+7&+h8+ f+sS.Z0@[g+[g+pa@9}@sc+'f+'f+#k+g$+h8+c}@4g+;f+;f+4&+4&+,k+I9+Yi+=k+sc+<g+'a+,l+,l+!l+1n+]m+]m+Ua@~o+Va@m4+|1@U2++k+Wa@W=@^9@c>@b>@[a@,&@g$@o`+='@;&@N=@Xa@va@)9@wa@Ya@va@Za@D@@D@@A0@A0@G'@I0@J]@K!@N)@C~@=;@3*@a.@H0@V-@l$@05@H0@(@@_*@*;@0,@r,@0,@D~@y8@I0@K!@B~@`a@.5@B~@i/@ b@L]@'8@_*@5R+g6@r>@.b@IH++b@@b@#b@$b@%b@>s+Mg.Gg.Nc.Ck.G8+vi.pi.ri.wc.rg.ve.u_+Y{+~5.qt.~5.ua.$K.yG.$K.yG.87.my. s.pm.'5. s.v1+OG.{j+3q.{j+'b.&b@rt.A +rt.}v.*b@0a@x)+R5+|7+VG.b7+{m+=b@p)+tg.tg.go.bZ+Q5+og+b7+u[+qN.V9+7W.i++(Y.R +(Y.qU.)#+qU.VS.y-+T,+w*@22@-b@C|@A|@Gn+:}@C|@;4@/5@s<@g]@*U+g]@;b@ U+.U+X2@`_@>b@,b@I:@BQ.da@0k.$ @'b@7$+.0+)b@[2@!b@                                                                     ",
"                                                                                                                                                                                                                                                                                                                                                            i+@KS+<v+KS+!x+p&@ea+Q[+Q[+}p+[e+zb+~0+~b@;%+6:.ko+{b@Yc+dZ+^I+MO.]b@95@t(@^b@z_@/b@~l+~l+)0@Td+91@<[@<[@Q +;#+6&+3U.|I. 2@@=+Gd+A9+A9+TX.H9+Q8@}g+9}@(b@Zi+=k+@f+G5+_b@Gd+Hd+Z0+'Y.[4+$=+d9@)0@Yi+Ui+1n+@|+S5+p1+1n+pU.@|+:b@<b@D$+(3+[b@%k+N,+$O+R>.eS.W_@UR+[U+}b@9>@n0@;$@,;@-$@f$@|b@ta@)9@1b@2b@3b@2b@4b@5b@x)@g$@I~@-&@t,@E9@J]@L!@6b@y8@~7@G0@:Y+3a@V-@l$@7b@;;@(@@7`+-;@2>@8b@:3@!>@9b@w%@=8@J]@M{@MA.J!@&8@#a@J=@N!@O{@IH+r>@0b@[.@ab@}&@M=@bb@mN+cb@db@By.eb@Ra.Ie.>A.>A./u+ko.tm.=F.ve.#K.#K.yG.Lr.~5.97.#K.j9.#K.yG.`r.#K.>q.my.'3.ly.my.i9.{j+'o+(a+LB.b3.q4+t[+Eo.4v.uS.x)+R5+,a@VG.-j+gb+|7+7y.tc.sc.f7.za.uc.RQ.#e+9>+`S.:a+V9+sU.9W.8W.k++_Y./Y._Y. `.)Y.m[@MN+Z<@e{@MN+:}@Na@>4@)a@fb@m<@d{@B|@gb@hb@>b@t<@:}@ &@z:@ib@:}@22@/0@4^@4^@s.@% @jb@Y7.=:@kb@lb@                                                                        ",
"                                                                                                                                                                                                                                                                                                                                                               mb@KS+,y+KS+p&@H7+H7+n1@;N+}p+gZ+fm+;%+;%+/a@/a@nb@ja@ob@`_+-&+Q5@pb@G}@I=@eW+ZZ.g++~l+)0@'l+ag+01@<[@0g+<[@v0@g-+WJ.g-+;#+s:@5b+qb@rb@qb@pa@(b@Yi+E{+Zi+Zi+Zi+sb@$:@e++8&+>L+I9@x-+5&+,f+1n+!o+Si+Tv+@|+}n+oI.6W.!o+]m+tb@bg+Si+[^+1A+s*@D:@&d+#R+.:@SR+_^@<~@='@b>@,&@ua@G{@,;@*$@ub@}a@vb@P!@wb@u9@ +@$$@}Y+i.@x,@o`+G'@G'@0>@I0@r^@J]@xb@n`+x%@5b@ 5@P#@K0@- @yb@zb@%$@~>@89@Ab@2>@0,@Bb@h/@+0@K!@J!@1(@=8@Cb@ 0@M=@1@@}Y+Db@r>@J#@.8@t$@- @j.@Eb@Fb@Gb@Hb@Ib@N$+Se.Sa.Ci.Ek.Cc.~q.ri.ht.ug.L8+rg.>q.`r.gt.87.#K.`r.#K.L8+rg.ky.'3. s._v.ly. s.57.-q.'o+i9.9D.uo.B +|v.3v.Ww.ec+Jb@|7+7F.:K.^P.lI.-j+Q5+ok.m9.za.ok.li.RQ.0I.{#+u[+_f+bI.Kb@`S.ng+V9+8W.@`.:3+x-+!a@f{@!}@x3@.|@Lb@^0@.|@^0@(5@S:@Mb@B:@Nb@v1@*U+Ob@b|@Pb@Qb@Rb@Sb@Tb@Ub@X(@Vb@mZ.Wb@We+@q.;h.Xb@@O+Yb@                                                                        ",
"                                                                                                                                                                                                                                                                                                                                                                  Zb@<v+<v+p&@ 9+H7+0f+Vc+Vc+;N+n1@J[.bk+e<+`b@ia@ja@lg+FJ+U].O2.W0@.Z+ c@J.@E9+E$+na@)0@'l+Qi+'l+'l+)0@(g+.c@/b@;#+<[@01@+c@}g+I9+(b@Yi+E{+Zi+E{+Xi+lh+[n+*k+1n+3n+*'+)Y.nD.o_+$R.G$+A-+Tp+(3+o1+='+Np+.p+'#+Pw+h++(3+/~+@c@Dy+_a@#c@U7@$c@7G+/n+j[@%c@V!@QY+3U+}b@9>@X.@g$@*$@}a@D@@Ya@}a@vb@P!@wb@wb@l7@D0@4>@u,@>$@8@@0>@t,@P)@$a@I0@8>@x)@y%@5b@#W+5@@I{@&$@yb@2b@O!@I=@J=@&;@r%@r,@69@9b@C~@=8@B~@&c@M{@/%+*c@@a@}Y+$$@7,@K=@H#@u)@I3@BV+n0@a0@=c@-c@;c@>c@6Y.>C.,c@Va.05.Cc.PC+xm.p7.85.;b.g+@'c@;1.)c@>j+>j+rg.L8+rg.#K.rg.pm.rg.om.;q./A.T7.pg.m[.(A.;5.!c@|v.At.At.8>+ec+[7+SL.~c@pI.:K.9>+b7+}l+li.7y.sm.li.AG.7N.*F.bI.AL.AL.7N.8N.c7+_f+}l+YS.pN.6n+{c@]c@Ma@h>@^c@ |@A3@`T+ca@z|@cC.(5@Qb@/c@12@`T+m}@(c@_c@:c@Tb@<c@[c@}c@|c@1c@XR+2c@3c@4c@q(._<+kb@K7+                                                                           ",
"                                                                                                                                                                                                                                                                                                                                                                     5c@9u+p&@[p+H7+-N+nt+KS+Vc+_2@tn+e<+'0+`b@6c@4j+7c@l-@w!@IO.i3.8c@E/@9c@IY+b8@~l+-<+47+0c@2n+57+p1+>l+>l+'l+'l+!P+ac@@f+bc@E{+bc@E{+*k+Xi+cc@Ui+]m+*k+xh+:b@*'+]P.,P.lN.sI.h++A-++|+(3+h++U{+,<+)#+.`.UL.Pp+_3+U{+%k+[^+dc@!u++E.Q2+KH+ec@*=@RR+yW+:U+5*@/W+/W+}b@I~@X.@i.@|b@M*@*$@}a@M*@gT+$$@ 9@1@@3*@*;@B%@y)@fc@1a@K{@t,@K{@gc@*a@G{@t9@F@@=$@5@@=$@x%@|a@ 9@5b@e.@z%@70@J=@2>@Bb@q,@=8@r^@K!@K)@J!@Cb@8@@G~@D@@G!@hc@ic@o3.p'@U*@* @CW+8(@jc@kc@lc@mc@nc@zI.oc@kt.pc@Je.it.q7.De.Ea.-v.-F.QQ.=A.wB..0.wB.`r.`r.#K.L8+_v.`r.9o.eo.om.'5.T7.57. s.v1+ne. p+^5.1v.R5+ec+[7+]K.nN.}7+SL.E8+]K.TL.u[+og+bI.7N.*F.qc@AL._f+Gc+AL.bI.AL.qc@ki.8N.mi.pN.I/+c[+rc@G_@cC.`_@:5@sc@T5@r@@z|@d{@D4@*U+`_@yP+ U+tc@hb@A4@uc@d@@vc@u1@bR+wc@/_@{)@xc@w~@&}./N.|y+&9+yc@(0@                                                                           ",
"                                                                                                                                                                                                                                                                                                                                                                        zc@Hg+yb+`8+p&@n!@'y+<v+p&@tn+'0+ia@g:.g:.M[.lg+%|+v3+MO.9[.l}@Ac@Bc@Cc@Dc@s5+-<+-<+#=+m4+>l+T5+T5+m4+m4+!l+/o+Si+Ui+Ti+Ti+Ui+Vi+cc@&k+cc@oh+bg+bg+xh+@c@VL.]P.ks+5A+mD.VL.='+6^@Ec@Fc@='+^B+rr+UL.|A+Ow+Ow+(3+#v+Gc@}n+{{@Hc@Ic@36+!H.SR+NR+a*@2U+3U+N]@/W+-&@-&@f$@X.@D@@NX+Jc@}a@D@@M*@*$@i$@*$@&;@R!@g/@y)@B~@Kc@J{@Lc@G'@Mc@C]@4@@A~@Nc@#W+Oc@Pc@F@@5b@}Y+E@@1@@3*@I=@z%@Qc@8@@60@J!@K)@K!@Aa@J!@E'@-$@';@D@@5@@HW+Rc@i`+'b@:{@; @r;@T.@Sc@Tc@Uc@Vc@Wc@Xc@]|+Yc@Zc@f^+Ai.>A.yi.o7.De.;A.*A.2q.!l.(v.v5.QQ.`r.Pw.=h.v5.;q._v.S7.om.'3.T7.'3.`c@pm.se.Eo.n9.WQ.p)+ d@=b@-u+og+gb+gb+Lh+Ja@u[+og+8N.qc@AL.Mh+Oh+4'@Oh+Kb@Mh+.d@Oh+u[+;j+Gc+>'+_b++d@rc@oS.y:@W2@Lb@X=@@d@B:@T5@|:@m<@`T+I_@/c@X=@B|@tc@K(@H,@:}@52@#d@$d@%d@/_@&d@*d@~1+6G+>n.im.,V+jc.=d@                                                                              ",
"                                                                                                                                                                                                                                                                                                                                                                           -d@`8+`8+p&@sA+uD+'y+;d@>d@,d@ia@g:.u[.'d@)d@'1.c[.b[.7N+!d@)*@~d@{d@]d@@U+^d@#=+#=+^m+T5+Tv+Tv+|n+Tv+`u+`u+}n+/d@:m+&k+i[+qP+oh+}n+`u+i[+.j+Np+Rp+6^@Ec@gs+4F.mD.&R.Q;@d~@Q;@Ey+(d@_d@:d@k4+#e+e~@%R.<d@.v+[d@}d@|d@I:+Pa@Li+|1@E:@z~+6U+2U+cn./W+1d@3U+V.@-&@V.@@b@N=@ub@D@@ub@2d@0/@,&@';@@b@B%@*c@'J. @+I!@J]@K{@8@@8>@3d@2{@=$@Oc@Nc@e/@y~@h.@4d@5b@3*@E@@=$@3*@i.@)8@70@F~@z)@M)@K)@G'@L!@r^@E'@w,@';@g$@We+ #@V|@5d@R>@VY+I@@b>@X`+G`+6d@7d@8d@9d@bH.$C.i&+Dr+cF.Nc.Ke.dy.Ja.>v.Gw.>f.;A.'f.EG.=A.(v.EG.v5.`r.%v.;q.=h.5y.v5.'3.qm.=h.se.G|.97.ve.+3.Vm.1D.35.we.go.ok.xe.'q.i$+*F.7N.0I.bI.u[+4'@Oh+4'@cW..d@`S.:a+`S.-j+bI.ng+^K.UJ.0d@`2@z3@_5@E,@l<@Ka@W/@12@_5@z3@_c@:}@ad@T5@b|@H_@_5@X%@F_@22@;4@w1@d@@bd@bd@cd@TR+dd@S>@ed@#R+jg.fd@QS+gd@                                                                              ",
"                                                                                                                                                                                                                                                                                                                                                                              hd@H7+9u+rA+.z+Kz+Hg+>d@id@(e+u[.i @jd@ja@s5.i~.ai.ai.kd@ld@80@md@WV+8(@+3@D$+;<+V5+r[+o1+ v+Zu+.v+nd@nd@nd@od@#v+f4+#v+i[+}n+nd@od@[^+.v+Pp+>u+;(+VL.>'+Vv+YG.XS.qN.pd@qd@Q;@Ey+rd@[b@%R.ZB+k++7A+Uv+2E+sd@#W.<;@td@ud@Ki+vd@W(@ZR+1U+(U+Q]@xW+m/@,W+O)@J)@,W+I'@';@D@@n0@2d@2{@wd@30@p`+q`+,W+t,@s^@7@@xd@J]@8@@G'@,;@j.@2{@|~@5!@Oc@1~@y~@A,@G{@2{@&;@i.@yd@x%@4@@5b@>$@r^@I'@&0@hY+&0@8@@*c@8>@xV+X.@cY+KL+K~.z;@zd@BV+w~@@ @3U+lW+|U+Ad@Bd@Cd@Dd@ ,+Ed@Cr+Fd@Em.(q.f^+Bg.Dc.Ma.Ma.sq.ay.To.-A.4I.'f.EG./v.-F.v5.QQ.%v.G|.v5.`r.=h.P|.R|.gt.zw.}5.te.%3.pc.6y.f7+wc.e7.za.&A.ok.wg.ho.AG.u[+4'@Mh+.d@cW.sU.}Y.8W.`S.9>+V9+^P.%=+Gd@>4@O[@Hd@Id@hb@J(@+&@Lb@z3@w1@22@w1@I_@Pb@h>@H,@`_@J(@Z<@`_@Jd@H_@X2@JN+W|@Kd@F%@l/@~1+~1+5d@ZY+Ld@J5@,V+mm+                                                                                 ",
"                                                                                                                                                                                                                                                                                                                                                                                 -d@9u+Kz+.z+uD+<v+>d@Md@Nd@i @af+W_+Od@cZ+.r+G5.IZ+W0@|*@{1@L!@F'@Pd@lY+rL.@|+Pp+97+Qd@7A+7A+7A+Rd@/7+rz+rz+Rw+Rw+Sd@.v+[^+Ow+Va@Va@Ow+@v+@v+Ey+d~@:3+Ey+YG.TL.UL.pN.,'+^B+ #+2^+W9+%R.{#+Td@j!@ZE+XL+|5@K>@Ud@Vd@y{+Wd@8V+P'@3M+/{@4U+4_@xW+e$@l;@M~@r`+i'+V.@N=@7>@ub@Xd@0/@b>@L>@k.@v^@S!@3(@;)@r^@t^@K{@0>@8>@b>@j.@4d@|~@1~@[{@|~@Yd@(W+9/@Zd@`d@3d@4.@y%@6G+YY+4@@  @I'@F'@ e@0>@9>@8>@9>@;$@30@G@@RW+.e@Y*@`Y+TY+We+MX+L>@+e@I*@@e@#e@$e@J9+%e@'U++H.Pk.Ik.(q.Nc.P*+x7.P9.,F.&e@0N.-A.-A.To.,f.EG.jy.(v.*e@2q.v5.EG.!l.;j.mm.>b.+v.&v.vB.-F.15.zw.;v.>F.*A.=e@6y.=F.35.xg.sm.8y.*F.aI.Mh+Oh+_f+ng+V9+9>+07+/K.*=+A-+2_+K*+62@z3@S)@B1@52@O[@'4@-e@hb@-e@32@[c@'4@Y2@W2@52@;e@Ka@w3@T5@I_@q@@L(@KN+VT+R<@]U+2U+7]@)j.+b@k$@gg.9)@>e@k}@S0@                                                                                 ",
"                                                                                                                                                                                                                                                                                                                                                                                    ,e@yQ+HJ+sA+,y+'e@id@Nd@jd@`b@)e@7c@9X+%N+x!@/:.~(.!e@2.@~e@{e@]e@Cc@x1@2U.Qd@^e@ C+/e@+`.(e@Cy+_e@:e@<e@Px+Px+|A+<e@[e@/7+7A+7A+7A+Ix+@v+pN.)#+rr+R +R +k4+TL.D8+H$+`B+TL.)B+0&+tU.9&+}e@ F+&,@.v+|e@1e@@M.3-+v9+=(@2e@#U+c*@c*@3e@4U+4e@y@@5e@Y`+-E.=&@z,@-$@*$@4.@D@@2{@h$@W.@r`+S.@6e@-)@k/@7e@);@J)@0>@I'@b>@8e@[{@9e@0e@Yd@ae@cY+be@ce@a/@de@j.@(W+B]@4-@6[.r)@;&@j.@h$@z,@W.@z,@N=@X.@2{@3{@R>@o'@)T+t;@rw.MX+RY+,W+'V.-E.qW+(U+ee@fe@ge@he@ie@D)+eW.+H.:q.^#+GG.Kg.x7.qq.je@BL.&K.FG.ay.,f.To.To.EG.4I.(v.>W.V@+2y.;j.te.=3.&v.VQ.15.a5.{3.*n.{3.>F.*A.9N.i7.wc.n7.za.Nr.CG.AG.AL.Mh+.d@Mh+mg+9>+sU.qN.lI.NS.B5+){@u1@ke@pY+le@u1@Y|@LT+|W+52@A1@52@-e@me@y1@ne@oe@pe@hb@0@@X2@Z2@u1@|:@Z2@H:@qe@Tb@IF.}{@9*@$ @;;@UY+U9@re@fe.ia+                                                                                    ",
"                                                                                                                                                                                                                                                                                                                                                                                       se@Kz+Kz+Q$@o-@,d@Nd@jd@`b@te@9X+2(.17+P}+tZ.e#@ue@=^@ve@z~@we@xe@ye@ze@cc@ C+(e@`E+`E+`E+Ae@Be@<e@/7+/7+Ce@/e@Be@_a@Cy+|E+_a@(e@k++oz+oz+UL.TL.UL.(Y.k4+pN.qN.-u+qN.P;@0&+nz+&,@}e@_a@Uw+w_+De@@2@Ee@Fe@GA.Z}@})@R_@J%@]U+wW+]U+_U+&O.y@@W`+sW+S.@S.@V.@';@)8@4@@4.@i.@yV+L>@S.@X`+_-@2_@{:@-)@J)@U!@P)@QY+Ge@eY+eY+2~@8/@Yd@eY+be@c>@He@gY+He@Ge@Ie@5!@|~@* @NW+Je@30@b>@';@P=@,&@@ @D@@y~@+b@LW+NW+1-@lG.>'@[{@:R+4_@I*@tW+zW+v`+Ke@Le@Me@Ne@DN+AY+Oe@#H.#.+us+(q.cF.z7.j1+Pe@y7.&K.FG.,f.;F.=W.To.O7.FG.&K.=W.*3.zw.>b.;A.}5.;A.zw.k7.-A.25.vG.@A.k7.[5.a5.Hw.f5.55.ki.vg.*F.Kb@;j+Kb@Mh+AL.ng+:a+`S.XS.x0@Qe@E_@pY+4|@F,@z`+Ad@z1@x1@A1@Y2@z1@~W+Re@Se@vc@Te@Ue@Ve@We@a@@Ve@We@5|@_c@C[@O[@|2@|2@4U+ae@)'@f>@M*@= @xQ.fd@Xe@k}@Ye@                                                                                    ",
"                                                                                                                                                                                                                                                                                                                                                                                          Ze@'y+'y+,y+N4+`e@ f@.f@te@9X+dZ+/f+}0+:). &++f@@f@#f@y8@$f@%f@F{@kY+&f@R +S +Cy+*f@*f@Ae@=f@<e@$L+-f@;f@Be@,H+>f@,f@'f@XB+_a@_a@+`.Ix+=,@/B+@v+Yv+uU.9>+{B+zG.mz+qN.tU.nz+)f@ C+XL+MF+!f@K.@^1+~f@3-+@~+_}@{f@[<@6_@J%@]f@]U+wW+R.@^%+Ca+8Y+O.@v^@s`+f$@z%@4@@4@@g$@9>@s`+^f@X`+d$@':@/f@{d@2_@hY+w^@(f@0Y+8U+<-@2~@<-@_f@h$@:f@<f@He@<f@He@8(@[f@cY+8e@RY+y~@7T+RY+g$@30@;$@T;++ @@ @; @FW+}f@PW+3-@},@4]@>'@w@@m.@m.@tW+sW+IF.m;@|f@1f@2f@3f@4f@yD.3Y.i>+$x+;=+x_+Mc.R9.5f@)l.,F.Zr.,f.&K.To.'W.O7.ot.O7.FG.AS.FG.#A.zw.%3.;A.zw.#F. q+Ph+#F.`x+#F.[5.25.i7.75.xg.BG.vg.ri.Yx+Mh+;j+u[+;j+u[+<Y.QL.Hd+0|@W!@|2@6f@b@@nY+a(@5|@Y2@@e@Ve@7f@8f@A1@9f@Ad@Ve@vc@Se@v`+me@Ta@0f@<U+af@0*@9~@52@7|@OY+*d@OT+SY+T;+yb@bf@'5@Fz+&9+cf@                                                                                       ",
"                                                                                                                                                                                                                                                                                                                                                                                             df@KS+RO+`8+ef@ff@.f@te@te@dZ+V0@A[@tZ.c9.gf@hf@if@jf@kf@lf@+0@mf@G>@@a+Ow+(e@S +Ce@;f@/7+Rd@<e@/7+;f@(e@>f@nf@,f@#`.#`.#`.'f@Cy++`.#e+~B+qN.Ix++`.%R.{#+ZS.}Y.$`.&`.nf@,f@xI+$j+pc+of@W6+pf@qf@GA.L;@LR+uP.K>+ta+rf@rf@sf@R{@,V.hC.kW+KY+^%+-E.s`+9>@j.@F@@C]@0/@p`+l/@v^@I*@tf@_-@{<@'<@uf@vf@wf@8(@8]@8U+|]@w,+^9@c>@[f@__@xf@yf@zf@:U+gY+:(@30@Af@RY+E{@Bf@2{@[{@5!@cY+y~@6G+`Y+6[.Cf@)T+q)@1!@v;@])@-'@Q`+I*@R'@x`+q.@RR+0*@Le@Df@Ef@h[+Ff@q@@Gf@g&+i>+;=+x_+Ii.Ra.hn+Fg.)l.,F.FG.O7.,f.-A.&K.0N.&K.BL.,W.;F.{3.[5.-A.9N.D7.9y.G9.D7.k7.vL. q+|l+a5.De.wm.Ce.p7.8y.uk.Yx+aI.qc@4'@qc@AG.`w.N}+.5+W!@42@Ad@S'@Hf@22@If@N'@D[@ne@Jf@GT+Kf@Lf@We@Mf@Nf@%d@Of@o}@v`+x`+m;@`|@bR+Pf@n}@7|@Y2@Qf@Rf@BW+j.@4!@OP+U2+ka.W].i~.Sf@                                                                                       ",
"                                                                                                                                                                                                                                                                                                                                                                                                Tf@KS+mt+Uf@ef@Vf@Wf@`b@Xf@Yf@l(. &+:).0M+Zf@`f@ g@.g@+g@@g@A7@#g@$g@oc+(Y. C+ C+;f@;f@[e@<e@=f@/e@XB+,f@,H+.L+.L+nf@0W.0W.bW.`E+(e@k++YB+%g@GC+GC+zG.c7+l++bW.5'@&g@%C+*g@|Y.=g@i0@-g@C}+XE.A}+F/+]C.uP.f(@ta+ta+;g@pV+R{@,V.0T.kW+kW+8Y+MY+s`+L>@0/@xV+0/@30@]W+>g@MY+Nf@E[@l/@QY+F[@'V.'V.,g@a*@'g@TR+{$@({@p.@KY.sW+,g@)g@QT+8f@v`+!g@|^@5{@eY+(W+Yd@8e@5{@8e@F@@EW+BV+EW+s;@)T+)T+|,@|,@},@v;@~g@yW+S`+oW+V{@:W+$&@>/@S<@{g@]g@^g@/g@(g@eT.yD._g@+T.|K.*R.x_+:q.Jy.Po.{a+hF.fA.FG.,f.,f.H7.0N.&K.0N.&K.@F..A.9y.)3.D7.`x+|5.*n.k7.95.vG.|o+k7.He.Gw.n7.xc.Aa.{q.jo.cI.*F.Zx+(k+Gc+0F.]M+'4@:g@<g@[g@Rb@LT+0*@8|@5|@62@3|@}g@|g@/^@7|@1g@4|@2g@z1@)g@3g@KY+o}@~W+,<@lY++e@s1@D[@^U+}c@4g@5g@x)@6g@qZ.k1@jg._0+K5@ia+                                                                                          ",
"                                                                                                                                                                                                                                                                                                                                                                                                   7g@'y+Hg+,d@G7+8g@Wf@7c@9g@Cb+v]@s(.;++H-@0g@ag@q7@bg@cg@dg@eg@fg@gg@Pi+Cy+_a@ F+ F+=f@;f@=f@ F+|E+,f@Xd+,f@nf@.L+*v+0W.vg.0W.Xd+(e@e~@S +S +0W.yB.%K.*F.%K.#`.Xd+hg@Ww+ig@jg@bY./^.E}+M;@u{+Q[@lF.3:@Rm.f(@wK.B4@sf@,V.kg@lg@R`+N.@Ca+lW+uW+B@@L'@w,+4{@7D+PY+rW+MY+sW+G>@S`+<U+1g@p}@Ta@kY+Te@zW+_{@7i.mg@s-.:^@yW+ng@og@|U+)g@B@@cd@|^@dd@8/@_f@9/@9e@[{@xV+NW+pg@We+l}@6a@BV+BV+V*@Cf@O>@O=@JA.R'@N.@$&@mY+dW+/^@U(@a(@<;@VT+qg@rg@.<+sg@F_@NI+)C+|~+vD.8Y.Ig.Mc._q.4o+`a.!C.,F.O7.,f.0N.&K.0N.0N.BL.|5.-j.tN.D7.95.*n.A7.*n.A7.H7.Ma.D7.9y.95.Gw.He.z9.Ee.p7.qi.Nr.*F.Zx+cW.NS.1[@Rb@tg@ug@vg@wg@xg@u`+x1@V<@x1@`|@qW+F,@lY+X|@bR+yg@oW+zg@p}@S.@og@Ag@Ta@Bg@$g@8f@Kf@#d@^f@Cg@^(@c>@;$@<y.{(.ge.i~.&9+eZ+Dg@                                                                                             ",
"                                                                                                                                                                                                                                                                                                                                                                                                      7g@yQ+Hg+Eg@Fg@Gg@te@2(.na.(:.$~+J>.Hg@Ig@Jg@Kg@&8@Lg@Mg@r5@Ng@Og@yP+XG.XB+'f@Pg@,f@Qg@Qg@|E+Qg@|E+fb+,f@#`.[Y.V +l++9&+ye.fN.*P.fb+$`.0W.0W.0W.9&+%K.=`.Xd+>K+Vq+Rg@:W+Sg@Tg@!7+6_+Ug@tw.J @]C.v}@DF.DF.P'@Y=@cp+nW+hC.EY+0R+M.@kW+lW+Kv.zW+V!@^9@C^@UR+<U+1W+x`+oY+!G+Lf@<U+Q{@bR+qW+0f@Vg@>/@2!@gM+v;@Wg@dd@]%+8f@ng@,:@Xg@Yg@9Y+Zg@2~@<-@`g@ h@Zg@9/@4g@)T+RW+Cf@BV+Cf@BV+o'@4-@0U+BW+<-@<U+0R+/^@R`+#U+T)@`2@/~@ZT+c-@6_@#:+.h@+h@@h@#h@Dy.D)+>`.Xr.*R.Ig.8Y.Rr. l.Ty+je@5N.-j.Zr.&K.BL.0N.w7.BL.0N.`X.wG.6U.|o+Ha.jt.Ha.jt.1m+1m+1m+Ma.Ia.G9.95.9y.z9.n7.75.jo.!q.=b@Hd+$h@%h@&h@*h@=h@-h@;h@>h@$&@T`+,h@3|@l.@`|@bR+'h@7|@52@j;@Se@a@@U`+PT+4_@Se@sW+$g@Nf@<f@)h@}W+!h@`g@dY+2{@W_@+++e|+l(.,V+:6+~h@                                                                                                ",
"                                                                                                                                                                                                                                                                                                                                                                                                         {h@Lz+9u+]h@^h@/h@|m+%|+tG+J}+w!@v]@09.(h@_h@}`+:h@o8@<h@r5@[h@}h@|h@1A+1h@cG+QH+VL+,f@EF+|E+XB+#`.,f@,H+aW.6D.%K.QH+6D.V +V +2h@9&+3h@[Y.=`..L+KG.&g@hg@&F+W,+4h@'7+5h@/^.6h@&~+2T.D2@,0.7h@8h@9h@m0@3.+O>+;g@dC.V)@V{@0R+0R+mW+R'@5U+V!@B,@[~@UR+>/@_U+/{@0*@7|@!G+pe@,:@Ad@A1@nY+IT+0h@>/@ah@A$@Wg@`Q+g{+_W+UR+,:@ng@zW+UR+bh@|]@2~@|]@bh@ch@`g@dh@eh@NW+jU+lG.1!@lG.D!@o'@4-@^)@eY+|]@<U+If@{{@fW+IT+]{@yl+QR+yP+<'@Sk.`2@8n+fh@Z6@gh@IN+hh@3Y.g&+!|+Im./<+:q.Oc.)C.Ty+Hc.NQ.0N.b5.,F.'W.jt.tN.A7.jt.Ri.$j.jt.05.A7.$P.tN.05.A7.~k+5N.1m+jt.9y.Ka. x+z9.Aa.sk.n9.{^@ih@Y|@jh@kh@lh@mh@nh@oh@ph@E[@v@@PT+qh@rh@Q`+X|@6f@0R+X|@Y|@-e@sh@th@}W+z1@U<@E*@uW+uh@w`+9@@[U+^W+_f@DW+Q5@kA+jm.}A+=:@vh@wh@                                                                                                   ",
"                                                                                                                                                                                                                                                                                                                                                                                                            xh@Lz+-N+yh@Md@zh@Ah@Bh@Yz.](@(:.v]@Ch@Dh@Eh@]>@Fh@Gh@Hh@Ih@Jh@J)@e-+%`.)(+w_+SL+UL+1h@VL+EF+,f@nf@#`.8b+Kh@Bz+yg.!(+Lh@V +[Y.VL+&,@6D.VH+SL+Mh@dG+Nh@fN.Oh@b[+Ph@Qh@>^+V;+DP+/D.Rh@y+@.~@Sh@X]@7_@Th@O>+J%@kg@P~@HY+$&@oY+mW+Kv.uW+PY+R]@Q=@(_@;2+;2+1W+G,@0*@[W+qY+gg@y1@W|@D[@IT+NR+$/@H;@Uh@Vh@<7.vV+({@zW+Te@UR+>/@Rf@r.@{)@rT+7U+{$@Wh@Xh@Rf@Yh@t~@>:@u~@0U+; @r;@e/@> @y~@c>@N>@R'@P]@:W++'@Zh@E,@T)@E,@u<@6T.ED.@&@`h@ i@.i@+i@@i@ M.#i@/#+>`.Y +$x+Sh+x_+Ji.!v+Ua.Fg.5N.b5.BL.b5.95.P9.Gc.t7.$w+q +N9.v7.J9.Gc.Dc.B7.A7.YO.tN.B7.D7.Ka.45.E9.9y.q9.#|+zm+$i@$&@%i@&i@*i@=i@-i@;i@U<@lY+>i@,i@'i@lY+)i@T<@PT+S`+t.@u`+If@aR+!i@~i@'V.iY+[_@8(@j.@/W+/W+4{@RY+}Y+!'@a +`[.jm.}A+=<+qL+                                                                                                         ",
"                                                                                                                                                                                                                                                                                                                                                                                                               {i@]i@nt+]h@^i@zh@Ah@I8@G7@v]@[7./i@(i@K-@_i@t_@:i@<i@[i@}i@|i@&d@{o+ko.$Y.-|+c^+!(+1i@QH+%`.aW.aW.uI+*`.-=+p7.=K+-=+b^+RH+.L+%`.K$+!(+8X+TL+&F+k_+z>@2i@3i@.<@lv.n5+%,@v9+D2@D2@%}.B3+.~@4i@4i@Th@$O.sf@IA.P~@EY+y`+V{@BP.Kv.3e@V!@PY+B,@R]@a*@1U+4|@|W+5i@`|@6i@LT+zg@~U+fT+uc@7i@`=@Z=@%=@4c@4]@8*@V!@_^@>/@VR+>/@}]@WR+/(@YR+*d@XR+Vg@7f@(_@WR+EI.'/@<,@Q>@m'@DW+OT+[{@RY+-'@3U+Q`+m/@U=@T`+`=@RR+y`+XT+XT+H,@4^@Sk.8i@8n+9i@:9@;a@fH.0i@ai@Dz+tI.]<+}q.us+Ig.AD. b.T9.Ua.Gc.Fg.Gc.jt.Fg.$P.$<+Ri.$(+Dc.I9.J9.Dc.Na.`d+Qa.B7.05.|o+w7.xc.v9.z9.xg.bi@]]@qY+ci@]{@t.@G>@@e@K.@di@ei@fi@^b@PT+'<@{:@KY+2_@S`+E*@#'@U`+Z|@gi@6(@DT+a>@}W+  @}b@hi@[*@9U+WY+P>@)T+ii@!m+Z1+km.7B+R6@ji@                                                                                                            ",
"                                                                                                                                                                                                                                                                                                                                                                                                                  ki@UI+KS+li@^i@mi@ni@Bh@S>.J>.g)@v]@a&@oi@pi@qi@,8@ri@si@ti@y6@ui@@v+vi@E-+-|+!<+)(+=K+9J+aW.==+zg.=K+)(+)(+w_+wi@!(+ L+,K+xi@SL+WL+yi@zi@m[+PX.}P+Ai@Bi@Ci@Di@,^+Z%+/D.Rh@Rh@7h@7h@EF..~@4i@wK.J%@G,@P~@EY+i;@EY+pY+]f@G,@4U+2U+V!@B@@a*@RT+kY+qW+7|@ST+y`+d@@LT+u1@Ei@ZT+:;@c[@VR+RR+VR+RR+_^@>/@VR+OY+-/@`=@Cg@Cg@*d@Fi@7U+}]@<W+RR+VR+U=@U=@Gi@9{@)j.+S+W0+~)@dd@dY+^9@3U+2U+IY+R{@c*@aR+NY+0f@{U+7M.Hi@1 ++,@6$@L(@@3@Qq+Ii@!>+ZN.Ji@Ki@Li@`{+f&+}q.tg+-9@{`.2a+ev.Xa.)l.Fg.Fg.Wa.M9.Hg.z7.Hh+`a.$<+Fc.x7.Pa.$P.I9.Qa.Fe.y9. x+He.Aa.l7.Mi@A$+<:@Ni@{g@Oi@T`+Pi@{g@,i@z`+^<@d$@U<@':@_-@-)@Qi@-)@b$@Ri@kH.S.@^:@Si@X`+,h@  @KY+H*@Ti@Ui@u$@Vi@TW+= @Y@@e#@;9+7o+ge.HS+Wi@Xi@                                                                                                               ",
"                                                                                                                                                                                                                                                                                                                                                                                                                     Yi@Zi@'y+`i@ j@^i@K[.%N+oG.}=@#5.J>.ha..j@+j@`'@L/@@j@#j@$j@B~@%j@9&+lo.ui.~q.!<+!<+!<+.Y.!<+De.De.o7.*|+8J+E-+!<+w_+w_+,K+&j@*j@zi@m[+rP+=j@`6+-j@;j@>j@!7+DI.Nm.,j@'j@,0.y+@(-+C@+EF. 1@ZQ+rf@pV+EY+pY+b@@bW+S)@nW+sf@3W+IF.>)@yW+zW+(U+rW+E[@7|@0*@6i@52@6i@8|@Ei@qe@)j@|)@^;@OR+!j@|)@ZR+OY+|)@ZR+|)@^;@SR+XR+#(@c@@r.@}]@1c@b*@}]@~j@XR+.v.{j@]N.w;@)'@|]@TR+RR+a*@oY+~-@G%@o`.1W+{)@x`+ZR+NY+ &@ZT+D^@R_@o<@J_@(]@]j@^j@'K+/j@-U+(j@_j@:j@o7+>`.Si.FL.j^+Se.<j@Gg.Xa.J9.Sa.]&+Lg.]&+Ua.3B+Wa.]&+]&+_q.Fc.]&+Fg.05.Ma.l7.x9.xc.[j@:[@:M+#&@Oi@}j@)i@|j@Qi@#'@1j@G[@,h@^-@S`+Ag@]<@[_@iY+2j@;)@3j@Eb@c$@j/@D*@Fa@S.@M~@t^@@b@4j@>;@5j@6j@7j@M2.m'@i)@(n+SN+2u+u @8j@9j@                                                                                                                  ",
"                                                                                                                                                                                                                                                                                                                                                                                                                        0j@Zi@aj@]h@ f@bj@cj@}F+v:.s(.$~+v]@ha.,>@5=.dj@ej@#f@fj@gj@hj@ij@vk.yk.|3+Bm.Or.wk.$Y.*|+-|+!<+!<+jj@B9.*|+,P+kj@$j+%F+_H+%F+nG+=f@lj@T,+mj@nj@-_@|_+N:+,^+6-+oj@NO.pj@Rh@,0.y+@DF.2e@E1@ O.@O.t@@F.@J`+bW+@O.`N.;g@^U+%}+<U+<U+<U+ng@rW+X|@Y2@ad@6i@qj@d@@8|@12@u<@rj@OR+d]@+(@Kd@<}@K:@d(@R_@sj@`R+<'@O(@W=@}]@Fi@Q'@#(@V=@^;@z0@}]@YR+[:@{j@+S+~1+eT+7]@`=@IT+q}@tj@R`+L`+z`+^U+;2+ST+IT+RR+I;@z~+R_@uj@(-+I:@<M+^P+vj@wj@#f+MG+xj@xj@yj@zj@`{+{|+m7+&e+L$+Ik.~`.gv.Kc.Sy+Qo.Lg.Gg.Pc.Sa.Lg._q.Ra.Di.I9.Fc.Dc.v7.`x+Fa.sk.*F.I9@.'@Aj@Bj@Cj@Dj@K.@Ej@^-@KY+(-@]<@d$@Fj@Gj@Hj@Ij@{d@X`+~<@^-@j/@^-@|_@)<@Eb@Jj@ e@8x.J{@Kj@[&@o3.Lj@Mj@Nj@Oj@k9@k1@J5@2u+O9@Pj@                                                                                                                        ",
"                                                                                                                                                                                                                                                                                                                                                                                                                           Qj@bB+aj@`i@(e+^i@<#@Z_+x!@s(.J}+/i@Rj@Sj@Tj@Uj@Vj@Wj@Xj@$j@Yj@Zj@<o+<o+{k+`j@ k@>v.ui.s4+*|+.k@$Y.$Y.s4+s4++k@:H+_H+%F+OF+@k@#k@|j@]W.$k@Sg@^1+%k@Q^+p{+Z%+6-+Ki.&k@Rh@&J.Pm.vP.P[@*k@gW+dW+K`+F.@q/@dW+eW+I`+nW+rf@qW+_U+1U+fT+c*@0@@nY+w1@6i@=k@le@d@@y3@hb@d(@u<@U(@<}@9_@I:@f!@V2@I:@D1@1)@J7@d]@SR+-k@#(@Q'@:6@,/@;k@-/@^;@YR+#(@!$@9{@<,@/(@{)@$/@ZR+5i@T)@_~@g;@]!@F.@>k@IF.oY+IF.bT+Uk.}:@,k@U~@Dr.9_@'U+]~@15@'k@>|@)k@5v.!k@~k@1H+I-+/#+}q.v4+{k@[k+$x+Se.Se.Qc.lt.]`.Ya.Lg.Ra.]k@4D.Lg.K9._q.x7.DZ.Tq+l7.Qr./3+W^@F>@^k@/k@(k@_k@:k@Si@<k@[k@[_@J.@^-@]<@}k@|k@Of@S!@6(@kH.Sc@p:@9W+~<@1k@2k@I0@3k@ @+4k@5k@6k@ X+7k@8k@ 8@ii@[7.9k@N<@2u+0k@Xi@                                                                                                                           ",
"                                                                                                                                                                                                                                                                                                                                                                                                                              ak@bB+{w+bk@`b@^i@te@Y_+Gq+ai.](@v]@`5@ck@dk@ek@fk@59@gk@hk@~i@(b@0>+G{+0>+G{+zi.ik@v[+jk@kk@,P+0>++'+lk@mk@[H+&F+Uq+q$+t:@nk@ok@pk@Ph@qk@|_+xo.7_+C{+ ++GA.+&+Ki.Ki.&k@rk@ 3@C1@72@CY+cW+t(++E.E.@x~+H,@fW+I`+~U+F,@S<@S<@:c@D[@s1@Y2@22@_c@sk@_c@X2@9~@Q<@B:@R_@f!@9_@ ~@Q_@w*@V2@m}@*U+1)@Q_@d]@`R+O(@G5@_;@#(@:6@XR+`=@$/@}]@r.@tk@4~@]N.b&@TR+b*@J%@(^@!-@!{@<]@/^@T)@i;@ZT+ -@^U+SR+b(@3M+b*@W(@['@uk@wP.u*@vk@wk@xk@Md+Jn+yk@zk@Ki@sG+'F+F)+b&+*R.Y +$x+L$+j^+Ak@Gm.Mc.Oc.4D.Oc.4D.Ya.Di.Gm.K9.Dg.Ha.Ka.Tq+ra.Y,@Bk@Ck@Dk@Ek@/!@J.@Bj@D*@Fk@Gk@H.@Hk@p:@{:@Ik@^b@-)@V`+|k@:k@F9@Jk@|(@Kk@Lk@H]@Mk@2*@Nk@Ok@Pk@Qk@Rk@Sk@kU+p-.J8@fd@$5.&9+/q+                                                                                                                                 ",
"                                                                                                                                                                                                                                                                                                                                                                                                                                 Qj@Tk@Lz+ 9+`b@Nd@H[.Z_+S7+J>.R>.G5.dT+Uk@Vk@Wk@Xk@Yk@Zk@`k@ l@r[+yk.bN+0>+$Y.E-+*|+v[+,P+s4+.l@+l@@l@LF+cA+Uq+#l@e^+$l@Fy+%l@&l@*l@V2+=l@'%+C{+d).c'+3-+GA.@~+6-+aH.gR.=V.Co.}.+,&+Z%@mL.9$@+E.BY+>V.Z<@y3@6M.{U+^U+#U+O'@F,@{U+_c@52@6i@d@@52@hH.B:@I:@d(@1)@1M+R:@Q_@2:@-(@m}@r@@m}@a[@9_@U(@d]@SR+bT+:6@V=@XR+`=@`=@XR+}]@{)@-l@g3@*/@4]@W=@^;@z~+B1@g;@X<@s@@(^@-R+(^@ZT+3M+vW+QR+K_@V=@;l@P'@}M+>l@T'@ t+-L+97@'k@,l@qg@35.'l@)l@!l@B1+Z +,|+|~+2Y.#C.Lw. 0+)j+(q.^#+Gm.~l@Oc.Em.4D.R*+P*+n +aE+yc.Fa.#R.ge+~R+{l@]l@^l@/l@Fj@/!@(l@_l@{:@p:@)<@aY+E*@aY+:l@<l@}(@2_@[l@Eb@K)@}l@Jk@#)@H]@&8@qs.|l@1l@Qk@2l@@K+2P.0T+U].ka.ug+&9+%y+3l@                                                                                                                                    ",
"                                                                                                                                                                                                                                                                                                                                                                                                                                    4l@5l@cL+I7+`b@^i@6l@s~.0).ak.R>.KH+7l@8l@9l@0l@al@bl@%;@cl@dl@Px+G{+ui.B9.$Y.*|+s4+0>+Ny+&F++l@el@fl@OF+fg+,P+D3@f9@gl@hl@w9+~1.>^+Q^+XE.D*+8 +Nm.Z%+GA.GA.)++40+%V.bC.k`.}U.g +AY+AY+JN+0W+0W+CY+D.@hW+6M.xP.{U+s1@<;@|2@w1@LT+Ad@LT+pW+22@1:@I:@9_@9_@1)@6T.b[@a~@c{@*U+d{@Qb@ U+I:@J7@9_@+(@<'@SR+T(@c(@$/@NR+-/@bT+1c@W=@H;@09.b&@b&@<^@}]@B4@dW+!-@il@:]@<]@-R+E,@xP. &@hH.})@`!@jl@R_@;l@})@8h@Q[@ 3@LA+]j@'k@}0@f8@W^@kl@ll@ml@nl@ol@pl@f&+!|+3~+O*+Sh+ql@K8+x_+Em.~l@4D.rl@#I+K9.x7.n +Cc.f5.3U.sl@tl@ul@vl@Ek@wl@xl@yl@I>@zl@I>@9W+bb@Al@E*@_l@Lv.1_@p:@Bl@Cl@Dl@MA.aY+El@Fl@I]@39@Gl@u^@# @Hl@@4@T#@ue@Il@L>.c)@tm+W].CG+Jl@                                                                                                                                       ",
"                                                                                                                                                                                                                                                                                                                                                                                                                                       Kl@Ll@cL+J7+`b@`e@'d@Ml@G7@KH+NL+KH+0T+Nl@Ol@b<@Pl@Ql@Rl@Sl@8i@QH+G{+Ag.=|+ik@0>+Tl@Ul@+l@Vl@Wl@Uq+#l@Xl@Yl@Y:+=P.Zl@qk@-g@N/+=l@Q}+cY.Z%+Nm.]6@+&+G/+Oy.)++40+4M.p8+F3@,U+H`+H`+s*@C.@X++0W+'U+yP+Z<@y3@y3@t1@{U+w3@u1@u1@LT+52@Y2@d@@hb@><@9_@R_@LR+LR+0~@0~@{/@/5@-(@_N.Qb@Q_@J7@0[@<'@J,@d]@Tk.T(@b*@2W+2W+m0@3M+c[@^;@`l@ m@H)+Q(@}]@O(@xP.(^@<]@J`+^^@]{@E,@{!@CY+9~@6T.f!@v}@Q_@9_@:I..m@V_@+m@*s+a[+X^@@m@#m@(o+qg@ve.ll@$m@1H+%m@B1+b&+)`.i^+&m@z_+xU.$x+ 0+|K.x_+Sr.rl@P*+Te.yc.Ja.f7.X2+*m@=m@-m@]l@;m@>m@/<@,m@Ek@'m@)m@Gk@[k@(R+cT.9W+09@^-@}l@!m@09@~m@09@{m@]m@%@+_%+C(+4k@^m@$ @/m@(m@)>@_m@7N+w|.7B+[6+~_@:m@<m@                                                                                                                                          ",
"                                                                                                                                                                                                                                                                                                                                                                                                                                          [m@}m@|m@I7+ko+0(.L[.IJ+4 +Gq+oI+RE+1m@2m@3m@4m@5m@6m@7m@8m@)4@=K+G{+$Y.bN+MF+:H+el@9m@0m@ I+q$++<+Yv+am@bm@,K.cm@W6+t*+dm@*0.+++8$+z,+GA.+&+@~+pP.2T.Om.gR.U/+em@fm@SJ.de+de+,9+=s+C.@X++0W+'U+D.@x3@x3@y3@x3@[]@H,@6i@z3@[]@Y2@W|@R<@d(@J7@1)@ED.JR+,-@0~@{/@{/@g]@w*@w*@sj@LR+0[@gm@J,@<'@d]@Tk.C:@3M+u<@ZT+#U+J:@['@s4@c]@sw.hm@7[@T(@P'@6_@`N.ZT+,z.#/@ &@h;@K>+G5@a~@a~@IR+im@(-+n<@J,@ED.@5.3)+,U+jm@15@km@lm@Vd+bI.mm@nm@om@=I+B1+2~+m++{|+!j+Ok.Sh+K8+tg+pm@Ig..H.,~+#I+Je.Fa.oI.b2@qm@vl@rm@ig@sm@tm@Ga@Dl@^7@,m@Bj@um@vm@^-@wm@Sc@p:@xm@ym@^-@zm@,A+}_@Am@Bm@~2+_!+#a@Cm@/%+89@hi@Dm@S*@Y(@tG+)b@c[.fe.W].Em@                                                                                                                                                ",
"                                                                                                                                                                                                                                                                                                                                                                                                                                             Fm@Gm@}v+gm+Ra@e<+jd@I8@R2.oG.S>.n(.Hm@Im@Jm@Km@Lm@Mm@Nm@Om@b7@,P+*g@Pm@OF+LF+Qm@Wl@z8+Rm@5D.>v.Ed+Sm@Tm@%l@Um@Vm@Wm@X7.Mm.$!+Ay+*>+GA.6-+pP.)++)++CY.gR.a_@em@51+|]+|]+de+ h+,9+H`+W^+'U+0W+Z<@r@@x3@r@@O[@M(@cC.z3@H,@y3@I_@w3@I:@K:@+|@J,@J,@R:@,-@y|@e{@f]@o[@4[@C|@H:@g!@lF.ED.J,@ED.})@+(@Xm@u<@ &@<;@V2@9_@ED.v}@ _@8[@N[@.:@7[@8M.(^@`%@^~@/~@C*@bW+yP+H,@+m@D.@y|@eS.P2.Ym@-=@ZV.~/@x,+I:+#~+Zm@|U.c7@`m@ n@_9@gq..n@+n@0i@g^+B1+F)+]<+FL.v4+Ok.tg+&e+Hi.Bt.P*+Di.C9.Ge.6&+@n@sN+#n@sm@$n@%n@&n@*n@=n@-n@zl@-a@;n@Al@>n@#)@,n@vm@ul@'n@)n@!n@~n@)n@{n@~~@{2+]n@&c@^n@Z9@/n@(n@_n@We+IO.4 +Vo.Uh+W].CG+:n@                                                                                                                                                   ",
"                                                                                                                                                                                                                                                                                                                                                                                                                                                <n@Gm@/x+H7+ko+'0+'d@>^..0+oG.4o.gS.[n@;3@}n@|n@1n@2n@3n@4n@6b+OF+lD+EI+Wl@0m@5n@6n@7n@+e+^o+8n@9n@0n@an@WL.Dd+iF.bn@cn@h3.(D.8$+c'+c'+Oy.Om.aH.}}@3M.bC.QW.=U+N8@|]+<N.U++U++.E.EY.,&+0W+.O.-(@e]@-(@cC.`_@T5@3[@M(@MN+_5@_5@ ~@9_@0[@MR+I:+R:@OX.@2@{/@b~@e{@ :@U6@U6@#J.h!@I:+1)@H:@ED.1)@uP.2:@FF.]/@*U+a[@a~@21@I:+MP+T].d-@R:@Z%@(M+`%@z*@`%@^^@M(@VT+7$@LR+e]@f{@5[@b-+r|.dn@fg.NX.EP+I:+h]@%_@N}+|5@en@+j+yh+0I.fn@nm@1H+_j@H-+o7+b>+`{+3~+L$+&e+~l@Sr.Sa.(++Me.p7.%3+gn@{R+H9@rm@u|+hn@#n@~m@=n@>c@in@wm@,n@~z.xm@zm@)n@<J+jn@~!+El@kn@ln@mn@nn@on@pn@m=+qn@&6@Z9@rn@sn@tn@ Z+|=@et+}A+HS+z[@ga+un@                                                                                                                                                      ",
"                                                                                                                                                                                                                                                                                                                                                                                                                                                   vn@wn@xn@J7+/a@`b@'d@/f+.0+V>.S>.gS.'m+yn@zn@An@Bn@Cn@Dn@(k@zh+ I+Uq+ I+En@EI+[m+K5+%K.Fn@JL.Gn@Hn@#=+(b@!Y.}W.>0.In@'%+0=+0[+,^+2b+UW.UW.gR.d3@bC.QW.51+W:@N8@N8@.%@Jn+Jn+,U+de+X%@'U+c{@m`.-(@-(@c{@q@@l[@@_@X%@>-@N(@F2@D1@g!@21@/}@_}@e!@C|@Y]@f]@5$+#_@&_@&_@UW.*s+U6@uK.Y]@46@0~@wP.+O.J_@e]@q@@]}@F2@0~@U6@g!@Jn@9t.9[@ t+aW+3$@y*@)-@m`.-(@Z<@02@e]@ ~@h!@f{@b-+qZ.6-+6-+EP+v9+J1@C2@{^+%2@K}+Kn@Ln@Mn@4E+ui.Nn@On@Pn@Z +B1+F)+eW.}q.^>+$x+)j+Qn@4D.I9.$<+^5.@3+Rn@9n+Sn@Tn@Un@Vn@zm@Gf+Wn@Xn@Vn@6R+&n@Z7+~2+k=+Yn@Cl@1k@F9@#/+Wn@ln@<!+=5+sR.Zn@`n@ o@)7@94@.o@+o@@o@#>@o(.r7+Vo.7B+Z_+#o@                                                                                                                                                            ",
"                                                                                                                                                                                                                                                                                                                                                                                                                                                      $o@%o@xn@Hg+9|+e<+H[.&o@FX.*o@P}+cc+&/@=o@-o@;o@y(@>o@,o@'o@)o@&j+*j+#l@q$++<+HC+]v.!o@~o@{o@|&+@:@x-+Hd+H +:s.(<+C~.O++H&+Q++u*+4$+s#+s#+p8+|)+51+;U+x>@N8@.%@Jn+*)@'>+LA+&G+@2@]o@]}@0~@e]@Gn+N(@MN+~}@~}@CQ.@_@>-@@2@IR+wZ.I:+T!+I:+C|@uK.o[@B3@#_@#_@5$+PW.37@V:+d3@b~@{/@b~@$1@$1@Co.^o@Hn+f{@f]@@2@J*+U6@uK.U6@+,@y|@Hn+^M+1[@^M+(]@A>@D_@Z%@72@cC.F2@T!+82@A}+g[@W0@gR+0)+r|.51@W%+y|@;U+C_@a7@:9@/o@(o@)f+k7._o@Pn@'|+y[+[~+(#+;=+&e+Sr.Cz+rl@Me.Ha.Vp+:o@<o@8P+[o@}o@f0+|o@}o@~~@1o@db@!n@2o@3o@ln@3%+4o@nn@:!+Fl@5o@6o@7o@4f@tR.8o@9o@0o@ao@&6@84@bo@co@do@IH+a{@q(.e|+eo@*x+om+fo@                                                                                                                                                               ",
"                                                                                                                                                                                                                                                                                                                                                                                                                                                         go@ho@io@n1@jo@(e+7:.I8@q(.be+$M.y{+U)@ko@lo@mo@no@oo@po@0d@*v+$F+fg+M9+%P.qo@~o@ro@}&+3^+V{+8&+>L+]b.jm.jm.1k+L/+=^+I&+})+})+q#+ >+h]@+>+#~+W:@n<+x>@I4@.%@Jn+z5+X6@a)+o<+MG+z:.e{@@2@f{@Gn+S:@{}@{}@n[@;U+%>+f]@@2@}}@5[@}}@i9@51@51@o[@o[@B3@ :@I1@h]@&_@xY.zY.43@#_@f]@51+|)+p<+[U.Bo.}5@CQ.f]@@2@y|@uK.y|@IR+em@f]@[M+'!@2M.G4@^]@ge+H`+Y%@MN+JR+*V.I:+IR+C|@so@$,@dR.%|@E&@U!+l[@%_@I4@P@+H5+to@uo@,|@vo@>v.mJ+wo@$n.qc@we.uU.-s.<F.~~+,P.)Y.qL.81+xo@yo@zo@#n@Ao@}P+Bo@Co@9]+Do@Eo@Fo@Yn@Go@-/+sR.Ho@Io@2i+Jo@gT.Ko@Lo@Mo@j0+No@Oo@Po@t7@!3@ ;@Qo@Ro@So@To@_U.Uo@.0+tG+7o+Vo@Wo@                                                                                                                                                                  ",
"                                                                                                                                                                                                                                                                                                                                                                                                                                                            Xo@ho@io@Sr+_e+'0+'d@vw.S>.*T.y{+WE.Yo@Zo@`o@ p@.p@+p@@p@#p@Np+ug.bN.$p@%p@&p@0n@rU.<K.2A.Ay.*p@LS.{1.7=+MQ+B&@B&@aC.e$+1-+I}+I}+}1@d[+6[+n8+d-+d-+d-+.%@d-+~++{++Y,@8x+{]@U/+-&+hm.a[+a[+n[@K*+W%@l4@%>+v*+>-@y|@C|@U6@yZ.=p@}}@Y]@o[@B3@T:@:N.T:@#_@+>+>z.#_@b[+#~+%_@$&+E9+VN.}5@p<+f]@>U+}5@f]@IR+U6@U6@@2@>U+@_@'!@1[@JA+>{@{M+|]+3$@1[@X%@y|@]}@Jn@J1@M,+EP+T!+(N.-p@4}@|8@;p@^^+yR+>p@+W.!>+nc+,p@Np+'1.'p@{f.}[+)p@!p@~p@hw+{p@]p@^p@/p@sN+(p@_p@:p@<p@[p@}p@:p@|p@1p@2p@3p@pn@db@4p@5p@6p@{2+Go@Lo@7p@8p@9p@0p@ap@_s+bp@cp@PY.>6@l|@dp@ep@fp@gp@hp@+k+4 +.0+O>.eo@ip@                                                                                                                                                                        ",
"                                                                                                                                                                                                                                                                                                                                                                                                                                                               Xo@jp@&:@~q+9|+^e+kp@%N+Rv+&++DP+{1+/_@lp@mp@np@op@pp@qp@#'@`T+27+.9+rp@sp@)^.5+++C.tp@Rs+<:.e3.14+,d.5g+up@_1+<-+<-+}-+}[+G,+G,+|1+n8+nk+d-+nk+d-+d-+W%@+3+8x+1I.vp@z_@Y,@7)+i!@m[@$2@$2@{c@wR+W%@6[+W:@$&+J*+IR+=p@}}@*s+IR+b~@A|@n[@CQ.1}@:N.f]@#_@QW.#~+$&+6[+W:@%>+$&+51+.h+I1@;U+>U+p<+y|@IR+IR+OX.e{@e{@5T.H`+^M+ge+`g+Z,@Y}@X}@l[@c2@>-@f]@gR.A}+{^+b-+g&@hm.wp@GA.xp@*!+gR.>p@yp@a6@25@07@r9@Sd+f{@~^@z_@6V+zp@Ap@Bp@Cp@cg+AN+yo@Dp@Ep@(l+Dd@bJ+Fp@b0+Gp@Hp@db@Fo@5p@4f@-/+Ip@Jp@p|+Lo@$@+b.+ap@Kp@V&+6.+Lp@f.+Z>+gj.Mp@Np@Op@B'@Pp@Qp@Ig@g3@R>.G7@.0+1u+R6@Rp@                                                                                                                                                                           ",
"                                                                                                                                                                                                                                                                                                                                                                                                                                                                  Sp@Tp@Up@;N+;%+6c@L[.}F+&d+v9+37@d3@Vp@Wp@Xp@Yp@Zp@`p@ q@L{@.q@+q@t3@@q@#q@$q@RB..R.1F.u-+^`.,d.C6@SZ.'7+t5@t5@}[+X!+:)+R}+[1+G}+G}+wR+n8+d-+d-+d-+~M+G}+n8+5[+t~+)}@}[@)^+DI.G}+y5+91+91+g1@G}+G}+I4@$&+b~@J*+IR+T6@31@ :@f]@@_@n[@S6@n[@CQ.v*+|)+h]@+>+B<@%_@%_@I4@E9+W:@VN.[I.;U+p<+=U+e{@e{@@2@b~@{/@c2@QX.Y}@w:@1[@JA+<M+Jn+'!@@3+ h+f]@CQ.J*+37@{^+'^+-H+cY.%q@Er.gS.%2@+3+~++&q@|U.V,+15@!>+!f+*q@=q@-q@;q@>q@,q@'q@)q@!q@~q@{q@~q@]q@^q@/q@sH+(q@'R+_q@=g@ap@:q@<q@[q@4f@b.+}q@|q@ap@1q@(q@V&+2q@3q@4q@5q@6q@^p.7q@fp@Pp@L5.8q@9q@0q@aq@J8@bq@ka.(<+!_@Wo@                                                                                                                                                                              ",
"                                                                                                                                                                                                                                                                                                                                                                                                                                                                     cq@dq@eq@*:@zG+e<+L[.!1.8$+2b+'^+s#+(U+fq@gq@hq@iq@jq@kq@lq@  @)W+mq@o[@R/+,j.!b.iF.^^.]1.KS.hU.H +TZ.t5@t5@X!+}[+3}@3}@[1+[1+31+31+~M+wR+wR+wR+d2@d2@5[+vp@b#@$a+FR+53@X3@34+Z2+r5+`2+Y;+Y;+G}+F,+E9+#_@5$+5$+J*+b~@I1@n[@#2@#2@]M+%>+v*+I1@em@g{@v*+jm@%_@$2@[I.jm@51+fm@n<+x>@l4@CQ.v*+b~@p<+a[+@_@Y}@Y}@w:@`g+'>+'!@!M+JA+|]+@3+{z+d-+$&+[I.$&+#~+E6@V;+nq@|=@Ay+oq@.}.41@D|@//@qS.N*+pq@a|@qq@jP+rq@sq@tq@uq@vq@wq@xq@yq@Ep@zq@Aq@zo@:p@Bq@(q@Dd@ap@'R+Cq@Dq@JB+Eq@Fq@Gq@Hq@Iq@Jq@w|+Kq@Lq@Mq@Nq@Oq@>/+Pq@Qq@Rq@Sq@Tq@Uq@N3@Vq@HX+rZ.ka.bq@'5@[#@:m@                                                                                                                                                                                    ",
"                                                                                                                                                                                                                                                                                                                                                                                                                                                                        Wq@Xq@Yq@b^@<e+9|+M[.!1.0=+'^+#&+4$+>/@}n@Zq@`q@ r@.r@+r@@r@#r@4f@$r@&'@O(@O:+7=+]1./b.]b..C.S2+x$+9++K +K +<)+<)+%r@%r@[1+b8@[1+31+31+~M+b8@31+vp@[1+5[+3_+r8+BR+$7+Y:+Z2+Z2+*2@`2+01+Y;+21+T,+T,+$&+ :@&_@I1@$&+%>+wR+W%@zR+]M+x|@;U+p<+$&+$&+%_@n<+d2@jm@x>@jm@+>+d-+l4@~++.%@~M+%_@%>+W:@v*+X}@c2@@3+]M+'>+LA+`g+w:@'!@d-+.%@nk+jm@n<+|-+SW.R/+%2@24+=2@0[+&r@h{@F|@*r@$c@P@+=|@nk+87@_^@#/+=r@-r@;r@>r@,r@'r@)r@!r@~r@{r@>r@]r@(q@^r@/r@{r@(r@_r@1q@:r@[q@X&+Jp@Lq@<r@(s+,}+[r@}r@|r@1r@2r@*@+1r@3r@4r@5r@6r@7r@8r@9r@0r@c~.],@~i+[6+Fz+.r+ar@                                                                                                                                                                                       ",
"                                                                                                                                                                                                                                                                                                                                                                                                                                                                           br@cr@dr@jB+im+e(+u[.,^.f3.P/+-^+2-+w;@~@@er@fr@gr@hr@ir@jr@kr@lr@mr@t7@H~@c9.pZ+th+.C..C.>Y.nr@or@x$+K +<)+<)+}1+%r@[1+%r@b8@[1+um+b8@b8@$7+r8+a8@Y;+[=@&a+eR+xp@C*+T/+Z2+91+`2+Y;+=f+Y;+d2@wR+l4@W:@$&+T,+T,+wR++3+c[+zR+wR+T,+I4@n<+$&+$&+|-+wR+d2@d2@n8+jm@nk+.%@<N.z5+X6@D{+~]@P@+d2@P@+z5+z5+X^@87@,{@4y+:M+'!@@3+87@*)@Y,@nk+XJ.G}+F}+G,+34+-^+X3@}-+)2@RJ.0e+pr@W2+T/+^^+$_@{1+qr@Aq@rr@sr@tr@(r@ur@vr@wr@xr@yr@~r@zr@BI+Ar@~r@Br@Cr@Dr@_R+Er@Fr@Gr@Jp@Hr@Ir@f.+'}+Gr@tj+Jr@:;+Kr@Lr@Mr@Nr@Or@Pr@Qr@Rr@Sr@Tr@K2.S].>e@bq@kb@J5@Ur@Vr@                                                                                                                                                                                          ",
"                                                                                                                                                                                                                                                                                                                                                                                                                                                                              SI+cr@Wr@3C+im+@^.Xr@%|+xo.%&+p{+$>+}{@Tu+Yr@Zr@`r@ s@.s@+s@+s@@s@#s@$s@wb@:b.<]+=s.SZ.TZ.T9@t5@9++K +<)+K +<)+}1+<)+}1+=J+X2+Y;+01+X2+01+X2+x5+X2+r8+G,+y5+34+T/+34+T/+y5+Y;+91+T/+G}+[1+T7@d2@n8+nk+R}+y5+Y;+o8+BR+o8+BR+d2@nk+jm@[I.jm@n8+o8+$7+r8+b8@rK.~M+8x+K}+Y,@B5+D{+qc+`$@XJ.M}+XJ.=3+h<@K}+PX.Y,@:M+'>+*)@*)@~M+W%@N}+M}+X;+=f+#&+po+(1.P}+DI.d).be+%s@RE+37@3-+s@@J*+!h@&s@*s@(r@=s@-s@;a@;s@>s@,s@yr@'s@(r@*s@)s@!s@~s@!s@~s@Cr@)s@{s@0p@Nq@]s@^s@/s@Y&+(s@_s@:s@<s@%*+[s@=X.}s@Or@|s@1s@2s@3s@4s@p3.y<@Fz+d9.[6+7l+un+5s@                                                                                                                                                                                             ",
"                                                                                                                                                                                                                                                                                                                                                                                                                                                                                 6s@7s@8s@AA+f(+{0+W_+$q.Mm.5w+9H.E@+v;@9s@0s@as@bs@cs@ds@es@fs@gs@hs@is@js@f).|$+4-+=d+pG.f`.}[+C,+:)+C,+5F+<)+ 7+*^+J/+r5+J/+*^+*^+x5+01+=f+01+*2@y5+Y;+T/+21+3}@21+01+y5+Y;+y5+Y;+y5++3+$7+$7+Y;+BR+r5+r5+2_+t8+`2+`2+o8+Y;+|1+[1+G}+o8+o8+P@+41+o8+`2+ks@rL.B5+h +y_@y_@rL.@a+rL.~^@qc+~^@DR+XJ.E(@z_@c[+[b+8x+%)@a8@ks@~^@ks@x_@x_@<)+E5@,!@I}+1-+})+!^++2@f&@ls@  @Jk@u=+G9@ms@ns@os@ps@qs@os@rs@qs@ss@ts@us@=s@vs@}q@ws@}q@vs@xs@ys@sg@Jp@3q@Er@zs@As@x|+m0+Bs@Cs@Ds@|V.2R+ws.Es@Fs@Vu+Gs@Hs@Is@Js@Ks@:).Fz+fd@W4+Hr+Ls@                                                                                                                                                                                                   ",
"                                                                                                                                                                                                                                                                                                                                                                                                                                                                                    Ms@Ns@Os@Wr+vn+2:.MO+,^.n#+e).]6@b +Q>@Ps@Qs@Rs@ r@Ss@Ts@Us@Vs@Ws@Xs@Ys@Mr@Wk@Zs@`s@ t@e8+'j@h1@})+3_+I}+WS+21+=f+x5+r5+J/+J/+J/+r5+=f+01+=f+34+01+01+21+3}@=|@3}@T/+01+Y;+y5+Y;+91+Z2+o8+`2+BR+J/+J/+X;+2_+X;+2_+t8+@7+r5+k8+01+o8+41+N}+t8+Q/@;a+b_+S}+UJ.$a+81+}b+04+x_@&a+@a+C5+@a+qc+&a+@a+&a+{^@&a+B5+=3+y_@%a+*3+N}+}b+Q/@&3+C5+t:@{^@gR.FF.PY+AK.w9@8p@.t@'/++t@@t@#t@$t@%t@#t@-s@&t@*t@=t@-t@;t@>t@,t@=t@wr@;s@ss@0r+'t@vs@sg@Dr@Jr@)t@}r@!t@Y>+~t@{t@g6+]t@|!+jT.ws.^t@/t@Vu+(t@_t@:t@<t@+5.{(.[t@~i+m9@Qg+}t@                                                                                                                                                                                                      ",
"                                                                                                                                                                                                                                                                                                                                                                                                                                                                                       x[@|t@1t@',@gf+q3@dZ+2t@M/+F@+GU.JO.lG.3t@4t@5t@6t@7t@8t@9t@Ws@0t@at@bt@ct@dt@et@ft@gt@kM..t@y7@ht@em.,0.=2+X/+[=@}-+01+=f+=f+=f+Y;+X2+=f+=f+c3@K/+K/+B5@B5@T/+T/+T/+T/+34+01+01+Z2+J/+r5+r5+J/+J/+_b+!^@s5+s5+v5+_b+2_+)L+X;+X;+Q/@C5+IQ.IQ.it@;a+VJ.=7+pL.;7+n9@81+$a+x_@IQ.IQ.Q/@C5+&a+81+81+>7+81+#3+x_@UJ.&3+FR+x_@N}+{^+{/@<}@0T.jt@<R+kt@lt@mt@nt@ot@pt@qt@rt@st@pt@tt@ut@vt@ms@wt@ps@xt@yt@zt@At@us@Bt@Ct@Dt@Et@^s@sg@&t@Ft@Gt@Ht@zs@It@Jt@Kt@Lt@Cs@Mt@Nt@I(+Ot@Pt@Qt@Rt@`[@St@Tt@Dh@Ut@f|+[t@c[.J5@Vt@                                                                                                                                                                                                            ",
"                                                                                                                                                                                                                                                                                                                                                                                                                                                                                          Wt@Xt@Yt@Zt@>N+mm+Yc+n~+(7@[|@@q.7$+X*@`t@ u@.u@+u@@u@#u@$u@%u@&u@*u@=u@-u@;u@&u@&u@>u@bt@^R+,u@'u@2z.)u@)J.!u@~u@$}.{/@#>+F,+L}+G}+y5+21+Y;+9g+}1+34+K/+=|@3}@=|@34+01+t5+J2@r5+J/+J/+@7+X;+_b+_b+2_+A$+s5+I/+I/+C$+%#+lc+}I.S}+%3+S}+%3+1b+1b+D5+F9+tS.=7+;7+81+&3+UJ.FR+{^@&a+IQ.UJ.b_+S}+tS.S}+>7+#3+{]@#_@m}@VT+5o@Mq@<s@i.+}R+{u@]u@{u@^u@/u@(u@vt@tt@pt@ms@_u@@t@$t@{u@:u@<u@(u@wt@[u@ot@}u@|u@1u@2u@3u@4u@5u@os@6u@It@7u@8u@ss@9u@(s@0u@zo+.B+au@er+bu@}!+cu@du@eu@Pv+fu@gu@hu@6)+di.xt+J5@%y+iu@                                                                                                                                                                                                               ",
"                                                                                                                                                                                                                                                                                                                                                                                                                                                                                             SI+ju@ku@lu@lf+Bb+_(.k&@(7@|=@y{+z*+v~@mu@nu@ou@pu@qu@ru@su@su@tu@uu@vu@wu@xu@yu@zu@Au@Au@Bu@Cu@Du@Eu@Fu@Gu@Hu@Iu@hx.Ju@Ku@Lu@v}@6T.b~@}1@LR+B5@t5+}1+=|@R}+yR+T/+T/+t5+9g+@7+J/+@7+&^+5}@_b+&^+(b+&#+C$+C$+!Y.4&+lc+4&+V}@.7+pL..7+j8+i8+54+&3+D5+81+04+UJ.;7+&a+#3+=3+R/@`2+Q/@tS.a4+'}@[b+g]@D1@!m@Mu@Nu@Yv.Ou@Pu@Qu@Ru@Su@Ws@Tu@Tu@Uu@Vu@3u@Wu@$t@Xu@Yu@Wu@{u@vt@Zu@<u@}u@`u@Wu@Vu@ v@.v@Lt@Zu@ut@+v@@v@#v@Yu@`u@$v@%v@&v@Ht@1u@*v@=v@y|+-v@|V.|!+;v@oC.>v@,v@'v@)v@!v@~v@99.KH+7o+bq@bq@4x+{v@                                                                                                                                                                                                                  ",
"                                                                                                                                                                                                                                                                                                                                                                                                                                                                                                ]v@^v@/v@(v@_v@o~.Q2@fi.G7@J>.RE+Z>.5{@:v@<v@[v@}v@|v@1v@2v@3v@2v@4v@5v@6v@7v@8v@9v@0v@av@bv@cv@dv@et@2v@ev@fv@fv@gv@hv@B|+nT.iv@jv@kv@xV+f[@+_@2:@U:@%_@i]@CQ.R}+R}+3}@Z2+r5+@7+5}@&^+2_+I/+A$+Id+Id+Id+F$+3U.6&+1N./g+Gd+A9+h8+.7+j8+D5+54+&3+>7+rL.)}@y_@R/@=3+B5+{^@*)@2[@ZT+e]@lv@mv@nv@zu@ov@pv@Pu@%u@{u@qv@Ws@Yu@Tu@Zu@rv@Uu@sv@tv@uv@Ws@qv@@t@Ru@@t@rt@vv@wv@uv@xv@qv@yv@}u@uv@1u@Yu@zv@sv@Av@Bv@Cv@rt@Ru@=L+se+Cv@0u@m0+Dv@Ev@Fv@Q3+G(+Gv@Hv@Iv@Jv@Kv@Lv@Mv@$!@8[.O>.im.bq@kb@:m@                                                                                                                                                                                                                        ",
"                                                                                                                                                                                                                                                                                                                                                                                                                                                                                                   Nv@Ov@Pv@mf+Qv@mm+Q2@na.;9+y:.cc+dR.xV+Rv@Sv@@)@Tv@Uv@Vv@Wv@Xv@Yv@Zv@`v@ w@hv@J(+.w@Xv@+w@@w@#w@$w@#w@%w@MP.&w@3v@4v@*w@=w@-w@;w@>w@,w@Uv@'w@)w@^p.Q(@q<@I;@I:+C1@%2@F,+21+BR+9g+`2+2_+&#+s5+Id+Id+B$+3U.e++e++5&+f++@=+@=+54+j8+54+[[@P/@C5+=3+C_@*7+)!@!}@Pb+9~@&h+!w@~w@{w@K<+.w@]w@^w@/w@Au@Cu@(w@et@_w@xv@uv@Av@Zu@(w@:w@<w@[w@rv@tv@sv@}w@Zu@%u@Au@Tu@|w@uv@tv@0t@1w@qv@uv@%u@<w@2w@wv@3w@se+4w@Tu@sv@5w@se+0t@*t@op+{t@6w@l0+|s+7w@tl.8w@9w@0w@aw@bw@:t@cw@JP+;9+m9@'5@%y+We.                                                                                                                                                                                                                           ",
"                                                                                                                                                                                                                                                                                                                                                                                                                                                                                                         eq@dw@iu+9j+~I+36@I8@F5.y:.p{+M,+2{@ew@fw@gw@hw@iw@jw@kw@lw@mw@nw@ow@pw@qw@rw@sw@tw@*w@uw@tw@vw@ww@9v@xw@yw@zw@Yv@Aw@Bw@`v@Cw@Dw@Ew@*w@Fw@7d+[}+Gw@Hw@$r.Iw@f$@Jw@j[@wP.-(@6[+21+01+&^+_b+A2@%#+f++3U.3U.ZZ.lc+7&+:b+}I.u8+b_+;a+N}+w:@x3@pW+Kw@Lw@d]+Nk+'X.Mw@Mw@hv@Nw@Ow@Pw@Qw@Rw@Sw@Ow@Cu@&w@1w@di+1w@Au@Tw@1w@Uw@%u@Bu@%u@2w@Hb@Uw@Sw@Vw@:w@%u@&w@Ww@Qu@wv@4w@Uw@tv@Xw@Yw@Pw@<w@Xw@Zw@Xw@Qw@rv@ev@`w@|w@se+|2+@v@ x@.x@Jo+mT.+x@SV.@x@#x@$x@%x@&x@jU+-&+;h.U9@J5@Qg+{v@                                                                                                                                                                                                                              ",
"                                                                                                                                                                                                                                                                                                                                                                                                                                                                                                            *x@=x@-x@_v@mm+he.-^.(<+,^+P/+M,+xV+;x@>x@,x@'x@)x@!x@~x@{x@]x@^x@/x@.u@(x@_x@:x@GR.<x@[x@P(+<}+)x@}x@uw@|x@$w@Aw@1x@2x@3x@4x@5x@`v@6x@7x@8x@9x@0x@ax@'X.j]+Es.RF.bx@cx@dx@!'@q*+n<@y3@j]@Q/+A2@I/+A2@3&+Id+I/+C5+'9+Bj@]}@ &@sR.<;+ex@fx@gx@hx@ix@3v@jx@ov@7x@Nw@`v@uw@kx@ow@jx@Mw@ov@=w@Qu@Ow@jx@lx@Ow@Xw@&w@/w@0v@sv@Uw@Sw@et@mx@Uw@mx@fv@ov@Uw@nx@*w@ov@ox@Uw@lx@_w@Qu@px@Qw@jx@&w@Xv@:w@jx@Du@pv@qx@12+rx@I<+sx@,t+tx@#H+ux@vx@wx@xx@yx@zx@8i.[7.k1@J8@Fz+Ax@Bx@                                                                                                                                                                                                                                 ",
"                                                                                                                                                                                                                                                                                                                                                                                                                                                                                                               Cx@Dx@Ex@lf+~I+36@%|+D5.@8.Z!+6$+5{@Fx@Gx@Hx@UF.Ix@Jx@Kx@Lx@Mx@Nx@Ox@Mx@Px@Qx@Rx@Sx@Ok+Tx@Ux@}u.O<+Vx@sw@0x@Wx@Xx@Yx@Zx@`x@ y@Ix@.y@ix@+y@@y@#y@+y@]x@/}+Mw@ow@z6@$y@%y@N(+#w@7V.ol.C^@5{@#8.,-@<N.ev+JR+1]@El@&'@&y@*y@=y@-y@;y@ow@>y@>y@Rw@nx@+y@,y@Ow@uw@Xv@Mw@Rw@Mw@nx@ow@nx@`v@6x@nx@hv@*w@`v@Qu@'y@Uw@ov@Yv@Qu@mx@Qu@)y@et@!y@et@Xv@~y@^w@9x@Ow@{y@Qw@Mw@ow@Rw@ow@mx@uw@Tw@hv@)y@]y@^y@=w@[}+32+=B+gi+,X./y@(y@_y@q3.:y@<y@[y@}y@|y@@<@;9+J8@bq@k}@1y@2y@                                                                                                                                                                                                                                    ",
"                                                                                                                                                                                                                                                                                                                                                                                                                                                                                                                  3y@4y@no+8#@CG+@9+z|.j>+Z!+2[+S,+5{@5y@6y@7y@8y@9y@0y@ay@;8+by@5!+cy@dy@ey@'8+fy@gy@hy@cy@iy@jy@ky@{x@ly@P(+ly@)x@1:+.y@]x@my@Mx@ny@>w@hx@oy@py@Xx@py@Mw@>w@#y@+y@qy@tw@oy@Rw@J(+P(+1:+YA.ry@sy@Zv.KP.ER.*L+ei+ty@qy@tw@>w@ow@6x@uy@ax@`v@+y@6x@ow@+y@uw@Xx@vy@ow@vy@Mw@^5+7x@Xx@wy@tw@`v@Wx@Qw@vy@>w@Ow@hv@*w@xy@4v@Xv@>y@yy@zw@Ow@ow@zy@hv@Rw@8x@hx@6x@Mx@uw@]x@uw@Nx@=w@Wx@_:+Ay@$w@By@c2+tC.Cy@Dy@Ey@Fy@Gy@Hy@Iy@Jy@Ky@Ly@My@Ny@p-.|7.kA+O6@98@Oy@                                                                                                                                                                                                                                          ",
"                                                                                                                                                                                                                                                                                                                                                                                                                                                                                                                        Py@Qy@Ry@2w+I^+0:.qB.+++N:+#&+5{@Sy@Ty@Uy@Vy@Wy@Xy@5z.Yy@|J.Zy@`y@ z@.z@3:++z@@z@&L+#z@&L+c4@+B.{x@$z@Ix@Ok+(x@%z@&z@)x@*z@)x@*z@Mx@=z@)x@hx@-z@py@*z@py@;z@>w@>z@tw@ax@%y@tw@py@6x@92+,z@'z@Xx@ax@{x@ow@^x@>z@%y@Mw@;z@6x@tw@hx@py@)x@>w@)z@ax@py@{x@)x@z6@#y@hx@py@py@Mw@Mx@]x@hv@Mx@zw@6x@hv@ow@Ow@>w@]x@tw@>z@uy@my@=B+zw@Ow@>y@>z@uw@!z@~z@~x@9x@Nx@/x@{z@]z@^z@/z@CR.jd.j0.(z@_z@:z@<z@[z@}z@|z@1z@2z@3z@4z@5z@6z@g3@G5.7o+J5@[#@lo+7z@                                                                                                                                                                                                                                             ",
"                                                                                                                                                                                                                                                                                                                                                                                                                                                                                                                           8z@uG+~r+]r+]0+Z5+p~+xo.vh+Z!+`g@9z@0z@az@bz@cz@dz@ez@fz@gz@hz@iz@jz@jz@l]+jz@,,+kz@d2+{,+lz@lz@5!+dy@mz@;y@nz@=z@Oa+&z@oz@{x@%z@;y@=z@gy@=z@oz@hx@pz@{x@{x@qz@;z@=z@hx@{x@rz@Mx@{x@py@*z@6x@]x@]x@{x@ax@{x@sz@py@=z@*z@{x@py@)z@#y@*z@tz@=z@o6+ny@oz@)z@=z@8x@uz@oz@ny@vz@>w@]x@6x@]x@tw@>z@gx@>w@hx@>w@hx@6x@{x@Xx@py@%z@uw@Nx@uw@%y@3x@~x@vw@!x@wz@xz@yz@%4.|3@zz@Az@Bz@Cz@Dz@Ez@Fz@Gz@Hz@21.Iz@Jz@Kz@Lz@k>+Mz@Nz@Fz+j~.ka.Oz@Pz@Qz@                                                                                                                                                                                                                                                ",
"                                                                                                                                                                                                                                                                                                                                                                                                                                                                                                                              Rz@Sz@p+@ut+2x+Tz@nW.Mm.B,+:-+{$@Uz@Vz@Wz@Xz@Yz@Zz@`z@ A@.A@+A@@A@#A@$A@%A@8p.&A@*A@=A@-A@;A@>A@,A@#z@m6+lz@'A@)A@vz@nz@oz@!A@gy@nz@GN+tz@~A@;y@tz@=z@tz@qz@tz@oz@{A@mz@gx@mz@hx@=z@]x@gx@#y@gx@]A@{x@^A@*z@;y@=z@^A@ny@%z@/A@=z@(A@oz@_A@vz@mz@;z@qz@tz@:A@<A@[A@}A@z6@;y@py@|A@=z@1A@(A@;z@sz@Mx@=z@2A@%y@vz@)z@o6+)z@<A@Nx@3A@rw@Rx@w'+tb. w.4A@5A@6A@cS.7A@8A@9A@0A@8A@aA@bA@cA@dA@eA@fA@gA@-~@_&@Qv+jS.g'@hA@v|.7B+Qg+{v@                                                                                                                                                                                                                                                      ",
"                                                                                                                                                                                                                                                                                                                                                                                                                                                                                                                                 iA@q&@p+@ut+2x+f<+nW.2[+|[+Z!+h!@s4@D{@O#@jA@kA@lA@mA@nA@oA@pA@qA@rA@sA@tA@uA@vA@wA@xA@yA@zA@AA@BA@Zt+CA@DA@EA@FA@)A@GA@^A@'z@HA@EA@IA@nz@'A@JA@nz@gy@KA@HA@_A@LA@;y@nz@^A@mz@-z@gy@tz@oz@nz@=z@mz@=z@^A@ty@nz@MA@=z@}A@oz@_A@qz@KA@gx@o6+nz@]A@(A@gx@}A@o6+'z@]A@<A@nz@*z@(A@1A@^A@;y@}A@)z@o6+KA@Nx@&L+o6+NA@p0+OA@m.+T3+PA@uM.QA@~)+RA@SA@TA@UA@VA@WA@XA@YA@ZA@`A@ B@.B@+B@@B@#B@$B@)/@<^.7 +^:.Z[.R2.km.&5.e[.K<@%B@                                                                                                                                                                                                                                                         ",
"                                                                                                                                                                                                                                                                                                                                                                                                                                                                                                                                       JS+&B@ik+1:.*B@p~+.8.P++,^+,^+,^+G/+=B@E:@$$@Pk@-B@;B@>B@ng ,B@'B@)B@!B@~B@{B@]B@^B@/B@(B@_B@_B@-A@:B@<B@[B@}B@|B@1B@DA@nz@2B@nz@IA@MA@'z@IA@~A@IA@gy@IA@}A@~A@tz@}A@3B@nz@,A@oz@~A@gy@}A@4B@mz@GA@mz@MA@GA@'z@}A@lz@gx@nz@'z@nz@#z@5B@nz@,8+nz@nz@6B@7B@gy@8B@/A@2B@(A@KA@KA@<A@m6+(A@m6+>8+a9+aV.:/+-,+Ro+qj.9B@0B@aB@bB@cB@dB@eB@fB@gB@hB@iB@jB@kB@lB@mB@nB@Tq@W&@t4@B[@oB@9)+P7+|).R2.A[@|7.V[.pB@#;+qB@rB@                                                                                                                                                                                                                                                            ",
"                                                                                                                                                                                                                                                                                                                                                                                                                                                                                                                                          sB@au+BQ+,i+tB@=5.B>+ A+S^+3-+.>+#V.(D.O/+GU.IZ+ce.%S+D'@uB@vB@wB@xB@yB@zB@AB@BB@CB@DB@EB@FB@GB@HB@rj.fw@IB@JB@KB@LB@MB@,A@NB@OB@PB@QB@IA@RB@LA@LA@IA@2B@SB@nz@LA@gy@'z@MA@'z@]A@nz@IA@/A@MA@}A@3B@/A@TB@RB@UB@7B@nz@,A@5B@7B@}A@6B@MA@VB@LA@/A@WB@MA@XB@8B@LB@YB@kz@v'+ZB@`B@ C@X~+|E.&4..C@+C@0B@@C@#C@$C@%C@&C@*C@=C@-C@;C@>C@,C@'C@O5.)C@!C@~C@tU+Z(@}^.{C@Ic@im.k1@ci.di.&0.=5. f@j~@ko+]C@^C@/C@                                                                                                                                                                                                                                                                  ",
"                                                                                                                                                                                                                                                                                                                                                                                                                                                                                                                                                   (C@_C@:C@}p+lg.(q+s~.B>+Y[.M/+.8.oG.Wy+&d+63+8[.Q2.G-@8{@8k@<C@[C@}C@v/ |C@1C@2C@3C@4C@5C@6C@7C@8C@Hb.9C@N|+0C@aC@bC@8B@cC@3:+LA@dC@eC@RB@DA@OB@fC@fC@KA@RB@gC@hC@iC@'A@jC@GA@LA@GA@,A@7B@IA@kC@fC@kC@LA@IA@<A@lC@gC@KA@PB@^A@4:+QB@WB@>A@4:+YB@wP+^t+AC.mC@2u.nC@oC@pC@qC@rC@sC@tC@uC@vC@wC@xC@yC@zC@AC@BC@CC@-}.DC@EC@FC@GC@HC@@R+_).IC@_:.G7@JC@F5.wQ.KC@ft+nl+LC@MC@NC@OC@PC@                                                                                                                                                                                                                                                                              ",
"                                                                                                                                                                                                                                                                                                                                                                                                                                                                                                                                                                  QC@~w+9(.;i+J^+nl+i<+,V+kA+e'@V>.#2+g'@R>.W0@IZ+ii@RC@c=@#B@SC@TC@l+.UC@VC@WC@XC@YC@ZC@`C@ D@.D@+D@@D@#D@`f+$D@%D@8B@&D@,A@DA@TB@OB@*D@XB@dC@QB@=D@hC@kC@LA@-D@;D@TB@>D@3B@QB@IA@OB@OB@>D@>D@XB@LB@LA@,D@TB@LB@XB@KB@'D@Z3+)D@!D@~D@{D@]D@^D@/D@(D@_D@:D@<D@[D@}D@cA@-}.|D@1D@2D@3D@4D@5D@/f.6D@7D@!Z+TW+JH+s(.[7.(:.(7@J8@tG+#!+8D@9D@pm+0D@aD@bD@cD@                                                                                                                                                                                                                                                                                          ",
"                                                                                                                                                                                                                                                                                                                                                                                                                                                                                                                                                                              dD@)x+R7@6#@Og+p!@eZ+ge.'5@e'@R>.(:.Gq+Gq+/i@IZ+0k.rw.S#@eD@fD@gD@hD@iD@jD@kD@lD@mD@nD@oD@pD@qD@rD@sD@tD@JB@#D@uD@%D@vD@LB@wD@MB@dC@jC@-D@-D@dC@xD@kC@yD@TB@dC@,A@LB@zD@&D@bC@AD@uD@BD@FN+CD@1}+DD@ED@FD@)@+GD@HD@ID@JD@KD@LD@MD@ND@OD@PD@QD@RD@SD@TD@UD@VD@WD@XD@YD@ZD@`D@lI+ E@s0@v]@o-.ee..E@J8@F5.W].i<++E@[p+@E@#E@$E@%E@                                                                                                                                                                                                                                                                                                      ",
"                                                                                                                                                                                                                                                                                                                                                                                                                                                                                                                                                                                          &E@*E@ef+;i+!_@nl+(0+6K.wQ.*o@g'@ak./N.*l+F@+uw.Wz.O_@+f@=E@[>@-E@;E@XD@>E@,E@'E@)E@!E@~E@{E@]E@^E@/E@OR.(E@_E@uD@:E@:E@vD@<E@BD@YB@BD@&D@dC@wD@[E@vD@uD@}E@|E@Ae+>,+1E@C=+2E@3E@4E@UK.5E@6E@7E@8E@9E@`A@0E@aE@bE@cE@dE@eE@fE@gE@hE@iE@jE@kE@lE@mE@2!@jS.hm.J}+NL+y:.4o.lz+l(.a'+D&+p!@nE@oE@pE@qE@                                                                                                                                                                                                                                                                                                                     ",
"                                                                                                                                                                                                                                                                                                                                                                                                                                                                                                                                                                                                      rE@sE@mt+jl+pK+aj+u @`[.m(.X:+26+@q.tE@8 +D*+ZV.e[@0U+uE@RW+vE@~H.wE@xE@yE@zE@AE@BE@DC@CE@DE@EE@FE@GE@HE@IE@3E@'D@|E@v'+uD@JE@uD@KE@LE@ME@ED@NE@OE@f%+rD@PE@QE@RE@SE@TE@UE@VE@WE@XE@YE@ZE@`E@ F@.F@+F@@F@#F@$F@%F@&F@*F@|-@PJ.i3.|=@9[.y:.Kp+x:.=F@6o.qD+Rg+-F@;F@>F@,F@'F@                                                                                                                                                                                                                                                                                                                                 ",
"                                                                                                                                                                                                                                                                                                                                                                                                                                                                                                                                                                                                               Q|@VF+)F@*:@[F+~I+b)@q-@qB.t-@z@+>;+B{+ ++3-+3-+8 +JO.!F@}&@~F@N^@{F@]F@^F@/F@(F@_F@BE@:F@<F@[F@}F@|F@1F@2F@3F@Hb.],+F=+h%+4F@L#+5F@6F@7F@8F@SE@9F@0F@aF@bF@cF@dF@eF@fF@~j.yq.gF@hF@iF@jF@!C@kF@y/@`(@be.j3.cc+z@+O:+84++++`7.`_+u @|y+@^.lF@mF@nF@oF@                                                                                                                                                                                                                                                                                                                                             ",
"                                                                                                                                                                                                                                                                                                                                                                                                                                                                                                                                                                                                                           l1@eX+pF@ef+>z+yn+p!@j~@~_@s7+oI+Kp+]^+H,+]^+0e+X:+*T./n+qF@ab@rF@sF@tF@uF@vF@wF@xF@yF@zF@AF@BF@CF@DF@EF@FF@GF@HF@:F@IF@WE@JF@KF@LF@MF@NF@OF@PF@QF@RF@SF@TF@UF@VF@WF@|&@XF@QW+M>.NL+{E+im.a).=F@+++{f.x9+ft+z&@YF@ZF@`F@ G@                                                                                                                                                                                                                                                                                                                                                            ",
"                                                                                                                                                                                                                                                                                                                                                                                                                                                                                                                                                                                                                                          .G@+G@@G@:|@#G@nl+eZ+E&+Y[.O:+@8.y{+L@+L@+kL.K,+cY.{4@g).ed@Xu+4=.$G@%G@&G@*G@=G@-G@;G@>G@,G@O5.'G@)G@!G@u' ~G@ZE@{G@]G@^G@/G@(G@_G@:G@<G@/).eg./:.T>.KH+5o.|7.;9+Q>.4 +&0.E&+jf+3x+[G@}G@|G@1G@                                                                                                                                                                                                                                                                                                                                                                        ",
"                                                                                                                                                                                                                                                                                                                                                                                                                                                                                                                                                                                                                                                      .G@2G@!w+6#@gk+3G@wQ+4G@Vo.W7.>;+3 +kL.(D.nP.0=+C{+N[@5G@'b@|&@6G@7G@8G@9G@0G@aG@bG@CB@31.cG@dG@eG@fG@gG@hG@iG@<4@kU+jG@}^.j-.p-.pB+Ld@U9@4 +;h.Xe+8^@j~@Vt@kG@lG@mG@                                                                                                                                                                                                                                                                                                                                                                                       ",
"                                                                                                                                                                                                                                                                                                                                                                                                                                                                                                                                                                                                                                                                  nG@oG@pG@qG@rG@w&@ol+Rg+u @j~.B~.(^.(^..}.wY.#V.8 +j3.%M..,@p$@-~@sG@tG@ng uG@vG@wG@${@xG@yG@wX+9 +RE+4o.(7@im._:.p~@FX.}A+Mi+!i+zG@AG@BG@CG@                                                                                                                                                                                                                                                                                                                                                                                                   ",
"                                                                                                                                                                                                                                                                                                                                                                                                                                                                                                                                                                                                                                                                              DG@EG@FG@GG@HG@IG@lf+kg. ^.D>+1$+(D..8.@8.@8.Kp+(:.JG@q|.xF+jU+KG@LG@hm.i^@Z>._^.U2+O>.q(.J8@(<+qD+MG@Rg+NG@OG@PG@                                                                                                                                                                                                                                                                                                                                                                                                                  ",
"                                                                                                                                                                                                                                                                                                                                                                                                                                                                                                                                                                                                                                                                                          QG@RG@SG@TG@no+v&@UG@Rg+{_@l(.m(.O:+X%+Yz.b).Q>.W>.s*+~g+s*+W7.U2+/]+qD+x9+(0+ja@VG@WG@XG@                                                                                                                                                                                                                                                                                                                                                                                                                              ",
"                                                                                                                                                                                                                                                                                                                                                                                                                                                                                                                                                                                                                                                                                                         YG@ZG@`G@ H@.H@`C+'i+jf+p[+j~.V[+s*+,%+qB.FJ+FJ+lm.%b.+H@   @H@                                                                                                                                                                                                                                                                                                                                                                                                                                          ",
"                                                                                                                                                                                                                                                                                                                                                                                                                                                                                                                                                                                                                                                                                                                  #H@$H@%H@&H@0'@*H@OS+X1+Y_+jf+=H@-H@;H@                                                                                                                                                                                                                                                                                                                                                                                                                                                         ",
"                                                                                                                                                                                                                                                                                                                                                                                                                                                                                                                                                                                                                                                                                                                                    >H@&H@,H@                                                                                                                                                                                                                                                                                                                                                                                                                                                                     "};
